/* XPM */
static char *result[] = {
/* columns rows colors chars-per-pixel */
"96 80 18 1 ",
"  c #1A1625",
". c #211931",
"X c #291C3E",
"o c #30204A",
"O c #32204D",
"+ c #332150",
"@ c #362255",
"# c #382358",
"$ c #5E246D",
"% c #903097",
"& c #9835A2",
"* c #B84EAE",
"= c #C55BAA",
"- c #D167A7",
"; c #D76DA5",
": c #F5CFE1",
"> c #F6D1E2",
", c None",
/* pixels */
",,,,,,,,,,,,,,,,,,,,,,,,,,,,,,,,,,,,,,,,,,,,,,,,,,,,,,,,,,,,,,,,,,,,,,,,,,,,,,,,,,,,,,,,,,,,,,,,",
",,,,,,,,,,,,,,,,,,,,,,,,,,,,,,,,,,,,,,,,,,,,,,,,,,,,,,,,,,,,,,,,,,,,,,,,,,,,,,,,,,,,,,,,,,,,,,,,",
",,,,,,,,,,,,,,,,,,,,,,,,,,,,,,,,,,,,,,,,,,,,,,,,,,,,,,,,,,,,,,,,,,,,,,,,,,,,,,,,,,,,,,,,,,,,,,,,",
",,,,,,,,,,,,,,,,,,,,,,,,,,,,,,,,,,,,,,,,,,,,,,,,,,,,,,,,,,,,,,,,,,,,,,,,,,,,,,,,,,,,,,,,,,,,,,,,",
",,,,,,,,,,,,,,,,,,,,,,,,,,,,,,,,,,,,,,,,,,,,,,,,,,,,,,,,,,,,,,,,,,,,,,,,,,,,,,,,,,,,,,,,,,,,,,,,",
",,,,,,,,,,,,,,,,,,,,,,,,,,,,,,,,,,,,,,,,,,,,,,,,,,,,,,,,,,,,,,,,,,,,,,,,,,,,,,,,,,,,,,,,,,,,,,,,",
",,,,,,,,,,,,,,,,,,,,,,,,,,,,,,,,,,,,,,,,,,,,,,,,,,,,,,,,,,,,,,,,,,,,,,,,,,,,,,,,,,,,,,,,,,,,,,,,",
",,,,,,,,,,,,,,,,,,,,,,,,,,,,,,,,,,,,,,,,,,,,,,,,,,,,,,,,,,,,,,,,,,,,,,,,,,,,,,,,,,,,,,,,,,,,,,,,",
",,,,,,,,,,,,,,,,,,,,,,,,,,,,,,,,,,,,,,,,,,,,,,,,,,,,,,,,,,,,,,,,,,,,,,,,,,,,,,,,,,,,,,,,,,,,,,,,",
",,,,,,,,,,,,,,,,,,,,,,,,,,,,,,,,,,,,,,,,,,,,,,,,,,,,,,,,,,,,,,,,,,,,,,,,,,,,,,,,,,,,,,,,,,,,,,,,",
",,,,,,,,,,,,,,,,,,,,,,,,,,,,,,,,,,,,,,,,,,,,,,,,,,,,,,,,,,,,,,,,,,,,,,,,,,,,,,,,,,,,,,,,,,,,,,,,",
",,,,,,,,,,,,,,,,,,,,,,,,,,,,,,,,,,,,,,,,,,,,,,,,,,,,,,,,,,,,,,,,,,,,,,,,,,,,,,,,,,,,,,,,,,,,,,,,",
",,,,,,,,,,,,,,,,,,,,,,,,,,,,,,,,,,*******;;;;,,,,,,,,,,,,,,,,,,,,,,,,,,,,,,,,,,,,,,,,,,,,,,,,,,,",
",,,,,,,,,,,,,,,,,,,,,,,,,,,,,,************;;;;;;,,,,,,,,,,,,,,,,,,,,,,,,,,,,,,,,,,,,,,,,,,,,,,,,",
",,,,,,,,,,,,,,,,,,,,,,,,,,,,****************;;;;;;;,,,,,,,,,,,,,,,,,,,,,,,,,,,,,,,,,,,,,,,,,,,,,",
",,,,,,,,,,,,,,,,,,,,,,,,,************;;;;;;;;;;;;;;;;,,,,,,,,,,,,,,,,,,,,,,,,,,,,,,,,,,,,,,,,,,,",
",,,,,,,,,,,,,,,,,,,,,,,,********%%%%%%%%%%%;;;;;;;;;;;;,,,,,,,,,,,,,,,,,,,,,,,,,,,,,,,,,,,,,,,,,",
",,,,,,,,,,,,,,,,,,,,,,*******%%%,,,,,,,,,,,,,,;;;;;;;;;;,,,,,,,,,,,,,,,,,,,,,,,,,,,,,,,,,,,,,,,,",
",,,,,,,,,,,,,,,,,,,,,******%%,,,,,,,,,,,,,,    ,,;;;;;;;;,,,,,,,,,,,,,,,,,,,,,,,,,,,,,,,,,,,,,,,",
",,,,,,,,,,,,,,,,,,,,*****%%,,,,,,,,,,,,,,,,,,    ,,;;;;;;;,,,,,,,,,,,,,,,,,,,,,,,,,,,,,,,,,,,,,,",
",,,,,,,,,,,,,,,,,,,****%%,,,,,,,,,,,,,,,,,,,,,,,    ;;;;;;;,,,,,,,,,,,,,,,,,,,,,,,,,,,,,,,,,,,,,",
",,,,,,,,,,,,,,,,,,****%%,,,,,,,,,,,,,,,,,,,,,,,,,,    ;;;;;;,,,,,,,,,,,,,,,,,,,,,,,,,,,,,,,,,,,,",
",,,,,,,,,,,,,,,,,****%,,,,,,,,,,,,,,,----------,,,,,   ;;;;;,,,,,,,,,,,,,,,,,,,,,,,,,,,,,,,,,,,,",
",,,,,,,,,,,,,,,,****%,,,,,,,,,,,,,,--------------,,,,   ;;;;;,,,,,,,,,,,,,,,,,,,,,,,,,,,,,,,,,,,",
",,,,,,,,,,,,,,,****%,,,,,,,,,,,,,,-----,,,,,,,-----,,,  ;;;;;;,,,,,,,,,,,,,,,,,,,,,,,,,,,,,,,,,,",
",,,,,,,,,,,,,,****%,,,,,,,,,,,,,-----,,,,,,,,,,,,--,,,   ;;;;;,,,,,,,,,,,,,,,,,,,,,,,,,,,,,,,,,,",
",,,,,,,,,,,,,****%,,,,,,,,,,,,,----,,,,,,,,,,,,,,,--,,,   ;;;;;,,,,,,,,,,,,,,,,,,,,,,,,,,,,,,,,,",
",,,,,,,,,,,,,***%,,,,,,,,,,,,,---,,,,,,,,,,,,,,,,,,--,,,  ;;;;;,,,,,,,,,,,,,,,,,,,,,,,,,,,,,,,,,",
",,,,,,,,,,,,****,,,,,,,,,,,,,---,,,,,,,,,,,,,,,,,,==--,,   ;;;;,,,,,,,,,,,,,,,,,,,,,,,,,,,,,,,,,",
",,,,,,,,,,,,***,,,,,,,,,,,,,--&:,,,,,,,,,,,,,,,,,,,==,,,,  ;;;;,,,,,,,,,,,,,,,,,,,,,,,,,,,,,,,,,",
",,,,,,,,,,,***%,,,,,,,,,,,,,-&&,,,,,,,,,,,,,,,,,,,,,==,,,  ;;;;;,,,,,,,,,,,,,,,,,,,,,,,,,,,,,,,,",
",,,,,,,,,,,***,,,,,,,,,,,,,-&&:,,,,,,,,,,,,,,,,,,,,,===,,   ;;;;#,,,,,,,,,,,,,,,,,,,,,,,,,,,,,,,",
",,,,,,,,,,***%,,,,,,,,,,,,--&:,,,,,,,,,,oo,oo,,o,,,,===,,,  ;;;;#,,,,,,,,,,,,,,,,,,,,,,,,,,,,,,,",
",,,,,,,,,,***,,,,,,,,,,,,,--&,,,,,,,,o,,@@@@@@,ooo,,===X,,  ;;;;#,,,,,,,,,,,,,,,,,,,,,,,,,,,,,,,",
",,,,,,,,,,,*%,,,,,,,,,,,,,>&:,,,,,,,o@@,,,+@@@@@ $$,===X,,  ;;;$#,,,,,,,,,,,,,,,,,,,,,,,,,,,,,,,",
",,,,,,,,,,,,,,,,,,,,,,,,,,-:,,,,,,,,,,,,,,  @@@@  $$ ==,,X  ;;;;#,,,,,,,,,,,,,,,,,,,,,,,,,,,,,,,",
",,,,,,,,,,,,,,,,,,,,,,,,,>&:,,,,,,,,,,,,,   @ ++  $$ ==,,X  ;;##,,,,,,,,,,,,,,,,,,,,,,,,,,,,,,,,",
",,,,,,,,,,,,,,,,,,,,,,,,,,&:,,,,,,,,,,,,   XXo,..$$O =,,,X;;;;##,,,,,,,,,,,,,,,,,,,,,:,,,,,,,,,,",
",,,,,,,,,,,,,,,,,,,,,,,,,,,:,,,,,,,,X,,    Xo,,.,, O$  ,XX;;;###,,,,,,,,,,,,,,,,,,,,::,,,,,,,,,,",
",,,,,,,,,,,,,,,,,,,,,,,,,,::,,,,,,,,,,,## X,  ,,,,,    ,XX ;;###,,,,,,,,,,,,,,,,,,,,::,,,,,,,,,,",
",,,,,,,,,,,,,,,,,,,,,,,,,,:,,,,,,,,,,,,#; X, $ ,,,,    ,XX  ####,,,**,,,,,,,,,,,,,,,::,,,,,,,,,,",
",,,,,,,,,,,,,,,,,,,,,,,,,,::,,,,,,,,,,,#;;X,  $ +,,,, oXX;  ###,,,,**,,,,,,,,,,,,,,,::,,,,,,,,,,",
",,,,,,,,,,,,,,,,,,,,,,,,,,,:,,,,,,,===,#; X,, $ ++@@ooXX    ###,,,%*,,,,,,,,,,,,,,,,::,,,,,,,,,,",
",,,,,,,,,,,,,,,,,,,,,,,,,,,,,,,,,,====#$; ,,,,,,o,oooXXX      ,,,,**,,,,,,,,,,,,,,,:::,,,,,,,,,,",
",,,,,,,,,,,,,,,,,,,,,,,,,,,,,,,,,,====,;;  ,,,,,,oooXXX      ,,,,%**,,,,,,,,,,,,,,,:::,,,,,,,,,,",
",,,,,,,,,,,,,,,,,,,,,,,,,,,,,,,,,====,,;;; ,,,,,,,,,         ,,,,**,,,,,,,,,,,,,,,,::&,,,,,,,,,,",
",,,,,,,,,,,,,,,,,,,,,,,,,,,,,,,,,=====,,;;  ,,,,,   @       ,,,,**,,,,,,,,,,,,,,,,,::,,,,,,,,,,,",
",,,,,,,,,,,,,,,,,,,,,,,,,,,,,,,,,======,;;;  ,@@@@@@@@     ,,,,**,,,,,,,,,,,,,,,,,:::,,,,,,,,,,,",
",,,,,,,,,,,,,,,,,,,,,,,,,,,,,,,,,=====,,,;;; ,@@@@@@@@  ,,,,,,%*,,,,,,,,,,,,,,,,,,::&,,,,,,,,,,,",
",,,,,,,,,,,,,,,,,,,,,,,,,,,,,,,,,=====,,,,;;;  ,@@@@@@,,,,,,,***,,,,,,,,,,,,,,,,,,::&,,,,,,,,,,,",
",,,,,,,,,,,,,,,,,,,,,,,,,,,,,,,,,=====,,,,;;;;;    +++++.,%%**,,,,,,,,,,,,,,,,,,,::&&->,,,,,,,,,",
",,,,,,,,,,,,,,,,,,,,,,,,,,,,,,,,-=====,,,,,,;;;;;,,,,,%%%%****,,,,,,,,,,,,,,,,,,,::&->>,,,,,,,,,",
",,,,,,,,,,,,,,,,,,,,,,,,,,,,,,,,-=====,,,,,,,;;;;;;;;;;****,,,,,,,,,,,,,,,,,,,,,::&&->,,,,,,,,,,",
",,,,,,,,,,,,,,,,,,,,,,,,,,,,,,,,,,====,,,,,,,,,,;;;;;****,,,,,,,,,,,,,,,,,,,,,,:::&->>,,,,,,,,,,",
",,,,,,,,,,,,,,,,,,,,,,,,,,,,,,,,,,====,,,,,,,,,,,,,;;,,,,,,,,,,,,,,,,,,,,,,,,,,::&&->,,,,,,,,,,,",
",,,,,,,,,,,,,,,,,,,,,,,,,,,,,,,,,,====,,,,,,,,,,,,,,,,,,,,,,,,,,,,,,,,,,,,,,,,::&&-->,,,,,,,,,,,",
",,,,,,,,,,,,,,,,,,,,,,,,,,,,,,,,,,,====,,,,,,,,,,,,,,,,,,,,,,,,,,,,,,,,,,,,,,:::&---,,,,,,,,,,,,",
",,,,,,,,,,,,,,,,,,,,,,,,,,,,,,,,,---,==,,,,,,,,,,,,,,,,,,,,,,,,,,,,,,,,,,,,,,::&&---,,,,,,,,,,,,",
",,,,,,,,,,,,,,,,,,,,,,,,,,,,,,,,,,---,==,,,,,,,,,,,,,,,,,,,,,,,,,,,,,,,,,,,,::&&---,,,,,,,,,,,,,",
",,,,,,,,,,,,,,,,,,,,,,,,,,,,,,,,,,---,,,,,,,,,,,,,,,,,,,,,,,,,,,,,,,,,,,,,,::&&---,,,,,,,,,,,,,,",
",,,,,,,,,,,,,,,,,,,,,,,,,,,,,,,,,,,---,,,,,,,,,,,,,,,,,,,,,,,,,,,,,,,,,,,,::&&---,,,,,,,,,,,,,,,",
",,,,,,,,,,,,,,,,,,,,,,,,,,,,,,,,,,,,---,,,,,,,,,,,,,,,,,,,,,,,,,,,,,,,,,,::&&---,,,,,,,,,,,,,,,,",
",,,,,,,,,,,,,,,,,,,,,,,,,,,,,,,,,,,,----,,,,,,,,,,,,,,,,,,,,,,,,,,,,,,,,,,------,,,,,,,,,,,,,,,,",
",,,,,,,,,,,,,,,,,,,,,,,,,,,,,,,,,,,,,----,,,,,,,,,,,,,,,,,,,,,,,,,,,,,,,,------,,,,,,,,,,,,,,,,,",
",,,,,,,,,,,,,,,,,,,,,,,,,,,,,,,,,,,,,,----,,,,,,,,,,,,,,,,,,,,,,,,,,,,,-------,,,,,,,,,,,,,,,,,,",
",,,,,,,,,,,,,,,,,,,,,,,,,,,,,,,,,,,,,,,----,,,,,,,,,,,,,,,,,,,,,,,,,,--------,,,,,,,,,,,,,,,,,,,",
",,,,,,,,,,,,,,,,,,,,,,,,,,,,,,,,,,,,,,,------,,,,,,,,,,,,,,,,,,,,,,--------,,,,,,,,,,,,,,,,,,,,,",
",,,,,,,,,,,,,,,,,,,,,,,,,,,,,,,,,,,,,,,,-------,,,,,,,,,,,,,,,,,----------,,,,,,,,,,,,,,,,,,,,,,",
",,,,,,,,,,,,,,,,,,,,,,,,,,,,,,,,,,,,,,,,,,------,,,,,,,,,,,-------------,,,,,,,,,,,,,,,,,,,,,,,,",
",,,,,,,,,,,,,,,,,,,,,,,,,,,,,,,,,,,,,,,,,,,----------------------------,,,,,,,,,,,,,,,,,,,,,,,,,",
",,,,,,,,,,,,,,,,,,,,,,,,,,,,,,,,,,,,,,,,,,,,,-----------------------,,,,,,,,,,,,,,,,,,,,,,,,,,,,",
",,,,,,,,,,,,,,,,,,,,,,,,,,,,,,,,,,,,,,,,,,,,,,,-------------------,,,,,,,,,,,,,,,,,,,,,,,,,,,,,,",
",,,,,,,,,,,,,,,,,,,,,,,,,,,,,,,,,,,,,,,,,,,,,,,,,,,-----------,,,,,,,,,,,,,,,,,,,,,,,,,,,,,,,,,,",
",,,,,,,,,,,,,,,,,,,,,,,,,,,,,,,,,,,,,,,,,,,,,,,,,,,,,,,,,,,,,,,,,,,,,,,,,,,,,,,,,,,,,,,,,,,,,,,,",
",,,,,,,,,,,,,,,,,,,,,,,,,,,,,,,,,,,,,,,,,,,,,,,,,,,,,,,,,,,,,,,,,,,,,,,,,,,,,,,,,,,,,,,,,,,,,,,,",
",,,,,,,,,,,,,,,,,,,,,,,,,,,,,,,,,,,,,,,,,,,,,,,,,,,,,,,,,,,,,,,,,,,,,,,,,,,,,,,,,,,,,,,,,,,,,,,,",
",,,,,,,,,,,,,,,,,,,,,,,,,,,,,,,,,,,,,,,,,,,,,,,,,,,,,,,,,,,,,,,,,,,,,,,,,,,,,,,,,,,,,,,,,,,,,,,,",
",,,,,,,,,,,,,,,,,,,,,,,,,,,,,,,,,,,,,,,,,,,,,,,,,,,,,,,,,,,,,,,,,,,,,,,,,,,,,,,,,,,,,,,,,,,,,,,,",
",,,,,,,,,,,,,,,,,,,,,,,,,,,,,,,,,,,,,,,,,,,,,,,,,,,,,,,,,,,,,,,,,,,,,,,,,,,,,,,,,,,,,,,,,,,,,,,,",
",,,,,,,,,,,,,,,,,,,,,,,,,,,,,,,,,,,,,,,,,,,,,,,,,,,,,,,,,,,,,,,,,,,,,,,,,,,,,,,,,,,,,,,,,,,,,,,,"
};
