/* XPM */
static char *result[] = {
/* columns rows colors chars-per-pixel */
"96 80 16 1 ",
"  c #1E182C",
". c #211930",
"X c #231A34",
"o c #2F1F49",
"O c #3B245D",
"+ c #412561",
"@ c #4C2466",
"# c #552469",
"$ c #5E246D",
"% c #872C8C",
"& c #E497BE",
"* c #EBAFCD",
"= c #EEB7D2",
"- c #F0BDD6",
"; c #F0C0D8",
": c None",
/* pixels */
"::::::::::::::::::::::::::::::::::::::::::::::::::::::::::::::::::::::::::::::::::::::::::::::::",
"::::::::::::::::::::::::::::::::::::::::::::::::::::::::::::::::::::::::::::::::::::::::::::::::",
"::::::::::::::::::::::::::::::::::::::::::::::::::::::::::::::::::::::::::::::::::::::::::::::::",
"::::::::::::::::::::::::::::::::::::::::::::::::::::::::::::::::::::::::::::::::::::::::::::::::",
"::::::::::::::::::::::::::::::::::::::::::::::::::::::::::::::::::::::::::::::::::::::::::::::::",
"::::::::::::::::::::::::::::::::::::::::::::::::::::::::::::::::::::::::::::::::::::::::::::::::",
"::::::::::::::::::::::::::::::::::::::::::::::::::::::::::::::::::::::::::::::::::::::::::::::::",
"::::::::::::::::::::::::::::::::::::::::::::::::::::::::::::::::::::::::::::::::::::::::::::::::",
"::::::::::::::::::::::::::::::::::::::::::::::::::::::::::::::::::::::::::::::::::::::::::::::::",
"::::::::::::::::::::::::::::::::::::::::::::::::::::::::::::::::::::::::::::::::::::::::::::::::",
"::::::::::::::::::::::::::::::::::::::::::::::::::::::::::::::::::::::::::::::::::::::::::::::::",
"::::::::::::::::::::::::::::::::::::::::::::::::::::::::::::::::::::::::::::::::::::::::::::::::",
":::::::::::::::::::::::::::::::::;;;;;;;;:::::::::::::::::::::::::::::::::::::::::::::::::::::::",
"::::::::::::::::::::::::::::::;;;;;;;;;;;;::::::::::::::::::::::::::::::::::::::::::::::::::::::",
":::::::::::::::::::::::::::;;;;;;;&&&&&&&&&&::::::::::::::::::::::::::::::::::::::::::::::::::::",
":::::::::::::::::::::::::;;;;;;&&&&&&:::::::::::::::::::::::::::::::::::::::::::::::::::::::::::",
":::::::::::::::::::::::;;;;;&&&&&&OOOOOOOOO:::::::::::::::::::::::::::::::::::::::::::::::::::::",
"::::::::::::::::::::::;;;;&&&&::OOOOOOOOOOOOOO::::::::::::::::::::::::::::::::::::::::::::::::::",
"::::::::::::::::::::;;;;&&&&::OOOOOO :    OOOOOOOO::::::::::::::::::::::::::::::::::::::::::::::",
":::::::::::::::::::;;;;&&&:::OO::::::::::::::OOOOOOO::::::::::::::::::::::::::::::::::::::::::::",
"::::::::::::::::::;;;;&&::::::::::::::::::::::::OOOOOO::::::::::::::::::::::::::::::::::::::::::",
":::::::::::::::::;;;;&&:::::::::::::::::::::::::::OOOOO:::::::::::::::::::::::::::::::::::::::::",
"::::::::::::::::;;;;&&::::::::::::::::::::::::::::: OOOO::::::::::::::::::::::::::::::::::::::::",
":::::::::::::::;;;;&&::::::::::::::::::::==::::::::: OOO::::::::::::::::::::::::::::::::::::::::",
"::::::::::::::;;;;&&::::::::::::::-:::==::=:::::::::: OOO:::::::::::::::::::::::::::::::::::::::",
"::::::::::::::;;;&&:::::::::::::-::====:::::::::::::::OOOO::::::::::::::::::::::::::::::::::::::",
":::::::::::::;;;;&:::::::::::::-====::::::XX:::::::::::OOOO:::::::::::::::::::::::::::::::::::::",
":::::::::::::;;;&&::::::::::::--===:::::::::::::::::::::OOO  :::::::::::::::::::::::::::::::::::",
"::::::::::::;;;&&::::::::::::--==::::::::::::::::::::::: OOO  ::::::::::::::::::::::::::::::::::",
":::::::::::*;;&&::::::::::::--==:::::::::::::::::::::::::OOO  ::::::::::::::::::::::::::::::::::",
":::::::::::*;;&:::::::::::::-==:::::::::::::::::::::::::@@OO   :::::::::::::::::::::::::::::::::",
"::::::::::*;;&&::::::::::::-==::::::::::::::::::::::::::@@OO    ::::::::::::::::::::::::::::::::",
"::::::::::*;;&::::::::::::--==:::::::::::::::::::::::::@@@OO    ::::::::::::::::::::::::::::::::",
"::::::::::;;&&::::::::::::--=:::::::::::::.....::::::::+@@OOO   ::::::::::::::::::::::::::::::::",
":::::::::::;&::::::::::::--=::::::::::....%  ...+.::#:@+@@@OO   ::::::::::::::::::::::::::::::::",
":::::::::::&&:::::::::::::-=::::::::::.%%%    ..%%o#::#+@@$OO   ::::::::::::::::::::::::::::::::",
":::::::::::&&::::::::::::-==::::::::.%%%%$$$ %..%%##:###@$$OO $$::::::::::::::::::::::::::::::::",
":::::::::::&::::::::::::::==::::::::..#%$$$.:::::::::##$$$@O$$$$:::&&:::::::::::::::::::::::::::",
"::::::::::&&:::::::::::::::::::::::..##$$$@::::::::$o##$$@@$$$$$::::::::::::::::::::::::::::::::",
"::::::::::&:::::::::::::::=::::::::.##o$$$@$:::::::o%#.$$@$$$$$$:::&::::::::::::::::::::::::::::",
"::::::::::&:::::::::::::::=:::::::.###o$$$@$$$::::%%%%$$$@$$$$$$:::&;:::::::::::::::::::::::::::",
"::::::::::&:::::::::::::::=:::::::####o$$O$$::...%%%%::$@@$$$$$:::&;;::::::::::::::::=::::::::::",
"::::::::::&::::::::::::::::::::::####::$ O@@@::....::::@@$$$$$$:::&;*::::::::::::::::=::::::::::",
":::::::::::::::::::::::::::::::::####::  O@@:::::::::::@$$$$$$:::&&;:::::::::::::::::=::::::::::",
"::::::::::::::::::::::::::::::::+####::  OO@%%::::::::..$$$$$::::&;;:::::::::::::::::=::::::::::",
"::::::::::::::::::::::::::::::::+###:::   O@%%::::::: ..$$$$$::::&;:::::::::::::::::==::::::::::",
"::::::::::::::::::::::::::::::::+##:::##: O %%::::::  $$$$$$::::&;;:::::::::::::::::=:::::::::::",
"::::::::::::::::::::::::::::::::+::::##:: OOO+%:::    $$$$:::::&;;:::::::::::::::::==:::::::::::",
"::::::::::::::::::::::::::::::::+:::::::::::O :::       ::::::&;;::::::::::::::::::==:::::::::::",
"::::::::::::::::::::::::::::::::+:::::::::::OOO+::::  ::::OO:&;;;::::::::::::::::::==:::::::::::",
"::::::::::::::::::::::::::::::::::::::::::::::OOOOO::   OO:&&;;:::::::::::::::::::===--:::::::::",
"::::::::::::::::::::::::::::::::::::::::::::::::OOOOOOOOO&&;;;::::::::::::::::::::==---:::::::::",
":::::::::::::::::::::::::::::::::::::::::::::::::::::::&&;;::::::::::::::::::::::===--::::::::::",
":::::::::::::::::::::::::::::::::::::::::::::::::::::;;;;;:::::::::::::::::::::::==---::::::::::",
"::::::::::::::::::::::::::::::::::::::::::::::::::::::::::::::::::::::::::::::::===---::::::::::",
":::::::::::::::::::::::::::::::::::::::::::::::::::::::::::::::::::::::::::::::===---:::::::::::",
"::::::::::::::::::::::::::::::::::::::::::::::::::::::::::::::::::::::::::::::===---::::::::::::",
"::::::::::::::::::::::::::::::::::::::::::::::::::::::::::::::::::::::::::::::===---::::::::::::",
":::::::::::::::::::::::::::::::::::::::::::::::::::::::::::::::::::::::::::::===---:::::::::::::",
"::::::::::::::::::::::::::::::::::::::::::::::::::::::::::::::::::::::::::::===---::::::::::::::",
":::::::::::::::::::::::::::::::::::::::::::::::::::::::::::::::::::::::::::===---:::::::::::::::",
":::::::::::::::::::::::::::::::::::::::::::::::::::::::::::::::::::::::::====---::::::::::::::::",
"::::::::::::::::::::::::::::::::::::::::::::::::::::::::::::::::::::::::====----::::::::::::::::",
"::::::::::::::::::::::::::::::::::::::::::::::::::::::::::::::::::::::=====----:::::::::::::::::",
":::::::::::::::::::::::::::::::::::::::::::::::::XXXXXX:::::::::::::======----::::::::::::::::::",
"::::::::::::::::::::::::::::::::::::::::::::::::::::::::::::::::::=======----:::::::::::::::::::",
"::::::::::::::::::::::::::::::::::::::::::::::::::::::::::::::::========---:::::::::::::::::::::",
"::::::::::::::::::::::::::::::::::::::::::::::::::::================::----::::::::::::::::::::::",
"::::::::::::::::::::::::::::::::::::::::::::::::::::::::::=======:::::--::::::::::::::::::::::::",
":::::::::::::::::::::::::::::::::::::::::::::::::::::=========:::::-::::::::::::::::::::::::::::",
"::::::::::::::::::::::::::::::::::::::::::::::::::::::::::::::::::::::::::::::::::::::::::::::::",
"::::::::::::::::::::::::::::::::::::::::::::::::::::::::------::::::::::::::::::::::::::::::::::",
"::::::::::::::::::::::::::::::::::::::::::::::::::::::::::::::::::::::::::::::::::::::::::::::::",
"::::::::::::::::::::::::::::::::::::::::::::::::::::::::::::::::::::::::::::::::::::::::::::::::",
"::::::::::::::::::::::::::::::::::::::::::::::::::::::::::::::::::::::::::::::::::::::::::::::::",
"::::::::::::::::::::::::::::::::::::::::::::::::::::::::::::::::::::::::::::::::::::::::::::::::",
"::::::::::::::::::::::::::::::::::::::::::::::::::::::::::::::::::::::::::::::::::::::::::::::::",
"::::::::::::::::::::::::::::::::::::::::::::::::::::::::::::::::::::::::::::::::::::::::::::::::",
"::::::::::::::::::::::::::::::::::::::::::::::::::::::::::::::::::::::::::::::::::::::::::::::::",
"::::::::::::::::::::::::::::::::::::::::::::::::::::::::::::::::::::::::::::::::::::::::::::::::"
};
