/* XPM */
static char *result[] = {
/* columns rows colors chars-per-pixel */
"96 80 19 1 ",
"  c #1A1625",
". c #201930",
"X c #221A33",
"o c #241B37",
"O c #2B1D41",
"+ c #2D1F46",
"@ c #2E1F47",
"# c #32214E",
"$ c #412561",
"% c #502467",
"& c #772378",
"* c #802883",
"= c #A23AAE",
"- c #BF55AC",
"; c #B147B0",
": c #C55BAA",
"> c #EAACCB",
", c #ECB2CF",
"< c None",
/* pixels */
"<<<<<<<<<<<<<<<<<<<<<<<<<<<<<<<<<<<<<<<<<<<<<<<<<<<<<<<<<<<<<<<<<<<<<<<<<<<<<<<<<<<<<<<<<<<<<<<<",
"<<<<<<<<<<<<<<<<<<<<<<<<<<<<<<<<<<<<<<<<<<<<<<<<<<<<<<<<<<<<<<<<<<<<<<<<<<<<<<<<<<<<<<<<<<<<<<<<",
"<<<<<<<<<<<<<<<<<<<<<<<<<<<<<<<<<<<<<<<<<<<<<<<<<<<<<<<<<<<<<<<<<<<<<<<<<<<<<<<<<<<<<<<<<<<<<<<<",
"<<<<<<<<<<<<<<<<<<<<<<<<<<<<<<<<<<<<<<<<<<<<<<<<<<<<<<<<<<<<<<<<<<<<<<<<<<<<<<<<<<<<<<<<<<<<<<<<",
"<<<<<<<<<<<<<<<<<<<<<<<<<<<<<<<<<<<<<<<<<<<<<<<<<<<<<<<<<<<<<<<<<<<<<<<<<<<<<<<<<<<<<<<<<<<<<<<<",
"<<<<<<<<<<<<<<<<<<<<<<<<<<<<<<<<<<<<<<<<<<<<<<<<<<<<<<<<<<<<<<<<<<<<<<<<<<<<<<<<<<<<<<<<<<<<<<<<",
"<<<<<<<<<<<<<<<<<<<<<<<<<<<<<<<<<<<<<<<<<<<<<<<<<<<<<<<<<<<<<<<<<<<<<<<<<<<<<<<<<<<<<<<<<<<<<<<<",
"<<<<<<<<<<<<<<<<<<<<<<<<<<<<<<<<<<<<<<<<<<<<<<<<<<<<<<<<<<<<<<<<<<<<<<<<<<<<<<<<<<<<<<<<<<<<<<<<",
"<<<<<<<<<<<<<<<<<<<<<<<<<<<<<<<<<<<<<<<<<<<<<<<<<<<<<<<<<<<<<<<<<<<<<<<<<<<<<<<<<<<<<<<<<<<<<<<<",
"<<<<<<<<<<<<<<<<<<<<<<<<<<<<<<<<<<<<<<<<<<<<<<<<<<<<<<<<<<<<<<<<<<<<<<<<<<<<<<<<<<<<<<<<<<<<<<<<",
"<<<<<<<<<<<<<<<<<<<<<<<<<<<<<<<<<<<<<<<<<<<<<<<<<<<<<<<<<<<<<<<<<<<<<<<<<<<<<<<<<<<<<<<<<<<<<<<<",
"<<<<<<<<<<<<<<<<<<<<<<<<<<<<<<<<<<<<<<<<<<<<<<<<<<<<<<<<<<<<<<<<<<<<<<<<<<<<<<<<<<<<<<<<<<<<<<<<",
"<<<<<<<<<<<<<<<<<<<<<<<<<<<<<<<<<<===========<<<<<<<<<<<<<<<<<<<<<<<<<<<<<<<<<<<<<<<<<<<<<<<<<<<",
"<<<<<<<<<<<<<<<<<<<<<<<<<<<<<<==================<<<<<<<<<<<<<<<<<<<<<<<<<<<<<<<<<<<<<<<<<<<<<<<<",
"<<<<<<<<<<<<<<<<<<<<<<<<<<<<=======================<<<<<<<<<<<<<<<<<<<<<<<<<<<<<<<<<<<<<<<<<<<<<",
"<<<<<<<<<<<<<<<<<<<<<<<<<===========================:<<<<<<<<<<<<<<<<<<<<<<<<<<<<<<<<<<<<<<<<<<<",
"<<<<<<<<<<<<<<<<<<<<<<<<==========&&&&&&&&&&&=========:<<<<<<<<<<<<<<<<<<<<<<<<<<<<<<<<<<<<<<<<<",
"<<<<<<<<<<<<<<<<<<<<<<========&&<<<<<<<<<<<<&&&&=======:<<<<<<<<<<<<<<<<<<<<<<<<<<<<<<<<<<<<<<<<",
"<<<<<<<<<<<<<<<<<<<<<=======&<<<<<<<<<<<<<<<<<<<&:======:<<<<<<<<<<<<<<<<<<<<<<<<<<<<<<<<<<<<<<<",
"<<<<<<<<<<<<<<<<<<<<======&<<<<<<<<<<<<<<<<<<<<<<<&:====::<<<<<<<<<<<<<<<<<<<<<<<<<<<<<<<<<<<<<<",
"<<<<<<<<<<<<<<<<<<<=====&<<<<<<<<<<<<<<<<<<<<<<<<<<<::===::<<<<<<<<<<<<<<<<<<<<<<<<<<<<<<<<<<<<<",
"<<<<<<<<<<<<<<<<<<=====&<<<<<<<<<<<<<<<<<%%%%%%%%<<<<<::=:::<<<<<<<<<<<<<<<<<<<<<<<<<<<<<<<<<<<<",
"<<<<<<<<<<<<<<<<<====<<<<<<<<<<<<<<<<----------<<<<<<<<:::::<<<<<<<<<<<<<<<<<<<<<<<<<<<<<<<<<<<<",
"<<<<<<<<<<<<<<<<====<<<<<<<<<<<<<<<--------------<<<<<<<:::::<<<<<<<<<<<<<<<<<<<<<<<<<<<<<<<<<<<",
"<<<<<<<<<<<<<<<====<<<<<<<<<<<<<<<--------<<-------<<<<<::::::<<<<<<<<<<<<<<<<<<<<<<<<<<<<<<<<<<",
"<<<<<<<<<<<<<<====<<<<<<<<<<<<<<-----*<<<<<<<<<-----<<   :::::<<<<<<<<<<<<<<<<<<<<<<<<<<<<<<<<<<",
"<<<<<<<<<<<<<====<<<<<<<<<<<<<<----*<<<<<<<<<<<<<<---<<   :::::<<<<<<<<<<<<<<<<<<<<<<<<<<<<<<<<<",
"<<<<<<<<<<<<<===<<<<<<<<<<<<<<--->><<<<<<<<<<<<<<<----<<  :::::<<<<<<<<<<<<<<<<<<<<<<<<<<<<<<<<<",
"<<<<<<<<<<<<===<<<<<<<<<<<<<<,--*<<<<<<<<<<<<<<<<<<<--<<   ::::<<<<<<<<<<<<<<<<<<<<<<<<<<<<<<<<<",
"<<<<<<<<<<<<===<<<<<<<<<<<<<<-*>><<<<<<<<<<<<<<<<<<<<--<<  ::::<<<<<<<<<<<<<<<<<<<<<<<<<<<<<<<<<",
"<<<<<<<<<<<<==<<<<<<<<<<<<<<,-*><<<<<<<<<<<<<<<<<<<<<<-<<  :::::<<<<<<<<<<<<<<<<<<<<<<<<<<<<<<<<",
"<<<<<<<<<<<==<<<<<<<<<<<<<<,-*><<<<<<<<<<<<<<<<<<<<<<<-<<  :::::#<<<<<<<<<<<<<<<<<<<><<<<<<<<<<<",
"<<<<<<<<<<<==<<<<<<<<<<<<<<,-><<<<<<<<<<<<<<<<<<<<<<<<--<<  ::::#<<<<<<<<<<<<<<<<<<<<<<<<<<<<<<<",
"<<<<<<<<<<<=<<<<<<<<<<<<<<,,>><<<<<<<O#<<<<<<<<<<<<<;;<-<<  ::::#<<<<<<<<<<<<<<<<<<<<<<<<<<<<<<<",
"<<<<<<<<<<<<<<<<<<<<<<<<<<,,><<<<<<OO#<<<<<    ##  ;;;<<<<  ::::#<<<<<<<<<<<<<<<<<<<<<<<<<<<<<<<",
"<<<<<<<<<<<<<<<<<<<<<<<<<<,>><<<<<<#<<<<<<     ##@@;%--<<<: ::::#<<<<<<<<<<<<<<<<<<<<<<<<<<<<<<<",
"<<<<<<<<<<<<<<<<<<<<<<<<<<,>><<<<OO#<<<<<#   <<##@;;%-;o# : ::::<<<<<<<<<<<<<<<<<<<<>><<<<<<<<<<",
"<<<<<<<<<<<<<<<<<<<<<<<<<<>><<<<<O#<<<<<##  X<O<<@@ -;;oO ::::::<<<<<<<<<<<<<<<<<<<<>><<<<<<<<<<",
"<<<<<<<<<<<<<<<<<<<<<<<<<<<><<<<<#<<<<<###   <<<<<. ;;;<< :::::#<<<<<<<<<<<<<<<<<<<<>><<<<<<<<<<",
"<<<<<<<<<<<<<<<<<<<<<<<<<<>><<<<<<<<;;;##  <  <<<<<+;% #< ::::##<<<<<<<<<<<<<<<<<<<<>><<<<<<<<<<",
"<<<<<<<<<<<<<<<<<<<<<<<<<<><<<<<<<<;;;;#:: <% .<<<<   #O<   ####<<<<<<<<<<<<<<<<<<<<>><<<<<<<<<<",
"<<<<<<<<<<<<<<<<<<<<<<<<<<>><<<O#o<;;;;::: <%%@@<<<<  O<    ###<<<<==<<<<<<<<<<<<<<<>><<<<<<<<<<",
"<<<<<<<<<<<<<<<<<<<<<<<<<<<><<<##o<;;;-:: <<<%  <<<< #     ####<<<<=<<<<<<<<<<<<<<<<>><<<<<<<<<<",
"<<<<<<<<<<<<<<<<<<<<<<<<<<<><<<##o;;-;#:: <<<<<<<O<<XX    ####<<<<<=<<<<<<<<<<<<<<<>>><<<<<<<<<<",
"<<<<<<<<<<<<<<<<<<<<<<<<<<<<<<<#<;---;<::  <<<OO<<<<X     ###<<<<<==<<<<<<<<<<<<<<<>>><<<<<<<<<<",
"<<<<<<<<<<<<<<<<<<<<<<<<<<<<<<<<<<----<::: <####<<<<     ####<<<<==<<<<<<<<<<<<<<<<>>*<<<<<<<<<<",
"<<<<<<<<<<<<<<<<<<<<<<<<<<<<<<<<<----;;;::  ####<        ###<<<<==<<<<<<<<<<<<<<<<>>><<<<<<<<<<<",
"<<<<<<<<<<<<<<<<<<<<<<<<<<<<<<<<<-<;;;;;:::  ###           <<<<==<<<<<<<<<<<<<<<<<>>><<<<<<<<<<<",
"<<<<<<<<<<<<<<<<<<<<<<<<<<<<<<<<--<;;;;;<:::<###         <<<<<==<<<<<<<<<<<<<<<<<<>>><<<<<<<<<<<",
"<<<<<<<<<<<<<<<<<<<<<<<<<<<<<<<<--<;;;<<<<:::<<<%%%%  <<<<<<<===<<<<<<<<<<<<<<<<<>>>,<<<<<<<<<<<",
"<<<<<<<<<<<<<<<<<<<<<<<<<<<<<<<<--<;;;<<<<::==:<<<<<<<<<<<&===<<<<<<<<<<<<<<<<<<<>>>,,<<<<<<<<<<",
"<<<<<<<<<<<<<<<<<<<<<<<<<<<<<<<<--<<;<<<<<<<:===:<&<<<&&&=====<<<<<<<<<<<<<<<<<<>>>,,,<<<<<<<<<<",
"<<<<<<<<<<<<<<<<<<<<<<<<<<<<<<<<---<<;<<<<<<<==============<<<<<<<<<<<<<<<<<<<<<>>>,,,<<<<<<<<<<",
"<<<<<<<<<<<<<<<<<<<<<<<<<<<<<<<<---<<<<<<<<<<<<<=========<<<<<<<<<<<<<<<<<<<<<<>>>,,,,<<<<<<<<<<",
"<<<<<<<<<<<<<<<<<<<<<<<<<<<<<<<<<--<<<<<<<<<<<<<<<<==<<<<<<<<<<<<<<<<<<<<<<<<<>>>>,,,<<<<<<<<<<<",
"<<<<<<<<<<<<<<<<<<<<<<<<<<<<<<<<<--<<<<<<<<<<<<<<<<<<<<<<<<<<<<<<<<<<<<<<<<<<<>>>,,,,<<<<<<<<<<<",
"<<<<<<<<<<<<<<<<<<<<<<<<<<<<<<<<<---<<<<<<<<<<<<<<<<<<<<<<<<<<<<<<<<<<<<<<<<<>>>-,,,<<<<<<<<<<<<",
"<<<<<<<<<<<<<<<<<<<<<<<<<<<<<<<<<----<<<<<<<<<<<<<<<<<<<<<<<<<<<<<<<<<<<<<<<>>>--,,<<<<<<<<<<<<<",
"<<<<<<<<<<<<<<<<<<<<<<<<<<<<<<<<<<----<<<<<<<<<<<<<<<<<<<<<<<<<<<<<<<<<<<<<>>>*--,<<<<<<<<<<<<<<",
"<<<<<<<<<<<<<<<<<<<<<<<<<<<<<<<<<<-----<<<<<<<<<<<<<<<<<<<<<<<<<<<<<<<<<<<>>>*--,,<<<<<<<<<<<<<<",
"<<<<<<<<<<<<<<<<<<<<<<<<<<<<<<<<<<------<<<<<<<<<<<<<<<<<<<<<<<<<<<<<<<<<>>>*--,,<<<<<<<<<<<<<<<",
"<<<<<<<<<<<<<<<<<<<<<<<<<<<<<<<<<<<-----<<<<<<<<<<<<<<<<<<<<<<<<<<<<<<<<>>>*---,<<<<<<<<<<<<<<<<",
"<<<<<<<<<<<<<<<<<<<<<<<<<<<<<<<<<<<------<<<<<<<<<<<<<<<<<<<<<<<<<<<<<<>>*----,<<<<<<<<<<<<<<<<<",
"<<<<<<<<<<<<<<<<<<<<<<<<<<<<<<<<<<<<------<<<<<<<<<<<<<<<<<<<<<<<<<<<>>>*----,<<<<<<<<<<<<<<<<<<",
"<<<<<<<<<<<<<<<<<<<<<<<<<<<<<<<<<<<<<-------<<<<<<<<<<<<<<<<<<<<<<<<>>*-----,<<<<<<<<<<<<<<<<<<<",
"<<<<<<<<<<<<<<<<<<<<<<<<<<<<<<<<<<<<<<--------<<<<<<<<<<<<<<<<<<<$>>*-------<<<<<<<<<<<<<<<<<<<<",
"<<<<<<<<<<<<<<<<<<<<<<<<<<<<<<<<<<<<<<<---------<<<<<<<<<<<<<<$$>>*--------<<<<<<<<<<<<<<<<<<<<<",
"<<<<<<<<<<<<<<<<<<<<<<<<<<<<<<<<<<<<<<<<<----------<<<<<<<<<<<**----------<<<<<<<<<<<<<<<<<<<<<<",
"<<<<<<<<<<<<<<<<<<<<<<<<<<<<<<<<<<<<<<<<<<------------------------------<<<<<<<<<<<<<<<<<<<<<<<<",
"<<<<<<<<<<<<<<<<<<<<<<<<<<<<<<<<<<<<<<<<<<<---------------------------<<<<<<<<<<<<<<<<<<<<<<<<<<",
"<<<<<<<<<<<<<<<<<<<<<<<<<<<<<<<<<<<<<<<<<<<<<-----------------------<<<<<<<<<<<<<<<<<<<<<<<<<<<<",
"<<<<<<<<<<<<<<<<<<<<<<<<<<<<<<<<<<<<<<<<<<<<<<<<------------------<<<<<<<<<<<<<<<<<<<<<<<<<<<<<<",
"<<<<<<<<<<<<<<<<<<<<<<<<<<<<<<<<<<<<<<<<<<<<<<<<<<<<----------<<<<<<<<<<<<<<<<<<<<<<<<<<<<<<<<<<",
"<<<<<<<<<<<<<<<<<<<<<<<<<<<<<<<<<<<<<<<<<<<<<<<<<<<<<<<<<<<<<<<<<<<<<<<<<<<<<<<<<<<<<<<<<<<<<<<<",
"<<<<<<<<<<<<<<<<<<<<<<<<<<<<<<<<<<<<<<<<<<<<<<<<<<<<<<<<<<<<<<<<<<<<<<<<<<<<<<<<<<<<<<<<<<<<<<<<",
"<<<<<<<<<<<<<<<<<<<<<<<<<<<<<<<<<<<<<<<<<<<<<<<<<<<<<<<<<<<<<<<<<<<<<<<<<<<<<<<<<<<<<<<<<<<<<<<<",
"<<<<<<<<<<<<<<<<<<<<<<<<<<<<<<<<<<<<<<<<<<<<<<<<<<<<<<<<<<<<<<<<<<<<<<<<<<<<<<<<<<<<<<<<<<<<<<<<",
"<<<<<<<<<<<<<<<<<<<<<<<<<<<<<<<<<<<<<<<<<<<<<<<<<<<<<<<<<<<<<<<<<<<<<<<<<<<<<<<<<<<<<<<<<<<<<<<<",
"<<<<<<<<<<<<<<<<<<<<<<<<<<<<<<<<<<<<<<<<<<<<<<<<<<<<<<<<<<<<<<<<<<<<<<<<<<<<<<<<<<<<<<<<<<<<<<<<",
"<<<<<<<<<<<<<<<<<<<<<<<<<<<<<<<<<<<<<<<<<<<<<<<<<<<<<<<<<<<<<<<<<<<<<<<<<<<<<<<<<<<<<<<<<<<<<<<<"
};
