/* XPM */
static char *result[] = {
/* columns rows colors chars-per-pixel */
"96 80 21 1 ",
"  c #1A1625",
". c #1C1729",
"X c #20192F",
"o c #291C3E",
"O c #32214E",
"+ c #342252",
"@ c #39245B",
"# c #3A245B",
"$ c #3B255E",
"% c #412561",
"& c #492564",
"* c #4B2465",
"= c #672371",
"- c #9E38A9",
"; c #AC42B1",
": c #CC62A8",
"> c #DF86B4",
", c #E18CB8",
"< c #E393BC",
"1 c #E9A9C9",
"2 c None",
/* pixels */
"222222222222222222222222222222222222222222222222222222222222222222222222222222222222222222222222",
"222222222222222222222222222222222222222222222222222222222222222222222222222222222222222222222222",
"222222222222222222222222222222222222222222222222222222222222222222222222222222222222222222222222",
"222222222222222222222222222222222222222222222222222222222222222222222222222222222222222222222222",
"222222222222222222222222222222222222222222222222222222222222222222222222222222222222222222222222",
"222222222222222222222222222222222222222222222222222222222222222222222222222222222222222222222222",
"222222222222222222222222222222222222222222222222222222222222222222222222222222222222222222222222",
"222222222222222222222222222222222222222222222222222222222222222222222222222222222222222222222222",
"222222222222222222222222222222222222222222222222222222222222222222222222222222222222222222222222",
"222222222222222222222222222222222222222222222222222222222222222222222222222222222222222222222222",
"222222222222222222222222222222222222222222222222222222222222222222222222222222222222222222222222",
"222222222222222222222222222222222222;;;;;;;;;;22222222222222222222222222222222222222222222222222",
"2222222222222222222222222222222;;<<<<<<<<;;;;;;;;;2222222222222222222222222222222222222222222222",
"2222222222222222222222222222<<<<<<<<<<<<<<;;;;;;;;;;22222222222222222222222222222222222222222222",
"22222222222222222222222222;<<<<<<<<<<<<<<<<<<;;;;;;;;;222222222222222222222222222222222222222222",
"222222222222222222222222<<<<<<<<<<<<<22222222222;;;;;;;22222222222222222222222222222222222222222",
"2222222222222222222222<<<<<<<<<<==>>>>>>>>>==2222;;;;;;;2222222222222222222222222222222222222222",
"222222222222222222222<<<<<<<<=>>>>>>##########==222;;;;;;;22222222222222222222222222222222222222",
"22222222222222222222<<<<<<<=>>>>##2222222222222#22222;;;;;;2222222222222222222222222222222222222",
"2222222222222222222<<<<<<=>>>>222222222222222222222222;;;;;;222222222222222222222222222222222222",
"222222222222222222<<<<<=>>>>222222222222222222222222222;;;;;;22222222222222222222222222222222222",
"22222222222222222<<<<<=>>>>22222222222222@@@@@@@@2222222;;;;;;2222222222222222222222222222222222",
"2222222222222222<<<<<>>>>22222222222222221112122222@22222;;;;;2222222222222222222222222222222222",
"222222222222222<<<<<>>>>2222222222222111111111112222222222;;;;;222222222222222222222222222222222",
"22222222222222<<<<<>>>22222222222211111222.2221112222222222;;;;222222222222222222222222222222222",
"2222222222222<<<<<>>>2222222222221111:.........221&22222222;;;;;22222222222222222222222222222222",
"2222222222222<<<<>>>222222222221111:....222.2.....1222222222;;;;22222222222222222222222222222222",
"222222222222<<<<>>>22222222222111:2..2222222222.++2222222222;;;;22222222222222222222222222222222",
"22222222222<<<<<>>22222222222,11:2222222222222222+..222222222;;;;2222222222222222222222222222222",
"22222222222<<<<>>>222222222221::222222222222222222+..22222222;;;;2222222222222222222222222222222",
"2222222222<<<<<>>22222222222,1:22222222222222222222+..2222222;;;;2222222222222222222222222222222",
"2222222222<<<<>>22222222222,1:222222222222222222222++..222222;;;;2222222222222222222222222222222",
"2222222222<<<<>>22222222222,1:22222222222222222222$$+...222222;;;2222222222222222222222222222222",
"2222222222<<<>>22222222222,,:222222222222222222222$$+...222222;;;22>2222222222222222222222222222",
"22222222222<<>>22222222222,122222222222222..2222  $+++..222222;;;22>2222222222222222222222222222",
"22222222222<>>>22222222222,:222222222222&&......2 &&$..-222222;;;22>2222222222222222222222222222",
"22222222222<>>2222222222221:222222222&&&&&--....&&&&$.&&-22222;;;22>2222222222222222222222222222",
"22222222222<>>222222222222::22222222&&&&&--O.2222 %$+.*.222;;;;;;22><222222222222222222222222222",
"2222222222<>>2222222222222222222222&&&&&&-;.222222 $&&&-2;;;;;;;;2>>2222222222222222222222222222",
"2222222222<>>2222222222222:22222222&&&&&;;;2@22222..&&&22;;;;;;222>>2222222222222222222222222222",
"2222222222<>>2222222222222:2222222&&&&&*;;;2@2222..&&&222;;;;;2222><<222222222222222222222222222",
"2222222222>>22222222222222:222222.&*&&;;;; -@@22...&222;;;;;;;2222><<2222222222222222:2222222222",
"2222222222>>222222222222222222222&&*..;;$ %-22222222222;;;;-22222><<<2222222222222222:2222222222",
"2222222222>>222222222222222222222&&...;;& % 222222222OO2----22222><<22222222222222222:2222222222",
"2222222222>>222222222222222222222&...+$;&&&&&&2222222OO----22222>><<22222222222222222:2222222222",
"2222222222>>222222222222222222222....+$;;&&&&&22222222----22222>><<22222222222222222::2222222222",
"2222222222>222222222222222222222....++&;;&  o222222222---22222>><<<22222222222222222:22222222222",
"22222222222222222222222222222222....++++;;2  222222222---22222><<<22222222222222222::22222222222",
"22222222222222222222222222222222....++++;;;   22222222222222>>=<<222222222222222222::22222222222",
"222222222222222222222222222222222...+++$;;;22  2@@@@2222222>><<<<222222222222222222:122222222222",
"22222222222222222222222222222222....+++$$;;;;222222222222>>=<<<<222222222222222222::1,2222222222",
"22222222222222222222222222222222....+++$$2;;;;222#####>>>=<<<<<2222222222222222222:1,,2222222222",
"22222222222222222222222222222222.....++$2222;;;;;222222<<<<<<22222222222222222222::1,,2222222222",
"2222222222222222222222222222222222...++$22222;;;;;;<;<<<<<;2222222222222222222222:1,,22222222222",
"2222222222222222222222222222222222...++22222222;;;;;;;;;222222222222222222222222::1,,22222222222",
"2222222222222222222222222222222222....++222222222222222222222222222222222222222::1,,222222222222",
"22222222222222222222222222222222222....+22222222222222222222222222222222222222::1,,2222222222222",
"2222222222222222222222222222222222222..++2222222222222222222222222222222222222:11,,2222222222222",
"2222222222222222222222222222222222222X..++22222222222222222222222222222222222::11,22222222222222",
"222222222222222222222222222222222222222.+++222222222222222222222222222222222::11,,22222222222222",
"2222222222222222222222222222222222222222.+++2222222222222222222222222222222::11,,222222222222222",
"2222222222222222222222222222222222222222..+++.2222222222222222222222222222::111,2222222222222222",
"22222222222222222222222222222222222222112...+..%222222222222222222222222::1111,22222222222222222",
"22222222222222222222222222222222222222&112.....+.222222222222222222.222::1111,222222222222222222",
"222222222222222222222222222222222222222&1122.....+..222222222222....2::11111,2222222222222222222",
"2222222222222222222222222222222222222222111222....................2::111111122222222222222222222",
"22222222222222222222222222222222222222222111122222..............:::11111112222222222222222222222",
"22222222222222222222222222222222222222222211111222222.........::11111111122222222222222222222222",
"222222222222222222222222222222222222222222221111222222222221111111111112222222222222222222222222",
"222222222222222222222222222222222222222222222111111111111111111111111222222222222222222222222222",
"222222222222222222222222222222222222222222222221111111111111111111222222222222222222222222222222",
"222222222222222222222222222222222222222222222222221111111111111222222222222222222222222222222222",
"222222222222222222222222222222222222222222222222222222222222222222222222222222222222222222222222",
"222222222222222222222222222222222222222222222222222222222222222222222222222222222222222222222222",
"222222222222222222222222222222222222222222222222222222222222222222222222222222222222222222222222",
"222222222222222222222222222222222222222222222222222222222222222222222222222222222222222222222222",
"222222222222222222222222222222222222222222222222222222222222222222222222222222222222222222222222",
"222222222222222222222222222222222222222222222222222222222222222222222222222222222222222222222222",
"222222222222222222222222222222222222222222222222222222222222222222222222222222222222222222222222",
"222222222222222222222222222222222222222222222222222222222222222222222222222222222222222222222222"
};
