/* XPM */
static char *result[] = {
/* columns rows colors chars-per-pixel */
"96 80 15 1 ",
"  c #1A1625",
". c #231A35",
"X c #271C3B",
"o c #352253",
"O c #3A245C",
"+ c #412561",
"@ c #4E2467",
"# c #7C257E",
"$ c #8C2E93",
"% c #9C36A6",
"& c #A43BB1",
"* c #C056AC",
"= c #CB61A9",
"- c #D269A6",
"; c None",
/* pixels */
";;;;;;;;;;;;;;;;;;;;;;;;;;;;;;;;;;;;;;;;;;;;;;;;;;;;;;;;;;;;;;;;;;;;;;;;;;;;;;;;;;;;;;;;;;;;;;;;",
";;;;;;;;;;;;;;;;;;;;;;;;;;;;;;;;;;;;;;;;;;;;;;;;;;;;;;;;;;;;;;;;;;;;;;;;;;;;;;;;;;;;;;;;;;;;;;;;",
";;;;;;;;;;;;;;;;;;;;;;;;;;;;;;;;;;;;;;;;;;;;;;;;;;;;;;;;;;;;;;;;;;;;;;;;;;;;;;;;;;;;;;;;;;;;;;;;",
";;;;;;;;;;;;;;;;;;;;;;;;;;;;;;;;;;;;;;;;;;;;;;;;;;;;;;;;;;;;;;;;;;;;;;;;;;;;;;;;;;;;;;;;;;;;;;;;",
";;;;;;;;;;;;;;;;;;;;;;;;;;;;;;;;;;;;;;;;;;;;;;;;;;;;;;;;;;;;;;;;;;;;;;;;;;;;;;;;;;;;;;;;;;;;;;;;",
";;;;;;;;;;;;;;;;;;;;;;;;;;;;;;;;;;;;;;;;;;;;;;;;;;;;;;;;;;;;;;;;;;;;;;;;;;;;;;;;;;;;;;;;;;;;;;;;",
";;;;;;;;;;;;;;;;;;;;;;;;;;;;;;;;;;;;;;;;;;;;;;;;;;;;;;;;;;;;;;;;;;;;;;;;;;;;;;;;;;;;;;;;;;;;;;;;",
";;;;;;;;;;;;;;;;;;;;;;;;;;;;;;;;;;;;;;;;;;;;;;;;;;;;;;;;;;;;;;;;;;;;;;;;;;;;;;;;;;;;;;;;;;;;;;;;",
";;;;;;;;;;;;;;;;;;;;;;;;;;;;;;;;;;;;;;;;;;;;;;;;;;;;;;;;;;;;;;;;;;;;;;;;;;;;;;;;;;;;;;;;;;;;;;;;",
";;;;;;;;;;;;;;;;;;;;;;;;;;;;;;;;;;;;;;;;;;;;;;;;;;;;;;;;;;;;;;;;;;;;;;;;;;;;;;;;;;;;;;;;;;;;;;;;",
";;;;;;;;;;;;;;;;;;;;;;;;;;;;;;;;;;;;;;;;;;;;;;;;;;;;;;;;;;;;;;;;;;;;;;;;;;;;;;;;;;;;;;;;;;;;;;;;",
";;;;;;;;;;;;;;;;;;;;;;;;;;;;;;;;;;;;;;;;;;;;;;;;;;;;;;;;;;;;;;;;;;;;;;;;;;;;;;;;;;;;;;;;;;;;;;;;",
";;;;;;;;;;;;;;;;;;;;;;;;;;;;;;;;;;;;;;;;;;###;;;;;;;;;;;;;;;;;;;;;;;;;;;;;;;;;;;;;;;;;;;;;;;;;;;",
";;;;;;;;;;;;;;;;;;;;;;;;;;;;;;;;;;;;;;;;;;######;;;;;;;;;;;;;;;;;;;;;;;;;;;;;;;;;;;;;;;;;;;;;;;;",
";;;;;;;;;;;;;;;;;;;;;;;;;;;;;;;;;;;;;;;;;;;;;######;;;;;;;;;;;;;;;;;;;;;;;;;;;;;;;;;;;;;;;;;;;;;",
";;;;;;;;;;;;;;;;;;;;;;;;;;;;;;;;;;;;;;;;;;;;;;;;#####;;;;;;;;;;;;;;;;;;;;;;;;;;;;;;;;;;;;;;;;;;;",
";;;;;;;;;;;;;;;;;;;;;;;;;;;;;;;;;;;;;;;;;;;;;;;;;######;;;;;;;;;;;;;;;;;;;;;;;;;;;;;;;;;;;;;;;;;",
";;;;;;;;;;;;;;;;;;;;;;;;;;;;;;;;;;;;;;;;;;;;;;;;;;;#####;;;;;;;;;;;;;;;;;;;;;;;;;;;;;;;;;;;;;;;;",
";;;;;;;;;;;;;;;;;;;;;;;;;;;;;;;;;;;;;;;;;;;;;;;;;;;;;#####;;;;;;;;;;;;;;;;;;;;;;;;;;;;;;;;;;;;;;",
";;;;;;;;;;;;;;;;;;;;;;;;;;;;;;;;;;;;;;;;;;;;;;;;;;;;;;#####;;;;;;;;;;;;;;;;;;;;;;;;;;;;;;;;;;;;;",
";;;;;;;;;;;;;;;;;;;;;;;;;;;;;;;;;;;;;;;;;;;;;;;;;;;;;;;#####;;;;;;;;;;;;;;;;;;;;;;;;;;;;;;;;;;;;",
";;;;;;;;;;;;;;;;;;;;;;;;;;;;;;;;;;;;;;;;;;;;;;;;;;;;;;;#####;;;;;;;;;;;;;;;;;;;;;;;;;;;;;;;;;;;;",
";;;;;;;;;;;;;;;;;;;;;;;;;;;;;;;;;;;;;;--;---;-%;;;;;;;;;#####;;;;;;;;;;;;;;;;;;;;;;;;;;;;;;;;;;;",
";;;;;;;;;;;;;;;;;;;;;;;;;;;;;;;;;;;;------------%;;;;;;;######;;;;;;;;;;;;;;;;;;;;;;;;;;;;;;;;;;",
";;;;;;;;;;;;;;;;;;;;;;;;;;;;;;;;;;--------=@-----%%;;;;;;#####;;;;;;;;;;;;;;;;;;;;;;;;;;;;;;;;;;",
";;;;;;;;;;;;;;;;;;;;;;;;;;;;;;;;------=====;o=@---%%;;;;;;####;;;;;;;;;;;;;;;;;;;;;;;;;;;;;;;;;;",
";;;;;;;;;;;;;;;;;;;;;;;;;;;;;;;-----==;;;;;;;;;oo@-%%%;;;;;####;;;;;;;;;;;;;;;;;;;;;;;;;;;;;;;;;",
";;;;;;;;;;;;;;;;;;;;;;;;;;;;;;---====;;;;;;;;;;;;;;%%%;;;;;####;;;;;;;;;;;;;;;;;;;;;;;;;;;;;;;;;",
";;;;;;;;;;;;;;;;;;;;;;;;;;;;;----=;;;;;;;;;;;;;;;;;;%%%;;;;;###;;;;;;;;;;;;;;;;;;;;;;;;;;;;;;;;;",
";;;;;;;;;;;;;;;;;;;;;;;;;;;;;---=;;;;;;;;;;;;;;;;;;;%%%%;;;;###;;;;;;;;;;;;;;;;;;;;;;;;;;;;;;;;;",
";;;;;;;;;;;;;;;;;;;;;;;;;;;;---=;;;;;;;;;;;;;;;;;;;;o%%%;;++####;;;;;;;;;;;;;;;;;;;;;;;;;;;;;;;;",
";;;;;;;;;;;;;;;;;;;;;;;;;;;---=;;;;;;;;;;;;;;;;;;;;;;%%%;;;#####;;;;;;;;;;;;;;;;;;;;*;;;;;;;;;;;",
";;;;;;;;;;;;;;;;;;;;;;;;;;;--=;;;;;;;;;;;;;;;;;;;;;;;%%%;;;+####;;;;;;;;;;;;;;;;;;;;*;;;;;;;;;;;",
";;;;;;;;;;;;;;;;;;;;;;;;;;---=;;;;;;;;;;;;;;;;;;;;;;;%%%;;;+####;;;;;;;;;;;;;;;;;;;;*;;;;;;;;;;;",
";;;;;;;;;;;;;;;;;;;;;;;;;;--=;;;;;;;;;;;;;;XXX  ;;;;%;%%;;;+####;;;;;;;;;;;;;;;;;;;;;;;;;;;;;;;;",
";;;;;;;;;;;;;;;;;;;;;;;;;;--=;;;;;;;;;;;;XXX    ;$;%%%%%%;&+####;;;;;;;;;;;;;;;;;;;;;;;;;;;;;;;;",
";;;;;;;;;;;;;;;;;;;;;;;;;;-==;;;;;;;;;;;X&XX $;;;;;%%%%%;&&+##&&;;;;;;;;;;;;;;;;;;;;;;;;;;;;;;;;",
";;;;;;;;;;;;;;;;;;;;;;;;;;-=;;;;;;;;;;;;&&X $;;;;;X%%%%%&&####&&;;;;;;;;;;;;;;;;;;;;;=;;;;;;;;;;",
";;;;;;;;;;;;;;;;;;;;;;;;;;;=;;;;;;;;;;;&&&$O;;;;;;;$;  &&;####&X;;;;;;;;;;;;;;;;;;;;==;;;;;;;;;;",
";;;;;;;;;;;;;;;;;;;;;;;;;;-=;;;;;;;;;;;&&&;O.;;;;;;$;  O&;&##&&X;;;;;;;;;;;;;;;;;;;;==;;;;;;;;;;",
";;;;;;;;;;;;;;;;;;;;;;;;;;-;;;;;;;;;;;;&#&;O ;;;;$$$;.OO&;&&&&&X;;;;;;;;;;;;;;;;;;;;==;;;;;;;;;;",
";;;;;;;;;;;;;;;;;;;;;;;;;;==;;;;;%%%;;%&##&& ;;;;$$;;.OO;;&&&&&X;;;;;;;;;;;;;;;;;;;;==;;;;;;;;;;",
";;;;;;;;;;;;;;;;;;;;;;;;;;;=;;;;;%%%%%%&#+XX;;;;;;;;;;O ;;&&&&X;;;;;;;;;;;;;;;;;;;;;==;;;;;;;;;;",
";;;;;;;;;;;;;;;;;;;;;;;;;;;;;;;;%%%%%%%##+;;;;;;;;;;;;   &&&&&X;;;;;;;;;;;;;;;;;;;;==-;;;;;;;;;;",
";;;;;;;;;;;;;;;;;;;;;;;;;;;;;;;;%%%%%%%##+;;;;;;;;;;;;  X&&&&X;;;;;;;;;;;;;;;;;;;;;==-;;;;;;;;;;",
";;;;;;;;;;;;;;;;;;;;;;;;;;;;;;;%%%%%%%%###+$;;;;;;;;; XXX&&&X;;;;;;;;;;;;;;;;;;;;;;==-;;;;;;;;;;",
";;;;;;;;;;;;;;;;;;;;;;;;;;;;;;;%%%%%%%%%##$$;;;;;;;;  XXX&&X;;;;;;;;;;;;;;;;;;;;;;;=-;;;;;;;;;;;",
";;;;;;;;;;;;;;;;;;;;;;;;;;;;;;;%%%%%;%%;##;;;$$      XXXXXXX;;;;;;;;;;;;;;;;;;;;;;==-;;;;;;;;;;;",
";;;;;;;;;;;;;;;;;;;;;;;;;;;;;;;%%%%%;;;;;###;;      XXXXXX;;;;;;;;;;;;;;;;;;;;;;;;==-;;;;;;;;;;;",
";;;;;;;;;;;;;;;;;;;;;;;;;;;;;;;%%%%%;;;;;###;;;;  XXXXX;;;;;;;;;;;;;;;;;;;;;;;;;;==--;;;;;;;;;;;",
";;;;;;;;;;;;;;;;;;;;;;;;;;;;;;;%%%%%;;;;;;###;;;;;;;;;;;;;;;;;;;;;;;;;;;;;;;;;;;;==---;;;;;;;;;;",
";;;;;;;;;;;;;;;;;;;;;;;;;;;;;;;%%%%%;;;;;;;###;;;;;;;;;;;;;;;;;;;;;;;;;;;;;;;;;;==----;;;;;;;;;;",
";;;;;;;;;;;;;;;;;;;;;;;;;;;;;;;%%%%%%;;;;;;;;####;;;;;;;;;;;;;;;;;;;;;;;;;;;;;;;==----;;;;;;;;;;",
";;;;;;;;;;;;;;;;;;;;;;;;;;;;;;;%%%%%o;;;;;;;;;;;###;#;;;;;;;;;;;;;;;;;;;;;;;;;;==-----;;;;;;;;;;",
";;;;;;;;;;;;;;;;;;;;;;;;;;;;;;;%%%%%o;;;;;;;;;;;;;;##;;;;;;;;;;;;;;;;;;;;;;;;;===----;;;;;;;;;;;",
";;;;;;;;;;;;;;;;;;;;;;;;;;;;;;;%%%%%o;;;;;;;;;;;;;;;;;;;;;;;;;;;;;;;;;;;;;;;;;==-----;;;;;;;;;;;",
";;;;;;;;;;;;;;;;;;;;;;;;;;;;;;;;%%%%%o;;;;;;;;;;;;;;;;;;;;;;;;;;;;;;;;;;;;;;;==-----;;;;;;;;;;;;",
";;;;;;;;;;;;;;;;;;;;;;;;;;;;;;;;%%%%%;;;;;;;;;;;;;;;;;;;;;;;;;;;;;;;;;;;;;;;==-----;;;;;;;;;;;;;",
";;;;;;;;;;;;;;;;;;;;;;;;;;;;;;;;%%%%%;;;;;;;;;;;;;;;;;;;;;;;;;;;;;;;;;;;;;;==------;;;;;;;;;;;;;",
";;;;;;;;;;;;;;;;;;;;;;;;;;;;;;;;;%%%%;;;;;;;;;;;;;;;;;;;;;;;;;;;;;;;;;;;;;==------;;;;;;;;;;;;;;",
";;;;;;;;;;;;;;;;;;;;;;;;;;;;;;;;;%%%%%;;;;;;;;;;;;;;;;;;;;;;;;;;;;;;;;;;===------;;;;;;;;;;;;;;;",
";;;;;;;;;;;;;;;;;;;;;;;;;;;;;;;;;;%%%%%;@o;;;;;;;;;;;;;;;;;;;;;;;;;;;;;===------;;;;;;;;;;;;;;;;",
";;;;;;;;;;;;;;;;;;;;;;;;;;;;;;;;;;;%%%%-;@oo;;;;;;;;;;;;;;;;;;;;;;;;;====------;;;;;;;;;;;;;;;;;",
";;;;;;;;;;;;;;;;;;;;;;;;;;;;;;;;;;;;%%%---@@oo;;;;;;;;;;;;;;;;;;;;;=====------;;;;;;;;;;;;;;;;;;",
";;;;;;;;;;;;;;;;;;;;;;;;;;;;;;;;;;;;;%%%----@==o=;;;;;;;;;;;;;;;======-------;;;;;;;;;;;;;;;;;;;",
";;;;;;;;;;;;;;;;;;;;;;;;;;;;;;;;;;;;;;%%------@==o=;;;;;;;;;;;======--------;;;;;;;;;;;;;;;;;;;;",
";;;;;;;;;;;;;;;;;;;;;;;;;;;;;;;;;;;;;;;%%-------@@================---------;;;;;;;;;;;;;;;;;;;;;",
";;;;;;;;;;;;;;;;;;;;;;;;;;;;;;;;;;;;;;;;;%---------@@=========------------;;;;;;;;;;;;;;;;;;;;;;",
";;;;;;;;;;;;;;;;;;;;;;;;;;;;;;;;;;;;;;;;;%%%----------------------------;;;;;;;;;;;;;;;;;;;;;;;;",
";;;;;;;;;;;;;;;;;;;;;;;;;;;;;;;;;;;;;;;;;;;%%-------------------------;;;;;;;;;;;;;;;;;;;;;;;;;;",
";;;;;;;;;;;;;;;;;;;;;;;;;;;;;;;;;;;;;;;;;;;;;%;---------------------;;;;;;;;;;;;;;;;;;;;;;;;;;;;",
";;;;;;;;;;;;;;;;;;;;;;;;;;;;;;;;;;;;;;;;;;;;;;;;%;---------------;;;;;;;;;;;;;;;;;;;;;;;;;;;;;;;",
";;;;;;;;;;;;;;;;;;;;;;;;;;;;;;;;;;;;;;;;;;;;;;;;;;;;;;;;;;--;;;;;;;;;;;;;;;;;;;;;;;;;;;;;;;;;;;;",
";;;;;;;;;;;;;;;;;;;;;;;;;;;;;;;;;;;;;;;;;;;;;;;;;;;;;;;;;;;;;;;;;;;;;;;;;;;;;;;;;;;;;;;;;;;;;;;;",
";;;;;;;;;;;;;;;;;;;;;;;;;;;;;;;;;;;;;;;;;;;;;;;;;;;;;;;;;;;;;;;;;;;;;;;;;;;;;;;;;;;;;;;;;;;;;;;;",
";;;;;;;;;;;;;;;;;;;;;;;;;;;;;;;;;;;;;;;;;;;;;;;;;;;;;;;;;;;;;;;;;;;;;;;;;;;;;;;;;;;;;;;;;;;;;;;;",
";;;;;;;;;;;;;;;;;;;;;;;;;;;;;;;;;;;;;;;;;;;;;;;;;;;;;;;;;;;;;;;;;;;;;;;;;;;;;;;;;;;;;;;;;;;;;;;;",
";;;;;;;;;;;;;;;;;;;;;;;;;;;;;;;;;;;;;;;;;;;;;;;;;;;;;;;;;;;;;;;;;;;;;;;;;;;;;;;;;;;;;;;;;;;;;;;;",
";;;;;;;;;;;;;;;;;;;;;;;;;;;;;;;;;;;;;;;;;;;;;;;;;;;;;;;;;;;;;;;;;;;;;;;;;;;;;;;;;;;;;;;;;;;;;;;;",
";;;;;;;;;;;;;;;;;;;;;;;;;;;;;;;;;;;;;;;;;;;;;;;;;;;;;;;;;;;;;;;;;;;;;;;;;;;;;;;;;;;;;;;;;;;;;;;;"
};
