/* XPM */
static char *result[] = {
/* columns rows colors chars-per-pixel */
"96 80 17 1 ",
"  c #1A1625",
". c #221A33",
"X c #241B37",
"o c #2B1D41",
"O c #2B1D42",
"+ c #2D1F46",
"@ c #32214E",
"# c #332150",
"$ c #6D2374",
"% c #772378",
"& c #7E2781",
"* c #8E2F95",
"= c #9C36A6",
"- c #A23AAE",
"; c #A73DB3",
": c #C55BAA",
"> c None",
/* pixels */
">>>>>>>>>>>>>>>>>>>>>>>>>>>>>>>>>>>>>>>>>>>>>>>>>>>>>>>>>>>>>>>>>>>>>>>>>>>>>>>>>>>>>>>>>>>>>>>>",
">>>>>>>>>>>>>>>>>>>>>>>>>>>>>>>>>>>>>>>>>>>>>>>>>>>>>>>>>>>>>>>>>>>>>>>>>>>>>>>>>>>>>>>>>>>>>>>>",
">>>>>>>>>>>>>>>>>>>>>>>>>>>>>>>>>>>>>>>>>>>>>>>>>>>>>>>>>>>>>>>>>>>>>>>>>>>>>>>>>>>>>>>>>>>>>>>>",
">>>>>>>>>>>>>>>>>>>>>>>>>>>>>>>>>>>>>>>>>>>>>>>>>>>>>>>>>>>>>>>>>>>>>>>>>>>>>>>>>>>>>>>>>>>>>>>>",
">>>>>>>>>>>>>>>>>>>>>>>>>>>>>>>>>>>>>>>>>>>>>>>>>>>>>>>>>>>>>>>>>>>>>>>>>>>>>>>>>>>>>>>>>>>>>>>>",
">>>>>>>>>>>>>>>>>>>>>>>>>>>>>>>>>>>>>>>>>>>>>>>>>>>>>>>>>>>>>>>>>>>>>>>>>>>>>>>>>>>>>>>>>>>>>>>>",
">>>>>>>>>>>>>>>>>>>>>>>>>>>>>>>>>>>>>>>>>>>>>>>>>>>>>>>>>>>>>>>>>>>>>>>>>>>>>>>>>>>>>>>>>>>>>>>>",
">>>>>>>>>>>>>>>>>>>>>>>>>>>>>>>>>>>>>>>>>>>>>>>>>>>>>>>>>>>>>>>>>>>>>>>>>>>>>>>>>>>>>>>>>>>>>>>>",
">>>>>>>>>>>>>>>>>>>>>>>>>>>>>>>>>>>>>>>>>>>>>>>>>>>>>>>>>>>>>>>>>>>>>>>>>>>>>>>>>>>>>>>>>>>>>>>>",
">>>>>>>>>>>>>>>>>>>>>>>>>>>>>>>>>>>>>>>>>>>>>>>>>>>>>>>>>>>>>>>>>>>>>>>>>>>>>>>>>>>>>>>>>>>>>>>>",
">>>>>>>>>>>>>>>>>>>>>>>>>>>>>>>>>>>>>>>>>>>>>>>>>>>>>>>>>>>>>>>>>>>>>>>>>>>>>>>>>>>>>>>>>>>>>>>>",
">>>>>>>>>>>>>>>>>>>>>>>>>>>>>>>>>>>>;;;;;;;>>>>>>>>>>>>>>>>>>>>>>>>>>>>>>>>>>>>>>>>>>>>>>>>>>>>>",
">>>>>>>>>>>>>>>>>>>>>>>>>>>>>>>;;;;;;;;;;;;;;;;;>>>>>>>>>>>>>>>>>>>>>>>>>>>>>>>>>>>>>>>>>>>>>>>>",
">>>>>>>>>>>>>>>>>>>>>>>>>>>>;;;;;;;;;;;;;;;;;;;;;;;>>>>>>>>>>>>>>>>>>>>>>>>>>>>>>>>>>>>>>>>>>>>>",
">>>>>>>>>>>>>>>>>>>>>>>>>>;;;;;;;;;;;;;;;;;;;;;;;;;;;>>>>>>>>>>>>>>>>>>>>>>>>>>>>>>>>>>>>>>>>>>>",
">>>>>>>>>>>>>>>>>>>>>>>>;;;;;;;;;;;;;;;;;;;;;;;;;;;;;;>>>>>>>>>>>>>>>>>>>>>>>>>>>>>>>>>>>>>>>>>>",
">>>>>>>>>>>>>>>>>>>>>>;;;;;;;;;;;;=========;;;;;;;;;;;;>>>>>>>>>>>>>>>>>>>>>>>>>>>>>>>>>>>>>>>>>",
">>>>>>>>>>>>>>>>>>>>>;;;;;;;;;================;;;;;;;;;;;>>>>>>>>>>>>>>>>>>>>>>>>>>>>>>>>>>>>>>>",
">>>>>>>>>>>>>>>>>>>>;;;;;;;;=========>>>>>=======;;;;;;;;;>>>>>>>>>>>>>>>>>>>>>>>>>>>>>>>>>>>>>>",
">>>>>>>>>>>>>>>>>>>;;;;;;;======>>>>>>>>>>>>>======;;;;;;;;>>>>>>>>>>>>>>>>>>>>>>>>>>>>>>>>>>>>>",
">>>>>>>>>>>>>>>>>>;;;;;;=====>>>>>>>>>>>>>>>>>>>====;;;;;;;;>>>>>>>>>>>>>>>>>>>>>>>>>>>>>>>>>>>>",
">>>>>>>>>>>>>>>>>;;;;;;====>>>>>>>>>>>>>>>>>>>>>>>====;;;;;;>>>>>>>>>>>>>>>>>>>>>>>>>>>>>>>>>>>>",
">>>>>>>>>>>>>>>>;;;;;*===>>>>>>>>>>>>>>>>-->>>>>>>>>===;;;;;;>>>>>>>>>>>>>>>>>>>>>>>>>>>>>>>>>>>",
">>>>>>>>>>>>>>>;;;;;*===>>>>>>>>>>>>>----------->>>>>===;;;;;;>>>>>>>>>>>>>>>>>>>>>>>>>>>>>>>>>>",
">>>>>>>>>>>>>>;;;;;*==>>>>>>>>>>>>--------%%-----:>>>>===;;;;;>>>>>>>>>>>>>>>>>>>>>>>>>>>>>>>>>>",
">>>>>>>>>>>>>;;;;;*==>>>>>>>>>>>>-----%>>>>>>>:---:>>>>===;;;;>>>>>>>>>>>>>>>>>>>>>>>>>>>>>>>>>>",
">>>>>>>>>>>>>;;;;*==>>>>>>>>>>>----->>>>>>>>>>>>>:-:>>>>===;;;;>>>>>>>>>>>>>>>>>>>>>>>>>>>>>>>>>",
">>>>>>>>>>>>>;;;*==>>>>>>>>>>>>--%>>>>>>>>>>>>>>>>:::>>>>==;;;;>>>>>>>>>>>>>>>>>>>>>>>>>>>>>>>>>",
">>>>>>>>>>>>;;;;==>>>>>>>>>>>>--->>>>>>>>>>>>>>>>> :::>>>===;;;>>>>>>>>>>>>>>>>>>>>>>>>>>>>>>>>>",
">>>>>>>>>>>;;;;*=O>>>>>>>>>>>-->>>>>>>>>>>>>>>>>>>  :::>>>#=;;;>>>>>>>>>>>>>>>>>>>>>>>>>>>>>>>>>",
">>>>>>>>>>>;;;***>>>>>>>>>>>--->>>>>>>>>>>>>>>>>>>> :::>>>##;;;>>>>>>>>>>>>>>>>>>>>>>>>>>>>>>>>>",
">>>>>>>>>>;;;;*=>>>>>>>>>>>>-->>>>>>>>>>>>>>>>>>>>>  ::@>>>#O;;;>>>>>>>>>>>>>>>>>>>>>>>>>>>>>>>>",
">>>>>>>>>>;;;**O>>>>>>>>>>>-->>>>>>>>>>>>>>>>>>>>>>> :::>>>#OO;;>>>>>>>>>>>>>>>>>>>>>>>>>>>>>>>>",
">>>>>>>>>>;;;**>>>>>>>>>>>-->>>>>>>>>>>>>>>>>>>>>>>> :::>>>##O;;>>>*>>>>>>>>>>>>>>>>>>>>>>>>>>>>",
">>>>>>>>>>>;**O>>>>>>>>>>>>->>>>>>>>>>>>>@     $>.>>: ::>>>##O;@>>>*>>>>>>>>>>>>>>>>>>>>>>>>>>>>",
">>>>>>>>>>>;**>>>>>>>>>>>>->>>>>>>>>>>>  &&&   $$@@> ::@>>###O;>>&>*>>>>>>>>>>>>>>>>>>>>>>>>>>>>",
">>>>>>>>>>>***>>>>>>>>>>>>->>>>>>>>>>  o&&&    $@@@>  @@>>###OO>&&>*>>>>>>>>>>>>>>>>>>>>>>>>>>>>",
">>>>>>>>>>>**>>>>>>>>>>>>>>>>>>>>>>>@@@&&&+    >@@@@  @@>>>#;OO>&>>*;>>>>>>>>>>>>>>>>>>>>>>>>>>>",
">>>>>>>>>>;**>>>>>>>>>>>>>>>>>>>>>>@@@@&&&+ >>>>@@.  @@>&>>#;OO&&>>*>>>>>>>>>>>>>>>>>>>>>>>>>>>>",
">>>>>>>>>>***>>>>>>>>>>>>>>>>>>>>>>@@@oXO+ &&&&>oo   @@&&>>#;O&&@>>*>>>>>>>>>>>>>>>>>>>>>>>>>>>>",
">>>>>>>>>>***>>>>>>>>>>>>>>>>>>>>>@@@@@X; .&>@@@      &&&>OOOOX@@>*;;>>>>>>>>>>>>>>>>>>>>>>>>>>>",
">>>>>>>>>>**>>>>>>>>>>>>>>>>>>>>>@@@@ &O;#.>>>@@     &&>>++OO&X@@>*;;>>>>>>>>>>>>>>>>>>>>>>>>>>>",
">>>>>>>>>>**>>>>>>>>>>>>>>>>>>>>>@@@  &OO#>>>>>>  >>>>>>+++&&&X@o**;;>>>>>>>>>>>>>>>>>>>>>>>>>>>",
">>>>>>>>>>**>>>>>>>>>>>>>>>>>>>>@@@@   @O#>>>>>>>>>>>>>>++&&&&&>>=;;>>>>>>>>>>>>>>>>>>>>>>>>>>>>",
">>>>>>>>>>**>>>>>>>>>>>>>>>>>>>>@@:::: ;O#>>>>>>>>>>>>>+++&&&&&>=*;;>>>>>>>>>>>>>>>>>>>>>>>>>>>>",
">>>>>>>>>>**>>>>>>>>>>>>>>>>>>>>@::::: ;;;#>>>$$$>>>>>>>&&&&&&@==;;>>>>>>>>>>>>>>>>>>>>>>>>>>>>>",
">>>>>>>>>>*>>>>>>>>>>>>>>>>>>>>>:::::: >;;=>>$$$$>>>>>>&&&&&&@==;;;>>>>>>>>>>>>>>>>>>>>>>>>>>>>>",
">>>>>>>>>>>>>>>>>>>>>>>>>>>>>>>>:::: : >;;==>$$$>>>>>>&&&&&&@o=;;;>>>>>>>>>>>>>>>>>>>>>>>>>>>>>>",
">>>>>>>>>>>>>>>>>>>>>>>>>>>>>>>@:::: :>>>;;;=>$$>>>>>>&&&&>>==;;;>>>>>>>>>>>>>>>>>>>>>>>>>>>>>>>",
">>>>>>>>>>>>>>>>>>>>>>>>>>>>>>>@::::  >>>;;;;==>>>>>>>>>>>===;;;;>>>>>>>>>>>>>>>>>>>>>>>>>>>>>>>",
">>>>>>>>>>>>>>>>>>>>>>>>>>>>>>>@::::  >>>>;;;;;====>>>>====;;;;;>>>>>>>>>>>>>>>>>>>>->>>>>>>>>>>",
">>>>>>>>>>>>>>>>>>>>>>>>>>>>>>>@::::  >>>>>;;;;;;========;;;;;;>>>>>>>>>>>>>>>>>>>>-->>>>>>>>>>>",
">>>>>>>>>>>>>>>>>>>>>>>>>>>>>>>@:::::  >>>>>;;;;;;;;;;;;;;;;;>>>>>>>>>>>>>>>>>>>>>>-->>>>>>>>>>>",
">>>>>>>>>>>>>>>>>>>>>>>>>>>>>>>>:::::  >>>>>>>;;;;;;;;;;;;;>>>>>>>>>>>>>>>>>>>>>>>-->>>>>>>>>>>>",
">>>>>>>>>>>>>>>>>>>>>>>>>>>>>>>>>::::  >>>>>>>>>>>;;;;;;>>>>>>>>>>>>>>>>>>>>>>>>>--->>>>>>>>>>>>",
">>>>>>>>>>>>>>>>>>>>>>>>>>>>>>>>>::::   >>>>>>>>>>>>>>>>>>>>>>>>>>>>>>>>>>>>>>>>>--->>>>>>>>>>>>",
">>>>>>>>>>>>>>>>>>>>>>>>>>>>>>>>>:::::  >>>>>>>>>>>>>>>>>>>>>>>>>>>>>>>>>>>>>>>>--->>>>>>>>>>>>>",
">>>>>>>>>>>>>>>>>>>>>>>>>>>>>>>>>:::::   >>>>>>>>>>>>>>>>>>>>>>>>>>>>>>>>>>>>>>---->>>>>>>>>>>>>",
">>>>>>>>>>>>>>>>>>>>>>>>>>>>>>>>>>:::::   >>>>>>>>>>>>>>>>>>>>>>>>>>>>>>>>>>>>---->>>>>>>>>>>>>>",
">>>>>>>>>>>>>>>>>>>>>>>>>>>>>>>>>>::::::>>>>>>>>>>>>>>>>>>>>>>>>>>>>>>>>>>>>>---->>>>>>>>>>>>>>>",
">>>>>>>>>>>>>>>>>>>>>>>>>>>>>>>>>>>:::::>>>>>>>>>>>>>>>>>>>>>>>>>>>>>>>>>>>>---->>>>>>>>>>>>>>>>",
">>>>>>>>>>>>>>>>>>>>>>>>>>>>>>>>>>>>:::::>>>>>>>>>>>>>>>>>>>>>>>>>>>>>>>>>>---->>>>>>>>>>>>>>>>>",
">>>>>>>>>>>>>>>>>>>>>>>>>>>>>>>>>>>>:::-::>>>>>>>>>>>>>>>>>>>>>>>>>>>>>>%----->>>>>>>>>>>>>>>>>>",
">>>>>>>>>>>>>>>>>>>>>>>>>>>>>>>>>>>>>::---::>>>>>>>>>>>>>>>>>>>>>>>>>>>%----->>>>>>>>>>>>>>>>>>>",
">>>>>>>>>>>>>>>>>>>>>>>>>>>>>>>>>>>>>>::----:%>>>>>>>>>>>>>>>>>>>>>>>%------>>>>>>>>>>>>>>>>>>>>",
">>>>>>>>>>>>>>>>>>>>>>>>>>>>>>>>>>>>>>>:------:%>>>>>>>>>>>>>>>>>>>%------->>>>>>>>>>>>>>>>>>>>>",
">>>>>>>>>>>>>>>>>>>>>>>>>>>>>>>>>>>>>>>>:-------%%%%>>>>>>>>>>>>%%-------->>>>>>>>>>>>>>>>>>>>>>",
">>>>>>>>>>>>>>>>>>>>>>>>>>>>>>>>>>>>>>>>>:---------%%%%%%%%%%%---------->>>>>>>>>>>>>>>>>>>>>>>>",
">>>>>>>>>>>>>>>>>>>>>>>>>>>>>>>>>>>>>>>>>>>:--------------------------->>>>>>>>>>>>>>>>>>>>>>>>>",
">>>>>>>>>>>>>>>>>>>>>>>>>>>>>>>>>>>>>>>>>>>>>----------------------->>>>>>>>>>>>>>>>>>>>>>>>>>>>",
">>>>>>>>>>>>>>>>>>>>>>>>>>>>>>>>>>>>>>>>>>>>>>>>------------------>>>>>>>>>>>>>>>>>>>>>>>>>>>>>>",
">>>>>>>>>>>>>>>>>>>>>>>>>>>>>>>>>>>>>>>>>>>>>>>>>>>----------->>>>>>>>>>>>>>>>>>>>>>>>>>>>>>>>>>",
">>>>>>>>>>>>>>>>>>>>>>>>>>>>>>>>>>>>>>>>>>>>>>>>>>>>>>>>>>>>>>>>>>>>>>>>>>>>>>>>>>>>>>>>>>>>>>>>",
">>>>>>>>>>>>>>>>>>>>>>>>>>>>>>>>>>>>>>>>>>>>>>>>>>>>>>>>>>>>>>>>>>>>>>>>>>>>>>>>>>>>>>>>>>>>>>>>",
">>>>>>>>>>>>>>>>>>>>>>>>>>>>>>>>>>>>>>>>>>>>>>>>>>>>>>>>>>>>>>>>>>>>>>>>>>>>>>>>>>>>>>>>>>>>>>>>",
">>>>>>>>>>>>>>>>>>>>>>>>>>>>>>>>>>>>>>>>>>>>>>>>>>>>>>>>>>>>>>>>>>>>>>>>>>>>>>>>>>>>>>>>>>>>>>>>",
">>>>>>>>>>>>>>>>>>>>>>>>>>>>>>>>>>>>>>>>>>>>>>>>>>>>>>>>>>>>>>>>>>>>>>>>>>>>>>>>>>>>>>>>>>>>>>>>",
">>>>>>>>>>>>>>>>>>>>>>>>>>>>>>>>>>>>>>>>>>>>>>>>>>>>>>>>>>>>>>>>>>>>>>>>>>>>>>>>>>>>>>>>>>>>>>>>",
">>>>>>>>>>>>>>>>>>>>>>>>>>>>>>>>>>>>>>>>>>>>>>>>>>>>>>>>>>>>>>>>>>>>>>>>>>>>>>>>>>>>>>>>>>>>>>>>",
">>>>>>>>>>>>>>>>>>>>>>>>>>>>>>>>>>>>>>>>>>>>>>>>>>>>>>>>>>>>>>>>>>>>>>>>>>>>>>>>>>>>>>>>>>>>>>>>"
};
