/* XPM */
static char *_28dabae9ba14977f592bd4b2a4f42b5vSK35sixPVVnK590[] = {
/* columns rows colors chars-per-pixel */
"96 80 16 1 ",
"  c None",
". c #E8A3C6",
"X c #E59AC0",
"o c #822985",
"O c #642470",
"+ c #742377",
"@ c #231A34",
"# c #211930",
"$ c #60246E",
"% c #1E182C",
"& c #7B257D",
"* c #261B39",
"= c #412561",
"- c #281C3D",
"; c #4A2465",
": c white",
/* pixels */
"                                                                                                ",
"                                                                                                ",
"                                                                                                ",
"                                                                                                ",
"                                                                                                ",
"                                                                                                ",
"                                                                                                ",
"                                                                                                ",
"                                                                                                ",
"                                                                                                ",
"                                                                                                ",
"                                  ....                                                          ",
"                              ...........                                                       ",
"                            ..............XX                                                    ",
"                         .........XXXXXXXXXXXXXX                                                ",
"                        .......XXXXXXXXXXXXXXXXXXXX                                             ",
"                      ......XXXXXXXXXXXXXXXXXXXXXXXX                                            ",
"                     .....XXXX             XXXXXXXXXXX                                          ",
"                   .....XXX                    XXXXXXXX                                         ",
"                  .....X                         XXXXXXX                                        ",
"                 ....X                             XXXXXX                                       ",
"                ....                                 XXXX                                       ",
"                ...                      ooooo        XXXX                                      ",
"               ...                   oooooooooooo      XXX                                      ",
"              ..                   oooooooOoooooooo     XXX                                     ",
"             ..                  ooooOOOOOO++Ooooooo     XX                                     ",
"            ...                 oooOOO+@#  + ++@+oooo     X                                     ",
"            ..                  oOOO@          +++oooo     X                                    ",
"           ..                  oOO               ++ooo                                          ",
"           .                  OOO                 ++ooo                                         ",
"          .                   OO                   +ooo                                         ",
"                             OO@                   ++ooo                                        ",
"                             O@                     +ooo                                        ",
"                            OO            $$$$%     +ooo                                        ",
"                            O           $$$&&$$%%   o+oo                                        ",
"                           OO          $$%%%&&&$&%*oooo                                         ",
"                           OO          @%==-&$$$&&& oooo                                        ",
"                          OO         @@@=@=      && oo@@                             O          ",
"                           O        @@@@=@         =@@@                              O          ",
"                          O        @@@@@*    ;     *@@                               O          ",
"                          O       @@@@@*    -=     @@                               OO          ",
"                          OO     @@@@@@*    - &&$$$$$                               OO          ",
"                                 @ooooo        &$$$                 .               OO          ",
"                                 ooooooo                    =                       OO          ",
"                                 ooooooo               -=  ==      .                OO          ",
"                                 ooooooo      $     &&-=====%     .                OOO          ",
"                                oooooooo** %% $$ &&&&&-====%     ..                OO           ",
"                                oooo+oo **X%%%%$&&&&&&====%%    ...               OOO           ",
"                               ooooo+++    X%%%$$&&&&&%%%%%$   X..                OOO           ",
"                               ooooo+++    XX%%%$$$$&&%$$%   X...                OOO            ",
"                               ooooo+++     XXX %%$$$$$$   XX...                 OOO            ",
"                               ooooo+++      XXXXXXX  XXXXX....                 OOO             ",
"                               oooooo++       XXXXXXXXXXX....                  @OOO             ",
"                                ooooo++          XXXX.......                   OOO              ",
"                                ooooo+++               ..                     OOOO              ",
"                                ooooo+++                                     @OOO               ",
"                                 ooooo+++                                   @OOO                ",
"                                 ooooo+++                                  @OOO                 ",
"                                 oooooo+++                                @OOOO                 ",
"                                  oooooo+++                              @OOOO                  ",
"                                  oooooo@+++                            @OOOO                   ",
"                                   oooooo@++++                         OOOOO                    ",
"                                   ooooooo@++++                      @OOOOo                     ",
"                                    oooooooo@++++                  @OOOOOo                      ",
"                                     ooooooooOO+++++     #      @OOOOOOooo                      ",
"                                      oooooooooOO+++++++++ @++OOOOOOOoooo                       ",
"                                       oooooooooooOOOOOOOOOOOOOOOOOooooo                        ",
"                                         ooooooooooooOOOOOOOOOOOoooooo                          ",
"                                          oooooooooooooooooooooooooooo                          ",
"                                           oooooooooooooooooooooooo                             ",
"                                              oooooooooooooooooooo                              ",
"                                                 ooooooooooooo                                  ",
"                                                                                                ",
"                                                                                                ",
"                                                                                                ",
"                                                                                                ",
"                                                                                                ",
"                                                                                                ",
"                                                                                                ",
"                                                                                                "
};
