/* XPM */
static char *result[] = {
/* columns rows colors chars-per-pixel */
"96 80 16 1 ",
"  c #1A1625",
". c #1E182C",
"X c #211930",
"o c #281C3D",
"O c #2E1F48",
"+ c #352254",
"@ c #3B255E",
"# c #3F2560",
"$ c #412561",
"% c #7B257D",
"& c #AC42B1",
"* c #CF65A8",
"= c #E290BA",
"- c #E59AC0",
"; c #E8A3C6",
": c None",
/* pixels */
"::::::::::::::::::::::::::::::::::::::::::::::::::::::::::::::::::::::::::::::::::::::::::::::::",
"::::::::::::::::::::::::::::::::::::::::::::::::::::::::::::::::::::::::::::::::::::::::::::::::",
"::::::::::::::::::::::::::::::::::::::::::::::::::::::::::::::::::::::::::::::::::::::::::::::::",
"::::::::::::::::::::::::::::::::::::::::::::::::::::::::::::::::::::::::::::::::::::::::::::::::",
"::::::::::::::::::::::::::::::::::::::::::::::::::::::::::::::::::::::::::::::::::::::::::::::::",
"::::::::::::::::::::::::::::::::::::::::::::::::::::::::::::::::::::::::::::::::::::::::::::::::",
"::::::::::::::::::::::::::::::::::::::::::::::::::::::::::::::::::::::::::::::::::::::::::::::::",
"::::::::::::::::::::::::::::::::::::::::::::::::::::::::::::::::::::::::::::::::::::::::::::::::",
"::::::::::::::::::::::::::::::::::::::::::::::::::::::::::::::::::::::::::::::::::::::::::::::::",
"::::::::::::::::::::::::::::::::::::::::::::::::::::::::::::::::::::::::::::::::::::::::::::::::",
"::::::::::::::::::::::::::::::::::::::::::::::::::::::::::::::::::::::::::::::::::::::::::::::::",
"::::::::::::::::::::::::::::::::::::::::::::::::::::::::::::::::::::::::::::::::::::::::::::::::",
":::::::::::::::::::::::::::::::::=============::::::::::::::::::::::::::::::::::::::::::::::::::",
"::::::::::::::::::::::::::::::===================:::::::::::::::::::::::::::::::::::::::::::::::",
":::::::::::::::::::::::::::**=======================::::::::::::::::::::::::::::::::::::::::::::",
":::::::::::::::::::::::::*===========================:::::::::::::::::::::::::::::::::::::::::::",
":::::::::::::::::::::::***======&&&&&&&&&&&&&==========:::::::::::::::::::::::::::::::::::::::::",
"::::::::::::::::::::::**=====&&&::::        ::&&========::::::::::::::::::::::::::::::::::::::::",
"::::::::::::::::::::***====&&&::::::::          ::=======:::::::::::::::::::::::::::::::::::::::",
":::::::::::::::::::***===&&&::::::::::X::::::     ::======::::::::::::::::::::::::::::::::::::::",
"::::::::::::::::::***==&&&::::::::::::::::::::::    ::=====:::::::::::::::::::::::::::::::::::::",
":::::::::::::::::***==&&::::::::::::::::::::::::::    :=====::::::::::::::::::::::::::::::::::::",
"::::::::::::::::***=&&&::::::::::::::;;;:::::::::::    :====::::::::::::::::::::::::::::::::::::",
":::::::::::::::***=&&::::::::::::::;;;;;;----:-:::::    ====::::::::::::::::::::::::::::::::::::",
"::::::::::::::***=&&::::::::::::::;;;;-----------::::    ====:::::::::::::::::::::::::::::::::::",
"::::::::::::::**=&&:::::::::::::;;;----::::::-----::::O   ====::::::::::::::::::::::::::::::::::",
":::::::::::::**==&:::::::::::::;;---:::::::::::-:--::::O   ===::::::::::::::::::::::::::::::::::",
":::::::::::::**=&&::::::::::::;;-:::::::::::::::::-:::::O   ##::::::::::::::::::::::::::::::::::",
"::::::::::::***&&::::::::::::;;-:::::::::::::::::::-::::O    ##:::::::::::::::::::::::::::::::::",
":::::::::::***&&::::::::::::;;::::::::::::::::::::::-::::O   ##:::::::::::::::::::::::::::::::::",
":::::::::::***&:::::::::::::;::::::::::::::::::::::::::::O   ###::::::::::::::::::::::::::::::::",
"::::::::::***&&::::::::::::;:::::::::::::::::::::::::::::OO  ####:::::::::::::::::::::::::::::::",
"::::::::::***&::::::::::::;::::::::::::::::::+++::::::::OOO   ###:::::::::::::::::::::::::::::::",
"::::::::::**&&:::::::::::::::::::::::::::.......++::::::OOOO   ##:::::::::::::::::::::::::::::::",
":::::::::::*&:::::::::::::::::::::::::....%@@@ %...+:::OOOOO   ##:::::::::::::::::::::::::::::::",
":::::::::::&&::::::::::::::::::::::::.....@@@@ %%o..+::OOOOO   ##:::::::::::::::::::::::::::::::",
":::::::::::&&:::::::::::::::::::::::..$$$ @@@+%%@$++.::OOOOO   #::::::::::::::::::::::::::::::::",
":::::::::::&::::::::::::::::::::::::.$$$ X@ ++%::@@..@:O+OOO   #:::&&:::::::::::::::::::::::::::",
"::::::::::&&:::::::::::::::::::::::.$$$  X ++:::::@@@@$+:OO    :::::::::::::::::::::::::::::::::",
"::::::::::&::::::::::::::::::::::::$$::  O +::::::@o$$.+:OO    ::::&::::::::::::::::::::::::::::",
"::::::::::&::::::::::::::::::::::::$:::  OO+@@@:%%%o$.++:OO    ::::&*:::::::::::::::::::::::::::",
"::::::::::&::::::::::::::::::::::::::::  OOO@..@%%%...++ OO    :::&**:::::::::::::::::::::::::::",
"::::::::::&::::::::::::::::::::::::::::  OOO:+...%..+++        :::&**:::::::::::::::::::::::::::",
"::::::::::::::::::::::::::::::::::::::## OOO::::++:+++    X   :::&&*::::::::::::::::::::::::::::",
":::::::::::::::::::::::::::::::::::::::#  OO$:::::+++  @@ X  ::::&=*::::::::::::::::::::::::::::",
":::::::::::::::::::::::::::::::::::::::##  o$:::::++ @@@@ X  ::::&*:::::::::::::::::::::::::::::",
"::::::::::::::::::::::::::::::::::::::::#  O:%%:    @@@@@   ::::&**:::::::::::::::::::::::::::::",
":::::::::::::::::::::::::::::::::::::::::#  O%%%  @@@@@@@@ ::::=**::::::::::::::::::::::::::::::",
":::::::::::::::::::::::::::::::::::::::::===  %%  @@@@@@:::::&&=*:::::::::::::::::::::::::::::::",
"::::::::::::::::::::::::::::::::::::::::::==:  %  @@@@::::::&==**:::::::::::::::::::::::::::::::",
"::::::::::::::::::::::::::::::::::::::::::====:    %%  :::&&==*:::::::::::::::::::::::::::::::::",
"::::::::::::::::::::::::::::::::::::::::::::====: :   &&&&====::::::::::::::::::::::::::::::::::",
":::::::::::::::::::::::::::::::::::::::::::::==============:::::::::::::::::::::::::::::::::::::",
":::::::::::::::::::::::::::::::::::::::::::::::===========::::::::::::::::::::::::::::::::::::::",
":::::::::::::::::::::::::::::::::::::::::::::::::::==:::::::::::::::::::::::::::::::::::::::::::",
"::::::::::::::::::::::::::::::::::::::::::::::::::::::::::::::::::::::::::::::::::::::::::::::::",
"::::::::::::::::::::::::::::::::::::-:::::::::::::::::::::::::::::::::::::::::::::::::::::::::::",
":::::::::::::::::::::::::::::::::::::-::::::::::::::::::::::::::::::::::::::::::::;;::::::::::::",
":::::::::::::::::::::::::::::::::::::--::::::::::::::::::::::::::::::::::::::::::;;:::::::::::::",
":::::::::::::::::::::::::::::::::::::---:::::::::::::::::::::::::::::::::::::::;;;::::::::::::::",
"::::::::::::::::::::::::::::::::::::::---:::::::::::::::::::::::::::::::::::::;;;:::::::::::::::",
"::::::::::::::::::::::::::::::::::::::----::::::::::::::::::::::::::::::::::-;;;::::::::::::::::",
":::::::::::::::::::::::::::::::::::::::----:::::::::::::::::::::::::::::::--;;;;::::::::::::::::",
":::::::::::::::::::::::::::::::::::::::------::::::::::::::::::::::::::::--;;;;:::::::::::::::::",
"::::::::::::::::::::::::::::::::::::::::-------::::::::::::::::::::::::--;;;;;::::::::::::::::::",
":::::::::::::::::::::::::::::::::::::::::--------::::::::::::::::::-----;;;;;:::::::::::::::::::",
"::::::::::::::::::::::::::::::::::::::::::-----------:::::::::--------;;;;;:::::::::::::::::::::",
"::::::::::::::::::::::::::::::::::::::::::::------------------------;;;;;;::::::::::::::::::::::",
":::::::::::::::::::::::::::::::::::::::::::::--------------------;;;;;;;::::::::::::::::::::::::",
"::::::::::::::::::::::::::::::::::::::::::::::::--------------;;;;;;;;;:::::::::::::::::::::::::",
"::::::::::::::::::::::::::::::::::::::::::::::::::::--;;;;;;;;;;;;;;::::::::::::::::::::::::::::",
":::::::::::::::::::::::::::::::::::::::::::::::::::::::;;;;;;;;;;;::::::::::::::::::::::::::::::",
"::::::::::::::::::::::::::::::::::::::::::::::::::::::::::;;;;::::::::::::::::::::::::::::::::::",
"::::::::::::::::::::::::::::::::::::::::::::::::::::::::::::::::::::::::::::::::::::::::::::::::",
"::::::::::::::::::::::::::::::::::::::::::::::::::::::::::::::::::::::::::::::::::::::::::::::::",
"::::::::::::::::::::::::::::::::::::::::::::::::::::::::::::::::::::::::::::::::::::::::::::::::",
"::::::::::::::::::::::::::::::::::::::::::::::::::::::::::::::::::::::::::::::::::::::::::::::::",
"::::::::::::::::::::::::::::::::::::::::::::::::::::::::::::::::::::::::::::::::::::::::::::::::",
"::::::::::::::::::::::::::::::::::::::::::::::::::::::::::::::::::::::::::::::::::::::::::::::::",
"::::::::::::::::::::::::::::::::::::::::::::::::::::::::::::::::::::::::::::::::::::::::::::::::"
};
