/* XPM */
static char *result[] = {
/* columns rows colors chars-per-pixel */
"96 80 17 1 ",
"  c #1A1625",
". c #231A35",
"X c #2D1F46",
"o c #2E1F48",
"O c #352253",
"+ c #352254",
"@ c #3B255E",
"# c #3F2560",
"$ c #4E2467",
"% c #8C2E93",
"& c #9C36A6",
"* c #AC42B1",
"= c #CB61A9",
"- c #CF65A8",
"; c #D269A6",
": c #E290BA",
"> c None",
/* pixels */
">>>>>>>>>>>>>>>>>>>>>>>>>>>>>>>>>>>>>>>>>>>>>>>>>>>>>>>>>>>>>>>>>>>>>>>>>>>>>>>>>>>>>>>>>>>>>>>>",
">>>>>>>>>>>>>>>>>>>>>>>>>>>>>>>>>>>>>>>>>>>>>>>>>>>>>>>>>>>>>>>>>>>>>>>>>>>>>>>>>>>>>>>>>>>>>>>>",
">>>>>>>>>>>>>>>>>>>>>>>>>>>>>>>>>>>>>>>>>>>>>>>>>>>>>>>>>>>>>>>>>>>>>>>>>>>>>>>>>>>>>>>>>>>>>>>>",
">>>>>>>>>>>>>>>>>>>>>>>>>>>>>>>>>>>>>>>>>>>>>>>>>>>>>>>>>>>>>>>>>>>>>>>>>>>>>>>>>>>>>>>>>>>>>>>>",
">>>>>>>>>>>>>>>>>>>>>>>>>>>>>>>>>>>>>>>>>>>>>>>>>>>>>>>>>>>>>>>>>>>>>>>>>>>>>>>>>>>>>>>>>>>>>>>>",
">>>>>>>>>>>>>>>>>>>>>>>>>>>>>>>>>>>>>>>>>>>>>>>>>>>>>>>>>>>>>>>>>>>>>>>>>>>>>>>>>>>>>>>>>>>>>>>>",
">>>>>>>>>>>>>>>>>>>>>>>>>>>>>>>>>>>>>>>>>>>>>>>>>>>>>>>>>>>>>>>>>>>>>>>>>>>>>>>>>>>>>>>>>>>>>>>>",
">>>>>>>>>>>>>>>>>>>>>>>>>>>>>>>>>>>>>>>>>>>>>>>>>>>>>>>>>>>>>>>>>>>>>>>>>>>>>>>>>>>>>>>>>>>>>>>>",
">>>>>>>>>>>>>>>>>>>>>>>>>>>>>>>>>>>>>>>>>>>>>>>>>>>>>>>>>>>>>>>>>>>>>>>>>>>>>>>>>>>>>>>>>>>>>>>>",
">>>>>>>>>>>>>>>>>>>>>>>>>>>>>>>>>>>>>>>>>>>>>>>>>>>>>>>>>>>>>>>>>>>>>>>>>>>>>>>>>>>>>>>>>>>>>>>>",
">>>>>>>>>>>>>>>>>>>>>>>>>>>>>>>>>>>>>>>>>>>>>>>>>>>>>>>>>>>>>>>>>>>>>>>>>>>>>>>>>>>>>>>>>>>>>>>>",
">>>>>>>>>>>>>>>>>>>>>>>>>>>>>>>>>>>>;;>>>>>>>>>>>>>>>>>>>>>>>>>>>>>>>>>>>>>>>>>>>>>>>>>>>>>>>>>>",
">>>>>>>>>>>>>>>>>>>>>>>>>>>>>>>;;;;;;;;;;;;;;;>&>>>>>>>>>>>>>>>>>>>>>>>>>>>>>>>>>>>>>>>>>>>>>>>>",
">>>>>>>>>>>>>>>>>>>>>>>>>>>>;;;;;;;;;;;;;;;;;;;;;>&>>>>>>>>>>>>>>>>>>>>>>>>>>>>>>>>>>>>>>>>>>>>>",
">>>>>>>>>>>>>>>>>>>>>>>>>>;;;;;;;;;;;;;;;;;;;;;;;;;&&>>>>>>>>>>>>>>>>>>>>>>>>>>>>>>>>>>>>>>>>>>>",
">>>>>>>>>>>>>>>>>>>>>>>>;;;;;;;;;;;;;;;;;;;;;;;;;;;;&&&>>>>>>>>>>>>>>>>>>>>>>>>>>>>>>>>>>>>>>>>>",
">>>>>>>>>>>>>>>>>>>>>>;;;;;;;;;;;;=========$$;;;;;;;;;&>>>>>>>>>>>>>>>>>>>>>>>>>>>>>>>>>>>>>>>>>",
">>>>>>>>>>>>>>>>>>>>>;;;;;;;;;================$$;;;;;;;&&>>>>>>>>>>>>>>>>>>>>>>>>>>>>>>>>>>>>>>>",
">>>>>>>>>>>>>>>>>>>>;;;;;;;;======>>>>>>>>>>>=O==$;;;;;;&&>>>>>>>>>>>>>>>>>>>>>>>>>>>>>>>>>>>>>>",
">>>>>>>>>>>>>>>>>>>;;;;;;;======>>>>>>>>>>>>>>>=O==$;;;;&&&>>>>>>>>>>>>>>>>>>>>>>>>>>>>>>>>>>>>>",
">>>>>>>>>>>>>>>>>>;;;;;;=====>>>>>>>>>>>>>>>>>>>>>OO$$;;;&&&>>>>>>>>>>>>>>>>>>>>>>>>>>>>>>>>>>>>",
">>>>>>>>>>>>>>>>>;;;;;;====>>>>>>>>>>>>>>>>>>>>>>>>>OO$>;&&&&>>>>>>>>>>>>>>>>>>>>>>>>>>>>>>>>>>>",
">>>>>>>>>>>>>>>>;;;;;;===>>>>>>>>>>>>>>>>:::>:>>>>>>>>O$>&&&&&>>>>>>>>>>>>>>>>>>>>>>>>>>>>>>>>>>",
">>>>>>>>>>>>>>>;;;;;;===>>>>>>>>>>>>>:::::::::::>>>>>>>>>>&&&&&>>>>>>>>>>>>>>>>>>>>>>>>>>>>>>>>>",
">>>>>>>>>>>>>>;;;;;;==>>>>>>>>>>>>-:::::::**::::::>>>>>>>>>&&&&>>>>>>>>>>>>>>>>>>>>>>>>>>>>>>>>>",
">>>>>>>>>>>>>;;;;;;==>>>>>>>>>>>>::::**       >::::>>>>>>>>&&&&&>>>>>>>>>>>>>>>>>>>>>>>>>>>>>>>>",
">>>>>>>>>>>>>;;;;;==>>>>>>>>>>>-:::*>>>>>>>>>>   >::>>>>>>>&&&&&>>>>>>>>>>>>>>>>>>>>>>>>>>>>>>>>",
">>>>>>>>>>>>;;;;;==>>>>>>>>>>>--:**>>>>>>>>>>>>>  :::>>>>>O&&&&&>>>>>>>>>>>>>>>>>>>>>>>>>>>>>>>>",
">>>>>>>>>>>;;;;;==>>>>>>>>>>>--:*>>>>>>>>>>>>>>>>   ::>>>>>O&&&&&>>>>>>>>>>>>>>>>>>>>>>>>>>>>>>>",
">>>>>>>>>>>;;;;===>>>>>>>>>>>-**>>>>>>>>>>>>>>>>>>o  #>>>>>O&&&&&>>>>>>>>>>>>>>>>>>>>>>>>>>>>>>>",
">>>>>>>>>>;;;;;==>>>>>>>>>>>-:*>>>>>>>>>>>>>>>>>>>>   #>>>>O&&&&&>>>>>>>>>>>>>>>>>>>>>>>>>>>>>>>",
">>>>>>>>>>;;;;==>>>>>>>>>>>-:*>>>>>>>>>>>>>>>>>>>>>o  ##>>>&&&&&&>>>>>>>>>>>>>>>>>>>>>>>>>>>>>>>",
">>>>>>>>>>;;;;==>>>>>>>>>>>-:*>>>>>>>>>>>>>>>>>>>>>oo  #>>>>&&&&&>>>>>>>>>>>>>>>>>>>>>>>>>>>>>>>",
">>>>>>>>>>;;;==>>>>>>>>>>>--*>>>>>>>>>>>>>>>>+++>>>oo  #>>>>&&&&&>>=>>>>>>>>>>>>>>>>>>>>>>>>>>>>",
">>>>>>>>>>>;;==>>>>>>>>>>>-->>>>>>>>>>>>>>@@@@ @++>ooo #>>>>&&&&&>>=>>>>>>>>>>>>>>>>>>>>>>>>>>>>",
">>>>>>>>>>>;==>>>>>>>>>>>>-*>>>>>>>>>>>>@@@@%% @@@>+o  >>>>>&&&&&>>=>>>>>>>>>>>>>>>>>>>>>>>>>>>>",
">>>>>>>>>>>;==>>>>>>>>>>>>-*>>>>>>>>> @@@@@X%@  @@ +o   >&&>&&&&&>>=>>>>>>>>>>>>>>>>>>>>>>>>>>>>",
">>>>>>>>>>>;=>>>>>>>>>>>>>**>>>>>>>>   @@@@%    >>.+o   &&&&&&&&&>>=;>>>>>>>>>>>>>>>>>>>>>>>>>>>",
">>>>>>>>>>;==>>>>>>>>>>>>>>>>>>>>>>    @@@& ++>>>>+    +&&&&&&&&&>>=>>>>>>>>>>>>>>>>>>>>>>>>>>>>",
">>>>>>>>>>;==>>>>>>>>>>>>>*>>>>>>>>    &&&&&++>>>+ @@  +&&&&&&&&>>>=>>>>>>>>>>>>>>>>>>>>>>>>>>>>",
">>>>>>>>>>;==>>>>>>>>>>>>>*>>>>>>>     &&&&+%>>>  @@@ +&&&&&&&&&>>=;;>>>>>>>>>>>>>>>>>>>>>>>>>>>",
">>>>>>>>>>==>>>>>>>>>>>>>>*>>>>>>     &&&&&+%>%  @@@>>>&&&&&&&&>>>=;;>>>>>>>>>>>>>>>>*>>>>>>>>>>",
">>>>>>>>>>==>>>>>>>>>>>>>>>>>>>>>    o&&&+.>>>>> @>>>>>&&&>>&&&>>=;;;>>>>>>>>>>>>>>>>*>>>>>>>>>>",
">>>>>>>>>>==>>>>>>>>>>>>>>>>>>>>>    o&&&+.>>>>>>>>>>>>%>>>>>>>>>=;;>>>>>>>>>>>>>>>>>*>>>>>>>>>>",
">>>>>>>>>>==>>>>>>>>>>>>>>>>>>>>>    oo&& @@@@>>>>>>>>%%>>>>>>>>=;;;>>>>>>>>>>>>>>>>>*>>>>>>>>>>",
">>>>>>>>>>==>>>>>>>>>>>>>>>>>>>>>    oo&&&@@@@>>>>>>%%%%>>>>>>>==;;>>>>>>>>>>>>>>>>>**>>>>>>>>>>",
">>>>>>>>>>=>>>>>>>>>>>>>>>>>>>>>#   ooo&&&@@@@@>>>>%%XXX>>>>>>==;;;>>>>>>>>>>>>>>>>>*>>>>>>>>>>>",
">>>>>>>>>>>>>>>>>>>>>>>>>>>>>>>>#   oooo&&>++@@@>>%%%%%>>>>>>>=;;;>>>>>>>>>>>>>>>>>**>>>>>>>>>>>",
">>>>>>>>>>>>>>>>>>>>>>>>>>>>>>>##   oooo&&&+++@@>>%%%%>>>>>>==;;;>>>>>>>>>>>>>>>>>>**>>>>>>>>>>>",
">>>>>>>>>>>>>>>>>>>>>>>>>>>>>>>##   oooo&&&>$++>>>>>>>>>>>===;;;;>>>>>>>>>>>>>>>>>>*->>>>>>>>>>>",
">>>>>>>>>>>>>>>>>>>>>>>>>>>>>>>##   oooo>>&&;;$O+=>>>>>>>==;;;;;>>>>>>>>>>>>>>>>>>**-->>>>>>>>>>",
">>>>>>>>>>>>>>>>>>>>>>>>>>>>>>>###   ooo>>>&&;;;$========;;;;;;>>>>>>>>>>>>>>>>>>>*--->>>>>>>>>>",
">>>>>>>>>>>>>>>>>>>>>>>>>>>>>>>####  oo>>>>>&;;;;;;;;;;;;;;;;>>>>>>>>>>>>>>>>>>>>**--->>>>>>>>>>",
">>>>>>>>>>>>>>>>>>>>>>>>>>>>>>>>###   o>>>>>>&&&;;;;;;;;;;;>>>>>>>>>>>>>>>>>>>>>>*--->>>>>>>>>>>",
">>>>>>>>>>>>>>>>>>>>>>>>>>>>>>>>>##   o>>>>>>>>>>>>;;>>;>>>>>>>>>>>>>>>>>>>>>>>>**--->>>>>>>>>>>",
">>>>>>>>>>>>>>>>>>>>>>>>>>>>>>>>>##    o>>>>>>>>>>>>>>>>>>>>>>>>>>>>>>>>>>>>>>>**--->>>>>>>>>>>>",
">>>>>>>>>>>>>>>>>>>>>>>>>>>>>>>>>>##   o>>>>>>>>>>>>>>>>>>>>>>>>>>>>>>>>>>>>>>**:-->>>>>>>>>>>>>",
">>>>>>>>>>>>>>>>>>>>>>>>>>>>>>>>>>:::   o>>>>>>>>>>>>>>>>>>>>>>>>>>>>>>>>>>>>>*::-->>>>>>>>>>>>>",
">>>>>>>>>>>>>>>>>>>>>>>>>>>>>>>>>>::::   o>>>>>>>>>>>>>>>>>>>>>>>>>>>>>>>>>>>**:-->>>>>>>>>>>>>>",
">>>>>>>>>>>>>>>>>>>>>>>>>>>>>>>>>>>::::    >>>>>>>>>>>>>>>>>>>>>>>>>>>>>>>>>**:--->>>>>>>>>>>>>>",
">>>>>>>>>>>>>>>>>>>>>>>>>>>>>>>>>>>>::::    >>>>>>>>>>>>>>>>>>>>>>>>>>>>>>>**:--->>>>>>>>>>>>>>>",
">>>>>>>>>>>>>>>>>>>>>>>>>>>>>>>>>>>>::::>    >>>>>>>>>>>>>>>>>>>>>>>>>>>>***:--->>>>>>>>>>>>>>>>",
">>>>>>>>>>>>>>>>>>>>>>>>>>>>>>>>>>>>:::::>    >>>>>>>>>>>>>>>>>>>>>>>>>>**::--->>>>>>>>>>>>>>>>>",
">>>>>>>>>>>>>>>>>>>>>>>>>>>>>>>>>>>>>:::::>>    >>>>>>>>>>>>>>>>>>>>>>***::--->>>>>>>>>>>>>>>>>>",
">>>>>>>>>>>>>>>>>>>>>>>>>>>>>>>>>>>>>>::::::>>     >>>>>>>>>>>>>>>>>***:::--->>>>>>>>>>>>>>>>>>>",
">>>>>>>>>>>>>>>>>>>>>>>>>>>>>>>>>>>>>>>:::::::>>          >>>>>>>>***::::--->>>>>>>>>>>>>>>>>>>>",
">>>>>>>>>>>>>>>>>>>>>>>>>>>>>>>>>>>>>>>>::::::::**>>        >>>>***:::::-->>>>>>>>>>>>>>>>>>>>>>",
">>>>>>>>>>>>>>>>>>>>>>>>>>>>>>>>>>>>>>>>>::::::::::*************::::::--->>>>>>>>>>>>>>>>>>>>>>>",
">>>>>>>>>>>>>>>>>>>>>>>>>>>>>>>>>>>>>>>>>>>:::::::::::::::::::::::::::->>>>>>>>>>>>>>>>>>>>>>>>>",
">>>>>>>>>>>>>>>>>>>>>>>>>>>>>>>>>>>>>>>>>>>>:::::::::::::::::::::::-->>>>>>>>>>>>>>>>>>>>>>>>>>>",
">>>>>>>>>>>>>>>>>>>>>>>>>>>>>>>>>>>>>>>>>>>>>>>:::::::::::::::::::>>>>>>>>>>>>>>>>>>>>>>>>>>>>>>",
">>>>>>>>>>>>>>>>>>>>>>>>>>>>>>>>>>>>>>>>>>>>>>>>>>:::::::::::::>>>>>>>>>>>>>>>>>>>>>>>>>>>>>>>>>",
">>>>>>>>>>>>>>>>>>>>>>>>>>>>>>>>>>>>>>>>>>>>>>>>>>>>>>>>>>>>>>>>>>>>>>>>>>>>>>>>>>>>>>>>>>>>>>>>",
">>>>>>>>>>>>>>>>>>>>>>>>>>>>>>>>>>>>>>>>>>>>>>>>>>>>>>>>>>>>>>>>>>>>>>>>>>>>>>>>>>>>>>>>>>>>>>>>",
">>>>>>>>>>>>>>>>>>>>>>>>>>>>>>>>>>>>>>>>>>>>>>>>>>>>>>>>>>>>>>>>>>>>>>>>>>>>>>>>>>>>>>>>>>>>>>>>",
">>>>>>>>>>>>>>>>>>>>>>>>>>>>>>>>>>>>>>>>>>>>>>>>>>>>>>>>>>>>>>>>>>>>>>>>>>>>>>>>>>>>>>>>>>>>>>>>",
">>>>>>>>>>>>>>>>>>>>>>>>>>>>>>>>>>>>>>>>>>>>>>>>>>>>>>>>>>>>>>>>>>>>>>>>>>>>>>>>>>>>>>>>>>>>>>>>",
">>>>>>>>>>>>>>>>>>>>>>>>>>>>>>>>>>>>>>>>>>>>>>>>>>>>>>>>>>>>>>>>>>>>>>>>>>>>>>>>>>>>>>>>>>>>>>>>",
">>>>>>>>>>>>>>>>>>>>>>>>>>>>>>>>>>>>>>>>>>>>>>>>>>>>>>>>>>>>>>>>>>>>>>>>>>>>>>>>>>>>>>>>>>>>>>>>",
">>>>>>>>>>>>>>>>>>>>>>>>>>>>>>>>>>>>>>>>>>>>>>>>>>>>>>>>>>>>>>>>>>>>>>>>>>>>>>>>>>>>>>>>>>>>>>>>"
};
