/* XPM */
static char *result[] = {
/* columns rows colors chars-per-pixel */
"96 80 19 1 ",
"  c #1A1625",
". c #1E182C",
"X c #201930",
"o c #231A34",
"O c #2E1F47",
"+ c #3B245D",
"@ c #412561",
"# c #4C2466",
"$ c #502467",
"% c #5E246D",
"& c #802883",
"* c #BF55AC",
"= c #B147B0",
"- c #E497BE",
"; c #EAACCB",
": c #EBAFCD",
"> c #ECB2CF",
", c #F0C0D8",
"< c None",
/* pixels */
"<<<<<<<<<<<<<<<<<<<<<<<<<<<<<<<<<<<<<<<<<<<<<<<<<<<<<<<<<<<<<<<<<<<<<<<<<<<<<<<<<<<<<<<<<<<<<<<<",
"<<<<<<<<<<<<<<<<<<<<<<<<<<<<<<<<<<<<<<<<<<<<<<<<<<<<<<<<<<<<<<<<<<<<<<<<<<<<<<<<<<<<<<<<<<<<<<<<",
"<<<<<<<<<<<<<<<<<<<<<<<<<<<<<<<<<<<<<<<<<<<<<<<<<<<<<<<<<<<<<<<<<<<<<<<<<<<<<<<<<<<<<<<<<<<<<<<<",
"<<<<<<<<<<<<<<<<<<<<<<<<<<<<<<<<<<<<<<<<<<<<<<<<<<<<<<<<<<<<<<<<<<<<<<<<<<<<<<<<<<<<<<<<<<<<<<<<",
"<<<<<<<<<<<<<<<<<<<<<<<<<<<<<<<<<<<<<<<<<<<<<<<<<<<<<<<<<<<<<<<<<<<<<<<<<<<<<<<<<<<<<<<<<<<<<<<<",
"<<<<<<<<<<<<<<<<<<<<<<<<<<<<<<<<<<<<<<<<<<<<<<<<<<<<<<<<<<<<<<<<<<<<<<<<<<<<<<<<<<<<<<<<<<<<<<<<",
"<<<<<<<<<<<<<<<<<<<<<<<<<<<<<<<<<<<<<<<<<<<<<<<<<<<<<<<<<<<<<<<<<<<<<<<<<<<<<<<<<<<<<<<<<<<<<<<<",
"<<<<<<<<<<<<<<<<<<<<<<<<<<<<<<<<<<<<<<<<<<<<<<<<<<<<<<<<<<<<<<<<<<<<<<<<<<<<<<<<<<<<<<<<<<<<<<<<",
"<<<<<<<<<<<<<<<<<<<<<<<<<<<<<<<<<<<<<<<<<<<<<<<<<<<<<<<<<<<<<<<<<<<<<<<<<<<<<<<<<<<<<<<<<<<<<<<<",
"<<<<<<<<<<<<<<<<<<<<<<<<<<<<<<<<<<<<<<<<<<<<<<<<<<<<<<<<<<<<<<<<<<<<<<<<<<<<<<<<<<<<<<<<<<<<<<<<",
"<<<<<<<<<<<<<<<<<<<<<<<<<<<<<<<<<<<<<<<<<<<<<<<<<<<<<<<<<<<<<<<<<<<<<<<<<<<<<<<<<<<<<<<<<<<<<<<<",
"<<<<<<<<<<<<<<<<<<<<<<<<<<<<<<<<<<**********<<<<<<<<<<<<<<<<<<<<<<<<<<<<<<<<<<<<<<<<<<<<<<<<<<<<",
"<<<<<<<<<<<<<<<<<<<<<<<<<<<<<<******************<<<<<<<<<<<<<<<<<<<<<<<<<<<<<<<<<<<<<<<<<<<<<<<<",
"<<<<<<<<<<<<<<<<<<<<<<<<<<<<***********************<<<<<<<<<<<<<<<<<<<<<<<<<<<<<<<<<<<<<<<<<<<<<",
"<<<<<<<<<<<<<<<<<<<<<<<<<<***************************<<<<<<<<<<<<<<<<<<<<<<<<<<<<<<<<<<<<<<<<<<<",
"<<<<<<<<<<<<<<<<<<<<<<<<******************************<<<<<<<<<<<<<<<<<<<<<<<<<<<<<<<<<<<<<<<<<<",
"<<<<<<<<<<<<<<<<<<<<<<**********&&<<<<<<<<<<<**********<<<<<<<<<<<<<<<<<<<<<<<<<<<<<<<<<<<<<<<<<",
"<<<<<<<<<<<<<<<<<<<<<********&;;@@<<<<<<<<<<<<<<*********<<<<<<<<<<<<<<<<<<<<<<<<<<<<<<<<<<<<<<<",
"<<<<<<<<<<<<<<<<<<<<*******&;;@<<<<<<<<<<<<<<<<<<<********<<<<<<<<<<<<<<<<<<<<<<<<<<<<<<<<<<<<<<",
"<<<<<<<<<<<<<<<<<<<>*****&;;<<<<<<<<<<<<<oooooo<<<<<*******<<<<<<<<<<<<<<<<<<<<<<<<<<<<<<<<<<<<<",
"<<<<<<<<<<<<<<<<<<>****&;;;<<<<<<<<<<<<<<<<<<<<<<<<<<<******<<<<<<<<<<<<<<<<<<<<<<<<<<<<<<<<<<<<",
"<<<<<<<<<<<<<<<<<>****&;;<<<<<<<<<<<<<<<<<<<<<<<<<<<<<<******<<<<<<<<<<<<<<<<<<<<<<<<<<<<<<<<<<<",
"<<<<<<<<<<<<<<<<>***&;;;<<<<<<<<<<<<<<<<<<<<<<<<<<<<<<<<*****<<<<<<<<<<<<<<<<<<<<<<<<<<<<<<<<<<<",
"<<<<<<<<<<<<<<<>>**&;;;<<<<<<<<<<<<<<,,,,--<<<<<<<<<<<<<******<<<<<<<<<<<<<<<<<<<<<<<<<<<<<<<<<<",
"<<<<<<<<<<<<<<>>**&;;;<<<<<<<<<<<<,,,,-<<<+<<<<<<<<<<<<<<*****<<<<<<<<<<<<<<<<<<<<<<<<<<<<<<<<<<",
"<<<<<<<<<<<<<<>**&;;;<<<<<<<<<<<<,,---+++++++++<<<<<<<<<<<****<<<<<<<<<<<<<<<<<<<<<<<<<<<<<<<<<<",
"<<<<<<<<<<<<<>>**;;;<<<<<<<<<<<,,---+++.<<<<<<++++<<<<<<<<<****<<<<<<<<<<<<<<<<<<<<<<<<<<<<<<<<<",
"<<<<<<<<<<<<>>>*;;;<<<<<<<<<<<,,-<<+<<<<<<$$$<<<++<<<<<<<<<<***<<<<<<<<<<<<<<<<<<<<<<<<<<<<<<<<<",
"<<<<<<<<<<<>>>>;;;<<<<<<<<<<<,,--<<<<<<<<<<<<<<<<+++<<<<<<<<<**<<<<<<<<<<<<<<<<<<<<<<<<<<<<<<<<<",
"<<<<<<<<<<<>>>;;;;<<<<<<<<<<<,--<<<<<<<<<<<<<<<<<<++.<<<<<<<<**<<<<<<<<<<<<<<<<<<<<<<<<<<<<<<<<<",
"<<<<<<<<<<>>>>;;;<<<<<<<<<<<,,-<<<<<<<<<<<<<<<<<<<<++.<<<<<<<***<<<<<<<<<<<<<<<<<<<<<<<<<<<<<<<<",
"<<<<<<<<<<>>>;;;<<<<<<<<<<<,,-<<<<<<<<<<<<<<<<<<<<<#+..<<<=<<***<<<<<<<<<<<<<<<<<<<<<<<<<<<<<<<<",
"<<<<<<<<<<>>>;;;<<<<<<<<<<<,,-<<<<<<<<<<<<<<<<<<<<##+...<<<=<<**<<<;<<<<<<<<<<<<<<<<<<<<<<<<<<<<",
"<<<<<<<<<<>>;;;<<<<<<<<<<<,,-<<<<<<<<<<<<<<<<<<<<<<##+..<<===<**<<<;<<<<<<<<<<<<<<<<<<<<<<<<<<<<",
"<<<<<<<<<<<>;;;<<<<<<<<<<<:,<<<<<<<<<<<<<<..<< OO$##%+.%<<===<*@<<<;<<<<<<<<<<<<<<<<<<<<<<<<<<<<",
"<<<<<<<<<<<;;;<<<<<<<<<<<<,-<<<<<<<<<<<<.......OO$%%#%%%=====<*@<<<;<<<<<<<<<<<<<<<<<<<<<<<<<<<<",
"<<<<<<<<<<<;;;<<<<<<<<<<<<,-<<<<<<<<<<%%%%....<<X%%%#%%%=====<*@<<<;<<<<<<<<<<<<<<<<<<<<<<<<<<<<",
"<<<<<<<<<<<;;;<<<<<<<<<<<<--<<<<<<<<%%%%%==.<<<<<  %#%%%===****@<<<;&<<<<<<<<<<<<<<<<<<<<<<<<<<<",
"<<<<<<<<<<&;;<<<<<<<<<<<<<<<<<<<<<<%%%%%==.<<<<<<< #%%%==<****<@<<;;<<<<<<<<<<<<<<<<<<<<<<<<<<<<",
"<<<<<<<<<<;;;<<<<<<<<<<<<<-<<<<<<<<%%%%%==<=<<<<<<<.%%%==<=***=@<<<;<<<<<<<<<<<<<<<<<<<<<<<<<<<<",
"<<<<<<<<<<;;;<<<<<<<<<<<<<-<<<<<<<%%%%%%*=<=<@<<<<.%%<<==<=*==<<<<;;><<<<<<<<<<<<<<<<<<<<<<<<<<<",
"<<<<<<<<<<;;<<<<<<<<<<<<<<-<<<<<<%%%%%%#**==<<@<<...<<<<<*===<<<<<;>><<<<<<<<<<<<<<<<-<<<<<<<<<<",
"<<<<<<<<<<;;<<<<<<<<<<<<<<<<<<<<<%%%%%#*%== <<@@<<<<<<<<<====<<<<;;>><<<<<<<<<<<<<<<<-<<<<<<<<<<",
"<<<<<<<<<<;;<<<<<<<<<<<<<<<<<<<<%%%%%%#@%=   <<<<<<<<<<<=====<<<<;;><<<<<<<<<<<<<<<<<-<<<<<<<<<<",
"<<<<<<<<<<;;<<<<<<<<<<<<<<<<<<<<%%%%%%#*%=%%%<<<<<<<<<<<====<<<<;;*><<<<<<<<<<<<<<<<<-<<<<<<<<<<",
"<<<<<<<<<<;;<<<<<<<<<<<<<<<<<<<<%%%%%##**%%%%X<<<<<<<<<<=<<<<<<;;&><<<<<<<<<<<<<<<<<--<<<<<<<<<<",
"<<<<<<<<<<;<<<<<<<<<<<<<<<<<<<<<%%%%+#%%*%$$ OO<<<<<<<<<<<<<<<<;&*><<<<<<<<<<<<<<<<<-<<<<<<<<<<<",
"<<<<<<<<<<;<<<<<<<<<<<<<<<<<<<<<%%.++%%#**<$ OOO<<<<<<<<<<<<<<;**><<<<<<<<<<<<<<<<<--<<<<<<<<<<<",
"<<<<<<<<<<<<<<<<<<<<<<<<<<<<<<<<...++%###*** OOO<<<<<<<<<<<<<;&*><<<<<<<<<<<<<<<<<<--<<<<<<<<<<<",
"<<<<<<<<<<<<<<<<<<<<<<<<<<<<<<<<...++####***<    <<<<<<<<<<<;****<<<<<<<<<<<<<<<<<<-,<<<<<<<<<<<",
"<<<<<<<<<<<<<<<<<<<<<<<<<<<<<<<<...+++###<****<<<<ooo<<<<@;&****<<<<<<<<<<<<<<<<<<--,,<<<<<<<<<<",
"<<<<<<<<<<<<<<<<<<<<<<<<<<<<<<<<....++###<<*****<<<<<<<<<&*****<<<<<<<<<<<<<<<<<<<-,,:<<<<<<<<<<",
"<<<<<<<<<<<<<<<<<<<<<<<<<<<<<<<<....++##<<<<*****************<<<<<<<<<<<<<<<<<<<<--,,:<<<<<<<<<<",
"<<<<<<<<<<<<<<<<<<<<<<<<<<<<<<<<<...++##<<<<<<**************<<<<<<<<<<<<<<<<<<<<<-,,:<<<<<<<<<<<",
"<<<<<<<<<<<<<<<<<<<<<<<<<<<<<<<<<<..+++<<<<<<<<<<<*******<<<<<<<<<<<<<<<<<<<<<<<--,,:<<<<<<<<<<<",
"<<<<<<<<<<<<<<<<<<<<<<<<<<<<<<<<<<..+++.<<<<<<<<<<<<<<<<<<<<<<<<<<<<<<<<<<<<<<<--,,,<<<<<<<<<<<<",
"<<<<<<<<<<<<<<<<<<<<<<<<<<<<<<<<<<<..+++<<<<<<<<<<<<<<<<<<<<<<<<<<<<<<<<<<<<<<--,,,<<<<<<<<<<<<<",
"<<<<<<<<<<<<<<<<<<<<<<<<<<<<<<<<<<<<<++++<<<<<<<<<<<<<<<<<<<<<<<<<<<<<<<<<<<<<-,,,,<<<<<<<<<<<<<",
"<<<<<<<<<<<<<<<<<<<<<<<<<<<<<<<<<<<<<<++++<<<<<<<<<<<<<<<<<<<<<<<<<<<<<<<<<<<--,,,<<<<<<<<<<<<<<",
"<<<<<<<<<<<<<<<<<<<<<<<<<<<<<<<<<<<<<<<+++.<<<<<<<<<<<<<<<<<<<<<<<<<<<<<<<<<--,,,,<<<<<<<<<<<<<<",
"<<<<<<<<<<<<<<<<<<<<<<<<<<<<<<<<<<<<<<<<+++.<<<<<<<<<<<<<<<<<<<<<<<<<<<<<<<--,,,,<<<<<<<<<<<<<<<",
"<<<<<<<<<<<<<<<<<<<<<<<<<<<<<<<<<<<<<<<<++++.<<<<<<<<<<<<<<<<<<<<<<<<<<<<<--,,,,<<<<<<<<<<<<<<<<",
"<<<<<<<<<<<<<<<<<<<<<<<<<<<<<<<<<<<<<<<<<+++++<$$$$$$$$<<<<<<<<<<<<<<<<<<--,,,,<<<<<<<<<<<<<<<<<",
"<<<<<<<<<<<<<<<<<<<<<<<<<<<<<<<<<<<<<<<<<<++++++<<<<<<<<<<<<<<<<<<<<<<<<--,,,,<<<<<<<<<<<<<<<<<<",
"<<<<<<<<<<<<<<<<<<<<<<<<<<<<<<<<<<<<<<<<<<<<+++++++<<<<<<<<<<<<<<++<<<---,,,,<<<<<<<<<<<<<<<<<<<",
"<<<<<<<<<<<<<<<<<<<<<<<<<<<<<<<<<<<<<<<<<<<<<<++++++++....<.++++++<<----,,,,<<<<<<<<<<<<<<<<<<<<",
"<<<<<<<<<<<<<<<<<<<<<<<<<<<<<<<<<<<<<<<<<<<<<<<<<<++++++++++++++<<----,,,,<<<<<<<<<<<<<<<<<<<<<<",
"<<<<<<<<<<<<<<<<<<<<<<<<<<<<<<<<<<<<<<<<<<<<<<<<<<<<<+++++++++------,,,,,<<<<<<<<<<<<<<<<<<<<<<<",
"<<<<<<<<<<<<<<<<<<<<<<<<<<<<<<<<<<<<<<<<<<<<<<<<<<<<<<<<<<<------,,,,,,<<<<<<<<<<<<<<<<<<<<<<<<<",
"<<<<<<<<<<<<<<<<<<<<<<<<<<<<<<<<<<<<<<<<<<<<<<<<<<<<----------,,,,,,,<<<<<<<<<<<<<<<<<<<<<<<<<<<",
"<<<<<<<<<<<<<<<<<<<<<<<<<<<<<<<<<<<<<<<<<<<<<<<<<<<<<<,,,,,,,,,,,,<<<<<<<<<<<<<<<<<<<<<<<<<<<<<<",
"<<<<<<<<<<<<<<<<<<<<<<<<<<<<<<<<<<<<<<<<<<<<<<<<<<<<<<<,,,,,,,,<<<<<<<<<<<<<<<<<<<<<<<<<<<<<<<<<",
"<<<<<<<<<<<<<<<<<<<<<<<<<<<<<<<<<<<<<<<<<<<<<<<<<<<<<<<<<<<<<<<<<<<<<<<<<<<<<<<<<<<<<<<<<<<<<<<<",
"<<<<<<<<<<<<<<<<<<<<<<<<<<<<<<<<<<<<<<<<<<<<<<<<<<<<<<<<<<<<<<<<<<<<<<<<<<<<<<<<<<<<<<<<<<<<<<<<",
"<<<<<<<<<<<<<<<<<<<<<<<<<<<<<<<<<<<<<<<<<<<<<<<<<<<<<<<<<<<<<<<<<<<<<<<<<<<<<<<<<<<<<<<<<<<<<<<<",
"<<<<<<<<<<<<<<<<<<<<<<<<<<<<<<<<<<<<<<<<<<<<<<<<<<<<<<<<<<<<<<<<<<<<<<<<<<<<<<<<<<<<<<<<<<<<<<<<",
"<<<<<<<<<<<<<<<<<<<<<<<<<<<<<<<<<<<<<<<<<<<<<<<<<<<<<<<<<<<<<<<<<<<<<<<<<<<<<<<<<<<<<<<<<<<<<<<<",
"<<<<<<<<<<<<<<<<<<<<<<<<<<<<<<<<<<<<<<<<<<<<<<<<<<<<<<<<<<<<<<<<<<<<<<<<<<<<<<<<<<<<<<<<<<<<<<<<",
"<<<<<<<<<<<<<<<<<<<<<<<<<<<<<<<<<<<<<<<<<<<<<<<<<<<<<<<<<<<<<<<<<<<<<<<<<<<<<<<<<<<<<<<<<<<<<<<<",
"<<<<<<<<<<<<<<<<<<<<<<<<<<<<<<<<<<<<<<<<<<<<<<<<<<<<<<<<<<<<<<<<<<<<<<<<<<<<<<<<<<<<<<<<<<<<<<<<"
};
