/* XPM */
static char *result[] = {
/* columns rows colors chars-per-pixel */
"96 80 20 1 ",
"  c #1A1625",
". c #20192F",
"X c #211930",
"o c #211931",
"O c #261B3A",
"+ c #332150",
"@ c #3B255E",
"# c #4D2466",
"$ c #512468",
"% c #5E246D",
"& c #60246E",
"* c #702375",
"= c #9835A2",
"- c #C55BAA",
"; c #D167A7",
": c #F1C3DA",
"> c #F5CFE1",
", c #F6D1E2",
"< c #F8D9E7",
"1 c None",
/* pixels */
"111111111111111111111111111111111111111111111111111111111111111111111111111111111111111111111111",
"111111111111111111111111111111111111111111111111111111111111111111111111111111111111111111111111",
"111111111111111111111111111111111111111111111111111111111111111111111111111111111111111111111111",
"111111111111111111111111111111111111111111111111111111111111111111111111111111111111111111111111",
"111111111111111111111111111111111111111111111111111111111111111111111111111111111111111111111111",
"111111111111111111111111111111111111111111111111111111111111111111111111111111111111111111111111",
"111111111111111111111111111111111111111111111111111111111111111111111111111111111111111111111111",
"111111111111111111111111111111111111111111111111111111111111111111111111111111111111111111111111",
"111111111111111111111111111111111111111111111111111111111111111111111111111111111111111111111111",
"111111111111111111111111111111111111111111111111111111111111111111111111111111111111111111111111",
"111111111111111111111111111111111111111111111111111111111111111111111111111111111111111111111111",
"1111111111111111111111111111111111;;;;;;;;;;;111111111111111111111111111111111111111111111111111",
"111111111111111111111111111111;;;;;;;;;;;;;;;;;;;11111111111111111111111111111111111111111111111",
"1111111111111111111111111111;;;;;;;;;;;;;;;;;;;;;;;111111111111111111111111111111111111111111111",
"1111111111111111111111111;;;;;;;;;;;;;;;;;;;;;;;;;;;;1111111111111111111111111111111111111111111",
"111111111111111111111111;;;;;;;;;;;;;11111111111;;;;;;111111111111111111111111111111111111111111",
"1111111111111111111111;;;;;;;;;;11111111111111111;;;;;;;1111111111111111111111111111111111111111",
"111111111111111111111;;;;;;;;1111111111111111111111;;;;;;111111111111111111111111111111111111111",
"1111111111111111111;;;;;;;;11111111111111111111111111;;;;111111111111111111111111111111111111111",
"111111111111111111;;;;;;;11111111111111111111111111111;;;;11111111111111111111111111111111111111",
"11111111111111111;;;;;;11111111111111111111111111111111;;;;1111111111111111111111111111111111111",
"1111111111111111;;;;;;1111111111111111111111111111111111;;;;111111111111111111111111111111111111",
"1111111111111111;;;==>>1111111111111111111111111111111111;;;111111111111111111111111111111111111",
"111111111111111;;;==>>111111111111111111111111111111111111;;;11111111111111111111111111111111111",
"11111111111111;;;==>>111111111111111111XXX##XX1111111111111;;;1111111111111111111111111111111111",
"1111111111111;;;==>>11111111111111111##########XX1**1111--1;;;1111111111111111111111111111111111",
"111111111111;;;==>>1111111111111111####X111X11####1*11111--1;;;111111111111111111111111111111111",
"111111111111;;;=>>>11111111111111####11111111111##X***111----11111111111111111111111111111111111",
"11111111111,;;==>>111111111111:1##X11111111111111&XX**1111--O-1111111111111111111111111111111111",
"11111111111,;==>>1111111111111::#X1111111111111111&XX**111----1111111111111111111111111111111111",
"1111111111,,;=>>>11111111111<::#1111111111111111111&X**111----1111111111111111111111111111111111",
"1111111111,;==>>11111111111<::#X1111111111111111111&&***11-----;11111111111111111111111111111111",
"111111111,,;=>>111111111111<:#X11111111111111111111&&***11-----;11111111111111111111111111111111",
"111111111,;==>>11111111111<::#111111111o++++++$$$11&&***11----.1111>1111111111111111111111111111",
"11111111111=>>111111111111<:#111111111111111 ++ % 1&****11-----1111>1111111111111111111111111111",
"11111111111=>>111111111111<:X11111111111$XX11 + % $******1-----1111>1111111111111111111111111111",
"11111111111>>>111111111111::X1111111111X$XX11111  ******1------$111>1111111111111111111111111111",
"11111111111>>1111111111111::111111111**XXXX111111  *****11-----$111>=111111111111111111111111111",
"1111111111=>>11111111111111#11111111***XXX111@111111X**1111----$111>1111111111111111111111111111",
"1111111111>>>1111111111111:11111111***XX--111111111XX*1111----1$111>1111111111111111111111111111",
"1111111111>>>1111111111111:1111111****XX--11111111XXX11111----1$11>=;,11111111111111111111111111",
"1111111111>>11111111111111:111111*****X---1111$$111X@11111---11$11>=;1111111111111111:1111111111",
"1111111111>>111111111111111111111******--- 1111$$1++o1111111111$1>>=,1111111111111111:1111111111",
"1111111111>>11111111111111111111********--   11111111111111111111>=;11111111111111111:1111111111",
"1111111111>>11111111111111111111*******;---  1111111111111111111>>=;11111111111111111:1111111111",
"1111111111>>1111111111111111111********;---%% 11o111111111111111>=;11111111111111111::1111111111",
"1111111111>11111111111111111111*********&O- %%%oo11111111111111>=;;1111111111111111#:11111111111",
"1111111111111111111111111111111********&&---%%  ++ 11111111$111;;;;1111111111111111::11111111111",
"1111111111111111111111111111111*******&&1;; %%  ++ 1111111$$111;;;1111111111111111#::11111111111",
"1111111111111111111111111111111******&&&11;11%% ++++ 1111$$11;;;;1111111111111111X#::11111111111",
"1111111111111111111111111111111******&&&11;;;111111111111111;;;;11111111111111111#:::<1111111111",
"1111111111111111111111111111111******&&&1111;;111111111111;;;;;11111111111111111X#:::<1111111111",
"11111111111>1111111111111111111******&&&1111;;;;;111111;;;;;;111111111111111111X#:::<<1111111111",
"1111111111111111111111111111111******&&&111111;;;;;;;;;;;;;;1111111111111111111##:::<<1111111111",
"11111111111111111111111111111111****X&&&111111111;;;;;;;;111111111111111111111##:::<<11111111111",
"11111111111111111111111111111111****XX&&1111111111111111111111111111111111111X##:::<<11111111111",
"11111111111111111111111111111111****XXX&&11111111111111111111111111111111111X##:::<<111111111111",
"111111111111111111111111111111111****XX&&1111111111111111111111111111111111X##:::<<1111111111111",
"111111111111111111111111111111111****XXX&&11111111111111111111111111111111X##::::<<1111111111111",
"111111111111111111111111111111111****XXX#&&111111111111111111111111111111X##::::<<11111111111111",
"1111111111111111111111111111111111****XX##&&1111111111111111111111111111###::::<<111111111111111",
"11111111111111111111111111111111111****X####&1111111111111111111111111X###::::111111111111111111",
"111111111111111111111111111111111111***1X####&1111111111111111111111X#####:::1111111111111111111",
"111111111111111111111111111111111111***11X#####&111111111111111111X######1::11111111111111111111",
"1111111111111111111111111111111111111***11XX######XX111111111111#######1111111111111111111111111",
"11111111111111111111111111111111111111**111XXX######XXXXXXXX#########111111111111111111111111111",
"111111111111111111111111111111111111111111111XXX###################11111111111111111111111111111",
"11111111111111111111111111111111111111111111111XXXX#############11111111111111111111111111111111",
"111111111111111111111111111111111111111111111111XXXXXXXXXXX1111111111111111111111111111111111111",
"111111111111111111111111111111111111111111111111111111111111111111111111111111111111111111111111",
"111111111111111111111111111111111111111111111111111111111111111111111111111111111111111111111111",
"111111111111111111111111111111111111111111111111111111111111111111111111111111111111111111111111",
"111111111111111111111111111111111111111111111111111111111111111111111111111111111111111111111111",
"111111111111111111111111111111111111111111111111111111111111111111111111111111111111111111111111",
"111111111111111111111111111111111111111111111111111111111111111111111111111111111111111111111111",
"111111111111111111111111111111111111111111111111111111111111111111111111111111111111111111111111",
"111111111111111111111111111111111111111111111111111111111111111111111111111111111111111111111111",
"111111111111111111111111111111111111111111111111111111111111111111111111111111111111111111111111",
"111111111111111111111111111111111111111111111111111111111111111111111111111111111111111111111111",
"111111111111111111111111111111111111111111111111111111111111111111111111111111111111111111111111"
};
