/* XPM */
static char *result[] = {
/* columns rows colors chars-per-pixel */
"96 80 18 1 ",
"  c #1A1625",
". c #20192F",
"X c #211931",
"o c #251B38",
"O c #291C3E",
"+ c #291D3F",
"@ c #2D1E45",
"# c #3A245B",
"$ c #412561",
"% c #5D246D",
"& c #672371",
"* c #8D2F94",
"= c #9E38A9",
"- c #B54BAF",
"; c #AC42B1",
": c #DF86B4",
"> c #E393BC",
", c None",
/* pixels */
",,,,,,,,,,,,,,,,,,,,,,,,,,,,,,,,,,,,,,,,,,,,,,,,,,,,,,,,,,,,,,,,,,,,,,,,,,,,,,,,,,,,,,,,,,,,,,,,",
",,,,,,,,,,,,,,,,,,,,,,,,,,,,,,,,,,,,,,,,,,,,,,,,,,,,,,,,,,,,,,,,,,,,,,,,,,,,,,,,,,,,,,,,,,,,,,,,",
",,,,,,,,,,,,,,,,,,,,,,,,,,,,,,,,,,,,,,,,,,,,,,,,,,,,,,,,,,,,,,,,,,,,,,,,,,,,,,,,,,,,,,,,,,,,,,,,",
",,,,,,,,,,,,,,,,,,,,,,,,,,,,,,,,,,,,,,,,,,,,,,,,,,,,,,,,,,,,,,,,,,,,,,,,,,,,,,,,,,,,,,,,,,,,,,,,",
",,,,,,,,,,,,,,,,,,,,,,,,,,,,,,,,,,,,,,,,,,,,,,,,,,,,,,,,,,,,,,,,,,,,,,,,,,,,,,,,,,,,,,,,,,,,,,,,",
",,,,,,,,,,,,,,,,,,,,,,,,,,,,,,,,,,,,,,,,,,,,,,,,,,,,,,,,,,,,,,,,,,,,,,,,,,,,,,,,,,,,,,,,,,,,,,,,",
",,,,,,,,,,,,,,,,,,,,,,,,,,,,,,,,,,,,,,,,,,,,,,,,,,,,,,,,,,,,,,,,,,,,,,,,,,,,,,,,,,,,,,,,,,,,,,,,",
",,,,,,,,,,,,,,,,,,,,,,,,,,,,,,,,,,,,,,,,,,,,,,,,,,,,,,,,,,,,,,,,,,,,,,,,,,,,,,,,,,,,,,,,,,,,,,,,",
",,,,,,,,,,,,,,,,,,,,,,,,,,,,,,,,,,,,,,,,,,,,,,,,,,,,,,,,,,,,,,,,,,,,,,,,,,,,,,,,,,,,,,,,,,,,,,,,",
",,,,,,,,,,,,,,,,,,,,,,,,,,,,,,,,,,,,,,,,,,,,,,,,,,,,,,,,,,,,,,,,,,,,,,,,,,,,,,,,,,,,,,,,,,,,,,,,",
",,,,,,,,,,,,,,,,,,,,,,,,,,,,,,,,,,,,,,,,,,,,,,,,,,,,,,,,,,,,,,,,,,,,,,,,,,,,,,,,,,,,,,,,,,,,,,,,",
",,,,,,,,,,,,,,,,,,,,,,,,,,,,,,,,,,,,,,,,,,,,,,,,,,,,,,,,,,,,,,,,,,,,,,,,,,,,,,,,,,,,,,,,,,,,,,,,",
",,,,,,,,,,,,,,,,,,,,,,,,,,,,,,,,,*************,,,,,,,,,,,,,,,,,,,,,,,,,,,,,,,,,,,,,,,,,,,,,,,,,,",
",,,,,,,,,,,,,,,,,,,,,,,,,,,,,,*******************,,,,,,,,,,,,,,,,,,,,,,,,,,,,,,,,,,,,,,,,,,,,,,,",
",,,,,,,,,,,,,,,,,,,,,,,,,,,,***********************,,,,,,,,,,,,,,,,,,,,,,,,,,,,,,,,,,,,,,,,,,,,,",
",,,,,,,,,,,,,,,,,,,,,,,,,****************************,,,,,,,,,,,,,,,,,,,,,,,,,,,,,,,,,,,,,,,,,,,",
",,,,,,,,,,,,,,,,,,,,,,,,********,,%%%%%%%%%%%**********,,,,,,,,,,,,,,,,,,,,,,,,,,,,,,,,,,,,,,,,,",
",,,,,,,,,,,,,,,,,,,,,,*******,,,,,,,,,,,,,,,%%%%********,,,,,,,,,,,,,,,,,,,,,,,,,,,,,,,,,,,,,,,,",
",,,,,,,,,,,,,,,,,,,,,******,,,,,,,,,,,,,,,,,,,,,%%*******,,,,,,,,,,,,,,,,,,,,,,,,,,,,,,,,,,,,,,,",
",,,,,,,,,,,,,,,,,,,,*****,,,,,,,,,,,,,,,,,,,,,,,,,%%******,,,,,,,,,,,,,,,,,,,,,,,,,,,,,,,,,,,,,,",
",,,,,,,,,,,,,,,,,,,****,,,,,,,,,,,,,,,,,,,,,,,,,,,,%%%*****,,,,,,,,,,,,,,,,,,,,,,,,,,,,,,,,,,,,,",
",,,,,,,,,,,,,,,,,,****,,,,,,,,,,,,,,,,,,,,,,,,,,$,,,,%%*****,,,,,,,,,,,,,,,,,,,,,,,,,,,,,,,,,,,,",
",,,,,,,,,,,,,,,,,***,,,,,,,,,,,,,,,,,,;;;;;;;;;,,,,,,,%%****,,,,,,,,,,,,,,,,,,,,,,,,,,,,,,,,,,,,",
",,,,,,,,,,,,,,,,,**,,,,,,,,,,,,,,,,,;>>>>>>>;;;;;,,,,,,%****,,,,,,,,,,,,,,,,,,,,,,,,,,,,,,,,,,,,",
",,,,,,,,,,,,,,,,**,,,,,,,,,,,,,,,,>>>>>,,,:&,,;;;;;;,,,,%****,,,,,,,,,,,,,,,,,,,,,,,,,,,,,,,,,,,",
",,,,,,,,,,,,,,,**,,,,,,,,,,,,,,,>>>>>&:####,,#,,,;;;;,,,%%.***,,,,,,,,,,,,,,,,,,,,,,,,,,,,,,,,,,",
",,,,,,,,,,,,,,,**,,,,,,,,,,,,,,>>>>&:#,,,,,,,,,,,,;;;;,,,%O***,,,,,,,,,,,,,,,,,,,,,,,,,,,,,,,,,,",
",,,,,,,,,,,,,,,,,,,,,,,,,,,,,,>>>:::,,,,,,,,,,,,,,,;;;,,,%%-**,,,,,,,,,,,,,,,,,,,,,,,,,,,,,,,,,,",
",,,,,,,,,,,,,,,,,,,,,,,,,,,,,>>>&:,,,,,,,,,,,,,,,,,,;;;,,,%%-**,,,,,,,,,,,,,,,,,,,,,,,,,,,,,,,,,",
",,,,,,,,,,,,,,,,,,,,,,,,,,,,,>>::,,,,,,,,,,,,,,,,,,,,;;;,,,%-**,,,,,,,,,,,,,,,,,,,,,,,,,,,,,,,,,",
",,,,,,,,,,,,,,,,,,,,,,,,,,,,>>>:,,,,,,,,,,,,,,,,,,,,,,;;,,,--**-,,,,,,,,,,,,,,,,,,,,,,,,,,,,,,,,",
",,,,,,,,,,,,,,,,,,,,,,,,,,,>>>:,,,,,,,,,,,,,,,,,,,,,,,;;,,,--**-@,,,,,,,,,,,,,,,,,,,,,,,,,,,,,,,",
",,,,,,,,,,,,,,,,,,,,,,,,,,,>>:,,,,,,,,,,,,,,,,,,,,,,,,;;,,,-----@,,,,,,,,,,,,,,,,,,,,,,,,,,,,,,,",
",,,,,,,,,,,,,,,,,,,,,,,,,,>>>:,,,,,,,,,,,,,,,,,,,,,,,,,;,,,-----@,,,,,,,,,,,,,,,,,,,,,,,,,,,,,,,",
",,,,,,,,,,,,,,,,,,,,,,,,,,>>:,,,,,,,,,,,,,,     ,  =,,,;,,,-----@,,,,,,,,,,,,,,,,,,,,,,,,,,,,,,,",
",,,,,,,,,,,,,,,,,,,,,,,,,,>>:,,,,,,,,,,,,,@@     == ;;;;;,------@,,,,,,,,,,,,,,,,,,,,,,,,,,,,,,,",
",,,,,,,,,,,,,,,,,,,,,,,,,,>::,,,,,,,,,,==@   ,,,@=, ;;;,,-------,,,,,,,,,,,,,,,,,,,,,,,,,,,,,,,,",
",,,,,,,,,,,,,,,,,,,,,,,,,,>::,,,,,,,,,,=@-  ,,,,,,,;;;+,--------,,,,,,,,,,,,,,,,,,,,,:,,,,,,,,,,",
",,,,,,,,,,,,,,,,,,,,,,,,,,,:,,,,,,,,,,=@--   ,o,,,,,==+-----*--@,,,,,,,,,,,,,,,,,,,,::,,,,,,,,,,",
",,,,,,,,,,,,,,,,,,,,,,,,,,>:,,,,,,,,,==---, $,,,,,,==$$--,-----@,,,,,,,,,,,,,,,,,,,,::,,,,,,,,,,",
",,,,,,,,,,,,,,,,,,,,,,,,,,>,,,,,,,,+===---,-$,,,,,,==$  -, ----@,,,,,,,,,,,,,,,,,,,,::,,,,,,,,,,",
",,,,,,,,,,,,,,,,,,,,,,,,,,::,,,,,,,+=;;-*--,  ,,,,,,,$  ,------@,,,,,,,,,,,,,,,,,,,,::,,,,,,,,,,",
",,,,,,,,,,,,,,,,,,,,,,,,,,,:,,,,,,;;;;;---,,,  ooo,,,     ----@,,,,,,,,,,,,,,,,,,,,,::,,,,,,,,,,",
",,,,,,,,,,,,,,,,,,,,,,,,,,,,,,,,,,;;;;@---,,,,,,,,,,,,    ---@,,,,,,,,,,,,,,,,,,,,,::>,,,,,,,,,,",
",,,,,,,,,,,,,,,,,,,,,,,,,,,,,,,,,;;;;;;---==@,,,,X,,,,    --@,,,,,*,,,,,,,,,,,,,,,,::>,,,,,,,,,,",
",,,,,,,,,,,,,,,,,,,,,,,,,,,,,,o;;;;;;;;-*-==@@,,,,,,     @@@@,,,,,,,,,,,,,,,,,,,,,,::>,,,,,,,,,,",
",,,,,,,,,,,,,,,,,,,,,,,,,,,,,,,;;;;;;,,,*-%=@            @@@,,,,,*,,,,,,,,,,,,,,,,::>,,,,,,,,,,,",
",,,,,,,,,,,,,,,,,,,,,,,,,,,,,,,;;;,,,,,==*O%@          @@@@,,,,**,,,,,,,,,,,,,,,,,::>,,,,,,,,,,,",
",,,,,,,,,,,,,,,,,,,,,,,,,,,,,,,;;;,,,,,,=***,,        @@ ,,,,,,*,,,,,,,,,,,,,,,,,:::>,,,,,,,,,,,",
",,,,,,,,,,,,,,,,,,,,,,,,,,,,,,,;;;,,,,,,,,**%,,,$     ,,,,,,,***,,,,,,,,,,,,,,,,,::>>,,,,,,,,,,,",
",,,,,,,,,,,,,,,,,,,,,,,,,,,,,,,;;;,,,,,,,,****%,,,,,,,,,,,,,**,,,,,,,,,,,,,,,,,,,::>>>,,,,,,,,,,",
",,,,,,,,,,,,,,,,,,,,,,,,,,,,,,,;;;,,,,,,,,,,****%,%,,,%%%,****,,,,,,,,,,,,,,,,,,::>>>>,,,,,,,,,,",
",,,,,,,,,,,,,,,,,,,,,,,,,,,,,,,;;;;,,,,,,,,,,**************,,,,,,,,,,,,,,,,,,,,,::>>>>,,,,,,,,,,",
",,,,,,,,,,,,,,,,,,,,,,,,,,,,,,,;;;;,,,,,,,,,,,,,**********,,,,,,,,,,,,,,,,,,,,,::>>>>>,,,,,,,,,,",
",,,,,,,,,,,,,,,,,,,,,,,,,,,,,,,;;;;,,,,,,,,,,,,,,,,**,,,,,,,,,,,,,,,,,,,,,,,,,:::>>>>,,,,,,,,,,,",
",,,,,,,,,,,,,,,,,,,,,,,,,,,,,,,;;;;,,,,,,,,,,,,,,,,,,,,,,,,,,,,,,,,,,,,,,,,,,,::>>>>>,,,,,,,,,,,",
",,,,,,,,,,,,,,,,,,,,,,,,,,,,,,,,;;;;,,,,,,,,,,,,,,,,,,,,,,,,,,,,,,,,,,,,,,,,,:::>>>>,,,,,,,,,,,,",
",,,,,,,,,,,,,,,,,,,,,,,,,,,,,,,,;;;;,,,,,,,,,,,,,,,,,,,,,,,,,,,,,,,,,,,,,,,,:::>>>>,,,,,,,,,,,,,",
",,,,,,,,,,,,,,,,,,,,,,,,,,,,,,,,;;;;;,,,,,,,,,,,,,,,,,,,,,,,,,,,,,,,,,,,,,,:::>>>>>,,,,,,,,,,,,,",
",,,,,,,,,,,,,,,,,,,,,,,,,,,,,,,,,;;;;,,,,,,,,,,,,,,,,,,,,,,,,,,,,,,,,,,,,,:::>>>>>,,,,,,,,,,,,,,",
",,,,,,,,,,,,,,,,,,,,,,,,,,,,,,,,,;;;;;,,,,,,,,,,,,,,,,,,,,,,,,,,,,,,,,,,::::>>>>>,,,,,,,,,,,,,,,",
",,,,,,,,,,,,,,,,,,,,,,,,,,,,,,,,,,;;;;;,,,,,,,,,,,,,,,,,,,,,,,,,,,,,,,,::::>>>>>,,,,,,,,,,,,,,,,",
",,,,,,,,,,,,,,,,,,,,,,,,,,,,,,,,,,;;;;;;,,,,,,,,,,,,,,,,,,,,,,,,,,,,,::::&>>>>>,,,,,,,,,,,,,,,,,",
",,,,,,,,,,,,,,,,,,,,,,,,,,,,,,,,,,,;;;;;;,,,,,,,,,,,,,,,,,,,,,,,,,,,::::&>>>>>,,,,,,,,,,,,,,,,,,",
",,,,,,,,,,,,,,,,,,,,,,,,,,,,,,,,,,,,;;;;;;,,,,,,,,,,,,,,,,,,,,,,,,::::&>>>>>>,,,,,,,,,,,,,,,,,,,",
",,,,,,,,,,,,,,,,,,,,,,,,,,,,,,,,,,,,,;;;;;;,,,,,#,,,,,,,,,,,,,##::::&>>>>>>>,,,,,,,,,,,,,,,,,,,,",
",,,,,,,,,,,,,,,,,,,,,,,,,,,,,,,,,,,,,,;;;;;;;,,,&&##########::::::&>>>>>>>>,,,,,,,,,,,,,,,,,,,,,",
",,,,,,,,,,,,,,,,,,,,,,,,,,,,,,,,,,,,,,,,;;;;;;;,,,,&&:::::::::&&>>>>>>>>>>,,,,,,,,,,,,,,,,,,,,,,",
",,,,,,,,,,,,,,,,,,,,,,,,,,,,,,,,,,,,,,,,,;;;;;;;,,,,,,,,,,,>>>>>>>>>>>>>,,,,,,,,,,,,,,,,,,,,,,,,",
",,,,,,,,,,,,,,,,,,,,,,,,,,,,,,,,,,,,,,,,,,;;;;;;;;;>>>>>>>>>>>>>>>>>>;,,,,,,,,,,,,,,,,,,,,,,,,,,",
",,,,,,,,,,,,,,,,,,,,,,,,,,,,,,,,,,,,,,,,,,,,;;;;;;;;;;>>>>>>>>>>>>>>,,,,,,,,,,,,,,,,,,,,,,,,,,,,",
",,,,,,,,,,,,,,,,,,,,,,,,,,,,,,,,,,,,,,,,,,,,,,;;;;;;;;;>>>>>>>>;;,,,,,,,,,,,,,,,,,,,,,,,,,,,,,,,",
",,,,,,,,,,,,,,,,,,,,,,,,,,,,,,,,,,,,,,,,,,,,,,,,,,;;;;;;;;;;,,,,,,,,,,,,,,,,,,,,,,,,,,,,,,,,,,,,",
",,,,,,,,,,,,,,,,,,,,,,,,,,,,,,,,,,,,,,,,,,,,,,,,,,,,,,,,,,,,,,,,,,,,,,,,,,,,,,,,,,,,,,,,,,,,,,,,",
",,,,,,,,,,,,,,,,,,,,,,,,,,,,,,,,,,,,,,,,,,,,,,,,,,,,,,,,,,,,,,,,,,,,,,,,,,,,,,,,,,,,,,,,,,,,,,,,",
",,,,,,,,,,,,,,,,,,,,,,,,,,,,,,,,,,,,,,,,,,,,,,,,,,,,,,,,,,,,,,,,,,,,,,,,,,,,,,,,,,,,,,,,,,,,,,,,",
",,,,,,,,,,,,,,,,,,,,,,,,,,,,,,,,,,,,,,,,,,,,,,,,,,,,,,,,,,,,,,,,,,,,,,,,,,,,,,,,,,,,,,,,,,,,,,,,",
",,,,,,,,,,,,,,,,,,,,,,,,,,,,,,,,,,,,,,,,,,,,,,,,,,,,,,,,,,,,,,,,,,,,,,,,,,,,,,,,,,,,,,,,,,,,,,,,",
",,,,,,,,,,,,,,,,,,,,,,,,,,,,,,,,,,,,,,,,,,,,,,,,,,,,,,,,,,,,,,,,,,,,,,,,,,,,,,,,,,,,,,,,,,,,,,,,",
",,,,,,,,,,,,,,,,,,,,,,,,,,,,,,,,,,,,,,,,,,,,,,,,,,,,,,,,,,,,,,,,,,,,,,,,,,,,,,,,,,,,,,,,,,,,,,,,"
};
