/* XPM */
static char *result[] = {
/* columns rows colors chars-per-pixel */
"96 80 15 1 ",
"  c #1E182C",
". c #261B39",
"X c #281C3D",
"o c #2D1E45",
"O c #2E1F48",
"+ c #412561",
"@ c #5C246C",
"# c #6F2375",
"$ c #7A257C",
"% c #7B257D",
"& c #872C8C",
"* c #93329C",
"= c #E59AC0",
"- c #E8A3C6",
"; c None",
/* pixels */
";;;;;;;;;;;;;;;;;;;;;;;;;;;;;;;;;;;;;;;;;;;;;;;;;;;;;;;;;;;;;;;;;;;;;;;;;;;;;;;;;;;;;;;;;;;;;;;;",
";;;;;;;;;;;;;;;;;;;;;;;;;;;;;;;;;;;;;;;;;;;;;;;;;;;;;;;;;;;;;;;;;;;;;;;;;;;;;;;;;;;;;;;;;;;;;;;;",
";;;;;;;;;;;;;;;;;;;;;;;;;;;;;;;;;;;;;;;;;;;;;;;;;;;;;;;;;;;;;;;;;;;;;;;;;;;;;;;;;;;;;;;;;;;;;;;;",
";;;;;;;;;;;;;;;;;;;;;;;;;;;;;;;;;;;;;;;;;;;;;;;;;;;;;;;;;;;;;;;;;;;;;;;;;;;;;;;;;;;;;;;;;;;;;;;;",
";;;;;;;;;;;;;;;;;;;;;;;;;;;;;;;;;;;;;;;;;;;;;;;;;;;;;;;;;;;;;;;;;;;;;;;;;;;;;;;;;;;;;;;;;;;;;;;;",
";;;;;;;;;;;;;;;;;;;;;;;;;;;;;;;;;;;;;;;;;;;;;;;;;;;;;;;;;;;;;;;;;;;;;;;;;;;;;;;;;;;;;;;;;;;;;;;;",
";;;;;;;;;;;;;;;;;;;;;;;;;;;;;;;;;;;;;;;;;;;;;;;;;;;;;;;;;;;;;;;;;;;;;;;;;;;;;;;;;;;;;;;;;;;;;;;;",
";;;;;;;;;;;;;;;;;;;;;;;;;;;;;;;;;;;;;;;;;;;;;;;;;;;;;;;;;;;;;;;;;;;;;;;;;;;;;;;;;;;;;;;;;;;;;;;;",
";;;;;;;;;;;;;;;;;;;;;;;;;;;;;;;;;;;;;;;;;;;;;;;;;;;;;;;;;;;;;;;;;;;;;;;;;;;;;;;;;;;;;;;;;;;;;;;;",
";;;;;;;;;;;;;;;;;;;;;;;;;;;;;;;;;;;;;;;;;;;;;;;;;;;;;;;;;;;;;;;;;;;;;;;;;;;;;;;;;;;;;;;;;;;;;;;;",
";;;;;;;;;;;;;;;;;;;;;;;;;;;;;;;;;;;;;;;;;;;;;;;;;;;;;;;;;;;;;;;;;;;;;;;;;;;;;;;;;;;;;;;;;;;;;;;;",
";;;;;;;;;;;;;;;;;;;;;;;;;;;;;;;;;;----;;;;;;;;;;;;;;;;;;;;;;;;;;;;;;;;;;;;;;;;;;;;;;;;;;;;;;;;;;",
";;;;;;;;;;;;;;;;;;;;;;;;;;;;;;-----------;;;;;;;;;;;;;;;;;;;;;;;;;;;;;;;;;;;;;;;;;;;;;;;;;;;;;;;",
";;;;;;;;;;;;;;;;;;;;;;;;;;;;--------------==;;;;;;;;;;;;;;;;;;;;;;;;;;;;;;;;;;;;;;;;;;;;;;;;;;;;",
";;;;;;;;;;;;;;;;;;;;;;;;;---------==============;;;;;;;;;;;;;;;;;;;;;;;;;;;;;;;;;;;;;;;;;;;;;;;;",
";;;;;;;;;;;;;;;;;;;;;;;;-------====================;;;;;;;;;;;;;;;;;;;;;;;;;;;;;;;;;;;;;;;;;;;;;",
";;;;;;;;;;;;;;;;;;;;;;------========================;;;;;;;;;;;;;;;;;;;;;;;;;;;;;;;;;;;;;;;;;;;;",
";;;;;;;;;;;;;;;;;;;;;-----========;;;;;;;;;===========;;;;;;;;;;;;;;;;;;;;;;;;;;;;;;;;;;;;;;;;;;",
";;;;;;;;;;;;;;;;;;;-----=======;;;;;;;;;;;;;;;;========;;;;;;;;;;;;;;;;;;;;;;;;;;;;;;;;;;;;;;;;;",
";;;;;;;;;;;;;;;;;;-----=====;;;;;;;;;;;;;;;;;;;;;=======;;;;;;;;;;;;;;;;;;;;;;;;;;;;;;;;;;;;;;;;",
";;;;;;;;;;;;;;;;;----=====;;;;;;;;;;;;;;;;;;;;;;;;;======;;;;;;;;;;;;;;;;;;;;;;;;;;;;;;;;;;;;;;;",
";;;;;;;;;;;;;;;;----====;;;;;;;;;;;;;;;;;;;;;;;;;;;;;====;;;;;;;;;;;;;;;;;;;;;;;;;;;;;;;;;;;;;;;",
";;;;;;;;;;;;;;;;---====;;;;;;;;;;;;;;;;;;***;*;;;;;;;;====;;;;;;;;;;;;;;;;;;;;;;;;;;;;;;;;;;;;;;",
";;;;;;;;;;;;;;;---===;;;;;;;;;;;;;;;;***********;;;;;;;===;;;;;;;;;;;;;;;;;;;;;;;;;;;;;;;;;;;;;;",
";;;;;;;;;;;;;;---===;;;;;;;;;;;;;;****************;;;;;;===;;;;;;;;;;;;;;;;;;;;;;;;;;;;;;;;;;;;;",
";;;;;;;;;;;;;---===;;;;;;;;;;;;;;******&&&&&&&******;;;;;==;;;;;;;;;;;;;;;;;;;;;;;;;;;;;;;;;;;;;",
";;;;;;;;;;;;---===;;;;;;;;;;;;;*****&&&&;;;&;;&&&***;;;;;;=;;;;;;;;;;;;;;;;;;;;;;;;;;;;;;;;;;;;;",
";;;;;;;;;;;;---===;;;;;;;;;;;;***$$&&;;;;;;;;;;;&&****;;;;;=;;;;;;;;;;;;;;;;;;;;;;;;;;;;;;;;;;;;",
";;;;;;;;;;;----;;;;;;;;;;;;;;;***&;;;;;;;;;;;;;;;&&***;;;;;;;;;;;;;;;;;;;;;;;;;;;;;;;;;;;;;;;;;;",
";;;;;;;;;;;---=;;;;;;;;;;;;;;**$$;;;;;;;;;;;;;;;;;&&***;;;;;;;;;;;;;;;;;;;;;;;;;;;;;;;;;;;;;;;;;",
";;;;;;;;;;----;;;;;;;;;;;;;;***$;;;;;;;;;;;;;;;;;;;&***;;;;;;;;;;;;;;;;;;;;;;;;;;;;;;;;;;;;;;;;;",
";;;;;;;;;;---;;;;;;;;;;;;;;;**$.;;;;;;;;;;;;;;;;;;;..**;;;;;;;;;;;;;;;;;;;;;;;;;;;;;;;;;;;;;;;;;",
";;;;;;;;;----;;;;;;;;;;;;;;**$;;;;;;;;;;;;;;;;;;;;;;.***;;;;;;;;;;;;;;;;;;;;;;;;;;;;;;;;;;;;;;;;",
";;;;;;;;;---;;;;;;;;;;;;;;;;$$;;;;;;;;;;;;;%%% ;;;;;o***;;;;;;;;;;;;;;;;;;;;;;;;;;;;;;;;;;;;;;;;",
";;;;;;;;;;;;;;;;;;;;;;;;;;;;$;;;;;;;;;;;###%%#   ;;;;.*;;;;;;;;;;;;;;;;;;;;;;;;;;;;;;;;;;;;;;;;;",
";;;;;;;;;;;;;;;;;;;;;;;;;;;$$;;;;;;;;####   %%%#% ;;;*.;;;;;;;;;;;;;;;;;;;;;;;;;;;;;;;;;;;;;;;;;",
";;;;;;;;;;;;;;;;;;;;;;;;;;;$$;;;;;;;#### ++X%;;;#%%;;...;;;;;;;;;;;;;;;;;;;;;;;;;;;;;;;;;;;;;;;;",
";;;;;;;;;;;;;;;;;;;;;;;;;;$$;;;;;;;###..+;+;;;;;#%@@*..;;;;;;;;;;;;;;;;;;;;;;;;;;;;;;$;;;;;;;;;;",
";;;;;;;;;;;;;;;;;;;;;;;;;;;$;;;;;;;##...+;;;;;;;;;@@...;;;;;;;;;;;;;;;;;;;;;;;;;;;;;$$;;;;;;;;;;",
";;;;;;;;;;;;;;;;;;;;;;;;;;$$;;;;;;##....;;;;;;;;;;@@..#;;;;;;O;;;;;;;;;;;;;;;;;;;;;;$$;;;;;;;;;;",
";;;;;;;;;;;;;;;;;;;;;;;;;;$;;;;;;;#.....;;;;X@@;;;;;.#;;;;;;;O;;;;;;--;;;;;;;;;;;;;;$$;;;;;;;;;;",
";;;;;;;;;;;;;;;;;;;;;;;;;;$$;;;;;;....o;;;;;X;%%;;####;;;;;;;;;;;;;--;;;;;;;;;;;;;;;$$;;;;;;;;;;",
";;;;;;;;;;;;;;;;;;;;;;;;;;;$;;;;;....**;;;;;;;;%;;%;;;;;;;;;;;;;;;;--;;;;;;;;;;;;;;;$$;;;;;;;;;;",
";;;;;;;;;;;;;;;;;;;;;;;;;;;;;;;;;....*;;;;;;;##;;;;;;;;;;;;;+;;;;;;-;;;;;;;;;;;;;;;$$$;;;;;;;;;;",
";;;;;;;;;;;;;;;;;;;;;;;;;;;;;;;;;..***;;;;;;###;;;;;;;;X+;;++;;;;==-;;;;;;;;;;;;;;;$$$;;;;;;;;;;",
";;;;;;;;;;;;;;;;;;;;;;;;;;;;;;;;;..***;;;;;;###;;;;;%%X+++++ ;;;;=-;;;;;;;;;;;;;;;;$$$;;;;;;;;;;",
";;;;;;;;;;;;;;;;;;;;;;;;;;;;;;;;;.****;;;;;  ;##;%%%%%X++++ ;;;;=--;;;;;;;;;;;;;;;;$$;;;;;;;;;;;",
";;;;;;;;;;;;;;;;;;;;;;;;;;;;;;;;;.**.;;;;;=    #%%%%%%++++  ;;;=---;;;;;;;;;;;;;;;$$$;;;;;;;;;;;",
";;;;;;;;;;;;;;;;;;;;;;;;;;;;;;;;****.;;o;;;=   ###%%%%     ;;===--;;;;;;;;;;;;;;;;$$$;;;;;;;;;;;",
";;;;;;;;;;;;;;;;;;;;;;;;;;;;;;;;****.o;;;;;==    ##%%%    ;;==---;;;;;;;;;;;;;;;;$$$;;;;;;;;;;;;",
";;;;;;;;;;;;;;;;;;;;;;;;;;;;;;;;****..;;;;;;===;       ;;====---;;;;;;;;;;;;;;;;;$$$;;;;;;;;;;;;",
";;;;;;;;;;;;;;;;;;;;;;;;;;;;;;;;****..;;;;;;;=======;;=====----;;;;;;;;;;;;;;;;;$$$;;;;;;;;;;;;;",
";;;;;;;;;;;;;;;;;;;;;;;;;;;;;;;;*****.o;;;;;;;===========----;;;;;;;;;;;;;;;;;;;$$$;;;;;;;;;;;;;",
";;;;;;;;;;;;;;;;;;;;;;;;;;;;;;;;*****..;;;;;;;;;;====-------;;;;;;;;;;;;;;;;;;;$$$;;;;;;;;;;;;;;",
";;;;;;;;;;;;;;;;;;;;;;;;;;;;;;;;*****.&;;;;;;;;;;;;;;;;--;;;;;;;;;;;;;;;;;;;;;$$$**;;;;;;;;;;;;;",
";;;;;;;;;;;;;;;;;;;;;;;;;;;;;;;;*****&&;;;;;;;;;;;;;;;;;;;;;;;;;;;;;;;;;;;;;;;$$$*;;;;;;;;;;;;;;",
";;;;;;;;;;;;;;;;;;;;;;;;;;;;;;;;;*****&&;;;;;;;;;;;;;;;;;;;;;;;;;;;;;;;;;;;;;$$$***;;;;;;;;;;;;;",
";;;;;;;;;;;;;;;;;;;;;;;;;;;;;;;;;*****&&&;;;;;;;;;;;;;;;;;;;;;;;;;;;;;;;;;;.$$$***;;;;;;;;;;;;;;",
";;;;;;;;;;;;;;;;;;;;;;;;;;;;;;;;;******&&&;;;;;;;;;;;;;;;;;;;;;;;;;;;;;;;;.$$$***;;;;;;;;;;;;;;;",
";;;;;;;;;;;;;;;;;;;;;;;;;;;;;;;;;;******&&;;;;;;;;;;;;;;;;;;;;;;;;;;;;;;;.$$$****;;;;;;;;;;;;;;;",
";;;;;;;;;;;;;;;;;;;;;;;;;;;;;;;;;;******&&&;;;;;;;;;;;;;;;;;;;;;;;;;;;;;&$$$****;;;;;;;;;;;;;;;;",
";;;;;;;;;;;;;;;;;;;;;;;;;;;;;;;;;;;******&&&;;;;;;;;;;;;;;;;;;;;;;;;;;;&$$$****;;;;;;;;;;;;;;;;;",
";;;;;;;;;;;;;;;;;;;;;;;;;;;;;;;;;;;;******&&&&;;;;;;;;;;;;;;;;;;;;;;;&&$$*****;;;;;;;;;;;;;;;;;;",
";;;;;;;;;;;;;;;;;;;;;;;;;;;;;;;;;;;;********&&&&;;;;;;;;;;;;;;;;;;;&&$$$*****;;;;;;;;;;;;;;;;;;;",
";;;;;;;;;;;;;;;;;;;;;;;;;;;;;;;;;;;;;*********&&&&&&;;;;;;;;;;;;&&&&$$******;;;;;;;;;;;;;;;;;;;;",
";;;;;;;;;;;;;;;;;;;;;;;;;;;;;;;;;;;;;;**********&&&&&&&&&&&&&&&&&&$$********;;;;;;;;;;;;;;;;;;;;",
";;;;;;;;;;;;;;;;;;;;;;;;;;;;;;;;;;;;;;;;************&&&&&&&&&&&&$$********;;;;;;;;;;;;;;;;;;;;;;",
";;;;;;;;;;;;;;;;;;;;;;;;;;;;;;;;;;;;;;;;;********************************;;;;;;;;;;;;;;;;;;;;;;;",
";;;;;;;;;;;;;;;;;;;;;;;;;;;;;;;;;;;;;;;;;;;****************************;;;;;;;;;;;;;;;;;;;;;;;;;",
";;;;;;;;;;;;;;;;;;;;;;;;;;;;;;;;;;;;;;;;;;;;*************************;;;;;;;;;;;;;;;;;;;;;;;;;;;",
";;;;;;;;;;;;;;;;;;;;;;;;;;;;;;;;;;;;;;;;;;;;;;;*******************;;;;;;;;;;;;;;;;;;;;;;;;;;;;;;",
";;;;;;;;;;;;;;;;;;;;;;;;;;;;;;;;;;;;;;;;;;;;;;;;;;*************;;;;;;;;;;;;;;;;;;;;;;;;;;;;;;;;;",
";;;;;;;;;;;;;;;;;;;;;;;;;;;;;;;;;;;;;;;;;;;;;;;;;;;;;;;;;;;;;;;;;;;;;;;;;;;;;;;;;;;;;;;;;;;;;;;;",
";;;;;;;;;;;;;;;;;;;;;;;;;;;;;;;;;;;;;;;;;;;;;;;;;;;;;;;;;;;;;;;;;;;;;;;;;;;;;;;;;;;;;;;;;;;;;;;;",
";;;;;;;;;;;;;;;;;;;;;;;;;;;;;;;;;;;;;;;;;;;;;;;;;;;;;;;;;;;;;;;;;;;;;;;;;;;;;;;;;;;;;;;;;;;;;;;;",
";;;;;;;;;;;;;;;;;;;;;;;;;;;;;;;;;;;;;;;;;;;;;;;;;;;;;;;;;;;;;;;;;;;;;;;;;;;;;;;;;;;;;;;;;;;;;;;;",
";;;;;;;;;;;;;;;;;;;;;;;;;;;;;;;;;;;;;;;;;;;;;;;;;;;;;;;;;;;;;;;;;;;;;;;;;;;;;;;;;;;;;;;;;;;;;;;;",
";;;;;;;;;;;;;;;;;;;;;;;;;;;;;;;;;;;;;;;;;;;;;;;;;;;;;;;;;;;;;;;;;;;;;;;;;;;;;;;;;;;;;;;;;;;;;;;;",
";;;;;;;;;;;;;;;;;;;;;;;;;;;;;;;;;;;;;;;;;;;;;;;;;;;;;;;;;;;;;;;;;;;;;;;;;;;;;;;;;;;;;;;;;;;;;;;;",
";;;;;;;;;;;;;;;;;;;;;;;;;;;;;;;;;;;;;;;;;;;;;;;;;;;;;;;;;;;;;;;;;;;;;;;;;;;;;;;;;;;;;;;;;;;;;;;;"
};
