/* XPM */
static char *result[] = {
/* columns rows colors chars-per-pixel */
"96 80 15 1 ",
"  c #211930",
". c #2B1D42",
"X c #2F1F49",
"o c #32214E",
"O c #332150",
"+ c #552469",
"@ c #6D2374",
"# c #7E2781",
"$ c #872C8C",
"% c #8E2F95",
"& c #9C36A6",
"* c #A73DB3",
"= c #EEB7D2",
"- c #F0BDD6",
"; c None",
/* pixels */
";;;;;;;;;;;;;;;;;;;;;;;;;;;;;;;;;;;;;;;;;;;;;;;;;;;;;;;;;;;;;;;;;;;;;;;;;;;;;;;;;;;;;;;;;;;;;;;;",
";;;;;;;;;;;;;;;;;;;;;;;;;;;;;;;;;;;;;;;;;;;;;;;;;;;;;;;;;;;;;;;;;;;;;;;;;;;;;;;;;;;;;;;;;;;;;;;;",
";;;;;;;;;;;;;;;;;;;;;;;;;;;;;;;;;;;;;;;;;;;;;;;;;;;;;;;;;;;;;;;;;;;;;;;;;;;;;;;;;;;;;;;;;;;;;;;;",
";;;;;;;;;;;;;;;;;;;;;;;;;;;;;;;;;;;;;;;;;;;;;;;;;;;;;;;;;;;;;;;;;;;;;;;;;;;;;;;;;;;;;;;;;;;;;;;;",
";;;;;;;;;;;;;;;;;;;;;;;;;;;;;;;;;;;;;;;;;;;;;;;;;;;;;;;;;;;;;;;;;;;;;;;;;;;;;;;;;;;;;;;;;;;;;;;;",
";;;;;;;;;;;;;;;;;;;;;;;;;;;;;;;;;;;;;;;;;;;;;;;;;;;;;;;;;;;;;;;;;;;;;;;;;;;;;;;;;;;;;;;;;;;;;;;;",
";;;;;;;;;;;;;;;;;;;;;;;;;;;;;;;;;;;;;;;;;;;;;;;;;;;;;;;;;;;;;;;;;;;;;;;;;;;;;;;;;;;;;;;;;;;;;;;;",
";;;;;;;;;;;;;;;;;;;;;;;;;;;;;;;;;;;;;;;;;;;;;;;;;;;;;;;;;;;;;;;;;;;;;;;;;;;;;;;;;;;;;;;;;;;;;;;;",
";;;;;;;;;;;;;;;;;;;;;;;;;;;;;;;;;;;;;;;;;;;;;;;;;;;;;;;;;;;;;;;;;;;;;;;;;;;;;;;;;;;;;;;;;;;;;;;;",
";;;;;;;;;;;;;;;;;;;;;;;;;;;;;;;;;;;;;;;;;;;;;;;;;;;;;;;;;;;;;;;;;;;;;;;;;;;;;;;;;;;;;;;;;;;;;;;;",
";;;;;;;;;;;;;;;;;;;;;;;;;;;;;;;;;;;;;;;;;;;;;;;;;;;;;;;;;;;;;;;;;;;;;;;;;;;;;;;;;;;;;;;;;;;;;;;;",
";;;;;;;;;;;;;;;;;;;;;;;;;;;;;;;;;;;;;;;;;;;;;;;;;;;;;;;;;;;;;;;;;;;;;;;;;;;;;;;;;;;;;;;;;;;;;;;;",
";;;;;;;;;;;;;;;;;;;;;;;;;;;;;;;;;;------;;;;;;;;;;;;;;;;;;;;;;;;;;;;;;;;;;;;;;;;;;;;;;;;;;;;;;;;",
";;;;;;;;;;;;;;;;;;;;;;;;;;;;;;;;;;;;;;;;;;;;;;;;;;;;;;;;;;;;;;;;;;;;;;;;;;;;;;;;;;;;;;;;;;;;;;;;",
";;;;;;;;;;;;;;;;;;;;;;;;;;;;-;;;;;=========;;;;;;;;;;;;;;;;;;;;;;;;;;;;;;;;;;;;;;;;;;;;;;;;;;;;;",
";;;;;;;;;;;;;;;;;;;;;;;;--;;;;;=======;;;;;;;;;;;;;;;;;;;;;;;;;;;;;;;;;;;;;;;;;;;;;;;;;;;;;;;;;;",
";;;;;;;;;;;;;;;;;;;;;;----;;================;;;;;;;;;;;;;;;;;;;;;;;;;;;;;;;;;;;;;;;;;;;;;;;;;;;;",
";;;;;;;;;;;;;;;;;;;;;---========;;;;;;;;;;;;;;;;;;;;;;;;;;;;;;;;;;;;;;;;;;;;;;;;;;;;;;;;;;;;;;;;",
";;;;;;;;;;;;;;;;;;;----=======;;;;;;;;;;;;;;;;;;;;;;;;;;;;;;;;;;;;;;;;;;;;;;;;;;;;;;;;;;;;;;;;;;",
";;;;;;;;;;;;;;;;;;----======;;;;;;;;;;;;;;;;;;;;;;;;;;;;;;;;;;;;;;;;;;;;;;;;;;;;;;;;;;;;;;;;;;;;",
";;;;;;;;;;;;;;;;;----=====;;;;;;;;;;;;;;;;;;;;;;;;;;;;;;;;;;;;;;;;;;;;;;;;;;;;;;;;;;;;;;;;;;;;;;",
";;;;;;;;;;;;;;;;----====;;;;;;;;;;;;;;;;;;;;;;;;;;;;;;;;;;;;;;;;;;;;;;;;;;;;;;;;;;;;;;;;;;;;;;;;",
";;;;;;;;;;;;;;;;---====;;;;;;;;;;;;;;;*********;;;;;;;;;;;;;;;;;;;;;;;;;;;;;;;;;;;;;;;;;;;;;;;;;",
";;;;;;;;;;;;;;;---===;;;;;;;;;;;;;;;*************;;;;;;;;;;;;;;;;;;;;;;;;;;;;;;;;;;;;;;;;;;;;;;;",
";;;;;;;;;;;;;;---===;;;;;;;;;;;;;;********&********;;;;;;;;;;;;;;;;;;;;;;;;;;;;;;;;;;;;;;;;;;;;;",
";;;;;;;;;;;;;---===;;;;;;;;;;;;;******&&&&&&&&******;;;;;;;;;;;;;;;;;;;;;;;;;;;;;;;;;;;;;;;;;;;;",
";;;;;;;;;;;;---===;;;;;;;;;;;;;*****&&&&;;;;;;&&&***;;;;;;;;;;;;;;;;;;;;;;;;;;;;;;;;;;;;;;;;;;;;",
";;;;;;;;;;;;---===;;;;;;;;;;;;***&&&&;;;;;;;;;;;&&****;;;;;;;;;;;;;;;;;;;;;;;;;;;;;;;;;;;;;;;;;;",
";;;;;;;;;;;---===;;;;;;;;;;;;****&;;;;;;;;;;;;;;;&&&**;;;;;;;;;;;;;;;;;;;;;;;;;;;;;;;;;;;;;;;;;;",
";;;;;;;;;;---===;;;;;;;;;;;;;**%&;;;;;;;;;;;;;;;;;;&***;;;;;;;;;;;;;;;;;;;;;;;;;;;;;;;;;;;;;;;;;",
";;;;;;;;;;---==;;;;;;;;;;;;;***&;;;;;;;;;;;;;;;;;;;&&**;;;;;;;;;;;;;;;;;;;;;;;;;;;;;;;;;;;;;;;;;",
";;;;;;;;;;--===;;;;;;;;;;;;***&;;;;;;;;;;;;;;;;;;;;;O.*;;;;;;;;;;;;;;;;;;;;;;;;;;;;;%;;;;;;;;;;;",
";;;;;;;;;---==;;;;;;;;;;;;;**&;;;;;;;;;;;;;;;;;;;;;;;.**;;;;;;;;;;;;;;;;;;;;;;;;;;;;;;;;;;;;;;;;",
";;;;;;;;;--===;;;;;;;;;;;;***.;;;;;;;;;;;;;;;;;;;;;;;O.;#;;;;;;;;;;;;;;;;;;;;;;;;;;;;;;;;;;;;;;;",
";;;;;;;;;;;==;;;;;;;;;;;;;**%;;;;;;;;;;;;;;$$    ;;;OO.;;;;;;;;;;;;;;;;;;;;;;;;;;;;;;;;;;;;;;;;;",
";;;;;;;;;;;==;;;;;;;;;;;;;*%.;;;;;;;;;### $$$$  @@;;;O.##;;;;;;;;;;;;;;;;;;;;;;;;;;;;;;;;;;;;;;;",
";;;;;;;;;;;==;;;;;;;;;;;;;*%.;;;;;;;#### +$$$;;;####;..##++;;;;;;;;;;;;;;;;;;;;;;;;;;;;;;;;;;;;;",
";;;;;;;;;;;=;;;;;;;;;;;;;;*%;;;;;;;##### oX;;;;@###$$.##++;;;++;;;;==;;;;;;;;;;;;;;;;%;;;;;;;;;;",
";;;;;;;;;;==;;;;;;;;;;;;;;;%;;;;;;##### +o;;;;;@@@$$$###+;;;+++;;;;;;;;;;;;;;;;;;;;;%%;;;;;;;;;;",
";;;;;;;;;;=;;;;;;;;;;;;;;;%%;;;;;#####;++ ;+;;;;;;$ ###++;;++++;;;;=;;;;;;;;;;;;;;;;%%;;;;;;;;;;",
";;;;;;;;;;=;;;;;;;;;;;;;;;%;;;;;;#####;++;;+X$$@;;;;##;++;;++++;;;;=--;;;;;;;;;;;;;;%%;;;;;;;;;;",
";;;;;;;;;;=;;;;;;;;;;;;;;;%%;;;;#####.;++;+;X;@@;;;##;;;;;;++++;;;==-;;;;;;;;;;;;;;;%%;;;;;;;;;;",
";;;;;;;;;;=;;;;;;;;;;;;;;;;%;;;;###...;;;####;;;;;;;;;;;;Xoo++;;;;==-;;;;;;;;;;;;;;;%%;;;;;;;;;;",
";;;;;;;;;;;;;;;;;;;;;;;;;;;;;;;###....;########;;;;;;;;;XXoo+ ;;;==-;;;;;;;;;;;;;;;%%%;;;;;;;;;;",
";;;;;;;;;;;;;;;;;;;;;;;;;;;;;;;###.*O;;########;;;;;;;;XXoo+ ;;;;==-;;;;;;;;;;;;;;;%%%;;;;;;;;;;",
";;;;;;;;;;;;;;;;;;;;;;;;;;;;;;;##..*O;;#;;;;###;;;;;;;$$$oo  ;;;;=-;;;;;;;;;;;;;;;;%%*;;;;;;;;;;",
";;;;;;;;;;;;;;;;;;;;;;;;;;;;;;;#;..*O;;;;;;;;;;;;;;;$$$$$+  ;;;;=--;;;;;;;;;;;;;;;;%%;;;;;;;;;;;",
";;;;;;;;;;;;;;;;;;;;;;;;;;;;;;##;..OOO;;;;;;;     $$$$$$$$$ ;;;=---;;;;;;;;;;;;;;;%%%;;;;;;;;;;;",
";;;;;;;;;;;;;;;;;;;;;;;;;;;;;;#;;*.OOO;;;;;;;     $$$$$$$ ;;;===--;;;;;;;;;;;;;;;;%%*;;;;;;;;;;;",
";;;;;;;;;;;;;;;;;;;;;;;;;;;;;;;;;*.OO;;;;;;;;;      $$    ;;===--;;;;;;;;;;;;;;;;.%%*;;;;;;;;;;;",
";;;;;;;;;;;;;;;;;;;;;;;;;;;;;;;;**.OO;;;;;;;;;;;;     ;;;;====--;;;;;;;;;;;;;;;;;%%***;;;;;;;;;;",
";;;;;;;;;;;;;;;;;;;;;;;;;;;;;;;;**..O;;;;;;;;;;;;;;;;;=====;;;-;;;;;;;;;;;;;;;;;.%%***;;;;;;;;;;",
";;;;;;;;;;;;;;;;;;;;;;;;;;;;;;;;***.O;;;;;;;;;;;;;;;;;;==;;;;;;;;;;;;;;;;;;;;;;;&%****;;;;;;;;;;",
";;;;;;;;;;;;;;;;;;;;;;;;;;;;;;;;;***OO;;;;;;;;;;;;;;;;;;-;;;;;;;;;;;;;;;;;;;;;;%%%***;;;;;;;;;;;",
";;;;;;;;;;;;;;;;;;;;;;;;;;;;;;;;;***&O;;;;;;;;;;;;;;;;;;;;;;;;;;;;;;;;;;;;;;;;.&%****;;;;;;;;;;;",
";;;;;;;;;;;;;;;;;;;;;;;;;;;;;;;;;***&&&;;;;;;;;;;;;;;;;;;;;;;;;;;;;;;;;;;;;;;;&&****;;;;;;;;;;;;",
";;;;;;;;;;;;;;;;;;;;;;;;;;;;;;;;;****&&;;;;;;;;;;;;;;;;;;;;;;;;;;;;;;;;;;;;;;&&%***;;;;;;;;;;;;;",
";;;;;;;;;;;;;;;;;;;;;;;;;;;;;;;;;****&&&;;;;;;;;;;;;;;;;;;;;;;;;;;;;;;;;;;;;&&%****;;;;;;;;;;;;;",
";;;;;;;;;;;;;;;;;;;;;;;;;;;;;;;;;;****&&&;;;;;;;;;;;;;;;;;;;;;;;;;;;;;;;;;;&&%*****;;;;;;;;;;;;;",
";;;;;;;;;;;;;;;;;;;;;;;;;;;;;;;;;;*****&&&;;;;;;;;;;;;;;;;;;;;;;;;;;;;;;;;&&%*****;;;;;;;;;;;;;;",
";;;;;;;;;;;;;;;;;;;;;;;;;;;;;;;;;;******&&&;;;;;;;;;;;;;;;;;;;;;;;;;;;;;&&&%*****;;;;;;;;;;;;;;;",
";;;;;;;;;;;;;;;;;;;;;;;;;;;;;;;;;;;******&&&;;;;;;;;;;;;;;;;;;;;;;;;;;;&&&%*****;;;;;;;;;;;;;;;;",
";;;;;;;;;;;;;;;;;;;;;;;;;;;;;;;;;;;;******&&&&;;;;;;;;;;;;;;;;;;;;;;;&&&&******;;;;;;;;;;;;;;;;;",
";;;;;;;;;;;;;;;;;;;;;;;;;;;;;;;;;;;;********&&&&;;;;;;;;;;;;;;;;;;;&&&&&******;;;;;;;;;;;;;;;;;;",
";;;;;;;;;;;;;;;;;;;;;;;;;;;;;;;;;;;;;********&&&&&&;;;;;;;;;;;;;&&&&&&*******;;;;;;;;;;;;;;;;;;;",
";;;;;;;;;;;;;;;;;;;;;;;;;;;;;;;;;;;;;;*********&&&&&&&;;;;;&&&&&&&&&********;;;;;;;;;;;;;;;;;;;;",
";;;;;;;;;;;;;;;;;;;;;;;;;;;;;;;;;;;;;;;***********&&&&&&&&&&&&&&&&*********;;;;;;;;;;;;;;;;;;;;;",
";;;;;;;;;;;;;;;;;;;;;;;;;;;;;;;;;;;;;;;;;************&&&&&&&&&************;;;;;;;;;;;;;;;;;;;;;;",
";;;;;;;;;;;;;;;;;;;;;;;;;;;;;;;;;;;;;;;;;;******************************;;;;;;;;;;;;;;;;;;;;;;;;",
";;;;;;;;;;;;;;;;;;;;;;;;;;;;;;;;;;;;;;;;;;;***************************;;;;;;;;;;;;;;;;;;;;;;;;;;",
";;;;;;;;;;;;;;;;;;;;;;;;;;;;;;;;;;;;;;;;;;;;;***********************;;;;;;;;;;;;;;;;;;;;;;;;;;;;",
";;;;;;;;;;;;;;;;;;;;;;;;;;;;;;;;;;;;;;;;;;;;;;;;*****************;;;;;;;;;;;;;;;;;;;;;;;;;;;;;;;",
";;;;;;;;;;;;;;;;;;;;;;;;;;;;;;;;;;;;;;;;;;;;;;;;;;;;;*******;;;;;;;;;;;;;;;;;;;;;;;;;;;;;;;;;;;;",
";;;;;;;;;;;;;;;;;;;;;;;;;;;;;;;;;;;;;;;;;;;;;;;;;;;;;;;;;;;;;;;;;;;;;;;;;;;;;;;;;;;;;;;;;;;;;;;;",
";;;;;;;;;;;;;;;;;;;;;;;;;;;;;;;;;;;;;;;;;;;;;;;;;;;;;;;;;;;;;;;;;;;;;;;;;;;;;;;;;;;;;;;;;;;;;;;;",
";;;;;;;;;;;;;;;;;;;;;;;;;;;;;;;;;;;;;;;;;;;;;;;;;;;;;;;;;;;;;;;;;;;;;;;;;;;;;;;;;;;;;;;;;;;;;;;;",
";;;;;;;;;;;;;;;;;;;;;;;;;;;;;;;;;;;;;;;;;;;;;;;;;;;;;;;;;;;;;;;;;;;;;;;;;;;;;;;;;;;;;;;;;;;;;;;;",
";;;;;;;;;;;;;;;;;;;;;;;;;;;;;;;;;;;;;;;;;;;;;;;;;;;;;;;;;;;;;;;;;;;;;;;;;;;;;;;;;;;;;;;;;;;;;;;;",
";;;;;;;;;;;;;;;;;;;;;;;;;;;;;;;;;;;;;;;;;;;;;;;;;;;;;;;;;;;;;;;;;;;;;;;;;;;;;;;;;;;;;;;;;;;;;;;;",
";;;;;;;;;;;;;;;;;;;;;;;;;;;;;;;;;;;;;;;;;;;;;;;;;;;;;;;;;;;;;;;;;;;;;;;;;;;;;;;;;;;;;;;;;;;;;;;;"
};
