/* XPM */
static char *result[] = {
/* columns rows colors chars-per-pixel */
"96 80 17 1 ",
"  c #1A1625",
". c #291C3E",
"X c #30204A",
"o c #30204B",
"O c #32204D",
"+ c #362255",
"@ c #382358",
"# c #3A245C",
"$ c #7D267F",
"% c #8B2E92",
"& c #903097",
"* c #A63CB3",
"= c #B248AF",
"- c #B84EAE",
"; c #BD53AD",
": c #D76DA5",
"> c None",
/* pixels */
">>>>>>>>>>>>>>>>>>>>>>>>>>>>>>>>>>>>>>>>>>>>>>>>>>>>>>>>>>>>>>>>>>>>>>>>>>>>>>>>>>>>>>>>>>>>>>>>",
">>>>>>>>>>>>>>>>>>>>>>>>>>>>>>>>>>>>>>>>>>>>>>>>>>>>>>>>>>>>>>>>>>>>>>>>>>>>>>>>>>>>>>>>>>>>>>>>",
">>>>>>>>>>>>>>>>>>>>>>>>>>>>>>>>>>>>>>>>>>>>>>>>>>>>>>>>>>>>>>>>>>>>>>>>>>>>>>>>>>>>>>>>>>>>>>>>",
">>>>>>>>>>>>>>>>>>>>>>>>>>>>>>>>>>>>>>>>>>>>>>>>>>>>>>>>>>>>>>>>>>>>>>>>>>>>>>>>>>>>>>>>>>>>>>>>",
">>>>>>>>>>>>>>>>>>>>>>>>>>>>>>>>>>>>>>>>>>>>>>>>>>>>>>>>>>>>>>>>>>>>>>>>>>>>>>>>>>>>>>>>>>>>>>>>",
">>>>>>>>>>>>>>>>>>>>>>>>>>>>>>>>>>>>>>>>>>>>>>>>>>>>>>>>>>>>>>>>>>>>>>>>>>>>>>>>>>>>>>>>>>>>>>>>",
">>>>>>>>>>>>>>>>>>>>>>>>>>>>>>>>>>>>>>>>>>>>>>>>>>>>>>>>>>>>>>>>>>>>>>>>>>>>>>>>>>>>>>>>>>>>>>>>",
">>>>>>>>>>>>>>>>>>>>>>>>>>>>>>>>>>>>>>>>>>>>>>>>>>>>>>>>>>>>>>>>>>>>>>>>>>>>>>>>>>>>>>>>>>>>>>>>",
">>>>>>>>>>>>>>>>>>>>>>>>>>>>>>>>>>>>>>>>>>>>>>>>>>>>>>>>>>>>>>>>>>>>>>>>>>>>>>>>>>>>>>>>>>>>>>>>",
">>>>>>>>>>>>>>>>>>>>>>>>>>>>>>>>>>>>>>>>>>>>>>>>>>>>>>>>>>>>>>>>>>>>>>>>>>>>>>>>>>>>>>>>>>>>>>>>",
">>>>>>>>>>>>>>>>>>>>>>>>>>>>>>>>>>>>>>>>>>>>>>>>>>>>>>>>>>>>>>>>>>>>>>>>>>>>>>>>>>>>>>>>>>>>>>>>",
">>>>>>>>>>>>>>>>>>>>>>>>>>>>>>>>>>>>;;>>>>>>>>>>>>>>>>>>>>>>>>>>>>>>>>>>>>>>>>>>>>>>>>>>>>>>>>>>",
">>>>>>>>>>>>>>>>>>>>>>>>>>>>>>>;;;;;;;;;;;;;;;>>>>>>>>>>>>>>>>>>>>>>>>>>>>>>>>>>>>>>>>>>>>>>>>>>",
">>>>>>>>>>>>>>>>>>>>>>>>>>>>;;;;;;;;;;;;;;;;;;;;;>>>>>>>>>>>>>>>>>>>>>>>>>>>>>>>>>>>>>>>>>>>>>>>",
">>>>>>>>>>>>>>>>>>>>>>>>>>;;;;;;;;;;;;;;;;;;;;;;;;;>>>>>>>>>>>>>>>>>>>>>>>>>>>>>>>>>>>>>>>>>>>>>",
">>>>>>>>>>>>>>>>>>>>>>>>;;;;;;;;;;;;;;;;;;;;;;;;;;;;>>>>>>>>>>>>>>>>>>>>>>>>>>>>>>>>>>>>>>>>>>>>",
">>>>>>>>>>>>>>>>>>>>>>;;;;;;;;;;;;=========oo;;;;;;;;;>>>>>>>>>>>>>>>>>>>>>>>>>>>>>>>>>>>>>>>>>>",
">>>>>>>>>>>>>>>>>>>>>;;;;;;;;;================oo;;;;;;;>>>>>>>>>>>>>>>>>>>>>>>>>>>>>>>>>>>>>>>>>",
">>>>>>>>>>>>>>>>>>>>;;;;;;;;======>>>>>>>>>>>=o==o;;;;;;>>>>>>>>>>>>>>>>>>>>>>>>>>>>>>>>>>>>>>>>",
">>>>>>>>>>>>>>>>>>>;;;;;;;=====>>>>>>>>>>>>>>>>=oo=o;;;;>>>>>>>>>>>>>>>>>>>>>>>>>>>>>>>>>>>>>>>>",
">>>>>>>>>>>>>>>>>>;;;;;;====>>>>>>>>>>>>>>>>>>>>>ooooo;;;>>>>>>>>>>>>>>>>>>>>>>>>>>>>>>>>>>>>>>>",
">>>>>>>>>>>>>>>>>;;;;;;====>>>>>>>>>>>>>>>>>>>>>>>>ooooo;>>>>>>>>>>>>>>>>>>>>>>>>>>>>>>>>>>>>>>>",
">>>>>>>>>>>>>>>>;;;;;====>>>>>>>>>>>>>>>>::>>>>>>>>>ooooo>>>>>>>>>>>>>>>>>>>>>>>>>>>>>>>>>>>>>>>",
">>>>>>>>>>>>>>>;;;;;====>>>>>>>>>>>>>------:::::>>>>>>oooo>>%%>>>>>>>>>>>>>>>>>>>>>>>>>>>>>>>>>>",
">>>>>>>>>>>>>>;;;;;===>>>>>>>>>>>>-----:::&:::::::>>>>>oooo>>%%>>>>>>>>>>>>>>>>>>>>>>>>>>>>>>>>>",
">>>>>>>>>>>>>;;;;;===>>>>>>>>>>>>----&&>>>>  >:::::>>>>>##o>>>%%>>>>>>>>>>>>>>>>>>>>>>>>>>>>>>>>",
">>>>>>>>>>>>>;;;;===>>>>>>>>>>>----&>>>>>>>>>>   :::>>>>>##o>>%%>>>>>>>>>>>>>>>>>>>>>>>>>>>>>>>>",
">>>>>>>>>>>>;;;;===>>>>>>>>>>>>--&>>>>>>>>>>>>>>  :::>>>>##o>>%%>>>>>>>>>>>>>>>>>>>>>>>>>>>>>>>>",
">>>>>>>>>>>;;;;;==>>>>>>>>>>>>--&>>>>>>>>>>>>>>>>  :::>>>>##o>%%%>>>>>>>>>>>>>>>>>>>>>>>>>>>>>>>",
">>>>>>>>>>>;;;;===>>>>>>>>>>>--&>>>>>>>>>>>>>>>>>>  :::>>>o#o>%%%>>>>>>>>>>>>>>>>>>>>>>>>>>>>>>>",
">>>>>>>>>>;;;;===>>>>>>>>>>>--->>>>>>>>>>>>>>>>>>>> :::>>>o#o>%%%>>>>>>>>>>>>>>>>>>>>>>>>>>>>>>>",
">>>>>>>>>>;;;;==>>>>>>>>>>>>-->>>>>>>>>>>>>>>>>>>>>  ::@>>>##>>%%>>>>>>>>>>>>>>>>>>>>>>>>>>>>>>>",
">>>>>>>>>>;;;===>>>>>>>>>>>-->>>>>>>>>>>>>>>>>>>>>>> :::>>>###>%%>>>>>>>>>>>>>>>>>>>>>>>>>>>>>>>",
">>>>>>>>>>;;;==>>>>>>>>>>>--->>>>>>>>>>>>>X$X>XX>>>> :::>>>###%%%%>=>>>>>>>>>>>>>>>>>>>>>>>>>>>>",
">>>>>>>>>>>;===>>>>>>>>>>>-->>>>>>>>>>>>>>++++++$>>>  :@>>>###%%%%>*>>>>>>>>>>>>>>>>>>>>>>>>>>>>",
">>>>>>>>>>>;==>>>>>>>>>>>>-&>>>>>>>>>>>>  ++$$$+++>>.:@@>>%###%%%%>=>>>>>>>>>>>>>>>>>>>>>>>>>>>>",
">>>>>>>>>>>*==>>>>>>>>>>>>->>>>>>>>>>    %++$+++++$>. @@>%%###%%%%>=>>>>>>>>>>>>>>>>>>>>>>>>>>>>",
">>>>>>>>>>>==>>>>>>>>>>>>>>>>>>>>>>>    .% +   >>>X.: @@%%%%%%%%%>>=;>>>>>>>>>>>>>>>>>>>>>>>>>>>",
">>>>>>>>>>;==>>>>>>>>>>>>>>>>>>>>>>    %%% O>>>>>>X.   %%%%%%%%%%>>=>>>>>>>>>>>>>>>>>>>>>>>>>>>>",
">>>>>>>>>>*==>>>>>>>>>>>>>>>>>>>>>>    %%%OO%XX>XX.    %%%%%%%%%>>>=>>>>>>>>>>>>>>>>>>>>>>>>>>>>",
">>>>>>>>>>*==>>>>>>>>>>>>>>>>>>>>>     %%%%%XX>>      %O%%%%%%%%>>=;;>>>>>>>>>>>>>>>>>>>>>>>>>>>",
">>>>>>>>>>==>>>>>>>>>>>>>>>>>>>>>@@@  %%%%%X>>$++++ %%%OO%%%%%%%>>=;;>>>>>>>>>>>>>>>>>>>>>>>>>>>",
">>>>>>>>>>==>>>>>>>>>>>>>>>>>>>>>@@@  %%##X>>>>$++$>>>OO>>%%%%%>>==;;>>>>>>>>>>>>>>>>>>>>>>>>>>>",
">>>>>>>>>>==>>>>>>>>>>>>>>>>>>>>@@@@  %%##>>>>>>>>>>>OOO>>%%%%%>>=;;>>>>>>>>>>>>>>>>>>>>>>>>>>>>",
">>>>>>>>>>=*>>>>>>>>>>>>>>>>>>>>@@@:: %%##>>>>>>>>>>>>>>>>%%%%>>==;;>>>>>>>>>>>>>>>>>>>>>>>>>>>>",
">>>>>>>>>>=*>>>>>>>>>>>>>>>>>>>>@@@:::.%>oo>>>>>>>>>$$>>>%%.%>>==;;>>>>>>>>>>>>>>>>>>>>>>>>>>>>>",
">>>>>>>>>>=>>>>>>>>>>>>>>>>>>>>>@@::::.%%o#>>++>>$$$$$>>>%%%>>==;;;>>>>>>>>>>>>>>>>>>>>>>>>>>>>>",
">>>>>>>>>>>>>>>>>>>>>>>>>>>>>>>>@@::  .>%>##>+++$$$$$$>>>>>>>>=;;;>>>>>>>>>>>>>>>>>>>>>>>>>>>>>>",
">>>>>>>>>>>>>>>>>>>>>>>>>>>>>>>@::::  .>%>>oo>++$$$$$>>>>>>>==;;;>>>>>>>>>>>>>>>>>>>>>>>>>>>>>>>",
">>>>>>>>>>>>>>>>>>>>>>>>>>>>>>>@::::  >>.%>oooo>>>>>>>>>>+===;;;;>>>>>>>>>>>>>>>>>>&->>>>>>>>>>>",
">>>>>>>>>>>*>>>>>>>>>>>>>>>>>>>@::::  >>.>>>;;ooX=++++++>==;;;;;>>>>>>>>>>>>>>>>>>>--->>>>>>>>>>",
">>>>>>>>>>>*>>>>>>>>>>>>>>>>>>>@::::  >>>>>>>;;;o========;;;;;;>>>>>>>>>>>>>>>>>>>&--->>>>>>>>>>",
">>>>>>>>>>>*>>>>>>>>>>>>>>>>>>>@::::   >>>>>>;;;;;;;;;;;;;;;;>>>>>>>>>>>>>>>>>>>>>--->>>>>>>>>>>",
">>>>>>>>>>>>>>>>>>>>>>>>>>>>>>>>:::::  >>>>>>>>>;;;;;;;;;;;>>>>>>>>>>>>>>>>>>>>>>&--->>>>>>>>>>>",
">>>>>>>>>>>>>>>>>>>>>>>>>>>>>>>>>::::  >>>>>>>>>>>>;;>>;>>>>>>>>>>>>>>>>>>>>>>>>>--->>>>>>>>>>>>",
">>>>>>>>>>>>>>>>>>>>>>>>>>>>>>>>>::::   >>>>>>>>>>>>>>>>>>>>>>>>>>>>>>>>>>>>>>>>---->>>>>>>>>>>>",
">>>>>>>>>>>>>>>>>>>>>>>>>>>>>>>>>:::::  >>>>>>>>>>>>>>>>>>>>>>>>>>>>>>>>>>>>>>>&--->>>>>>>>>>>>>",
">>>>>>>>>>>>>>>>>>>>>>>>>>>>>>>>>:::::   >>>>>>>>>>>>>>>>>>>>>>>>>>>>>>>>>>>>>&---->>>>>>>>>>>>>",
">>>>>>>>>>>>>>>>>>>>>>>>>>>>>>>>>>:::::   >>>>>>>>>>>>>>>>>>>>>>>>>>>>>>>>>>>&---->>>>>>>>>>>>>>",
">>>>>>>>>>>>>>>>>>>>>>>>>>>>>>>>>>::::::  >>>>>>>>>>>>>>>>>>>>>>>>>>>>>>>>>>&---->>>>>>>>>>>>>>>",
">>>>>>>>>>>>>>>>>>>>>>>>>>>>>>>>>>>:::::   >>>>>>>>>>>>>>>>>>>>>>>>>>>>>>>>&---->>>>>>>>>>>>>>>>",
">>>>>>>>>>>>>>>>>>>>>>>>>>>>>>>>>>>>:::::   >>>>>>>>>>>>>>>>>>>>>>>>>>>>>>&---->>>>>>>>>>>>>>>>>",
">>>>>>>>>>>>>>>>>>>>>>>>>>>>>>>>>>>>::::::    >>>>>>>>>>>>>>>>>>>>>>>>>>&&---->>>>>>>>>>>>>>>>>>",
">>>>>>>>>>>>>>>>>>>>>>>>>>>>>>>>>>>>>:::::::    >>>>>>>>>>>>>>>>>>>>>>>&&---->>>>>>>>>>>>>>>>>>>",
">>>>>>>>>>>>>>>>>>>>>>>>>>>>>>>>>>>>>>:::::::>>    >>>>>>>>>>>>>>>>>>&&----->>>>>>>>>>>>>>>>>>>>",
">>>>>>>>>>>>>>>>>>>>>>>>>>>>>>>>>>>>>>>::::::::>>    >>>>>>>>>>>>>>&&------>>>>>>>>>>>>>>>>>>>>>",
">>>>>>>>>>>>>>>>>>>>>>>>>>>>>>>>>>>>>>>>::::::::::>>>>>>>>>>>>>>&&&------->>>>>>>>>>>>>>>>>>>>>>",
">>>>>>>>>>>>>>>>>>>>>>>>>>>>>>>>>>>>>>>>>::::::::::::&&&&&&&&&&&-------->>>>>>>>>>>>>>>>>>>>>>>>",
">>>>>>>>>>>>>>>>>>>>>>>>>>>>>>>>>>>>>>>>>>>::::::::::::::::------------>>>>>>>>>>>>>>>>>>>>>>>>>",
">>>>>>>>>>>>>>>>>>>>>>>>>>>>>>>>>>>>>>>>>>>>>:::::::---------------->>>>>>>>>>>>>>>>>>>>>>>>>>>>",
">>>>>>>>>>>>>>>>>>>>>>>>>>>>>>>>>>>>>>>>>>>>>>>>::::::------------>>>>>>>>>>>>>>>>>>>>>>>>>>>>>>",
">>>>>>>>>>>>>>>>>>>>>>>>>>>>>>>>>>>>>>>>>>>>>>>>>>>::::------->>>>>>>>>>>>>>>>>>>>>>>>>>>>>>>>>>",
">>>>>>>>>>>>>>>>>>>>>>>>>>>>>>>>>>>>>>>>>>>>>>>>>>>>>>>>>>>>>>>>>>>>>>>>>>>>>>>>>>>>>>>>>>>>>>>>",
">>>>>>>>>>>>>>>>>>>>>>>>>>>>>>>>>>>>>>>>>>>>>>>>>>>>>>>>>>>>>>>>>>>>>>>>>>>>>>>>>>>>>>>>>>>>>>>>",
">>>>>>>>>>>>>>>>>>>>>>>>>>>>>>>>>>>>>>>>>>>>>>>>>>>>>>>>>>>>>>>>>>>>>>>>>>>>>>>>>>>>>>>>>>>>>>>>",
">>>>>>>>>>>>>>>>>>>>>>>>>>>>>>>>>>>>>>>>>>>>>>>>>>>>>>>>>>>>>>>>>>>>>>>>>>>>>>>>>>>>>>>>>>>>>>>>",
">>>>>>>>>>>>>>>>>>>>>>>>>>>>>>>>>>>>>>>>>>>>>>>>>>>>>>>>>>>>>>>>>>>>>>>>>>>>>>>>>>>>>>>>>>>>>>>>",
">>>>>>>>>>>>>>>>>>>>>>>>>>>>>>>>>>>>>>>>>>>>>>>>>>>>>>>>>>>>>>>>>>>>>>>>>>>>>>>>>>>>>>>>>>>>>>>>",
">>>>>>>>>>>>>>>>>>>>>>>>>>>>>>>>>>>>>>>>>>>>>>>>>>>>>>>>>>>>>>>>>>>>>>>>>>>>>>>>>>>>>>>>>>>>>>>>",
">>>>>>>>>>>>>>>>>>>>>>>>>>>>>>>>>>>>>>>>>>>>>>>>>>>>>>>>>>>>>>>>>>>>>>>>>>>>>>>>>>>>>>>>>>>>>>>>"
};
