/* XPM */
static char *result[] = {
/* columns rows colors chars-per-pixel */
"96 80 15 1 ",
"  c #1A1625",
". c #211930",
"X c #231A35",
"o c #372356",
"O c #3B255E",
"+ c #4D2466",
"@ c #512468",
"# c #60246E",
"$ c #692372",
"% c #702375",
"& c #96339F",
"* c #F1C3DA",
"= c #F6D4E4",
"- c #F8D9E7",
"; c None",
/* pixels */
";;;;;;;;;;;;;;;;;;;;;;;;;;;;;;;;;;;;;;;;;;;;;;;;;;;;;;;;;;;;;;;;;;;;;;;;;;;;;;;;;;;;;;;;;;;;;;;;",
";;;;;;;;;;;;;;;;;;;;;;;;;;;;;;;;;;;;;;;;;;;;;;;;;;;;;;;;;;;;;;;;;;;;;;;;;;;;;;;;;;;;;;;;;;;;;;;;",
";;;;;;;;;;;;;;;;;;;;;;;;;;;;;;;;;;;;;;;;;;;;;;;;;;;;;;;;;;;;;;;;;;;;;;;;;;;;;;;;;;;;;;;;;;;;;;;;",
";;;;;;;;;;;;;;;;;;;;;;;;;;;;;;;;;;;;;;;;;;;;;;;;;;;;;;;;;;;;;;;;;;;;;;;;;;;;;;;;;;;;;;;;;;;;;;;;",
";;;;;;;;;;;;;;;;;;;;;;;;;;;;;;;;;;;;;;;;;;;;;;;;;;;;;;;;;;;;;;;;;;;;;;;;;;;;;;;;;;;;;;;;;;;;;;;;",
";;;;;;;;;;;;;;;;;;;;;;;;;;;;;;;;;;;;;;;;;;;;;;;;;;;;;;;;;;;;;;;;;;;;;;;;;;;;;;;;;;;;;;;;;;;;;;;;",
";;;;;;;;;;;;;;;;;;;;;;;;;;;;;;;;;;;;;;;;;;;;;;;;;;;;;;;;;;;;;;;;;;;;;;;;;;;;;;;;;;;;;;;;;;;;;;;;",
";;;;;;;;;;;;;;;;;;;;;;;;;;;;;;;;;;;;;;;;;;;;;;;;;;;;;;;;;;;;;;;;;;;;;;;;;;;;;;;;;;;;;;;;;;;;;;;;",
";;;;;;;;;;;;;;;;;;;;;;;;;;;;;;;;;;;;;;;;;;;;;;;;;;;;;;;;;;;;;;;;;;;;;;;;;;;;;;;;;;;;;;;;;;;;;;;;",
";;;;;;;;;;;;;;;;;;;;;;;;;;;;;;;;;;;;;;;;;;;;;;;;;;;;;;;;;;;;;;;;;;;;;;;;;;;;;;;;;;;;;;;;;;;;;;;;",
";;;;;;;;;;;;;;;;;;;;;;;;;;;;;;;;;;;;;;;;;;;;;;;;;;;;;;;;;;;;;;;;;;;;;;;;;;;;;;;;;;;;;;;;;;;;;;;;",
";;;;;;;;;;;;;;;;;;;;;;;;;;;;;;;;;;;;;;;;;;;;;;;;;;;;;;;;;;;;;;;;;;;;;;;;;;;;;;;;;;;;;;;;;;;;;;;;",
";;;;;;;;;;;;;;;;;;;;;;;;;;;;;;;;;;;;;;;;;;;;;;;;;;;;;;;;;;;;;;;;;;;;;;;;;;;;;;;;;;;;;;;;;;;;;;;;",
";;;;;;;;;;;;;;;;;;;;;;;;;;;;;;;;;;;;;;;;;;;;;;;;;;;;;;;;;;;;;;;;;;;;;;;;;;;;;;;;;;;;;;;;;;;;;;;;",
";;;;;;;;;;;;;;;;;;;;;;;;;;;;;;;;;;;;;;;;;;;;;;;;;;;;;;;;;;;;;;;;;;;;;;;;;;;;;;;;;;;;;;;;;;;;;;;;",
";;;;;;;;;;;;;;;;;;;;;;;;;;;;;;;;;;;;;...........;;;;;;;;;;;;;;;;;;;;;;;;;;;;;;;;;;;;;;;;;;;;;;;;",
";;;;;;;;;;;;;;;;;;;;;;;;;;;;;;;;+++++++++++++....;;;;;;;;;;;;;;;;;;;;;;;;;;;;;;;;;;;;;;;;;;;;;;;",
";;;;;;;;;;;;;;;;;;;;;;;;;;;;;+++++++++++++++++++...;;;;;;;;;;;;;;;;;;;;;;;;;;;;;;;;;;;;;;;;;;;;;",
";;;;;;;;;;;;;;;;;;;;;;;;;;;+++++++++........++++++...;;;%%;;;;;;;;;;;;;;;;;;;;;;;;;;;;;;;;;;;;;;",
";;;;;;;;;;;;;;;;;;;;;;;;;+++++++;;;;;;;;;;;;..++++++..;;%%%;;;;;;;;;;;;;;;;;;;;;;;;;;;;;;;;;;;;;",
";;;;;;;;;;;;;;;;;;;;**;++++++.;;;;;;;;;;;;;;;;;;#+++++.;;%%%;;;;;;;;;;;;;;;;;;;;;;;;;;;;;;;;;;;;",
";;;;;;;;;;;;;;;;;;;***+++++.;;;;;;;;;;;;;;;;;;;;;;#++++.;%%%;;;;;;;;;;;;;;;;;;;;;;;;;;;;;;;;;;;;",
";;;;;;;;;;;;;;;;;;****+++.;;;;;;;;;;;;;;;;;;;;;;;;;#++++.%%%%;;;;;;;;;;;;;;;;;;;;;;;;;;;;;;;;;;;",
";;;;;;;;;;;;;;;--****+++;;;;;;;;;;;;;;;;;;;;;;;;;;;;##++..%%%%;;;;;;;;;;;;;;;;;;;;;;;;;;;;;;;;;;",
";;;;;;;;;;;;;;--****++.;;;;;;;;;;;;;;;;;;;;;;;;;;;;;;##+...%%%%;;;;;;;;;;;;;;;;;;;;;;;;;;;;;;;;;",
";;;;;;;;;;;;;--****++.;;;;;;;;;;;;;;;;;;;;;;;;;;;;;;;;##...%%%%;;;;;;;;;;;;;;;;;;;;;;;;;;;;;;;;;",
";;;;;;;;;;;;;--***++.;;;;;;;;;;;;;;;;;;;;;;;;;;;;;;;;;;##..%%%%;;;;;;;;;;;;;;;;;;;;;;;;;;;;;;;;;",
";;;;;;;;;;;;--***++.;;;;;;;;;;;;;;;;;;;;;;;;;;;;;;;;;;;##...%%%%;;;;;;;;;;;;;;;;;;;;;;;;;;;;;;;;",
";;;;;;;;;;;--***++.;;;;;;;;;;;;;;;;;;;;;;;;;;;;;;;;;;;;;##..%%%%;;;;;;;;;;;;;;;;;;;;;;;;;;;;;;;;",
";;;;;;;;;;;--***++;;;;;;;;;;;;=;;;;;;;;;;;;;;;;;;;;;;$$;###.%.%%;;;;;;;;;;;;;;;;;;;;;;;;;;;;;;;;",
";;;;;;;;;;--***++;;;;;;;;;;;=;=;;;;;;;;;;;;;;;;;;;;;;$$;###%%%.%%;;;;;;;;;;;;;;;;;;;;;;;;;;;;;;;",
";;;;;;;;;;--***+.;;;;;;;;;;=;=;;;;;;;;;;;;;;;;;;;;;;;$$;###%%%%%%;;;;;;;;;;;;;;;;;;;;;;;;;;;;;;;",
";;;;;;;;;;-***+.;;;;;;;;;;;=;;;;;;;;;;;;;;;;;;;;;;;;;$$$###%%%%%%;;;;;;;;;;;;;;;;;;;;;;;;;;;;;;;",
";;;;;;;;;;-***+;;;;;;;;;;;===;;;;;;;;;;;;;XXX;@;;;;;o$$$###%%%%%%;;;;;;;;;;;;;;;;;;;;;;;;;;;;;;;",
";;;;;;;;;;;**+.;;;;;;;;;;;==;;;;;;;;;@@;XXXXXX@@@;;;$o$$###%%%%%%;;;;;;;;;;;;;;;;;;;;;;;;;;;;;;;",
";;;;;;;;;;;**+;;;;;;;;;;;;==;;;;;;;;@@XXXX..XXX@@ ;$$$$@##%%%%%%%;;;;;;;;;;;;;;;;;;;;;;;;;;;;;;;",
";;;;;;;;;;;**;;;;;;;;;;;;===;;;;;;;;XX&&&%..  .  &&&;$$$#%%%%%%%%;;;;;;;;;;;;;;;;;;;;;;;;;;;;;;;",
";;;;;;;;;;;*+;;;;;;;;;;;;;==;;;;;;;;&&&&%%. ;;;;;;;;$$$X%%%%%%%%%;;**;;;;;;;;;;;;;;;;;;;;;;;;;;;",
";;;;;;;;;;**;;;;;;;;;;;;;;;;;;;;;;;&&&&%%%;;;;;;;O;;&&&%%%%%%%%%%;;+;;;;;;;;;;;;;;;;;;;;;;;;;;;;",
";;;;;;;;;;*;;;;;;;;;;;;;;;=;;;;;;;X&&&&%%%%%;;;;;;;;&&&%%%%%%%%%;;;*;;;;;;;;;;;;;;;;;;;;;;;;;;;;",
";;;;;;;;;;*;;;;;;;;;;;;;;;=;;;;;;X&&&&&%%%%%;;;;;; &&X%%%%%%%%%%;;+*-;;;;;;;;;;;;;;;;;;;;;;;;;;;",
";;;;;;;;;;*;;;;;;;;;;;;;;;=;;;;;@X;$&&%%%%%#O;;  XXXX@;%%%%%%%%;;;**-;;;;;;;;;;;;;;;;=;;;;;;;;;;",
";;;;;;;;;;*;;;;;;;;;;;;;;;;;;;;;X&$$$o%%%%#OO;;;XXX;;;;;;.%%%%%;;+**-;;;;;;;;;;;;;;;;=;;;;;;;;;;",
";;;;;;;;;;;;;;;;;;;;;;;;;;;;;;;;X$$$$o%%%%##;;;;;;;;;;;;..%%%%;;.+**;;;;;;;;;;;;;;;;;=;;;;;;;;;;",
";;;;;;;;;;;;;;;;;;;;;;;;;;;;;;;;@$$$$$;%%%##&;;;..;;;;;...%%%;;;+**-;;;;;;;;;;;;;;;;;=;;;;;;;;;;",
";;;;;;;;;;;;;;;;;;;;;;;;;;;;;;;;@$$$$$$%%%##&;;;..;;;;...%%%;;;++*-;;;;;;;;;;;;;;;;;==;;;;;;;;;;",
";;;;;;;;;;;;;;;;;;;;;;;;;;;;;;;;$$$$$$$%%%.#;@@;;;;;;....%%;;;++**-;;;;;;;;;;;;;;;;;=;;;;;;;;;;;",
";;;;;;;;;;;;;;;;;;;;;;;;;;;;;;;;$$$$o$$;%%..#@@@;;;;;....;;;;.+**;;;;;;;;;;;;;;;;;;==;;;;;;;;;;;",
";;;;;;;;;;;;;;;;;;;;;;;;;;;;;;;;$$$$ooo;%%%.+#@@@@;;;...;;;;+++*;;;;;;;;;;;;;;;;;;;==;;;;;;;;;;;",
";;;;;;;;;;;;;;;;;;;;;;;;;;;;;;;;$$$$oo;;;%%.+++@@@;;;;;;;;+++;;;;;;;;;;;;;;;;;;;;;;==;;;;;;;;;;;",
";;;;;;;;;;;;;;;;;;;;;;;;;;;;;;;;$$$$oo;;;;%%;.++#+.;;...++++;;;;;;;;;;;;;;;;;;;;;;=====;;;;;;;;;",
";;;;;;;;;;;;;;;;;;;;;;;;;;;;;;;;$$$$;;;;;;;%%;..++++++++++;;;;;;;;;;;;;;;;;;;;;;;;=====;;;;;;;;;",
";;;;;;;;;;;;;;;;;;;;;;;;;;;;;;;;$$$$;;;;;;;;;;;;;......;;;;;;;;;;;;;;;;;;;;;;;;;;=====;;;;;;;;;;",
";;;;;;;;;;;;;;;;;;;;;;;;;;;;;;;;$$$$;;;;;;;;;;;;;;;;;;;;;;;;;;;;;;;;;;;;;;;;;;;;;=====;;;;;;;;;;",
";;;;;;;;;;;;;;;;;;;;;;;;;;;;;;;;;$$$;;;;;;;;;;;;;;;;;;;;;;;;;;;;;;;;;;;;;;;;;;;;=====;;;;;;;;;;;",
";;;;;;;;;;;;;;;;;;;;;;;;;;;;;;;;;$$$;;;;;;;;;;;;;;;;;;;;;;;;;;;;;;;;;;;;;;;;;;;;=====;;;;;;;;;;;",
";;;;;;;;;;;;;;;;;;;;;;;;;;;;;;;;;$$$;;;;;;;;;;;;;;;;;;;;;;;;;;;;;;;;;;;;;;;;;;;;;===;;;;;;;;;;;;",
";;;;;;;;;;;;;;;;;;;;;;;;;;;;;;;;;;;;;;;;;;;;;;;;;;;;;;;;;;;;;;;;;;;;;;;;;;;;;;;;;==;;;;;;;;;;;;;",
";;;;;;;;;;;;;;;;;;;;;;;;;;;;;;;;;;;;;;;;;;;;;;;;;;;;;;;;;;;;;;;;;;;;;;;;;;;;;==;;=;;;;;;;;;;;;;;",
";;;;;;;;;;;;;;;;;;;;;;;;;;;;;;;;;;;;;;;;;;;;;;;;;;;;;;;;;;;;;;;;;;;;;;;;;;;;==;;==;;;;;;;;;;;;;;",
";;;;;;;;;;;;;;;;;;;;;;;;;;;;;;;;;;;;;;;;;;;;;;;;;;;;;;;;;;;;;;;;;;;;;;;;;;;==;;==;;;;;;;;;;;;;;;",
";;;;;;;;;;;;;;;;;;;;;;;;;;;;;;;;;;;;;;;;;;;;;;;;;;;;;;;;;;;;;;;;;;;;;;;;;;;=;;;;;;;;;;;;;;;;;;;;",
";;;;;;;;;;;;;;;;;;;;;;;;;;;;;;;;;;;;;;;;;;;;;;;;;;;;;;;;;;;;;;;;;;;;;;;;;;;;;;;;;;;;;;;;;;;;;;;;",
";;;;;;;;;;;;;;;;;;;;;;;;;;;;;;;;;;;;;;;;;;;;;;;;;;;;;;;;;;;;;;;;;;;;;;;;;;;;;;;;;;;;;;;;;;;;;;;;",
";;;;;;;;;;;;;;;;;;;;;;;;;;;;;;;;;;;;;;;;;;;;;;;;;;;;;;;;;;;;;;;;;;;;;;;;;;;;;;;;;;;;;;;;;;;;;;;;",
";;;;;;;;;;;;;;;;;;;;;;;;;;;;;;;;;;;;;;;;;;;;;;;;;;;;;;;;;;;;;;;;;;;;;;;;;;;;;;;;;;;;;;;;;;;;;;;;",
";;;;;;;;;;;;;;;;;;;;;;;;;;;;;;;;;;;;;;;;;;;;;;;;;;;;;;;;;;;;;;;;;;;;;;;;;;;;;;;;;;;;;;;;;;;;;;;;",
";;;;;;;;;;;;;;;;;;;;;;;;;;;;;;;;;;;;;;;;;;;;;;;;;;;;;;;;;;;;;;;;;;;;;;;;;;;;;;;;;;;;;;;;;;;;;;;;",
";;;;;;;;;;;;;;;;;;;;;;;;;;;;;;;;;;;;;;;;;;;;;;;;;;;;;;;;;;;;;;;;;;;;;;;;;;;;;;;;;;;;;;;;;;;;;;;;",
";;;;;;;;;;;;;;;;;;;;;;;;;;;;;;;;;;;;;;;;;;;;;;;;;;;;;;;;;;;;;;;;;;;;;;;;;;;;;;;;;;;;;;;;;;;;;;;;",
";;;;;;;;;;;;;;;;;;;;;;;;;;;;;;;;;;;;;;;;;;;;;;;;;;;;;;;;;;;;;;;;;;;;;;;;;;;;;;;;;;;;;;;;;;;;;;;;",
";;;;;;;;;;;;;;;;;;;;;;;;;;;;;;;;;;;;;;;;;;;;;;;;;;;;;;;;;;;;;;;;;;;;;;;;;;;;;;;;;;;;;;;;;;;;;;;;",
";;;;;;;;;;;;;;;;;;;;;;;;;;;;;;;;;;;;;;;;;;;;;;;;;;;;;;;;;;;;;;;;;;;;;;;;;;;;;;;;;;;;;;;;;;;;;;;;",
";;;;;;;;;;;;;;;;;;;;;;;;;;;;;;;;;;;;;;;;;;;;;;;;;;;;;;;;;;;;;;;;;;;;;;;;;;;;;;;;;;;;;;;;;;;;;;;;",
";;;;;;;;;;;;;;;;;;;;;;;;;;;;;;;;;;;;;;;;;;;;;;;;;;;;;;;;;;;;;;;;;;;;;;;;;;;;;;;;;;;;;;;;;;;;;;;;",
";;;;;;;;;;;;;;;;;;;;;;;;;;;;;;;;;;;;;;;;;;;;;;;;;;;;;;;;;;;;;;;;;;;;;;;;;;;;;;;;;;;;;;;;;;;;;;;;",
";;;;;;;;;;;;;;;;;;;;;;;;;;;;;;;;;;;;;;;;;;;;;;;;;;;;;;;;;;;;;;;;;;;;;;;;;;;;;;;;;;;;;;;;;;;;;;;;",
";;;;;;;;;;;;;;;;;;;;;;;;;;;;;;;;;;;;;;;;;;;;;;;;;;;;;;;;;;;;;;;;;;;;;;;;;;;;;;;;;;;;;;;;;;;;;;;;",
";;;;;;;;;;;;;;;;;;;;;;;;;;;;;;;;;;;;;;;;;;;;;;;;;;;;;;;;;;;;;;;;;;;;;;;;;;;;;;;;;;;;;;;;;;;;;;;;",
";;;;;;;;;;;;;;;;;;;;;;;;;;;;;;;;;;;;;;;;;;;;;;;;;;;;;;;;;;;;;;;;;;;;;;;;;;;;;;;;;;;;;;;;;;;;;;;;"
};
