/* XPM */
static char *result[] = {
/* columns rows colors chars-per-pixel */
"96 80 15 1 ",
"  c #1A1625",
". c #211931",
"X c #251B38",
"o c #261B39",
"O c #291D3F",
"+ c #2D1E45",
"@ c #5C246C",
"# c #5D246D",
"$ c #6F2375",
"% c #7A257C",
"& c #872C8C",
"* c #8D2F94",
"= c #93329C",
"- c #B54BAF",
"; c None",
/* pixels */
";;;;;;;;;;;;;;;;;;;;;;;;;;;;;;;;;;;;;;;;;;;;;;;;;;;;;;;;;;;;;;;;;;;;;;;;;;;;;;;;;;;;;;;;;;;;;;;;",
";;;;;;;;;;;;;;;;;;;;;;;;;;;;;;;;;;;;;;;;;;;;;;;;;;;;;;;;;;;;;;;;;;;;;;;;;;;;;;;;;;;;;;;;;;;;;;;;",
";;;;;;;;;;;;;;;;;;;;;;;;;;;;;;;;;;;;;;;;;;;;;;;;;;;;;;;;;;;;;;;;;;;;;;;;;;;;;;;;;;;;;;;;;;;;;;;;",
";;;;;;;;;;;;;;;;;;;;;;;;;;;;;;;;;;;;;;;;;;;;;;;;;;;;;;;;;;;;;;;;;;;;;;;;;;;;;;;;;;;;;;;;;;;;;;;;",
";;;;;;;;;;;;;;;;;;;;;;;;;;;;;;;;;;;;;;;;;;;;;;;;;;;;;;;;;;;;;;;;;;;;;;;;;;;;;;;;;;;;;;;;;;;;;;;;",
";;;;;;;;;;;;;;;;;;;;;;;;;;;;;;;;;;;;;;;;;;;;;;;;;;;;;;;;;;;;;;;;;;;;;;;;;;;;;;;;;;;;;;;;;;;;;;;;",
";;;;;;;;;;;;;;;;;;;;;;;;;;;;;;;;;;;;;;;;;;;;;;;;;;;;;;;;;;;;;;;;;;;;;;;;;;;;;;;;;;;;;;;;;;;;;;;;",
";;;;;;;;;;;;;;;;;;;;;;;;;;;;;;;;;;;;;;;;;;;;;;;;;;;;;;;;;;;;;;;;;;;;;;;;;;;;;;;;;;;;;;;;;;;;;;;;",
";;;;;;;;;;;;;;;;;;;;;;;;;;;;;;;;;;;;;;;;;;;;;;;;;;;;;;;;;;;;;;;;;;;;;;;;;;;;;;;;;;;;;;;;;;;;;;;;",
";;;;;;;;;;;;;;;;;;;;;;;;;;;;;;;;;;;;;;;;;;;;;;;;;;;;;;;;;;;;;;;;;;;;;;;;;;;;;;;;;;;;;;;;;;;;;;;;",
";;;;;;;;;;;;;;;;;;;;;;;;;;;;;;;;;;;;;;;;;;;;;;;;;;;;;;;;;;;;;;;;;;;;;;;;;;;;;;;;;;;;;;;;;;;;;;;;",
";;;;;;;;;;;;;;;;;;;;;;;;;;;;;;;;;;;;;;;;;;;;;;;;;;;;;;;;;;;;;;;;;;;;;;;;;;;;;;;;;;;;;;;;;;;;;;;;",
";;;;;;;;;;;;;;;;;;;;;;;;;;;;;;;;;=============;;;;;;;;;;;;;;;;;;;;;;;;;;;;;;;;;;;;;;;;;;;;;;;;;;",
";;;;;;;;;;;;;;;;;;;;;;;;;;;;;;===================;;;;;;;;;;;;;;;;;;;;;;;;;;;;;;;;;;;;;;;;;;;;;;;",
";;;;;;;;;;;;;;;;;;;;;;;;;;;=========================;;;;;;;;;;;;;;;;;;;;;;;;;;;;;;;;;;;;;;;;;;;;",
";;;;;;;;;;;;;;;;;;;;;;;;;============================;;;;;;;;;;;;;;;;;;;;;;;;;;;;;;;;;;;;;;;;;;;",
";;;;;;;;;;;;;;;;;;;;;;;================================;;;;;;;;;;;;;;;;;;;;;;;;;;;;;;;;;;;;;;;;;",
";;;;;;;;;;;;;;;;;;;;;;========%%&&&&&&&&&&&&============;;;;;;;;;;;;;;;;;;;;;;;;;;;;;;;;;;;;;;;;",
";;;;;;;;;;;;;;;;;;;;========%%&&&&&&&&&&&&&&&&&&==========;;;;;;;;;;;;;;;;;;;;;;;;;;;;;;;;;;;;;;",
";;;;;;;;;;;;;;;;;;;;======%%&&&&;;;;;;;;;;;;&&&&&&=========;;;;;;;;;;;;;;;;;;;;;;;;;;;;;;;;;;;;;",
";;;;;;;;;;;;;;;;;;;=====%%%&&;;;;;;;;;;;;;;;;;;;&&&&========;;;;;;;;;;;;;;;;;;;;;;;;;;;;;;;;;;;;",
";;;;;;;;;;;;;;;;;;=====%%&&;;;;;;;;;;;;;;;;;;;;;;;&&&&======;;;;;;;;;;;;;;;;;;;;;;;;;;;;;;;;;;;;",
";;;;;;;;;;;;;;;;;====%%%&;;;;;;;;;;;;;;;;***;*;;;;;;&&&======;;;;;;;;;;;;;;;;;;;;;;;;;;;;;;;;;;;",
";;;;;;;;;;;;;;;;====%%%&;;;;;;;;;;;;;***********;;;;;&&&======;;;;;;;;;;;;;;;;;;;;;;;;;;;;;;;;;;",
";;;;;;;;;;;;;;;====%%%o;;;;;;;;;;;********##******;;;;&&======;;;;;;;;;;;;;;;;;;;;;;;;;;;;;;;;;;",
";;;;;;;;;;;;;;;===%%%o;;;;;;;;;;;****;#;;;;;;;#****;;;&&&======;;;;;;;;;;;;;;;;;;;;;;;;;;;;;;;;;",
";;;;;;;;;;;;;;===%%%o;;;;;;;;;;****;;;;;;;;;;;;#;#**;;;&&&=====;;;;;;;;;;;;;;;;;;;;;;;;;;;;;;;;;",
";;;;;;;;;;;;;===%%%;;;;;;;;;;;;**;;;;;;;;;;;;;;;;;***;;;&&=====;;;;;;;;;;;;;;;;;;;;;;;;;;;;;;;;;",
";;;;;;;;;;;;;;=%%%;;;;;;;;;;;;**;;;;;;;;;;;;;;;;;;##**;;;&&=====;;;;;;;;;;;;;;;;;;;;;;;;;;;;;;;;",
";;;;;;;;;;;;;==%%%;;;;;;;;;;;*;;;;;;;;;;;;;;;;;;;;;#-*;;;&o=====;;;;;;;;;;;;;;;;;;;;;;;;;;;;;;;;",
";;;;;;;;;;;;;;%%%;;;;;;;;;;;;*;;;;;;;;;;;;;;;;;;;;;;#-*;;oo=====;;;;;;;;;;;;;;;;;;;;;;;;;;;;;;;;",
";;;;;;;;;;;;;%%%;;;;;;;;;;;;*;;;;;;;;;;;;;;;;;;;;;;;;-*+;+o=====;;;;;;;;;;;;;;;;;;;;;;;;;;;;;;;;",
";;;;;;;;;;;;;%%%;;;;;;;;;;;;;;;;;;;;;;;;;;;;;;;;;;;;;---;;oo====;;;;;;;;;;;;;;;;;;;;;;;;;;;;;;;;",
";;;;;;;;;;;;%%%;;;;;;;;;;;;;;;;;;;;;;;;;;;;;;;;;;;;;;---;;oo===+X;;%;;;;;;;;;;;;;;;;;;;;;;;;;;;;",
";;;;;;;;;;;;%%%;;;;;;;;;;;;;;;;;;;;;;;;;;; $$   ;;;;----;;+o===+X;;%;;;;;;;;;;;;;;;;;;;;;;;;;;;;",
";;;;;;;;;;;%%%;;;;;;;;;;;;;;;;;;;;;;;;; +$$$    @ ;----++;;o====;;;%;;;;;;;;;;;;;;;;;;;;;;;;;;;;",
";;;;;;;;;;;%%%;;;;;;;;;;;;;;;;;;;;;;;+++$oo     @@ -+---;;;o==o;;;;%;;;;;;;;;;;;;;;;;;;;;;;;;;;;",
";;;;;;;;;;;%%;;;;;;;;;;;;;;;;;;;;;;;+++ $oo        +---+;;====o;;;;%%;;;;;;;;;;;;;;;;;;;;;;;;;;;",
";;;;;;;;;;%%%;;;;;;;;;;;;;;;;;;;;;;++++$Oo  ;;;X;$+  --;;;===oo;+X;%;;;;;;;;;;;;;;;;;;;;;;;;;;;;",
";;;;;;;;;;%%%;;;;;;;;;;;;;;;;;;;;;;+-- oO=;;;;$;.$$  ++;;;===oo;;;;%;;;;;;;;;;;;;;;;;;;;;;;;;;;;",
";;;;;;;;;;%%%;;;;;;;;;;;;;;;;;;;;;+--- o==;;;++;     +;;;;=oooo;;;%%;;;;;;;;;;;;;;;;;;;;;;;;;;;;",
";;;;;;;;;;%%;;;;;;;;;;;;;;;;;;;;;+----+o==;;;+     + ;;;;==oOoo;;;%;;;;;;;;;;;;;;;;;;;;;;;;;;;;;",
";;;;;;;;;;%%;;;;;;;;;;;;;;;;;;;;+------o=o;;;;;;  ;;;;;;;+oOOo;;;%%=;;;;;;;;;;;;;;;;;;;;;;;;;;;;",
";;;;;;;;;;%%;;;;;;;;;;;;;;;;;;;;+---- X+=o;;;;;;;;;;;;;;oooOO$;;;%%;;;;;;;;;;;;;;;;;;;;;;;;;;;;;",
";;;;;;;;;;%%;;;;;;;;;;;;;;;;;;;;+-----;==oo@@@;;;;;;;;;;oooo$$;;%%=;;;;;;;;;;;;;;;;;;;;;;;;;;;;;",
";;;;;;;;;;%%;;;;;;;;;;;;;;;;;;;;+--*---===o@@@;;;;;;;;;oooo$$;;%%==;;;;;;;;;;;;;;;;;;;;;;;;;;;;;",
";;;;;;;;;;%;;;;;;;;;;;;;;;;;;;;;-------===&;@@;;;;;;;;;ooo$$$;&%==;;;;;;;;;;;;;;;;;;;;;;;;;;;;;;",
";;;;;;;;;;;;;;;;;;;;;;;;;;;;;;;;-------;===&&;;;;;;;;$$$$$$$;;%==;;;;;;;;;;;;;;;;;;;;;;;;;;;;;;;",
";;;;;;;;;;;;;;;;;;;;;;;;;;;;;;;+------;;====&;;;;;;;$$$$$$$;&%==;;;;;;;;;;;;;;;;;;;;;;;;;;;;;;;;",
";;;;;;;;;;;;;;;;;;;;;;;;;;;;;;;+-----;;;;====&&;;;;$$$$$;;&&%====;;;;;;;;;;;;;;;;;;;;;;;;;;;;;;;",
";;;;;;;;;;;;;;;;;;;;;;;;;;;;;;;+-----;;;;;=====&&&&;;&&&&&%====;;;;;;;;;;;;;;;;;;;;;;;;;;;;;;;;;",
";;;;;;;;;;;;;;;;;;;;;;;;;;;;;;;+-----;;;;;;======&=&&&========;;;;;;;;;;;;;;;;;;;;;;;;;;;;;;;;;;",
";;;;;;;;;;;%;;;;;;;;;;;;;;;;;;;+-**--;;;;;;;;==============;;;;;;;;;;;;;;;;;;;;;;;;;;;;;;;;;;;;;",
";;;;;;;;;;;;;;;;;;;;;;;;;;;;;;;;-**--;;;;;;;;;;===========;;;;;;;;;;;;;;;;;;;;;;;;;;;;;;;;;;;;;;",
";;;;;;;;;;;;;;;;;;;;;;;;;;;;;;;;;**-#;;;;;;;;;;;;;;==;;;;;;;;;;;;;;;;;;;;;;;;;;;;;;;;;;;;;;;;;;;",
";;;;;;;;;;;;;;;;;;;;;;;;;;;;;;;;;**-##;;;;;;;;;;;;;;;;;;;;;;;;;;;;;;;;;;;;;;;;;;;;;;;;;;;;;;;;;;",
";;;;;;;;;;;;;;;;;;;;;;;;;;;;;;;;;;**-##;;;;;;;;;;;;;;;;;;;;;;;;;;;;;;;;;;;;;;;;;;;;;;;;;;;;;;;;;",
";;;;;;;;;;;;;;;;;;;;;;;;;;;;;;;;;;***##;;;;;;;;;;;;;;;;;;;;;;;;;;;;;;;;;;;;;;;;**;;;;;;;;;;;;;;;",
";;;;;;;;;;;;;;;;;;;;;;;;;;;;;;;;;;****##;;;;;;;;;;;;;;;;;;;;;;;;;;;;;;;;;;;;;;;**;;;;;;;;;;;;;;;",
";;;;;;;;;;;;;;;;;;;;;;;;;;;;;;;;;;;****#;;;;;;;;;;;;;;;;;;;;;;;;;;;;;;;;;;;;;;**;;;;;;;;;;;;;;;;",
";;;;;;;;;;;;;;;;;;;;;;;;;;;;;;;;;;;;****#;;;;;;;;;;;;;;;;;;;;;;;;;;;;;;;;;;;;**;;;;;;;;;;;;;;;;;",
";;;;;;;;;;;;;;;;;;;;;;;;;;;;;;;;;;;;****##;;;;;;;;;;;;;;;;;;;;;;;;;;;;;;;;;;***;;;;;;;;;;;;;;;;;",
";;;;;;;;;;;;;;;;;;;;;;;;;;;;;;;;;;;;*****##;;;;;;;;;;;;;;;;;;;;;;;;;;;;;;;****;;;;;;;;;;;;;;;;;;",
";;;;;;;;;;;;;;;;;;;;;;;;;;;;;;;;;;;;;*****###;;;;;;;;;;;;;;;;;;;;;;;;;;;;****;;;;;;;;;;;;;;;;;;;",
";;;;;;;;;;;;;;;;;;;;;;;;;;;;;;;;;;;;;;******##;;;;;;;;;;;;;;;;;;;;;;;;;*****;;;;;;;;;;;;;;;;;;;;",
";;;;;;;;;;;;;;;;;;;;;;;;;;;;;;;;;;;;;;;*******##;;;;;;;;;;;;;;;;;;;;;******;;;;;;;;;;;;;;;;;;;;;",
";;;;;;;;;;;;;;;;;;;;;;;;;;;;;;;;;;;;;;;;********####;;;;;;;;;;;;;;;*******;;;;;;;;;;;;;;;;;;;;;;",
";;;;;;;;;;;;;;;;;;;;;;;;;;;;;;;;;;;;;;;;;**********###########;;********;;;;;;;;;;;;;;;;;;;;;;;;",
";;;;;;;;;;;;;;;;;;;;;;;;;;;;;;;;;;;;;;;;;;;****************************;;;;;;;;;;;;;;;;;;;;;;;;;",
";;;;;;;;;;;;;;;;;;;;;;;;;;;;;;;;;;;;;;;;;;;;;***********************;;;;;;;;;;;;;;;;;;;;;;;;;;;;",
";;;;;;;;;;;;;;;;;;;;;;;;;;;;;;;;;;;;;;;;;;;;;;;*******************;;;;;;;;;;;;;;;;;;;;;;;;;;;;;;",
";;;;;;;;;;;;;;;;;;;;;;;;;;;;;;;;;;;;;;;;;;;;;;;;;;*************;;;;;;;;;;;;;;;;;;;;;;;;;;;;;;;;;",
";;;;;;;;;;;;;;;;;;;;;;;;;;;;;;;;;;;;;;;;;;;;;;;;;;;;;;;;;;;;;;;;;;;;;;;;;;;;;;;;;;;;;;;;;;;;;;;;",
";;;;;;;;;;;;;;;;;;;;;;;;;;;;;;;;;;;;;;;;;;;;;;;;;;;;;;;;;;;;;;;;;;;;;;;;;;;;;;;;;;;;;;;;;;;;;;;;",
";;;;;;;;;;;;;;;;;;;;;;;;;;;;;;;;;;;;;;;;;;;;;;;;;;;;;;;;;;;;;;;;;;;;;;;;;;;;;;;;;;;;;;;;;;;;;;;;",
";;;;;;;;;;;;;;;;;;;;;;;;;;;;;;;;;;;;;;;;;;;;;;;;;;;;;;;;;;;;;;;;;;;;;;;;;;;;;;;;;;;;;;;;;;;;;;;;",
";;;;;;;;;;;;;;;;;;;;;;;;;;;;;;;;;;;;;;;;;;;;;;;;;;;;;;;;;;;;;;;;;;;;;;;;;;;;;;;;;;;;;;;;;;;;;;;;",
";;;;;;;;;;;;;;;;;;;;;;;;;;;;;;;;;;;;;;;;;;;;;;;;;;;;;;;;;;;;;;;;;;;;;;;;;;;;;;;;;;;;;;;;;;;;;;;;",
";;;;;;;;;;;;;;;;;;;;;;;;;;;;;;;;;;;;;;;;;;;;;;;;;;;;;;;;;;;;;;;;;;;;;;;;;;;;;;;;;;;;;;;;;;;;;;;;",
";;;;;;;;;;;;;;;;;;;;;;;;;;;;;;;;;;;;;;;;;;;;;;;;;;;;;;;;;;;;;;;;;;;;;;;;;;;;;;;;;;;;;;;;;;;;;;;;"
};
