/* XPM */
static char *_4c0ada59c404af7ad1483e6508f0024[] = {
/* columns rows colors chars-per-pixel */
"256 256 249 2 ",
"   c #020202",
".  c #090605",
"X  c #0C0906",
"o  c #0D0B0A",
"O  c #110C07",
"+  c #120E0B",
"@  c #180D09",
"#  c #14110D",
"$  c #1A130E",
"%  c #1F180F",
"&  c #151312",
"*  c #1B1612",
"=  c #1D1915",
"-  c #1D1B1A",
";  c #191718",
":  c #21180E",
">  c #231B15",
",  c #291F16",
"<  c #231E1B",
"1  c #281F19",
"2  c #201712",
"3  c #2B2116",
"4  c #24211D",
"5  c #2B231B",
"6  c #2A241A",
"7  c #322316",
"8  c #32261C",
"9  c #34291E",
"0  c #3A2C1E",
"q  c #382618",
"w  c #3F301E",
"e  c #252322",
"r  c #2A2623",
"t  c #2C2925",
"y  c #2D2B2A",
"u  c #282728",
"i  c #312721",
"p  c #342B24",
"a  c #3A2E23",
"s  c #322E2A",
"d  c #392F29",
"f  c #3D3125",
"g  c #35312D",
"h  c #3C332C",
"j  c #3B352B",
"k  c #353332",
"l  c #3A3632",
"z  c #3D3934",
"x  c #3D3C3A",
"c  c #3A3738",
"v  c #322F30",
"b  c #1F1F20",
"n  c #42311E",
"m  c #412D1E",
"M  c #412F22",
"N  c #433425",
"B  c #493625",
"V  c #4A3926",
"C  c #43352B",
"Z  c #483729",
"A  c #45392C",
"S  c #4B3B2C",
"D  c #463827",
"F  c #513E2D",
"G  c #533B26",
"H  c #433730",
"J  c #433B34",
"K  c #4B3D33",
"L  c #423E3A",
"P  c #4A3F38",
"I  c #513F32",
"U  c #523F38",
"Y  c #4E402F",
"T  c #53412E",
"R  c #5B432E",
"E  c #464037",
"W  c #4D4134",
"Q  c #45413C",
"!  c #4B443C",
"~  c #4D483F",
"^  c #534334",
"/  c #5A4634",
"(  c #564836",
")  c #5B4936",
"_  c #53453B",
"`  c #59473A",
"'  c #55493C",
"]  c #5B4B3C",
"[  c #5E503E",
"{  c #624B35",
"}  c #624E3C",
"|  c #674C36",
" . c #63513E",
".. c #6A533D",
"X. c #6D553A",
"o. c #72563D",
"O. c #433F41",
"+. c #464341",
"@. c #4A4642",
"#. c #4D4944",
"$. c #4D4B49",
"%. c #4A4748",
"&. c #534B44",
"*. c #5B4D42",
"=. c #524E4A",
"-. c #554A43",
";. c #5D5144",
":. c #55514D",
">. c #5B534C",
",. c #595349",
"<. c #565351",
"1. c #5A5653",
"2. c #5C5956",
"3. c #5E5C5A",
"4. c #585758",
"5. c #614E43",
"6. c #635344",
"7. c #6A5643",
"8. c #6C5945",
"9. c #63554A",
"0. c #69564C",
"q. c #65594D",
"w. c #6B5B4C",
"e. c #665847",
"r. c #725B45",
"t. c #725E4B",
"y. c #785B45",
"u. c #635B54",
"i. c #6C5D52",
"p. c #615E5B",
"a. c #635953",
"s. c #715E53",
"d. c #6E604E",
"f. c #74614D",
"g. c #7B634D",
"h. c #7D6549",
"j. c #6D6154",
"k. c #64615E",
"l. c #6B635B",
"z. c #6A6459",
"x. c #736254",
"c. c #7B6553",
"v. c #7C6955",
"b. c #74655A",
"n. c #7A665A",
"m. c #75695C",
"M. c #7B6A5D",
"N. c #766856",
"B. c #615F61",
"V. c #656462",
"C. c #696664",
"Z. c #6B6966",
"A. c #6D6B6A",
"S. c #696768",
"D. c #736C64",
"F. c #7D6D61",
"G. c #716E6B",
"H. c #706762",
"J. c #7C7165",
"K. c #73716D",
"L. c #7B746C",
"P. c #7A736A",
"I. c #747371",
"U. c #7A7672",
"Y. c #7D7975",
"T. c #7C7B79",
"R. c #83664C",
"E. c #836B54",
"W. c #826D5C",
"Q. c #886C54",
"!. c #84715C",
"~. c #8C745C",
"^. c #8B7358",
"/. c #92755C",
"(. c #947A5E",
"). c #967758",
"_. c #826E62",
"`. c #847265",
"'. c #8A7465",
"]. c #847569",
"[. c #8A7669",
"{. c #84796D",
"}. c #8C7A6C",
"|. c #8D7A65",
" X c #937C63",
".X c #927C6D",
"XX c #987C63",
"oX c #837B73",
"OX c #8D7E71",
"+X c #837D79",
"@X c #927E71",
"#X c #997F70",
"$X c #A07E5D",
"%X c #9C836B",
"&X c #998369",
"*X c #8D8174",
"=X c #85817C",
"-X c #8B847C",
";X c #8A857B",
":X c #948273",
">X c #9A8475",
",X c #948579",
"<X c #9B8678",
"1X c #9D8A7B",
"2X c #998978",
"3X c #9E927F",
"4X c #A4876A",
"5X c #A48C73",
"6X c #A28C7C",
"7X c #A78C75",
"8X c #A9927A",
"9X c #B59779",
"0X c #B18F6E",
"qX c #B4926F",
"wX c #C3A17B",
"eX c #8B8581",
"rX c #8E8984",
"tX c #948C84",
"yX c #988D85",
"uX c #9B938C",
"iX c #999188",
"pX c #9D9894",
"aX c #A28E81",
"sX c #A49383",
"dX c #AB9484",
"fX c #AC9B8B",
"gX c #A99788",
"hX c #B29A84",
"jX c #B29C8B",
"kX c #B69A84",
"lX c #A59C94",
"zX c #B29F91",
"xX c #B8A38B",
"cX c #ACA195",
"vX c #B4A393",
"bX c #BCAB9C",
"nX c #B8A696",
"mX c #B7AB98",
"MX c #BCAFA3",
"NX c #C3A686",
"BX c #C3AD99",
"VX c #D0B08E",
"CX c #C3B2A4",
"ZX c #C8B7AA",
"AX c #CBBDB3",
"SX c #C5B0A2",
"DX c #C09F83",
"FX c #D0C4BA",
"GX c #DED6CD",
/* pixels */
"8 8 5 a s p p i i p i 5 5 5 6 6 6 6 , , , 2 , 1 1 6 3 3 5 5 5 8 5 8 8 3 5 6 3 t 8 5 8 i t a 5 5 3 5 3 7 , 3 8 8 a s s t s e s s l j p 5 3 , , 3 3 8 8 f a i 8 5 6 5 p y y t y t e e e & . .         . . . X o X . . + # # + + + X + + o X . X X . . X . . X X X X X O + O + + X . X + O O + # $ + O + + + + + O X X . . . .           . , 8 M a h g 8 3 , 3 , , 3 5 5 6 6 p g p g s p 6 6 , 5 5 5 6 3 3 5 5 5 5 > > , 6 5 i i 6 8 5 3 3 8 i 5 6 5 3 , , , > 6 4 5 i i 5 i 5 6 5 9 9 8 a a t s y y k k k g y r 4 - - < < - * # . ",
"8 a C S J A C h p i p 9 a p 9 9 i 8 , 5 5 6 8 9 8 8 3 8 8 8 8 9 9 8 a C K h 5 i 9 5 p f h j a h 9 9 9 0 7 5 a C h h l h g s l l J j f 0 0 0 9 9 8 f f C f f a i 8 i g g j t t s p y e & .         . . X + o X + . # = * # $ $ # + # # + X X + + . . . X O + + # + + + X X O X X + $ $ $ $ $ $ $ # + + + + $ + + X X O X . . . .     . $ 3 0 B 0 0 h l h 8 8 7 8 8 8 9 9 9 a j h j g p 5 r 5 i p a 0 f f C 0 a 9 5 3 p a 9 8 a a a 0 8 8 p 9 5 5 8 8 8 8 6 , , 5 p p 9 8 p a C a f a 9 f h h z L +.%.L +.+.L l s y s g s t - #   ",
"8 a S ] } ] ^ K N a 0 A C N C h f a a a a a C A C f f f N N N N N N K _ ! J C N N a 0 C ! ~ W ^ N N N N N f N S W Q Q $.:.#.Q @.@.! K K N S S W K S ' ( ^ A a a h l j l x h g z l s 4 # .       . . X + & & # $ X # - - * , > * $ # + + O + $ $ + X + + + + $ > $ # $ + : $ + O $ * 2 > 2 2 = 2 2 $ # # # # # $ # + + X X X . .     . : 8 N G F F S ! Q K N a N a 0 8 a f N S A j h g s p p z H N N S ^ S 0 f a 9 9 N K N a N S N A C f a f a 0 8 a h a a f f A N C N N N S K C A ^ S S ! Q Q <.<.1.:.<.:.@.Q z Q L Q L g - .   ",
"8 a S 6.f.t.t.8.} ] ] 5.K K W W K N N A S ^ W ) ) ' ( B Z ^ T ^ ( } ] 6.u.=.] ^ S I ^ ^ ( _ ~ ' ( ^ T ^ T ( ^ ` ;.,.=.k.k.1.:.1.,.;.] ` ^ ` ' ( ] ` ;.>.*.( K *.>.,.&.W ! H Q &.Q g < + .       . X + & & * = * # * - 4 < 1 6 > $ # + + # * * 2 : 2 > $ # $ * , 2 2 $ 2 5 2 2 2 * * , , > > 2 3 5 2 $ # $ $ $ $ $ $ # + O O X . .   O 7 n V R { | ) ' ] &.*.K S B Z N S S S S S S K J J h H W ' ^ S ^ ( S N A W ( }  .6.] T T F S K S N N N S C N N S N A K ^ K S ` ] ^ ^ ` ( ^ ` ] ;.&.1.2.1.2.2.2.V.G.D.2.:.:.<.1.:.+.t X     ",
"9 p S r.).XX~. X/.v.8.} ` ] 5.] ` ( ^ ^ ^  .e.8.w.w.8.{ ]  .8.7.e. .w.x.m.l.e. .) ( ) ] ( 9.u.>.6.7. ./ ) e.w.e.i.l.l.p.l.C.a.q.q.u.w.e.6.6.7.6.} 6.9.p.>.*.i.m.l.k.p.&.! l &.&.! g - + . .       X + X o * = = * * < 4 < , 3 1 2 * $ + $ * 6 8 8 5 6 2 , 1 , , 6 , = , , $ 5 9 6 2 , , 6 , , 5 6 , , * $ $ * * * # # # + O X . . . : q B R | y.R.r. .] }  .` ^ T F S ( ] G N S ^ ( -.&.Q W ]  .) ( ^ I ^ ^ ] c.c.c.c.c.{ / ( ^ ] ^ ^ F S I ^ ^ ^ ^ ^ ^ ^ ( ` ) ] 6.w.} ] } } 8.j.k.>.a.a.Z.Z.Z.k.G.-X-X+XL.U.Z.Z.C.:.l & .     ",
"8 a F t./.4X4X4X%X'.t.t.8.7.8.t.e.6.6.} } 8.g.c.!.W.v.c.t.r.h.E.'.f.c.v.].oXM.g.r.7.8.7.t.M.m.j.e... .} 7.7.8.c.].tXrX=XeX+XU.L.L.L.F.W.W.g.r.r.r.t.z.D.i.9.m.P.P.D.Z.u.&.&.#.&.Q p 2 + . . .     . + X # $ $ * * * = < 4 6 , , 2 $ , 2 * > 6 6 6 3 3 > 5 5 5 5 5 2 , 5 , , 5 8 5 6 5 6 i 8 5 3 2 , 5 , , 2 = , > + X + O X . . . X : n R | X.R.).Q.g.r.7.r.r.7.} { } 7.7... .} } ] 6.6.*.*.q.t.t.7.6.7.8.f.E.^.~. XW.c. .} } t.t.r.r. .} { ` } 6. .}  .6.7.7.r.8.8.7.8.v.W.v.J.L.D.u.a.C.D.l.l.C.oXuXuXyX-XrXeX+XZ.+.- + .     ",
"8 C ^ t.Q.4X9X9X5X|.E.E.E.E.W.W.v.g.f.t.f.g.^.&X>X>XXX~.^.Q.^.XX&X X~.~.|.,X}.~.E.R.R.E.!.`.J.J.!.g.y.o.r.t.W.[.,XiXlXcXpXuXiXtX;X*X*X%X&XXX^.^.Q.~.[.].F.b.m.L.oXU.P.Z.k.,.&.#.Q g > + O X .     . + # + + $ > > > * , 8 5 > 6 2 $ > > > , , , , , 6 5 8 8 a p , 2 5 8 8 5 6 5 8 8 5 6 a 8 > > , 6 5 6 > * * * $ + + + O X . . . $ 3 F ..X.y.Q.).(./.E.g.g.E.Q.f.y.y.g.g.f.t.r.7.6.6.8.f.N.m.J.!.g.t.w.f.c.~.~.'.'.~.c.8.t.g.E.g.t.t.7.7. . .} 8.g.W.v.c.g.f.t.t.t.c.~.XX&X%X;X;XP.m.D.D.D.L.].*XsXcXlXlXuXuXuX=Xp.s = # .     ",
"8 N ] 8.c.4X9X9X7X#X(././.!.E.v.c.f.t.t.f.c.W. X,X2X&X|.^.^.^.(. X|..X X|.:X[.!.E.R.E.!.W.J.J.J.J.g.y.X...8.c.`.oX-XuXpXpXuXrX-X*XoXOX%XXX(./.~.~.!.`.].`.m.b.D.L.P.D.Z.z.2.1.:.#.g > # O + . .   . + o o # $ , 1 , * 2 1 - - 4 2 $ $ , 6 6 i 5 5 5 5 5 5 6 6 5 5 5 6 , 5 3 8 9 5 , > , 5 6 6 , = 2 > > * * 2 * # X + + + X . . . $ q T | y.R.Q.^.^./.E.g.g.W.^.g.y.g.R.g.f.f.t.8.8.t.c.b.H.D.L.|.!.g.w.f.v.v.v.c.M.W.c.t.f.g.g.r.7.7.7. . .] ) 7.E.!.v.c.f.t.t.f.g.W.~.&X5XyXyX;XL.L.L.D.D.].OX:XyXlXpXlXpXpXpXY.=.r * + .   . ",
"a N 6.f.c.4XkXNX5X|.E.v.c.x.w.6.6.}  .[ 6.6.6.w.N.F.`.v.f.f.t.f.w.e.w.t.x.b.z.e.r.8.8.e.e.z.z.z.j. .) ) ) }  .i.l.D.U.+X=XY.P.D.H.m.v.W.c.g.v.v.v.v.v.m.m.i.i.z.l.k.2.2.1.1.>.:.#.g > $ # # O .   . . X + # $ * = 2 = , , - - < > 2 * 6 8 9 8 5 9 5 , > > 2 $ = 8 8 , * 2 2 * , * = = > 6 , 6 , $ + # * , > * $ + . X X X . . . O : m { o.y.h.R.h.r.t.7.7.7.t.c.t.7.r.r.8.8.r.8.6.6.i.u.u.u.z.l.J.M.w.6.8.7.6.6.6.7.8.6.} }  . .( ^ ( ( ^ ^ ^ ^ ) 6.w.e.7.6.6.} }  .8.f.c.M.D.J.F.D.D.D.l.l.D.M.F.L.oX+XeXrXtXeXZ.L e - # . . . ",
"p A ] 6.v.%XxXNX Xw.6.6.6.] ' ^ ( ( ` ( ( ] ] ] 6.j.b.x.e.6.[ ] ] _ ] ] *.6.*.( ^ Y Y S K #.#.&.&.^ S F ^ ^ ^ ' =.>.p.k.k.p.>.:.:.>. . .]  .6.6.6.6.6.6.*.( ' -.=.&.@.@.=.&.&.&.#.l > $ # + O X .   . o + + $ # $ 2 2 > > e 4 < 1 1 6 , 6 8 5 8 9 , * * $ * 2 $ = 6 : $ 2 * $ 2 , , $ > p 8 1 2 + $ # * , , $ + + X X . . . . . $ 3 N R o.y.y.t.} ^ Z Z S ^ } 8.6.] ] ` ( ) ` ` ' *.,.=.#.&.=.:.1.u.;.( ( ^ S S S S K ^ S A S C f a f f a a a f f S ^ ( ^ ^ ^ ^ ^ ( ]  .6.>.1.u.i.z.u.2.>.>.9.q.i.u.l.l.Z.Y.+XU.1.l r - * + . . ",
"i f ( 6.N. X9X9X~.6.6.] 5.' _ K W K ^ ^ ^ ( ( ^ ] e.d.e.;.( ` ^ W S ^ ( _ _ W A N f f 0 0 j l J L S N N S S K ^ ! @.&.>.2.:.&.#.@.=.] ( ^ ( ` ( K W ^ ' ^ A K ' #.Q L @.%.@.! @.#.Q 5 $ # O + X .   . X + + # # # $ * > = 4 e > , 6 6 , 6 8 a 8 8 6 , = $ , 2 # # > * 2 8 5 5 5 5 5 , 6 p 8 , $ # $ # $ = $ + + + X X . . . . X $ 3 B | h.y.r.} W a 8 7 0 N ^ ] ^ S S S N S K K W _ &.@.Q %.Q Q @.#.^ S N N f a a 9 a f f 9 8 8 5 3 5 5 5 , , 8 5 p h j h C C A S S ^ ` ' &.=.>.1.1.2.:.&.@.#.&.>.:.u.2.k.C.A.C.=.l r - = # . . ",
"8 N ` 6.v.&X9X9XW.6.] ( ' _ K K K K K ^ I ( 6._ ^ ] 6.[ ` S S W ^ W N A C a f 3 5 5 5 5 5 t y s g a 9 9 0 f C S Q ! J Q 2.:.=.:.@.! &.K ( ] ] ] ^ S K ( W f h K @.Q L L Q Q Q ! &.@.a 2 $ # # X .     . + + + # + # * * > - * * > 1 , 6 p p 8 8 9 5 , , 2 2 2 $ $ 5 8 9 a a 8 8 8 5 5 , 6 5 * # $ + # # # + X X X X X .     . X $ 7 S X.r.r.} ^ N a a M N S A K W K S S A S S S ^ W @.Q Q L J L @.*.W A C C a 9 8 5 a a p 5 , , , , 2 2 2 $ $ , 6 6 3 5 i f a a h a N S ( #.Q J #.#.=.&.Q L Q @.=.=.1.=.2.p.Z.p.=.l r < - $ . . ",
"p N [ 6.!.>X8X7XW.6.( ) ^ S ^ ^ ^ K ^ ( ( ` ' W ^ ( ] [ ^ S A K K h 8 p a 9 f 3 : 2 : : > 6 e r e 6 , 3 8 8 a C J Q Q J $.@.#.=.=.=.:.~ ^ ^ ( W W A S ^ _ C C K Q L z l J L Q ! #.@.f > # O X X . .   . . X + # + # * # * = * * , 1 , 5 p h 9 5 8 5 6 1 5 , , 5 3 8 a a 8 9 a a 9 5 , = , 6 , * + $ * * * $ + X . . .       . O : 0 T |  .} ^ S N N M N N N C C ( W S S S K K K _ ^ 9.=.Q #.#.Q &.*.K C f f 8 8 5 > , 5 5 3 , 2 : $ # $ $ $ $ $ $ 2 , 6 , 1 6 5 5 5 a f A W @.L Q @.Q ! Q Q Q @.#.&.=.#.2.H.m.a.=.l r 4 - & . . ",
"8 f ^ 6.v. X5X5XW.6.` ] 6.( ^ ] *._ ^ ` ] 9.*.K ^ ^ ' ] ] K a f 8 5 , 2 > > 9 > $ # $ + # $ = = 2 2 2 , , 3 3 8 g l L L L Q #.@.<.:.=.&.W S S A A f S ^ ^ C h ! L L l l z z L L ! &.h 1 # O X . . .     . X o # + # * # * > 4 > , , , 6 i a 5 6 5 5 5 5 5 5 2 5 9 5 9 8 5 9 a p 9 5 , * , 6 6 > + $ > * * * + . X . . .     . O , Z { } } ] ^ Z S S S S N N C K ' W K K A A K K ( ' *.-.@.#.&.&.=.&._ C a a 8 , > 2 2 > 2 $ $ # + # O O + + O + + + # $ * * 2 , , 5 9 a a a z L J +.Q Q Q L J Q ! Q J L :.u.i.;.! s e < > # . . ",
"9 9 f [ N.:X5X4XE. .] ) e.6.6.6.*.*.` i.i.6.i.*.' ^ Y A W C f 8 5 , * $ # # # * 1 1 = * = = * # + + + + # $ 2 , 4 5 g h z L @.@.=.:.<.:.&.^ ( ^ S S S ^ W C a ! @.Q z l z s z h z ! h 5 * + O X X .     . X X X X + + + # 1 5 2 * > 6 5 8 p 8 5 6 9 9 5 6 9 6 , a 5 5 8 5 8 9 9 5 8 5 > * , , 2 + $ * $ # $ X . X X .     . O $ 8 B { 7.} { I N S K C N N Z S K #.` K K S S K ^ _ ' _ K _ #.#.=.=.#.! a 9 9 6 2 2 2 # + + + # + * 1 1 * * = = * # X X o + + # $ 2 , 5 p p a g l z L L L L l x Q #.Q @.@.:.1.a.-.H e 1 < * + . . ",
"9 0 A ) q.*X5X%Xg. .) 5.w.6.9.*.( ^ } 6.b.] ' K K S K C f a a , = $ # = 1 1 1 5 C ^ H d C h d 5 > = = 1 1 * # $ * $ 4 s s z L Q #.=.:.:.@.S S S S S S ^ _ H C P J Q z z s s g g h J A f , $ # O X . .     . . . X + # # $ 1 4 2 * > 6 5 5 6 1 3 6 8 5 5 , 5 3 , 6 3 8 5 8 p 9 6 , , , > * 2 2 $ 2 > $ $ # + O X X . . . . X $ , m G | 7.} ) ^ C N S N N C C S ' ;.` ( ( K ^ ^ ^ K K K K ! #.@.! #.Q C 9 8 3 2 $ + # + # = 1 1 1 5 C ^ H d C h d 5 > = = 1 1 * + + $ , e e s s s s h z l l l l Q Q Q @.@.<.>.>.! h 1 > = # o . . ",
"a S _ ) v.&X%X&Xg. .) 6.9.-.' ^ ^ S 9.m.m.' *.K C h h p a 3 > > = 1 5 1 i p d s H ' -.' ' H H _ K h h K K i < > = * = < e k k z Q ! Q Q Q A S A N A S ! Q A J L h z L z j j x j p j S A 9 > $ O X .         . . X # & $ * > > > , 6 r i i 5 1 , 5 6 * $ $ $ * , 6 5 7 , 5 8 3 > > $ * > > , > $ , 2 # # + O X . . . . . . + , M F ..y.r.} ) ^ S N A N N C C S ^ ] ( ( ` ( ^ K K K ^ K A A Q Q J @.Q p 5 3 > $ # = = 1 5 1 i a a p K -.-.' -.H H _ K h h K H i < > * * < < e e r t s l h g j l Q Q Q Q Q Q Q W K a 6 > * + X . . ",
"9 C A ` g.(.&X&Xc. .` 6.] ( ] ` ` ` 0.u.u.*.! C a 9 i 5 2 > 5 h d d d p C _ K C H *.i.i.*.H _ *.*.K ! ' J i 5 p 5 = * = < y s g l z L Q @.S S S N I ( -.J A p p l L @.z z j l g g H S A f 5 = + X .           . X o + # $ = = < 4 > 6 p p 6 , , 5 5 , $ $ $ $ , 5 5 5 6 , 5 , = , 2 2 2 > 6 > $ $ $ + X . . . . . . . . $ , a / } y.g.7.) ^ S N N N N N C N K ^ ( K K ( ( ` ( ^ ^ *.' _ A K @.L J j 5 2 , * = 5 h d d d a C _ K C H ` i.i.*.H _ *.*.K _ ' H i 5 p 5 > * = = 4 y t t s s g g l Q L Q L Q ! ! ^ K f 5 , * + X . . ",
"5 f S } !.;X2X%Xv. .` *.a.( ` ( ` ] i.i.;._ J h 9 6 1 5 d K H ! H C K H K ' ` ' J _ x.'.m.6.*.*.U _ K H d p p p d d 4 & - r t t g l Q @.#.W S S S ^ ^ @.L ^ C a A +.Q x z l l j s l A C f 9 , # X . .           . X + # $ * = > < = > p t 3 , 1 6 5 , $ * * $ > 5 2 2 , > > 2 , 1 , 2 2 2 , > $ $ X X . . . . .     . O > q S 7.y.y.y.} F N f C N N S C C C _ ' K S A N I ] ] ' ' ' _ ! C A A f g t , * 6 d K H ! H C K H K *.*.' K _ x.'.M.9.*.*.K U K H a p p p d d 4 & * - 4 e e e s g j Q @.L L L Q @.:.&.^ f 5 4 = # X .   ",
"5 a S ] v.*X3X5XW.6.] ' *.` ] ] ] ] ;.*._ ! A 8 5 1 p K -.q.*.*.C C K _ _ *.9.9.*.P *.`.[._.m.9.K _ _ P C p i a C H p 5 * & e r s z +.+.Q S S S S ^ K L @.>.&.#.l Q Q Q z g h z j J A h C a 6 * + X . .         . . X + + # * = = * > 4 , , , , , 1 2 $ * 2 2 2 > 2 , 2 * $ $ * > 6 , > 2 2 , $ # O . X X .   .   . + : 8 B / y.g.g.g.} Z a 0 N N N C A K C A ! _ W K K ` ` ;.] _ _ ;.! A h C f 9 3 * p K -.0.*.*.H H P _ _ *.0.9.*.! *.`.'.M.n.5.K _ _ U C p i p C H s 5 * * = < < t s g g +.Q Q x L Q #.#.:.-.A t < < $ X .   ",
"5 a S ] w.W.3X1X!.w.6.*.] (  .} ] ^ W ^ H A j 5 , 5 H _ >.9.K H ' >.9.*.9.0.b.x.0.5.*.0._.@X[.b.` *.5._ H H C h H H H K 5 & * - r t g L C T ^ ^ ` ^ K W Q @.W Q Q Q L L z l l Q Q Q A A A C 9 , # X X . .         . . . + + & & * * * * = * * 2 = 2 * * 2 , 6 , 2 , , 2 2 2 $ # * 6 , * 2 2 * $ # O . X X . . . . O : 7 B { ..r.c.c.8.( N a a N N C C f f f C W -._ ^ ^ ( ' _ K K ! -.H h h a 8 , $ 1 H _ >.9.K H ] 9.9.5.9.0.x.x.9.*.' 9.M.}.`.x.' *.*.' H H C d H H H K 5 & & < < 4 t s g z L Q J z L Q @.:.#.z e < - $ X .   ",
"5 f S ] 6.W.>X%X!.d.6.] ] /  .} ] S Y ( A f p 3 = 1 p ! ;.' J C ! *.9.*._ _ i.x.s.s.5.i.[._.F.].s.6.' K C C C C C h C H 5 = > = < 4 t g N ^ K K W W K Q J J J J Q x x Q L Q %.#.@.Q A S W W C 8 > # + X X .         . . . o # # # * & # $ $ * = * $ * = 2 $ 2 , , , * # 2 2 $ $ $ * * $ $ * $ # + X . . X . . . O $ 3 0 / 7.t.t.E.c.6.K N N N f N C C C f f C K ( _ ( K W ^ K K H H J h 8 9 p 6 $ $ 1 p ! ;.' J H ! *.0.*._ _ i.s.w.0.*.0._.M.n._.i.5.' K C C C C C h h H 5 = > * = < t 5 4 j x L L l z Q Q &.#.z t 4 - * X .   ",
"3 f S ` ] ~.5X%XW.w.6.6.}  . .} ] ( ^ ` S f 9 , > i ' w.*.0.9.j H 0.0.5.*.0.b.M.'.W.w.i.[.1X'.#X_.s._ j p p d H _ K C h 5 5 i 1 - r s H f h p f h f ! %.=.%.' J P +.+.+.Q Q $.=.%.! _ W _ _ K f 5 > * # + X . . .       . . X + + * # + # $ * * * $ * * 2 $ $ 2 , * + + * * $ = $ + + + # $ # + + O . . . . . O : 7 N F 7.t.g.t.c.e.( N A N f f f p p C f N N K ' ] ( ^ ^ W K W C f C f 9 9 8 , * > i ' w.*.0.9.C K 0.w.*.*.9.i.n._.n.9.9.F..X_.}.W.s._ C p i d H _ K C d 5 5 i 1 & - 4 4 5 l l z L z z @.@.=.:.z t 4 - $ X . . ",
"7 a S ^ ] ~.4X%XW.8.6. . . .[  .6.] S T A a 5 6 a K ' 9.6.x.q.C K s.n.0.i.b.m.}.#X'.m._.#X}.].}.'._.;.h i d h h K U K _ H C d i - < r h a p 8 N S N C l L %.%.&.Q +.%.+.+.+.$.:.=.#.! J W ' ^ A h i 1 * $ # X o X .       . X X + + + + + # * # $ * $ $ $ 2 > 2 2 * $ $ $ $ $ 2 * + + + O O O X X .     . . O $ 8 N F ) t.8.w.8.7.' K N f f a a p r : 8 f N ^ ( ' ] ` ' ^ K N N N a f C f 9 3 , 1 a K ' 9.5.b.w.H ! x.n.0.0.i.b._.'.W.s.b.'.'.F.'._._.;.z i a h h K ^ K _ H C h i * & - r t s g l Q Q l #.=.:.>.x t e - # X . . ",
"7 0 N F } Q.&X4X!.w. .] ] ) ) ] ] 6.] S C 5 , s H U K K ' 5.6.*.w.F.@Xb.5.i._.`.1X6X<X@X[.[.1XsX#X}.].9.' _ K _ ' ` *.*.U K K h 5 - < y h p 8 S ] W A S z z z l %.Q %.%.+.+.=.:.:.%.J H K _ _ ^ W A p 4 > = # # o X X     . . . X X X + + # # + + # # $ $ * * 2 2 $ $ $ $ $ $ $ $ # + O O X . . . .     . X $ 8 S / { 7.g.8.7.6.` A C f a a C C 5 2 $ , C h A K ( ^ ( ^ K K Z S S C N j g 8 6 > p H U K K ` 6.9.*.w.M..Xx.*.9.b.n.}..X[._.F.F.:X6X.X[.'.9.' _ K _ ' ` *.*.K K K h 5 # * < e t g L +.Q J Q ! =.1.L p , 2 # X . . ",
"3 0 V / { E.%X7X~.w.6.) /  .6.` ( ^ ] A a > > i d C K H K K ' 9.c.[.1XF.i.x.}.'._.:X<X<X'.[.dXnX6X1X<X|.|.x.9.5.] *.w.x.9.` K ' H < - e p i 9 N K C C K %.%.Q L %.Q +.+.+.+.$.=.$.@.H C K W W ^ ] _ H p 5 > * * & + o X .   .   . . . + O O + + # + + # $ $ $ * $ $ $ $ $ $ # + + + O X X . . . .   . . X $ , N / ..r.y.t.8. .] K h N a a a f C 5 $ , 8 C f N S _ A K K S N N Z S A C z g t < > r d C K H K K ' 6.x.'.<Xn.9.0._.n.x.'.].[.b.m.6XzX>X<X<X}..Xx.9.5.` ] w.s.9.` H _ H = - e y e s l z Q J Q Q :.2._ p 6 > # X . . ",
"3 0 S ^ ] t.&X7X!.t.6.} ) )  .[ ^ ( ^ f 8 > 4 i a i a h K 6.0.0.'.[.}.'.W.n.W._.n.n.n.'.@XaXnXbXdX1X1X>X1X#X'.s.*.w.'.}.M.w._ C p r * < t p p a 9 9 a K Q @.#.<.$.@.@.+.+.Q #.:.1.=.K C C K K W ' ' W J h 5 > < - & & + X .       . . X X O + X # + . X + + $ # # + $ $ + # + + X X X X . . .       . O $ 8 V } ....g.c.t.r.} K C C f a f a a C f 8 N S N C W ^ W 0 S S S S B S S K A g s e * 1 i a i a C K 9.0.0._.'.'.M.x.w.s.s.i.0.0.x.'.@XhXvX6X:X>X5X6X:X'.c.*.w.'.[.n.0.^ C p 5 = < e t y g z L Q Q $.1.2.W r r 1 * X . . ",
"3 0 N S ` 8.(.4XE.8. . . .7. .] ^ ^ S a 5 > i d p i H _ 9.`.F.n..X1X:X.X}.n.m._._.'.'.#XfXgXdXjXsX1X6X.X1XsX<Xn.6.n.@X:X}.[.9.K d C r - r 8 a N f 0 f ^ +.L J Q %.$.Q L Q @.$.#.&.#.! K K ^ ^ ^ W _ ! ! J g 5 e < = * + o o .       . . X X X X + + X . X O + O O X + + X X X . . . . .     . . . . $ , 0 F { o.r.y.R.g.8.7.^ C C N f a f a a a a f N f N N N K #.N S S K S S ( ^ K A j s e = r a p p C _ 0.`.F.x.}.:X[.'.F.w.i.i.s.b.x.W.<X<X>XdX1X@X>X.X6XgX1Xn.9.M..X.X}.'.6.H d C r - e y g k z Q +.%.1.<.<.J 5 r 4 * X . . ",
"3 0 N S ` c. X4Xg...) ] ] }  . .} ^ A 0 6 > i d i H *.*.9.b.m.@XsXjXhX6XdX}.<XdXdXhX>X6XnXnXhXhXfXcXgX1X:XsX<XM.n.'.@X,X[.W.*._ W _ s * 4 8 9 K j a C K +.L J J l l z l L $.1.<.:.:.W H K _ ' ] _ ^ ^ W ! L h r e < - & # # X . .     . . . . . X X X X . . X X X X O X . X X . .   .       . O @ : q M B R | y.Q./.E.t.5.^ C C C C C f f a N N N N N N N N S ( #.^ S S ^ ^ ^ ^ K ! Q j s < > i d i H *.*.9.x.N.}.1XdX6X.X:XM.'..X#X:X'.}.dXdX6X6XsXgXsX6X>XsX6X_.n.'..X:X].M.*.! K _ s = 4 t s z l z L $.1.1.<.J t e - & X . . ",
"3 9 N K { W. X4XR.../ ) ) ` } w.6.' A a 6 r h H p J *.5.*.*.s..XjXvXxXxXvXhXjXvXbXbXCXZXAXCXxXdXcXmXgX6X1XsXgX<X:X.X|.'.m.9.*.' ;.*.j & < 5 a h 5 p N J z L Q Q Q Q l l j l Q #.&.' W K J A A A _ K A K ~ #.J p t r 5 = = * + + o . .   . . . . . . . .   . . . . . . . . .             . . O , q B G R n R y.^./.Q.g.7.^ C a a C h h a a a f N N N N N N N S ` 6.` ( ^ ^ ] } ^ C A x s r < r d H p K *.5.*.*.i.'.8XhXdX8X6X<X>X6XgXfXjXnXCXnX8X>XsXcXsX6XsXfXcX6X<X.X[.`.b.9.*.' *.*.h * - e s k l x z @.:.1.<.L r e < & X . . ",
"3 9 N ^ 8.W.(.4XR.X.{ { ] ( ^ ] ^ K N a a C _ ! H ;.m.m.9.0.n..XdXjXnXvXjXnXCXbXvXCXZXZXZXMXjXaXfXsX6XgXgXgXsXyX>X.X_.w.*.' ' *.i.q.J = < , 8 p 8 0 ^ =.%.%.@.@.Q l l z j z #.@.#.W C j h C C N h a f K ! *.W h l s p 5 6 5 = * * # X . .               . . . . .                 . X O + $ 3 N { ..| o.R | Q.(.~.c.8.] K C a p a a a a a a f f A N N S C N S ^ ] _ ^ ( F ] 6._ K K x t t p j _ ! H >.F.n.5.9.s.'.>X8XdXdX1XdXnXjX6XxXnXbXnXvX6X:XsX1X<XgXfXfXfXsX>X.XW.0.*._ _ *.i.9.H = = e y g l L L @.$.:.:.x e e - & X . . ",
"3 9 N ] t.E.(.4XE.8.7. .} 6.}  .) T S h H -.*.! _ i.}.@XF.s._.'.>XxXnXsX6XBXFXAXbXFXAXCXbXMXfX<X1X#XsXzXsX<X1X<XsX<X`.0.*._ 9.x.F.m.~ = = , 9 f C C S J z @.#.#.L l j Q z z =.2.:.&.A f N A S C p 3 8 J ! &.~ H L x l p a g r 5 e 4 = $ # O X . . .     . . . . . . . . X . O O + $ > , 7 0 F { y.y.X.y.X.R.^./.E.8.*.^ C C a 9 a p a a a a f A S N N S N N B N ^ W K ` ] ] ( K S K g t t H ' *.! _ i.}.@XF.i.n._.}.dXdX#X}.jXZXBXhXZXSXnXfXvX6X}..X[.1XzXgXsXsX6XsX<X_.9.' _ 6.i.F.m.~ * # - e y z L Q Q =.<.<.Q t 4 - & o . . ",
"3 9 D ] r.E.(.4XR.r.7. .) } ( ` ( ] ^ p H 9.9.' *.9.M.1X<X'.}.>XjXbXnXgX6XdXAXAXZXFXAXMXvXvXdX6XgXsXfXgXsX6X1X1XsXsX<X'.N.N.b.j.M.x.! * = = , 5 p a C K Q +.+.Q L +.+.=.L Q :.3.:.#.^ N W ` ( H 5 3 , a ! ! K H W Q Q H C L l h h p 9 5 6 2 = $ + O X X X + + + $ : : > , : > 3 8 N B Z F ..r.y.E.R.y.y.R.R.E.g.7.5.( S C C C a a a a C h a f N N A C N N N N Z S ^ S ( *.] _ S A H k y 1 H 9.9.' *.9.M.1X<X_.'..X6XxXdX<X.X:XBXCXbXZXZXvXdXdX6X:X6X1XgXgXsXsXsXsXfXsX,X'.x.x.x.i.m.j.! & o - e y k z +.+.$.1.2.%.y e - & o . . ",
"5 0 S 6.f.^.%X4XE.r.6.] ` ) ( ` ^ ' _ p H ' *.] *.*.w.[.:X1X<X6XjXnXnXbXZXvXZXAXAXAXMXdXdXdX8X8XgXsXgXsXsXsX1X<X<X<X<X}.].`.x.j.m.i.J # + * 4 5 a a C K Q Q %.L Q Q +.=.+.L @.=.@.#.( K K ^ K 9 , a f a Q ! A h J Q Q ! H ! Q K H l l C f p 9 8 5 , > > 2 > 8 3 a N S B B B n V F R ) / R g.^.Q./.^.Q.R.R.y.7.} ' _ _ A C K K C f C C h C a a S S C C N C N N S S K S ( ' _ K K H A a t 4 H ' *.] *.*.w.[.@X2X:X<XdXdXdXjXbXdXnXCXCXCXnX>X6X5X>X<X6X1XsXsXsXgXsX6X1X1X:X[.`.M.j.i.b.q.J + X * < y k l %.$.=.2.2.%.y e - & # X . ",
"8 f S 6.g.~.&X0XE.r.6.` W ^ ^ ( T ^ K t K _ _ _ *.9.n.i.'.fX6X.X>XdXjXMXAXbXbXbXZXZXbX:X>X6XsXnXgX[.M.[.:X1X:X,X1XsX<X[.].[.m.m.b.;.g o + * 2 6 9 f C K z L +.+.+.$.$.$.#.$.:.:.&.:.` K K ^ J 3 9 C f N W Q f f C J Q &.! ! -.&.^ _ Q @.^ S K A N 0 9 N N S S S / } 7.7.{ | y.| ..{ ..X...R.(.&X%X~.Q.R.7./ / ^ K S W A C S H C H K h h f f f f h A C N S N A S S K I ` ( W K K K H j p 4 J _ _ _ *.9.n.i.'.fX1X[..X<X6XnXMXvXjXzXbXbXcX[..X>X1XfXsX`.v.].,X6X<X1X6XsX<X].`.`.b.b.l.;.g o X & < e k z $.$.=.1.2.+.y e - & o . . ",
"8 a S ] N.(.4X0X^.8. .T N q m T ^ K H 5 P _ >.w.s.b.m.0.M.1X}.}.>X>XjXCXZXbXbXbXnXcX<Xb._.6XvXCXbXgXF.b.].:X[.[.[.:X,XF.0.i.j.F.i.W 5 X o # * , 5 p h H L +.+.Q Q L Q %.Q +.%.#.&.&.W K K W C , 8 f N ( :.Q 9 a f l J &.' _ >.a.9.*.9.1.*.` ^ S B N N ^ /  ...} ) ) R y.o...t.c.g...r.y.R.).4X%X|.E.g.7.^ S S I K S S S K S K A A C f a C C C a f N f N W N S A S ^ ^ ] K ! H K ! Q k t < K _ >.w.s.b.m.9.n.<X].'..X.X6XnXSXjXjXvXzXgX:Xx.n.:XgXbXnXsXF.b.[.<X.X:X}.<X<XF.9.i.j.m.i.J 4 . o = y y s l +.+.#.:.2.x r e - & o . . ",
"5 a K 6.f.XX4X0XE.8.] / R ) / R S H a 1 C *.9.9.0.*.i.i.b.[.F.:XfXvXnXZXAXZXZXCXfX*Xi.*.9.M.6XvXBXZXvX,X,X:X@X`.W.F.`.[.i.i.j.].M._ s & . # $ , 5 9 f C Q L Q +.@.%.$.@.z +.Q ! &.! N h C S S f 3 3 N W W J 8 a h s j L -.*.*.i.l.0.i.z.k.w.7.} { ../ 6.7.t.g.E.E.E.o.R.h.g.g.t.t.t.h.Q.).4X4X~.v.t.6.^ S S K ^ K A K W H C K K H C h f C C C f f f f N N S ^ ^ S ^ K K A W A A C j p 4 = C *.9.9.0.*.i.i.x.`.m.}.sXdXjXCXZXSXSXbXsX}.q.*.*.n.<XfXbXZXvX,X<X1X<X[.'.`.].[.i.i.j.`.m._ s & X - r r g L %.+.+.=.1.k r e - & + X X ",
"5 a K 6.v.(.%X5Xv. .)  .) 6.) T S f 3 1 ! -._ *.x.m.[._.`.`.}.sXgXnXMXbXbXvXjX6X[.w.*.9.9.w._.@XaXvXzX<XsX,X[.].[.M.i.`.F.x.m.J.x.' ! 4 . $ 2 3 8 9 f A L l z l z Q $.%.L $.$.#.! Q ^ N f I ^ A 8 n ! ' _ K N N j g l z &._ -.e.w.9.i.D.L.].!.f.t.y.y.c.g.g.E././. XXXXX~.E.^.v.c.E.E.Q./. X~.c.6.` ( ^ I ( S K K K K K A K K J h a h C f C h f N S S S W A S ] W S A S K ^ ^ W A l s 4 < K -._ *.x.n.'.F.`.F.[.1XsXfXnXvXvXgXdX<X`.0.*.9.*.9.M.[.1XcXfX1XdX1X:X@X:X'.j.[.F.x.m.J.j._ ! 4 X & - r l L +.%.=.:.1.k r e - & o . X ",
"5 a ( i.N.^.(.&Xf. .)  .) ] ] T S N 0 p *.x.i.6.n.[.>X:X.X`.`.*X1XgXsX:X<X[.n.0.' H C H K *.9.;.;.i.j.`.:X_.M.}.:XM.w.b.b.i.j.0._ H H = . # $ , 5 p f J L x L L L J Q @.Q Q L #.&.&.( S N S K A C ^ ! S K K S W J s J L @.K ! *.9.6.-.9.D.oX{.m.c.E.Q.Q.W.!.^.(.%X&X.X&X X!.!.v.v.c.g.t.r.t.e.] ^ ^ W K ^ ^ ^ K K K K K A K K A h a h h h C C N S S S A S A ^ ] _ W K K ( *.W K J k s e p *.j.w.;.b.[.>X.X}.M.F.}.,XiX1X}.@X_.j.9._ C C H H ' 6.*.*.q.i.`.<X'.[.<X6X].i.m.b.i.j.0._ H H = . & - e s +.O.+.$.=.1.k t e - & o X . ",
"p a ^ b.f.g.^.&Xg.8.8. .} }  .) ^ N a h b.:Xm.i.n..X6X}._.i.n.F.'.[.m.9.q.-.H _ P h p 5 > r p h p h K 9.s.6.w.M.`.'.m.b.F.i.i.i.*.*.K = . X $ 2 3 8 9 a z x x Q Q L @.%.Q +.@.@.@.! A A C S K N p 9 f A A K Q ! z s L Q @.H j K ;.*._ *.u.D.D.b.w.t.c.c.c.v.E.^.~.W.W.`.!.M.c.8.7.6.] ` ' ] ] _ W S S K ^ ( ( W ^ W K K K K K _ H C C A C C S K K S A N S C A ^ ' W A K ^ *.K K H s s e s j.:XN.i.n..X1X}.M.w.x.n.F.F.b.*.9.' H K K d i 1 = 5 i p p s K 0.b.0.x.'.}..X_.m.F.i.j.i.*.*.K = . + & e t g l L $.:.1.k y e - & + o X ",
"p a K 6.w.g.(.5X!.f.t.7.6.} 6.` K f 1 j q.q.i.M._.#X.Xb.w.i.s.i.9.! K h d p r C J s 1 1 = * 6 h H p 5 i a p C 9.M..X].9.b.b.n.M.i._ H 4 . O $ > 5 9 8 a p j z l l l J @.Q Q &.=.#.! S S A S S A 8 $ f ! ! W W L j p x L Q h h a K -.! -.9.p.p.a.' ' ] ] 6.w.8.e.8.e.w.t.6.*._ ^ S ^ ( _ K W -.H S S K S K ^ _ ( ` ^ K W K H K ! H H H K C A A H h C S a a K K _ W K S ` ] ] _ A C s t - j q.q.i.m.W.#X}.x.9.w.i.0.;.K H p p i r h H p 1 > * & 1 p C p 5 i h d K i.'.6X.Xq.b.b.v.M.i._ H 4 X & & 4 y x Q x %.<.<.k r e - & & X X ",
"8 f ' ] 7.c.(.5X~.c.7.5.( (  .( S a > W ' K ! *.! H j p p p h C 5 = = # # = t P 0.*.h p C p p 5 p r * * = = 1 h H K K h h H ' ;.i.j.i.J * O $ 2 6 8 9 C j z Q L Q L J L l z Q @.J ! S A C S Y S f a z #.E J J l j p l Q $.W h C _ >.~ &.>.1.<.-.K S I ( } } ] ] ' ] } } ` ^ K S S C W K h C J h K ^ ^ C N ( ' _ ! W W K J W K J K K ! Q H H H H f a A h 7 C A C S ^ ^ *.^ ' *.H C h g < P _ K ! *.! H j p p p h j a 5 > # # = r J 9.-.h p h p i 5 i r * + + * 5 K W ! _ j h H ' ;.i.i.q.J * o & < y x +.L +.:.:.k e 4 - & & o X ",
"8 f K ` 7.f.^.5X~.N.7.] A B } ^ a 5 5 K h p 1 = > > > * > 1 = * # # $ + o * i K *.;.' ' 6.' K a 5 i $ + $ * $ # # + X . . . * 5 H i.i.&.i + + = 6 8 9 h x z l l z l J h g g Q @.h z S C f f f h C W #.! W L J l j p z +.#.@._ &.#.1.*.-.=.:.1.-.H C S ^ 6.' ( ] ^ ^ ] ] ] W W S ` C S S C C f N Z F W a N K _ J h j j C A ! P P W z H h h A H A C C N h 8 K C N S ^ ^ W W ! W H h h t r H h p 5 * + # + + # < = = > * + X o * t J -.*._ _ *._ H p 5 r # X O $ > 1 = * * = * # * 1 H i.i._ i + & - r k Q L Q =.:.k e - - & o X X ",
"8 a A ( 6.8.(.5X!.f.8.6.] )  .^ p 5 H K r # o $ 1 1 1 > > 5 1 = & * = + + $ 1 d _ -.H C K *.*.K 5 * + + $ > & # $ = & . .   . # * p -.0._ > + $ , 5 8 f g l L #.@.L J J J J L ! H C S N f f 0 8 9 S #.! ! Q L l j s z Q %.#.&.:.$.2.1.:.! @.#.1.K C S ( 6.( ^ ] ( ( ` *.K _ W ^ ( K N K C C Z ` ^ 6.' f C C K W C f a p h H H j p p p h C C A H K K C C C C N S ) ^ ^ S S K A h p s t H K 5 = * # & $ & * & * = = = * # + # # > p K _ C h H ' ' K 6 * + + $ * = * * > = * * & * + * p ' 9._ > + - y k l x z @.$.k e - - & # X . ",
"5 8 f ^ 6.t. X%Xc.e. . .;.] ] K 9 r K C > X + * = = * # & * = * $ * * $ + * 5 j J j *.].0._ *._ p > 2 # + # & # # # # + X . + + X + i ' W 1 X $ , i p h z z Q L Q J L L J J Q Q #.^ ^ S C A S N M S ! ! ! Q J J h g L Q J L ! ! @.=.:.:.:.1.2.1.K A ^ ^ ( ^ ( ] _ ( ( *.W K S ( _ *.^ S N S S ^ ^ S ! N N N ( ! J K f a C H j d d a p h C C C A K ^ W A C C A K *.] ( ^ K S A h i 4 r K h 1 * $ & & + X o + + + * * & # # # * 5 h H h -.F.6.K -._ p * * * $ # + # $ * * + X + * * # # i _ K 1 o = y z x x l @.=.k < - - & o . . ",
"3 f W *.6.g. XXXf.e.7.6.] ` W C 5 4 i 5 $ + + + + + . . . . X + + + $ * # i *.' s K b.F.b.*.-.x.*.1 > $ O O + X . . . X o X + * * + + 1 5 & X + $ 1 5 s l x @.@.@.L Q Q J h L Q @.' ( W C S S N N ( @.! ~ ! Q Q h j l l J J ! Q Q Q &.:.:.2.1.:.K S ( ^ A K ( ^ ^ _ _ H S ^ K K S ! ^ ( ^ ( ^ ] ] ^ I ^ ( S ` K N S C a h h h a p a a h C C C h C K ! C h C K W A S ^ W A A C a 5 1 1 r 5 $ $ + . O X . . O .   . . . . . + 5 -._ p H i.n.i.-.' i.*.1 * # + o # + . . . . . . X * = * $ 5 5 & X = r y s k z @.$.l e - - ; X . . ",
"9 f K ] 7.E. XXXv.r.w.6.' ^ K h 5 h r * o + + X X .     .       . O # $ * J 9.-.! 9.*.i.0.*.W >.*.5 * * $ O . .         . . X + # # X o = 4 & + $ > 6 g l z x z J J J l L z J ! ! _ S ^ A S ^ N N _ @.! #.#.! Q j l z J l J E J l j J @.=.<.#.( K S ^ K K ^ ( W W ^ K f I ^ ^ S S K W ] *.` ^ _ ! ' ( ! S ^ ] _ ^ ^ S C N C f C f h a H a f C H C C h h f h h C K ^ *.W C N f i 1 4 h r & O + + O . . . . . . .     . X X + H *._ K *.*.i.0.-.K *.` 5 * & + . X .     .         X * = & * > 1 & & - r y g l @.$.x e 4 - # o . . ",
"9 f W ] 7.g.^. Xg.6. .;.] ^ K d * h h = + O + X .       .       . . O = 5 d ! }.<Xm.;.i.i.9.`.{.! > : * * + . .     .         . . + X . > 5 # X # > 6 s s z x x L z L x L Q @.&.:.p.;.*.K T ^ S K *.#.=.=.~ &.! l z L L j J J J j i 1 g $.! ! ] ( A A A S K K K S ^ K N F U K K C _ _ ^ _ ' _ W K K K A N W K K W K A K _ K f C ^ W C C a a h C H H C C f f h A K S ] K S A a 5 = * h h * + + + O .             .   O # # # 5 H J.OXb.*.i.i.>.J.{.W > * * & X       . .         X & > > & = 5 & X * e e y z #.:.L r e e & o . X ",
"5 a N ` c.v.E.~.t.} ^ ` 6.' K i * h H < # + + X .               . . O 1 5 t *.1X,XF.i.*.9.>.F.}.' 2 * + + O .                   . . . + i 5 # X # * 6 s g l z z L +.%.%.+.+.&.W W #.J A W ^ ( ^ ' *.@.:.1.=.=.#.l j l x J Q W Q J h p p z l ! =._ C f a S A f N S ^ ( ` W K C C N S K K A C C K K W A C A K K S W S A ^ W H A K _ -.J H K C a h j j C A K A W K W W q.&.K h a 5 * * h j < & & + O X .           . . . # * # * _ @XOXb.i.-.*.*.m.}.' > * * $ # .               . X + * = = 5 5 # X & < 4 t x =.2.Q t e < - + X X ",
"5 f S ^ w.v.^./.r.] ( ) ;.W C 1 5 h s > o + O .                   . * > 6 p x.OXF.`.F.0.0.9.-.9.] p * + $ & + .                 . . . > K ! i # + * 6 y z x Q @.%.$.%.%.%.%.1.&.#.#.W N S W C N K *.=.:.1.:.&.! l l Q J J W ! ! Q &.=.Q Q #.#.#.K f N N S A N S S W S ( K C C N A S K A C N S ^ S A C N N A S K K ^ ( _ _ P H H K H H A K H C C h j C A W ! ' ' &.' *.J h h i 6 = 4 h p < * * + . . .     . X     . X + = = 5 w.'.m.F.m.9.9.9.-.0.*.p > > > * O X             . + # & * < J ! i # & 4 r s Q <.p.+.y e < = & X X ",
"5 f Y } f.W.~./.r.} / / ( S a , p h p = o O + .                 . X = 1 r x.yXOXm.*X,X`.F.b.*.9.b.*.5 = < * + X X . . X .     . . . X 5 *.9.J * O $ 6 s g x z z z z L J z +.1.k.:.p.6.S W A C N S ' :.=.:.&.&.! l J ! ! W Q ! =.! @.#.&.:.=.<.#.A a S S S N C N A S ^ ( ^ S S S S S K A S S S ^ K A C N N C A A S K K K H C H P J H H C K W W H f C A A K ! ' -.,.' ' J C h i 4 = i h t * & & + X . X X X . . . . . * = * 4 w.:X[.b.}.,X`.F.b.*.9.n.6.5 > > & # # X   .     . . # > < * 5 _ 9.J * & - y k +.:.2.Q y e - * & X . ",
"8 f K ] t.Q.~.^.r.) T T ^ S C = 5 i i > + + + X + . . . . .   X X X & > H aXfX{.{.M.M.`.b.6.9.i.v.w.a & * $ + + # # X X X   . X o + = K *.-.j * + = 4 4 4 t t j j Q Q L g g Q :.&.k.>.' J N ^ W K *.:.&.:.=.#.! J x J Q Q #.! @.:.=.=.:.Q j ! Q A N S N N 0 a 0 S S ^ ( W A N N N S W A S S W ^ W K N N S h C C S K K K K C h j a f a h ! W j K J H H W W ! ~ &.:._ K A C h i 1 & 4 r r * + * * # # + X + + o + * = 4 e 5 h :XaXJ.].m.m.`.b.6.0.i.M.x.C # = $ + * & X O + X + * = 5 5 5 H ' ' C * + - y k @.:.2.Q y 4 = & o X . ",
"p f A ] t.E.^.^.8.( F S ( ' A # 4 K *.h * O + # & + . . X . X O . . > ! <XMXyX*Xb.p 5 h 4 = ! i.m.:X[.H + X X # # # o . X . . o X X C n.n.-.j * o # > e t t p z l z Q %.L z Q ! Q Q H j p C ( K ^ ] :.:.=.&.=.! J J L Q #.=.&.=.1.2.Q p p z Q Q N N N a D N N B S S ^ ( ( W N N C N A f N S A K A K S A A C C S C W W S K h a a 9 f 9 a h C h C K i h J A J h J +._ J j h h i > + < H ' d * $ = * $ # O # * * = 1 4 1 5 K OXvX,X{.j.p 5 h 4 = ! x.F.<X:X! > > & * * # + # # & * = 1 1 h x.x.-.j * & < e t L :.3.%.s 4 = & o X . ",
"5 f K 6.w.v.!.^.8./ S S K K p $ r *.i.W 5 X X # + + # o X . o O O i i.dXCXmXgX[.C           & J i.[.1X.X! 5 # + + X . . + X X X   > w.M.! J j * + # 1 y s s l z z z x Q +.L Q Q J ! S C N D S A ^ ;.:.:.:.&.&.@.J J Q ! @.! #.#.=.! #.Q p g Q Q N 0 0 N N N V T S S A A K ^ S A N N A N N N N A A C N C A C C K K K J C S h a a a C a f C A C C J h h h C H h K +._ J p 5 p p < + 5 _ 9.K 6 + + $ # + # # * & * 1 1 p ;.<XmXcXsX`.C           * K j.OXdX1X' d < * # X X + # + + # $ 1 0.n.! J j * & - y k Q <.p.%.y e & & X . . ",
"8 h A e.f.v.^.(.r.) S S f f 5 # 5 J W _ K 5 + + o X * # . . # C >.[.vXMXfXsX1Xq.>             , K *.w.F.'.b._ d > # # * > + < 4 r 9._.0.! J h * X # , y s l L Q j z l j x J Q #.Q Q S A S ' ` ( ^ a.1.:.:.@.#.&.J Q Q @.#.#.&.#.Q L #.#.Q h H W n N B B N V S ^ S S f f A K N N N S A N D S K S C f N S S K S K K K H C K A f A a a f N A A h a h h f f a h A W W H h p p C p < + 4 j H K K 6 # + + + * + + # * h -.F.dXvXsX1X2X9.=             1 _ 9.b.}.@X_.*.C 1 $ * * > # 1 1 r ;._.0.! J h * & < r k L <.2.%.y e & & X . . ",
"5 f S ` f.c.~./.f.] ^ A 0 a 5 + = h C C ` *.] H p = > t d ! i.}.sXaXyX1X<X[.9.6               . 1 ! *.*.i.b.n._.s.9.*.H C *.i.w.w.'.w.J K h r # X $ 6 y t z +.+.l l Q =.=.:.@.=.#.#.) S A C S S W :.<.<.1.&.:.&.l ! @.J #.&.#.#.@.:.=.1.:.@.! ! S N B S S S S S N S N N S S N V S S S S S S S A C N S W S K K K H H C N S N N A h N N A A h h a C f C C h h h K A C C h f C i > X * d h d U ` _ C i * = r p H 9.F.<X<X,X<X:X`.>.4               . 5 ' 9.w.F.'.[..XM.i.*.H C *.i.w.w.'.0.J K h r # # < e k +.:.2.%.y e = # X . . ",
"6 8 N ^ 8.g.E./.r.` S N N a , + = h p r C ` N.@X}.m.*.W M.:XsXaX}.}.}.[._.6.*             .     O h *.*.;.*.*.s.W.M.*.H K i.n.x.0.6.! h t 4 & . . $ r g s l l s Q :.:.<.$.$.@.:.=.:.;.] ' S ^ W N :.V.3.p.p.1.&.l Q @.@.@.@.=.=.:.=.=.2.1.&.J h C N N B S ^ W S S S S Y S A S S S S S A S S N A S N S K h a C H H K C K S S S N C A ^ K C C C f C h C C A A A W W K A J C h t > X * p t 5 a _ s.[.].b._ K N.[.<X<X].'.[.'.M.*.*                   + H 9.w.i.i.i._..X'.6.H K s.n.x.0.6.! h t 4 & . o - e k +.:.1.+.y e * + o . . ",
"3 8 f ^  .t.E.^.8.( S N N a 9 # + = 1 5 i p K q.m.n.;.p K 9.F.:X<X1X<XF.i.! .                     p _ _ >.9.*.( ] C * # 5 h p p H C h i > & X . X * 4 t g l l l %.<.<.:.L Q <.:.:.#.K C A ^ ` ( S &.1.1.1.2.:.=.J Q #.=.:.=.:.=.=.#.#.<.3.2.Q H S B S S T ( ^ K S ^ S S S S S Y S N N S S S A S A S W S a 9 C C a H C K K K S N C N _ K A A C A C h h C A K L +.W _ K H j h 5 > X o * > 1 5 i H 9.x.x.*.i H *.n.}..X<X:Xb.w.K .                     h *.>.j.b.i.6.9.K > * r C d d H C h i > & X . & e y x %.1.2.+.y e - & o . . ",
": 5 8 K ] 7.g.Q.8.( S N n 0 9 $ X X = 4 1 > = * < 1 1 X   = *.[..X[.F.9.-.a .                     5 *.-.-.' ' _ ! 1     # > * + > 6 5 < * o . . + > 6 s g h g %.%.@.%.#.L L =.=.#.#.' S ^ *.] ^ K =.#.1.2.1.1.=.Q @.@.#.&.#.2.2.3.B.<.#.#.l l ! ^ S S ^ ^ S ( ( W S N C N S S S S A N N S W S S S S S K ^ S C C C a 9 A K N K S S S K A A H A H h h h j H W Q @.Q *.W K H C p 5 # . X * < < = * * > > < X   * ' `.}.'.F.>.' p .                     i q.0.0.9.9.*.*.5     & < * # > 6 5 < * o . . & 4 y k %.2.p.+.y e - & o . . ",
"2 , 8 S ( ..f.E.7.) ^ S N 0 9 2 . # > 1 > + X * * & o . 1 K *.q.b.s.9.;._ 1           . .         = *.q.9.0.q.*.H s < . . X + & & + * < 1 # X . X * 6 t s g l %.+.L +.%.L L @.#.#.@.K S ^ *.6.-.A &.&.2.p.2.&.Q Q @.$.=.:.:.1.2.2.3.:.:.=.#.<.2.;.] ` ] W S ` ] ] ^ K N N S S A A S N S ^ ^ ^ ^ ( ^ ( ( ( K S h C C a S K S K K S S K H A h C C C C C h H _ ' ~ @.:.A K K H p 5 & . # = > * o . $ $ # X . 1 K *.0.x.i.9.*._ 1           . .         1 q.m.x.b.v.w._ C 5 X . + # * * + * < 1 # . . - r y z =.3.p.+.y e - & o . . ",
": , 0 N I { r.g. .( ^ F N N 0 : # 1 5 = # + * = + . . i 9.n.>.! i.i.i.0.! *           . O         + W i.0.j.i._ h ! K 5 . . . # * + + < 5 = + . + $ 6 p t l L z z l L #.L l J Q @.#.^ S ( W W K K _ :.k.V.Z.2.#.Q @.#.@.&.:.1.:.! #.<.1.1.=.#.L ^ ] ' H K T ( ^ ^ ^ ^ K S N D N N N S ^ ^ ^ ( ( ( ^ ^ ^ ^ W K A C C S S N S A A S A K H H H A C C h C K K K &.-.#.-.J _ _ J p e * # > 1 * # o * * + . . r 9.n.*.P i.w.i.9.! *           . +         * *.M.b.`._.*.K *.' p X . . # = + + < 5 = + o - r y x =.3.p.+.r e - ; & X X ",
", 3 0 N G / 7.g. .( ^ S N q a 3 * > > + # * * + o o > h *._ 1 r J -.9.0._ + . .                 . + _ b.b.i.*.h * 1 p 5 + X + # & = & + * & + + # 2 9 l g l L x L %.=.p.#.=.2.:.<.=._ N ^ K S ^ ' K ~ 1.k.1.:.Q J ! @.#.#.:.<.<.:.=.2.p.2.V.V.>.6.6.] ^ ( 6.6.` ( ^ ^ ^ ( S S S S S S S W W ` ( ^ ^ ^ ^ W ^ U N N Z ^ K A S C N K K K H j C K K H h h ! ~ &.J ! #.] C C H J p e - * * * + + * # + X X = d *._ 1 r J -.9.0._ + . .                 . & ;.[.[._.i.K > r j p # X + # * = & # * & + & - t s L =.p.p.L u e * & & X X ",
", 3 9 N S ^ ..g.7.` ^ ^ ( N w 8 > & + + # # + * = = 4 5 p g 1 r H K *.0.0.1 X X               X # # ' b.b.>.H r + O + + + o * = # # # + X o X + = 5 h x z l L L z Q Q :.%.#.1.1.2.2.-.C ` ^ ( K _ W ! #.:.:.#.Q z Q ! #.~ &.=.&.=.:.:.=.=.1.k.1.*.6.6.6.e.8.7.*.] ( ^ ^ ^ ^ W ^ K W A A K S ] ] ( ^ ^ K N S ( K K ^ ^ ^ K ^ S S K _ A h h C H W K C h h H H h Q <.;._ C f h p r < & + X X + + o & * * 1 5 p g 1 r H K *.w.i.4 X X               + & * >.[.[.i._ p * + # # + + * = + # # + X o X & < y k L <.3.2.L r < & & o X X ",
"> 5 0 f B ( 7.g.7.] ` ^ ^ K N 8 , # . . X + # * & * > i p p p r h _ i.F.b.5 . .   5 ' s j 1     . $ ' b.m.9.i # + X X + o . o & # . . . . . X $ 1 i h z x z l z z x z Q #.$.:.:.3.A.-.A 7.w._ N A W @.#.&.&.Q ! @.Q ! ! J Q #.#.:.&.:.=.=.2.V.p.>.*.6.9.6.6.;.' ( ( ( ( ` ] ] ' ^ ^ W K ^ ( ` ^ ^ ^ ^ K N B ^ K S K W K W _ _ K S A A h C C h K ! ' ! C H C H #.1.W K h C f h p < & X . . X o # & # & = r p p s t h ' x.].F.r . .   5 &.h j 1   . . * ;.].}.i.d * & O X # + X + & + . . . . X & - t y l L <.3.p.+.t < - * o . X ",
"> 5 0 N V / ..t.7. .] ( ^ ^ N 9 3 $ . . . . o o X X # * * > p 5 4 J m.].].&.=     t i.i.i.H     X p i.F.m._ > X O X . . . . X + + .     . X + = 1 5 p h x Q L Q z Q #.$.=.=.:.1.1.2.J C ] 9.! ^ ^ ~ ! #.&.#.J %.#.$.=.:.:.<.:.#.2.:.:.1.2.p.p.2.,._ K K K K A h C A A C h K ! ( ' ( ( ` ] ] ] ^ S ( ' ( ( F ^ ^ K W ^ K H h C A K K A C C C C K A H W H H J ! Q ~ A C C H a f i e = + .     . X X X X # * * > s t 5 W J.*X*X&.=     t i.i.i.H     X g m.}.[.*.1 X + X . X . . o + + .     . o * r k k k l $.2.p.@.y e - - # X X ",
"> 5 a N S / ..r.7. .] ' ( ^ N 0 9 3 $ $ X . . . X o o + = * < t s J q.&.2.L.l.&.J ;.W j h s h ! *.i.w.x.x.K > * O . X . . X + X .       . X # $ > 5 5 H L +.%.+.=.=.=.<.1.1.k.p.2.:.*.K I K _ _ W -.:.#.#.1.:.=.#.=.=.:.<.2.2.<.k.p.2.2.1.<.=.+.L j p r i i 5 6 5 5 5 5 r i h j h C ( 6.6.6.] W S ^ ` ^ K S K W ^ ^ ^ K C a N S ^ W A C A C K _ H K ! J A W Q =.] ^ W H h f C h e - * & X .   . . . o o + = * < p h W i.*.z.*XF.-.W >.W h g s h _ ;.x.x.M.M._ 1 > + X X . . o + X .     . o & < s g g s l $.2.p.+.y r - - o . . ",
"5 9 0 N T { X.g.8.] ` ] ( S S N 0 0 8 6 $ + . . . o X o * = t h p j -.&.9.m.*XOX}.:X9.< g z.[.@X`.}.].<XF.h 1 5 = X X X . . .       . . + $ > 2 , , 5 H +.+.+.+.<.#.#.#.%.<.p.C.V.2.e.] ' ( ` K K ' 2.2.1.:.:.<.$.=.:.<.=.p.p.p.k.p.1.=.L x l g s e 1 > > 1 = * = > 1 > = > 1 6 i f A W ' ] ] ' ( ` ] ( K W W ^ ( _ ^ _ K N I ( W W H A A A ! A A C W K W -.$.i.;.K W A h a h j t - - & o X X .   . X X o * = p h s H >.>.i.J.2X,XOX,X0.> s l.[.:X[.@X}.sX[.H 6 i > + X X . . .     . . X & - r t t k y Q :.3.2.x r e - - o . X ",
"f a f N / { ..g.e.` ( ( ` ( S N N N a 5 1 * & + . . . 4 s t s p > 5 j J _ L W -.q.0._ h ~ m.`.b.i.J.`.*X0.5 * > * # * * X           . + * = > , 5 7 0 ^ +.L z @.$.@.#.=.%.$.1.2.u.p.6.;._ ` 7.` ^ &.:.1.2.=.! 3.<.:.1.1.2.V.V.k.3.=.l g y y r e e < * * * * # # # * # + # # $ 2 6 5 i p h A ^ ] ] 6.6.*.K C C K ( _ ^ _ W ^ ( _ A A C K K A ( W A A ( -.*.=.1.C.9.*.^ A A H C H y 4 e = # + o .     . . 1 s t g s < r C W -.Q ! &.q.0.! h ! m.`.b.i.`.[.,Xi.5 * 1 * & = = X       . X o & - e g x L l s ] >.2.1.x e - b - & o o ",
"5 3 0 N B S ..f.8.` W ( ` ] S S S A f a 6 4 = # X   . 4 z j p r 1 h H h p p 1 + r *.-.z K 9.-.W i.i.&.-.h 5 * * # > 1 = .         . o # * = , 6 9 f N ^ &.$.%.%.+.Q @.=.%.Q 1.3.k.k.] ( ^ ^ 6.6.;.1.1.2.1.! #.3.2.=.1.k.C.V.V.2.Q g r 4 4 e e - * * * + & + + o X X X X + + # * * = > , 6 9 h K ` 6.6._ H C C C K W _ W A A N ! C C K K K W *.;.W ^ ;.-.' =.$.k.k.*.*.*.W K A J k r r - * o o X .     . 4 j j p r 1 j H h d p 1 + r *.-.j K 9.-.W i.j.&.*.j 5 * * & > 1 = .     . X # - - 4 t x k s x Q $.<.2.1.x e < - - o X X ",
"X O 9 N N ^ 7.g.8.] Y S S S S S S W a a 8 4 * # o .   o = < = 1 5 H _ _ j p 1 # p *._ K d h J ~ -.~ r s h 5 * * + # & X         . . o * = 4 r i 9 A K W W Q z Q @.+.@.%.@.Q #.3.2.p.6.6.6.e.6.;.;.p.:.3.V.#.@.2.2.2.p.C.C.2.+.x y e < - = - = & + # & o X . X X . . . . . X + X o + # * 2 , 8 a A ^ ] ( W K C N ^ ^ ( ' W S N W C ^ K A K _ W ' -.*.>.&.,.<.$.k.V.>.] ] ! K J J k y e * & & & X .       o = < = 1 5 H ' ' C p 1 # p *._ J d h J ! -.! r d h r > * # # # X     . X o & < - 4 y z z x +.x L =.1.<.x e b - & o o X ",
"O $ 9 w N ( 8.t...) ^ S S S ^ ( W C p i i 4 = = # X   . + # # * 4 J 9.*.J H > 5 h ! *.s.' 5 ! q.H p p h p 4 * # + + + .       . . X # = 1 5 i p 8 a S ^ _ z j Q @.@.#.#.%.%.=.3.1.p.;.W *.*.K ^ *.k.1.2.p.2.:.p.C.3.p.k.1.x g y e - - * * & + X X X o X . . . . . . .   . . . . . X O # $ 2 1 5 i h C W ` } ] ` ` W ^ ] _ S I W S ] *.K S ' W -._ W L H ! $.=.2.:.2.*.*._ ! J J y e - * - ; & X . .     . + & & * 4 J 9.*.J H > 5 h W *.i.' 5 W 9.l p p h p 5 * # + + + .       X & - r < y k x @.$.Q z Q &.<.<.x e e b & o X . ",
"2 > 3 9 N ) 8.r. ./ T S S S T W A f a p 5 , * = & X . . # * # & i J ~ W K ! e 1 1 5 H K d * i J g W K d i i > o + & # .       X o o = < 4 i p h f N S K ' +.+.L L $.%.Q @.%.:.2.1.k.W H ! K K ` 6.3.2.1.1.2.2.2.k.k.k.<.L y r e - & & & & o . . .   . .         .             . . . . X # $ * > 1 5 p C ( e.7.6.] _ K ( ^ S ^ ` ( ' A H A *.' *._ K S K &.:.2.2.=.>.' ! Q z i H k y r < - & & o X . .   . # * # & i J ~ W K ! e 1 1 5 H K d * i J g W K d i i > o + & # .       X & ; < - y l +.+.+.z z Q #.>.1.x e < - & X     ",
"2 , , 0 Z / 7.r.} ^ ^ S S S F S A h f h g 4 = = & X . . # * # + 4 e 4 5 C J e # o * 5 5 < # = 5 j *.K 1 * 5 > X + # o .     . X X o - < 6 i p p C S Y A A Q +.L Q $.@.L z L <.1.p.2.j i p a S ( i.k.2.2.2.V.V.k.k.p.=.Q k r 4 - = & & & X . .                                       . . X + + $ = , 5 p A ] 9.6.] _ ' 9.6.] ` ] ( _ S K K ' ;.;.*.*.;.;.l.2.V.p.1.u.6.' h f a H x k y r - * & + X X .   . # * # + 4 e 4 5 C J e # o * 5 5 > + = 5 j *.K 1 * 5 > X + # o .     . . + & < 4 g x +.=.@.+.Q +.! >.2.L r e - & o .   ",
"2 3 8 q N ) 8.r. ./ ^ S S Y S S N a a J p > = * & X . . . . . . # * . < h > + 5 i > o . . = H K 5 5 i 5 . # > . . . .       . X X + = 4 5 8 f f K A A A J L z l z @.Q Q z Q @.=.2.&.f , 8 M F S *.a.<.:.1.1.p.p.2.$.L k y r < - & o o X .                                             . . . X + # $ = 6 a K ' 6.6.*.] 0.9.*.` *.] ( K ( _ ! ;.q.e.9.>.>.>.2.3.k.V.k.;.' ! K H C k k y r - * & # o o . . . . . . . # * . < h > + 5 i > o . . = H K 5 5 i 5 . # > . . . .   . . . # & - e y g L %.$.L L Q %.#.1.2.L r e - # X .   ",
"$ 3 0 0 N ^ 8.f.7.) ^ A S S a N N C f j 6 , > * # X . . + & * # 5 h + H *.< > *.9.H +   . h w.9.1 * ' _ # H K = * = & .   . . o & * - 5 i f C A S A C N z Q +.+.%.Q l l z %.%.2.2.! A a N F T S K *.2.1.3.2.p.2.=.L k y r - & o X X .                                                     . . . X # $ > 5 h K ] 6.6.*.w.w.*.5.6.*.( _ ] W A _ *.;.j.2.&.<.3.p.V.V.>.J W ! K H H k g g y r - * & & o . . . + & * # 5 h + H *.< > *.9.H +   . h w.9.1 * ' _ & J K - * = & . . . o & - r y k l L $.%.+.+.x %.=.2.2.+.t e - o X . . ",
"* 7 9 M 0 S r.c.7.( I S S S f f N f a h i 6 1 - & o . . X * * # 5 p * K ~ * > *.5.C *   * K 9._ * # p i = J s & = 1 +     . X # * - 4 r p h C S _ K A S Q :.:.L l z z l Q Q #.=.1.&.( ^ ^ S ` ^ K K =.2.2.p.2.:.z s t t r - & o . .                                                             . + $ = 4 i h W ;.6.9.i.i.;.` *._ W _ ( *.' K W ' q.:.J #.=.<.p.p.u.^ ` W H C H l k s y < = & & & & X . . X * * # 5 p * K ~ * > *.*.C *   * K 9._ * # p i = J s & = 1 + . X X + * e r y y g +.$.@.+.z s %.<.p.V.@.y e - & X .   ",
"> , 0 M q ^ t.c.7.^ S W S K f 8 N f f f i 5 2 = & + X . . . . # * 5 * p p * * j h i 1 . 4 ! ! j * # 5 > * 5 = * & X .   . . o & - < e p h C S S S K ^ F ] Q L J p j z L %.@.#.Q W ! _ K S ) ] ^ ^ ' ! >.2.u.:.z y r e 4 4 - & X .                                                               . X # * > 5 p H ' e.w.i.i.*.K ' ! _ W ^ *.W _ ( ( 9.&.W %.%.:.<.1.1.*.*.W A C K x k y y e - & & & & o o . . . . # * 5 * p p * * j h i 1 . 4 ! ! j * # 5 > * 5 = * & X . . X o # < - - t t g L +.l z s z %.1.k.V.%.y e - & X . . ",
": , 8 a N ) t.E.8.) S A N S f 8 S A f a 9 6 > < + X . . .     X o * * < p 5 < i 5 5 > X > p s p 4 p d = & * o # X     . . o + & - 4 r p p A ^ ^ ^ ] ] ;.:.@.x z j h l Q Q Q #.h H &.^ ( ^  .` ^ ` 2.2.2.u.1.z s 4 e - * * & o X                                                                 . X + # * , 5 a K ] w.j.l.9.-.-.K W _ *.*.W ] 9.*.i.&.&.$.:.1.:.:.<.] _ J h C ~ x k y s r - & & - * & o . .     X o * * < p 5 < i 5 5 > X > p s p 4 p d = # * o # o . . X # & - 4 = = s g l L L l z z L %.1.C.C.%.y < & & o X X ",
": 5 8 a S / y.c.7.` K N a N f 0 S K S C h 5 > = # o + X . . .     . X o < < < 4 * # # . . # > 1 < i r * . .   .     . X X + & = - r s l h C ^ S ` ' ' _ #.+.L z l J z L l z Q j L #.' ^ W ( ' ^ ( 1.2.u.u.! g e - - & & & + o .                                                                 . X X + # $ > 5 h K *.i.j.9.' *._ *.*.' K W _ *.&.-.-.,.=.2.1.:.=.2.;.' A C W @.L x k k y e - - - - o X X . .       . X o < < < 4 * # # . . # > 1 < i r * . .   . . . X & & - e e e e g k l +.z z x +.$.=.V.K.A.%.y r - ; + o X ",
"> 5 8 a Z ] t.t.6.( S N f 0 a f N S A h a i 5 4 = & & # o X . .         . . . X . . .       . . . + # .         . . X o & & ; - e e y g h A W S 6.-.*.*.=.%.%.x L +.l z s J L J J J ] W W S A A ^ ;.2.u.1.z t 4 = & o o X o X                                                                     . X X + + * 5 i C ( w.i.9.*.] ] 5.6._ W _ ' ~ h j J >.:.p.2.<.@.<.' W A W W Q l k k k y r e - - * # & # X . . . . .     . . . X . . .       . . . + # X     . . X o & & - - - e e y g l L %.Q z :.<.3.3.C.K.A.%.y r e - & X X ",
", 5 9 0 0 S 8.f. .( S N N n N N N A J h a p p t - * & # # + X . . . .                                     . . . . o o + # * - < r e 4 4 8 K S S K H J &.<.=.$.z l %.L j s l j ! l J ] C A A N C S ;.2.2.%.k e - & # X . . .                                                                       . . . X o # = 5 a K 9.i.w.*.*.5.6.6.*._ _ _ -.K S ^ :.:.p.k.k.2.2.*.( ^ W K l l z z k g y t r r - & & & X X X X . .                   . . .   .           . X o o + & - - - e y y g k x @.$.L Q 3.:.3.p.V.A.A.$.s r e - & . X ",
", 8 8 7 q S 8.c.7.( S A N D N N N f a a h p i t 4 = = & & & + . . . . .       . . .           . . . . . . . . o # & & & & - 4 e e e e g J S A S S C K ~ <.$.%.r t @.+.z t t g #.Q #.6.A S ^ T S S >.1.:.L y 4 * # o X .                                                                             . . . X # = 6 p A 6.i.i.e.6.5.6.9.6._ _ K _ *.6.j.V.3.k.k.3.2.<.] ` _ K W Q L L x k k y y y y e - - & & # o + X . . . .         . . . . . . . . . . . . o # & & & = - e r y k k k x L +.%.#.1.V.:.k.Z.A.A.Z.$.k y r - & o o ",
"> 8 7 7 S ] f.v.8.^ A S A N N S S N h C h i r e e < - = = * # X . X . . . . . . . . . . . . . . X . . . X O + # # & * & & - 4 y s s g l L S N f N S ` 1.<.+.l s z +.%.%.Q L Q @.Q :.;.^ ^ ( ` ` ] 1.1.@.l y 4 = o X .                                                                                 . . X + = 6 i C 6.D.C.j.6.6.6.( *.K W _ *.*.j.z.3.C.k.3.<.2.2.6.] ( ( ( #.+.+.L x k k y 4 e t e - = = * + + + X . . . . . . . X X o o X X X X X . X o # & & - = - 4 r y y k k x x +.+.%.<.3.V.p.V.C.Z.C.C.$.l y r - & o & ",
"> 3 8 N I 6.N.c.8.( N N A f f N C C a p p i 5 4 e 4 < - = = # O X X X o . . . . X . . . . X X o + X . X O + + # & * - * - e r v k k g l x S A D B S K Q L z l z z L L Q Q @.#.<.=.<.*.' ( ( ` ` ] i.:.L g t e * o X .                                                                                   . . + = , a K a.D.H.i.0.6.*.' *.K K ^ *.;.q.:.@.1.<.3.3.2.<.' ! ^ ( _ &.Q %.x x x s s r y r 4 = - < * $ + + + X X X X X X X + + & & & o X o X o # & & * - - - 4 e y y y k x +.O.@.%.<.3.V.3.p.V.C.V.Z.A.<.x k y e - o & ",
", 5 9 B ^ 6.N.v.6.W S N C 0 S A N f a 9 a i 5 5 r e 4 4 e < = $ $ $ # # + X . X + + X X X O o + O # O # $ $ $ $ = = = = e e r y k g g g z W ^ T ^ ^ A j J p j z z z j x Q +.%.#.J Q W _ ' ' ^ *.;.w.=.x s r - & o X .                                                                                     X # = 5 h _ 1.D.J.j.e.6.] 6.9.>.K K 9.x.z.1.#.$.#.<.V.p.:.' K ^ ( ! ! +.$.L L x k k s 4 4 e - = = * = # + + + + + # # X X + $ & & & o X + & & & - = - e r < r y y y k x x x L $.<.p.B.V.p.1.2.p.p.C.K.3.x k y e & o o ",
"> 3 N ( 9.N.M.x.} S D N N N ^ ^ S K h a a 9 i e r e e < 4 < , > > = = & # + + + $ # $ + O * & + $ = $ $ $ * = * 4 e < - 4 r t y k z x L Q ` ` ` ` ( ' #.&.Q z z g x z z Q Q #.:.#.S N K ' ] ^ ] 6.w.%.x k r < & X .                                                                                       X & = 6 a ^ u.C.].b.e.] ( _ W _ J K 6.;.i.:.<.1.:.1.k.p.p.] ' ( ^ K ! %.:.%.@.L z k g y 4 e 4 4 - > = # + O $ $ # * * + O $ = = - = # # & & & - - - < < e e e y k k k k z +.L Q <.3.2.V.p.C.C.2.p.Z.G.3.Q k u e & o X ",
", 8 S ` w.F.x.6.( Y A 0 N N ^ ( ( W A h f a 5 t t e 4 $ < 4 = : , > = * & # & - > * = * $ > - * % $ # + 2 2 % = e e 4 r r y y x Q Q +.$.<.e.6.} 6.] ` #.! Q J x j @.+.L @.L @.:.=.( S S ( 6.;.6.w.q.%.x g e - o . .                                                                                       . + $ , p ^ >.Z.].`.w.] W K W _ P ^ *.*.9.u.<.<.2.k.C.k.p.] ] ^ _ K -.$.<.$.+.x z g r < < e e e e 5 > * $ $ 2 = * * * # * > > - - = & * - & & - e 4 < e r e y k k g y k x +.@.Q @.=.1.V.V.2.1.2.V.G.G.3.L k y e & o . ",
"3 p S ] e.i.*.( ^ ^ S N N F ( ` ( W A C h a 9 t e 4 e < 4 4 , , 5 > * * & + & = > = > = $ < < < $ $ : > , , 9 r t e 4 r t k k x +.+.%.$.$.^ ] 6.] ' ] &.@.Q L z z L L L @.Q =.:.=.' ^ ^ ` ] ;.*.>.&.+.k r - & o . .                                                                                         + * 6 p K 0.H.oX[.w.*.` ;.( *.' 6.;.*.9.1.:.=.2.V.Z.C.p.] ` ^ S S @.$.<.<.+.L x l s e e 4 < r t r > 2 2 2 , < > * * = > > 4 e e - * - - & - e r y y s s y s s x k k k x Q %.%.<.3.p.C.p.V.2.p.A.U.A.1.x y e = + X . ",
"2 , f W ' ~ W A S A A N B ^ ) ` ^ K A C C C h h s s s t e e 5 , 5 > = = * X + = > * , > = 1 4 < $ : > , 3 3 a g y t < t e y k z x k Q <.1.^ ] ] _ K ;.1.#.h g z $.%.L +.#.Q #.<.:.Q ^ ` } } ;._ -.Q z g e - & X .                                                                                           . # 6 h Q >.D.*XOXx.6.' ' ( *.;.9.6.;.,.1.=.%.<.k.1.C.p.6.7.} ( ] a.$.=.=.%.%.x x s y t e e t y s 5 , 1 6 6 < * = , 5 r e 5 e e e e 4 - - e y y k k k k x L x x x +.$.<.%.%.#.3.Z.3.3.1.p.C.S.A.A.p.%.y e - & # X . ",
"$ , i j l g s 5 6 6 8 9 N S W W W A C C N C C z h g t t t t 9 5 5 6 3 = = $ * - > 2 , 4 , 5 4 4 , > , > 3 3 a l t e 4 e 4 t g t t z Q %.@.^ ` ` ^ S ] &.H 5 5 t s z x L @.@.#.Q ! j ^ ` ' _ _ _ ' L g t e = + X .                                                                                           . $ 1 > p #.Z.oXOXv.9.*.] ] 6.;.*.;.;.W @.=.<.3.V.:.2.V.x.t.e.6.6.,.$.$.$.%.+.z x k y y t e e r h p i 5 9 5 1 > 1 5 p t r e t r y y y r y y k c x x x x x x +.+.+.+.+.+.%.#.#.3.A.C.C.V.p.p.3.<.$.%.k e - & o X .   ",
"$ $ 1 4 4 - = * $ $ * 2 3 a f C S S A C S A J J l z l g s s p 8 5 3 5 4 < = < 4 5 , , , , t t e 6 3 3 5 3 3 a h 1 > 4 e 4 t t p p L +.@.#.] K A _ ^ ` -.#.l j z z Q Q L z Q @.L <.' ] ( W C S ^ ' l y e e & o X                                                                                             . + * > 5 @.p.F.[.v.9.] ] ;.6.;.] *.*._ Q L +.@.=.L $.k.;.6.6.6.;.,.Q #.%.%.+.x k k 4 e y t r g K h p p p t 5 5 5 p p i p s k g s y y g k k k x +.+.+.@.+.+.%.@.$.%.+.+.$.#.=.k.V.V.V.k.1.$.+.l s y e - & X . .     ",
". + + # & # # + o O + # $ 2 6 9 f N A S S S W J z z z k g g f a 8 3 i e 4 e r t f 5 > 2 6 p t t 5 8 9 9 8 8 a s p < < 4 4 t t g s Q %.@.=.` S a S S S ^ ( L l x x z Q p p L l l <.9.*.K S K S ( -.l y e - * + X .                                                                                             X $ 5 l J =.b.`.v.9.` ' *.;.] ] *.9.2.=.h p 5 z l =.2.;.6.0.6.' -.=.=.=.%.+.x l s t y y g s z ! A h h h i i p h j g g h z z g s y k x x x x O.%.%.%.+.+.$.=.$.:.+.%.$.:.<.1.p.p.3.<.$.+.k y r e - & & X X .       ",
"    . . . X X X . . X X X O $ , 8 9 f S Y S W Q J z x g t p a a 9 8 9 e 4 t y s f p , , 8 p t p 9 9 9 9 8 7 N J l $ 4 e s g g z x +.%.#.1.( ] ] ( S T ( ] Q l Q +.l @.@.%.$.l j =.1.W C S ^ ` ;.-.l y r e - & X .                                                                                             . * 5 z l >.m.M.v.7.] 6.] ] ] ;.6.w.>.' -.&.l h Q 3.p.w.6.6.;.~ ! @.$.#.Q z g k s g k s g k @.! H j h j h f g j j h h g g k k k x x +.x k k x %.%.<.@.+.<.<.$.%.L $.<.<.2.p.3.<.$.+.z k y r e - & o X .           ",
"      . . . . . . . . . . X X + $ , 8 f A S W ! L l l s s g a 9 9 9 a r = 5 s g f f 8 3 9 f g g C 0 9 8 9 a f z t < e r t s g x L Q %.<.:.` ] ( ` ` ] ] _ Q p x +.x @.Q Q Q j Q 2.<.h h I ] [ 6.&.z y r e - & X .                                                                                             . * i z #.p.m.v.c.6.` ] w.9.6.;.6.9.;._ =.<.=.1.k.V.k.x.*.` *.! -.#.#.Q L z l x l x z g l z %.! H j j h h j h H Q H j f p j l k k s x x +.+.Q $.$.<.<.$.3.$.Q $.<.3.2.3.3.<.%.x l g y e e e - & & o .             ",
"      .   . .       . . . . . . O $ 2 8 a N K ~ Q l g g g g f a p a f g l k > 5 h N a 8 9 A x z J f 9 9 0 a 9 i p t t t s k k x x Q @.%.#.W ( ( ^ ' ,.#.&.j l Q +.%.%.L Q Q x L #.Q N 0 S ;.;.9.#.k y r 4 * + o .                                                                                             + = t z W p.b.v.c.6.6.6.6.;.;.;.;.w.1.:.=.:.1.p.p.3.p.9.*.( ( W -.#.Q J L Q x z x z s z +.%.$._ J H h C C K H Q L A W K C L x x x +.@.x +.$.:.$.+.$.%.$.3.1.:.:.<.3.3.2.<.@.k y r r e - - - & o X                 ",
"    . . . .   .           . . . X O # = 6 p A ! Q J j g l l h f f h z j l g g j ^ S C a C ' @.Q C 9 9 a N N f 5 s g p p s s z L x L x l Q A S ] ] _ -.#.#.J Q Q %.$.Q J Q @.@.! ! =.^ ( ( ] ' 6.~ g y e - - & o .                                                                                             + * < r p &.m.`.W.e.6.5.6.*.' *.*.q.3.=.L #.<.p.2.p.2.^ _ _ _ W _ #.L L %.@.@.%.$.#.+.+.L $.:.-._ ! j h K ~ ! +.@.*.*._ ~ %.k k +.%.$.L L :.$.$.%.$.<.<.3.2.1.=.$.=.=.%.x k y e = - - & & & o .       . . .     . ",
"  . X X . X . .             . . . X O + * , p J L L L z L z h h a f H Q Q z x J ^ S A f N W %.! f 8 0 0 N N C p J z s s k s x Q L L j z Q A N A f f C #.@.Q L +.+.@.Q Q #.@.! #.:.:.S ^ W W ( ;.! j t e - & # X .                                                                                             X + * 6 @.z.OX<X}.x.e.6.] ] *.K ( *.1.z g h %.p.2.2.:.^ ^ ^ K W _ #.L L $.%.$.=.=.<.%.x L $.#.*._ _ W J _ ! J @.=.w.;.W H +.%.z +.=.<.@.$.$.=.2.2.<.3.3.3.3.<.=.+.L x k y y y - - & & # o X         . X X X .   . ",
". . X X X o + X X .             . . . X + $ 6 s l L Q Q Q J h f p a j J L Q L l W S A C K &.#.z f N N f N N K l J z s s y e k L x Q J J z C 0 N a N A J z j 4 g Q %.@.L Q Q Q :.! #.S S K K ( ;.~ g e - & # o X .                                                                                             + = s L >.D.2XsX,Xv.w.j.*.] ( ( ] *.=.J l h L 2.p.2.@.( ( W K K W =.%.Q $.%.=.$.<.=.Q l Q :.$.$.~ W W _ -.#.W :.x.j.9.-.#.z %.L +.@.#.@.%.$.=.<.1.3.3.2.p.2.=.+.k y y r e - b - & # o X .       . X X o X X X . . ",
". . o o # # + X X . .             . . . O # = 4 y z Q ! ! J H N a f h l l z +.Q ~ K C j h K Q l f f f A A S ] J h g s s s s g z x Q Q L Q ^ V R T S W h g j p p x +.@.Q J Q W #.=.#.` K S N ^ ] ' g 4 - - & o X . .                                                                                           + 4 z Q &.D.yXgX:XN.w.;.h W A ^ ( ' =.Q L Q =.<.=.1.2.6._ N S W _ &.+.%.%.%.<.%.@.z z l z #.:.#.J h C _ ,.J x >.>.>.q.&.:.L Q L L @.+.L +.$.2.2.3.V.2.2.2.1.@.k e - - e - - - & + X         . . X o o o o o X X . ",
". . X # * # . . . . . . .         . . . X + $ = e s z L ! Q J K C N H #.#.z L +.J A f i > a J j g f N S S ^ *.@.! L l g s s g l l J L L @.&.] ] ` ( Q Q Q $.%.Q Q Q @.#.Q Q :.W ! &.6.( K S Y ( _ h e < e * o o X .                                                                                         . # 4 k @.k.oXtXyX[.w.6.;.C S S S ( ' #.Q L @.1.=.:.p.C.6.( A ^ ' _ $.@.$.%.$.<.@.L Q %.L L Q @.Q A f A ! &.%.@.<.K ! ~ ~ Q L @.L z L L l L %.2.2.k.V.3.2.<.%.k e - = - e - & & o .         . X . o o o + X o o X X ",
". . X & * & + . . . X X X .           . . O + * 4 r s l Q @.! ^ K ^ ! #.#.L z ! H N f 8 3 N z g p 0 0 N K S ] :.:.Q g t e e k z z z Q ! @.! A C C A &.#.@.@.J @.Q j x @.@.Q #.! ! &.` _ K S T ( _ j r e e - & & # X                                                                                         . * e z :.G.-XuX2X`.e.` ^ S F F N W _ =.@.L @.=.1.3.C.C.e.6.*.^ K J Q %.L %.+.=.#.Q $.+.z L Q #.L J A K -.<.%.@.=.*.C K ' E @.Q Q j l l L %.$.<.1.k.2.p.3.:.x r - - - - - & X . .       . . . X X o # o + & o # o o ",
". . + * & & + X X O + + . . . .         . . + $ - e r g L @.~ _ ^ W ' &.@.Q %.#.W S N 0 N S l g p S S S W A ' :.#.z g s > > t j z z j h j H N B S N C J $.$.j Q @.h z J #.#.=.@.#.=.` K K A S ( _ l t e - - - - & X                                                                                         & - t x 1.G.tXuXyXF.6.} ] ] ^ ^ S W ^ #.Q L Q =.<.3.V.V.x.i._ C A ! l l L #.$.#.+.@.$.x s l L J p f f A K %.@.%.=.V.&.C W ~ #.h t g Q J L +.%.#.=.1.2.p.<.%.k - & - - - & o X         . X X . X o & & & & & o + o . ",
". . + & & & & + + + # O . . X X .         . O # = 4 e t l L @.' ( A J @.Q Q $.! K S N N S S J l j ^ W S ^ W ' #.Q j g t r e s z l j p i J N N ^ ` ^ S z %.%.z +.@.L J L @.&.&.#.&.:.W N S N S ( ' K s t e < < - & o                                                                                         o - g Q k.Y.eXyX,Xx. .] ] ] ( S S ^ &.! H ! @.=.1.<.V.Z.q.&.J C S ;.Q Q $.#.@.L l L Q x l z h z g f a A ! +.%.:.:.A.&.h S &.@.l l z Q @.Q Q #.@.$.<.2.<.%.k r & & & & & & X .     . . . X o X o & & & = - * & & o o ",
". X + + & & & + + + + X X X X X .           . + * - 4 e s l Q ~ ^ ^ ' &.Q =.=.! J S f 0 K K J l j ^ C N S W J @.L j g t t t l l g z g h J N S S ^ ( ] @.@.L Q %.L z J z @.=.:.:.:.&.K N F ^ N ` *.-.j s e < r - # o .                                                                                     X & 4 z =.C.l.D.OX].7.) T ` ] ` ^ ^ S @.@.J #.$.Q #.<.V.A.>.J ^ ] 6.u.:.=.<.=.@.Q x l z z g l g z L K A W ! ! =.1.3.Z.! j K _ h L L Q Q Q Q @.#.#.=.<.<.%.k r - & & & & o X .     . X o X o & o o & * - < - * - & o + ",
"X + * > - - * # + + + + X X O X . .         . X # = < < 5 t l W ( ] 6.1.@.%.%.Q A S S S ^ W ! @.W _ K A A K h l +.l l t s s j g g j h j j H ^ N S ^ _ @.Q L %.@.L l x h J W #.Q #.#.W S ^ W S ] ;.;.J s t e e = & + X                                                                                     # < 4 i j ~ a.m.[.M.6.) T ^ ` ` ] ` ` &.@.L $.L p J #.<.2.>.(  .e.9.1.3.p.<.@.@.@.@.@.Q L l l z l s N C W ! *.<.<.1.&.C H _ &.#.Q z J l j l J Q #.:.:.+.k r - = & & # o . .   . . . X & & o & & & * = - - = & & * # o ",
"O # , e 4 - > # + o X + + X + O . . . . .     . + & = > 5 r g J (  .e.;.@.Q #.Q K ^ S S K K Q Q ^ W h t > a f 5 l z z t g g l z z l j j z K ^ V F } ' J j J %.Q x +.@.J J Q &.Q ! Q ! W N h A ' *.9.Q k t e 4 = & # + .                                                                                 . & < * i W ! z.oX{.v.6. .6.6.7.] ( ] ^ ' #.Q Q s g L =.1.2.q.] ] ;.;.u.p.3.#.#.=.:.#.#.L j g l z @.J W C h W >.3.3.:.] ^ ( 0.l.1.Q g h g j g j L Q @.L g 4 & & & & X X . .     . X o o & & o = - < < * - & * * = - & & ",
". + = & - 4 > $ # + + # + + $ # X . O X . .   . + # * = 4 t s j W ' ;.>.~ Q %.Q _ W S A A J Q Q ! C h 5 , 0 f g l z z g s t t g g z J z J ( (  .6.6.' Q z #.Q g z Q ! @.J L #.#.E j W S C f N K _ 9.>.k y r r - * # + .                                                                                 X = 4 s Q 1.z.F.*XoXw.] } 6.6.6.;.^ ^ K ( &.J l 5 z @.=.1.2.e.*.S ' ;.3.2.k.2.1.@.z L #.Q l 5 t g +.Q K H j h #.3.3.1.q.t.f.w.9.:.L j j z J z J Q Q z s 4 * & & # o .       . . . X & & & * & < e t 4 - 4 - - < < - * & ",
". + + & - e , , 2 2 > $ # * > # X X O X X . .   . X # = < 5 t g A W ] 9.&.@.=.%.&._ K K N K Q J l 9 h 8 0 S A L l g g g t 4 5 s g h z L L W N S _ _ _ $.$.:.J g z z L Q l L =.=.! ! E T N a N C K ,.>.z y y y < * & & X .                                                                             . O = e g :.l.J.L.oXL.8.` ] ] 6.;.' W K W &.@.J J l @.=.:.1.2.w.q.*.] ;.2.p.V.k.#.J j z $.Q z p g z @.L H s 6 5 L @.$.$.,.6.x.q.q.:.L l s j J L L Q Q l e - * & & o . .       . X . X & - - = - < - e e < e e < 4 e 4 = & ",
"X + + & - - 5 8 3 , , 2 2 2 $ + X X X X X X . .   . o $ = = 5 s f A _ -.#.! @.Q =.K K ^ W K Q L C f h a a N K Q l p g g t 5 t j j l J L Q Q / S S S W @.#.<.Q L x x Q #.#.#.&.&.W W H T S 0 q N C -.>.@.k s y < = & & X X .                                                                           . $ 4 p J -.l.J.L.{.D.e.( ^ H H J a f W [ =.Q J L L =.1.=.<.1.9.*.] 6.6.1.2.C.2.z L Q +.#.Q L z g g g g p 4 2 a #.+.@.@.1.v.i.;.1.=.L l j z j z Q @.Q k e - - & o .       . . X X o o & & - < < - - < e e e r e < r 4 - & ",
"X + & - < > 3 5 , , , 5 2 $ $ + + + + X O X X .   . . # = = 4 t f A ^ ' &.&.Q Q @.A A W W h l Q A N f a p N W Q l j j g t e t l l Q Q Q ! @.] ( ] W S $.$.#.x @.$.%.+.@.#.&.:.:.Q Q J S ^ S S N N ] 1.>.x k y e - - = o o X                                                                         . + 4 p J &.i.m.{.{.P.l.9.W C i 8 f w Y ^ ] 1.#.Q l J &.=.&.:.1.' ^ (  .e.2.2.C.C.#.$.<.%.Q Q l g p s g g a 3 8 J ,.+.%.2.A.&.~ ~ &.Q J z l j g z @.%.L y 4 - & # .         X X o # & & & & - e - - < 4 < e s y t t y 4 - & ",
". X * - = 4 3 , , , 5 5 2 , > $ + + # + + X X . . . . o $ * e t f A ^ -.:.,.#.! @.S S ^ H C +.#.K N A f a f S J g j l g t t g l l l Q ! ! @.( ( ( ^ A Q +.:.Q =.:.Q @.Q #.&.:.#.Q &.:.T ` K N C S ] i.a.:.z y t e e e & o o .                                                                     . $ > t J -.u.m.{.oX{.z.u.&.f 0 , q N S ] S ( :.=.@.L J Q ~ &.:.:.^ ( ] e.w.p.p.V.2.Q $.1.$.$.@.g t 5 p h j A f N W ;.@.#.3.1.C W W -.Q z l z z z Q #.+.l u - * & X .       . X o X # * = * & - - - - < e - t k g s s y 4 - * ",
". X $ & - e 6 , , , , 2 2 5 , 2 $ + $ $ $ + X . . . . o # # 4 5 5 f W -.>.>.=.:.L ^ ^ K C j L @.&.C f f f N ^ Q l j l j e e g l z Q Q @.@.-.` ^ ` _ A L Q @.+.1.=.@.@.! =.=.! j ! :.=.` ^ N S K ^ ^ ;.u.1.L g y e r e - & & & o                                                                 . O > N J ,.u.m.J.{.].m.>.#.j S N 0 n T )  .^ q.1.@.#.Q L @.&.:.>.:.` ^ ( W ' 3.2.3.2.@.#.<.$.$.L g t e t s j A C N _ 9.2.1.V.k.` 6.9.&.z s 5 l x Q $.#.x y e - & o .         . o # o & = - - 4 < - - < < 4 e k g k k g t e - * ",
"X + * - < 4 , , 2 2 $ 2 5 5 6 3 2 : > * $ # X . . . . X # & < 4 3 f S -.>.1.:.<.! ^ S S A C z l J f a a f A ( Q J l s s y e t g l z Q L J &.' K ^ K A Q +.$.p.<.=.Q J L H J j z :.:.#.^ W K ^ ^ ( ] *.a.a.=.x g y y y r - - & & X                                                             X $ : 0 ` ,.q.m.{.{.J.b.,.&.~ ' ] / ) F )  . . .1.2.:.@.@.#.p.2.1.>.:.6.` ] ` 6.k.k.p.<.#.=.=.L z h g g s j z j a f f ! ;.2.3.C.C.] N.u.Q j s r l L %.=.+.k e - = & o .         . o # & & - - - t r 4 - e e 4 e g k k s g y e < & ",
"+ $ < e s i 8 5 , $ $ 3 5 6 6 , 2 $ # + + # X X . . . . o & < 5 p N N &.>.1.>.=.=.W S N K C l L K f N A f f N J L z g g s e r g g L @.Q @.:.^ S T ] ( $.%.=.<.Q Q l j z j L Q $.=.#.#.W K K ^ ( S ;.' >.u.2.$.x k k y y e - - & o X                                                         O : 7 n / :.q.z.M.OX{.m.>.~ #.! ^ ^ } 6.( 8.7.6.7.k.p.:.=.%.$.3.1.:.>.1.q.] ` ` e.V.V.Z.3.#.z J l g z j l z l p 4 t 5 a H >.3.V.A.Z.] q.,.@.t s l %.$.=.:.Q y e - * & X       . . . X o & - - - - e t r 4 t t e e y k z y g g r < - ",
"+ # 4 t s f 8 3 5 3 , 6 6 8 6 2 2 2 $ + + + X o + o . . . + = 1 i C W *.u.u.>.#.=._ W S ' H l z J a f h a a N l l g g t e = < e p J ! @.@.&.S ^ 6.] ] @.#.#.@.Q L l j l H H Q =.@.=.=.W S ^ ^ W Z ] ! 6.p.k.p.#.x z k s y - - - = & o                                                     $ 3 q V ) X.h.j.x.].,X{.l.;.&.@.! ( ^ ] ] ` 7.6.6.6.V.1.J $.<.3.2.&.>.1.1.&.C *.6.x.C.V.C.=.@.g L L h l z g g g < 4 5 , a ^ 6.9.z.C.Z.;.;.! #.z L %.<.<.<.$.z t e - & o .     . . . . + & & - = - < e e t y y s y s t y z g k k t 4 = ",
"+ # 4 t s a 9 9 8 5 8 3 3 6 3 6 5 5 5 2 $ + + # & # o . . o & = , a A ;.a.u.1.&.@.K S K *.P L z z C p i a a a l s > = 4 t < t s z Q Q @.! :.W S ( ^ ' :.=.=.=.l J z l z L J Q =.#.:.=.^ N ^ ] K S ` ] 9.2.p.k.p.$.+.x k k r e < - - & o                                               . $ 8 B F | f.g.h.m.`.,X;XL.z.&.W @.Q 6.] } ( ^ ] 6.6.0.Z.2.Q 2.3.<.1.:.1.#.&.H 8 I ( i.Z.p.1.@.Q @.=.Q L #.Q l h s 4 s N N ` 6.i.j.G.Z.z.-.! p J x %.<.3.2.:.@.k r < - + X .     . . X o - - * 4 t e - 4 e y s s g k l k s l l g s t 4 = ",
"+ # > y a 8 8 p 9 8 8 , 2 3 9 a a 8 , 2 $ + # & & + o .   . + = 5 f W ;.2.u.u.>.=.K A ^ &.J g g Q h : 3 9 9 9 p p 5 t y s y g t z @.Q @.~ ~ K I ( ] W j h H Q J Q L J z J H H ! #.:.:.' K ^ ^ _ S ^ ' -.9.p.k.k.2.=.%.x l g y r e - & + X                                           . O > m / { R.^.^.).*XyXtX=Xl.u.=.@.#.@.] 6.6.0.6.7.t.e.6.p.J J 2.2.:.1.2.=.j L ^ N F S w.p.:.:.&.h Q =.@.L @.Q l z L z ( ( ^ ] 6.;.:.V.p.q._ W f h l $.<.2.2.=.x y 4 - * o .     . . . o & * & & 4 s r - 4 t y s x k k l k k g x g r r 4 * ",
"+ $ > p p 8 p 5 5 p 9 3 2 8 a 9 9 5 , , $ + + o o X X .     . # > p C -.u.z.l.k.,.A a a A s > s Q p 3 N N a f p g g g s y e g j %.$.! #.2.:.) ) ^ K C J l z z H Q J j j J J Q J ! ! J A K ^ W K ( ^ S K ' u.C.p.3.2.2.$.L l k y r - & o .                                       . X + , 0 F R | ).%X4X0XuXuX;XD.p.1.1.#.#.:.6.;.] *.;.e.9.9.*.u.@.&.3.3.:.3.2.&.J W ( S F ( w.V.2.2.:.L @.<.=.L #.$.L z +.$.3.j.9.6.8.q.1.Z.p.w.W A H ~ l @.@.&.:.@.g e - * & X .     . . X o # & & & < y t < e t y k L l k l g g t g l r e 4 - ",
". * e r 6 5 a 5 5 a 3 > , 5 8 8 8 8 8 3 $ # # + o X X . . . . X 2 8 A ,.u.z.Z.l.,.N 0 0 ^ f 4 l Q h f A A p f g g g t g k k Q x Q %.Q <.k.1.' ` ( W A j j J H j J z j j J J J H j J N S S ^ ( ^ ' ) ] 6.9.q.2.1.1.p.C.2.%.L z y e - & X                                     . . X $ 3 N F 7.y.Q.&X0X9X9XuXrXL.C.:.1.:.=.:.1.6.] ( ' K ] 6.] *.9.1.2.1.1.<.:.:.! H ~ ^ S / ] e.2.3.2.<.%.%.=.=.L #.%.z L $.4.<.3.9.e.e.i.2.k.k.a.~ h C K J l @.#.#.x y 4 - * & X     . . . . X o & * < 4 y y r e y g k s l L z s y t s g t r 4 = ",
". $ e 5 5 8 p 5 5 5 2 * , , 6 5 5 5 9 , 2 * # # + + o . . . . X 2 9 ! >.1.z.l.z.,.Y B ^ _ H l l j a 5 3 a 9 9 j g l k g g k x x z Q @.1.3.:.W S W W J s l Q Q s h j j h H J ! J j J W S S ^ ] W W ] ] ] -.9.2.=.:.2.C.C.2.%.x k r - & X                                   . O $ : 9 V } o.R./.4X9XNXxXhXrXL.Z.p.:.:.:.=.:.1.>.-.' ' ( 6.6.*.;.q.2.1.$.p z @.@.&.&.~ T ^ ]  .q.p.3.1.<.$.=.:.<.1.p.2.=.@.+.%.$.<.6.6.w.w.Z.A.p.&.K C N S J l Q @.Q l r < - & & X     . . . . X o & * 4 4 e e e y s g g t l s s t e t t y t r - & ",
"X * 4 6 8 a 5 5 9 8 9 8 2 2 , 3 9 5 5 , , > < & + o o X . .   . $ i _ a.p.z.l.k.,.) S S A a g g 3 8 f a a N C l g j s g l z z Q x +.<.:.:.' S S K S W J Q ! W z z j p g l H W J H H L Y S S ^ W W ` ' _ -.>.p.#.#.2.V.A.G.1.%.l r - & . .                             . X $ : 7 N R X.Q.XX&X4X0XxXxXhX2XU.A.k.1.:.2.<.=.1.1.;._ ( ( ( 5.-.! ! :.:.1.#.s s Q &.:.p.:.( T ^ ` *.2.1.1.3.<.<.<.%.3.V.p.<.$.$.<.<.1.x.w.e.e.Z.2.=.1.' ^ K K l L $.#.Q k e 4 - & o .       . X . X o & - < < - 4 y g g k s s k y y s e y r r s y - & ",
"X $ > 6 9 p 5 6 a p 9 5 , , > 5 p 9 5 5 5 6 4 * + X X X X . . X $ a &.p.k.l.D.l.u.} K A H h p j t a f a 0 N A l g j g g l z L +.Q #.:.=.:._ S S S S ^ ! #.#.#.#.L h p h J H J Q W J ! ^ S S ^ W K ^ ^ ^ *.a.2.#.@.=.3.C.A.A.1.+.y = o . .                           . X O > 0 F 8.Q.R.).9X9X9X9XxXgX,XM.Z.k.2.1.3.=.#.&.Q @._ ' ;.] ^ K N N S &.#.#.@.J Q =.1.1.:.#.&.S F ` ] =.=.<.1.<.3.1.$.<.C.3.=.h %.<.3.3.i.j.6.>.2.&.@.W ^ W K A H Q <.<.+.g e < - # . .     . X X X + & * - - 4 e t z z z k s g k l g y t t e < r t 4 * ",
"X # , 6 5 8 p a f 9 5 > , 5 5 8 8 5 6 5 5 1 < = & & X X o X . X = p &.u.a.D.L.P.k.K h , 8 a g p p a a A ^ ^ W Q x l l l l l x +.%.=.:.=.2.*.K S ] ^ W -.#.#.#.@.J z h J ! Q J ! ! ! ! ( ^ K W A C S ( ^ _ &.1.@.Q #.<.k.C.A.Z.1.k - & X .                           . # > 0 } g.XX0X0X9X9XkX9X8X6X,XL.;.1.1.2.2.1.Q Q #.@.! #._ ^ ( ` ^ ^ ( } a.1.:.@.Q $.<.2.1.1.>.>.S S } 6.:.:.1.$.<.4.B.%.$.A.V.2.$.=.<.V.V.w.j.&.#.#.j @.! ^ S S H z @.2.2.%.k e - & o .       o o X X # * * & < e r g k g s s l l z g y t y g s y e < < = ",
"X * 5 8 i 5 9 f a , > , 5 5 8 9 8 5 5 5 , = * * & & + X o X . . , f -.>.u.D.Y.L.a.a 8 8 0 f h j j q S ^ ^ W A l x l x x k l L <.<.=.! #.:.] W (  .' ] #.@.Q ! Q z j l Q @.#.! #.#.&.! Y W A S K S S ( ^ ! &.! J Q =.V.C.C.A.Z.2.z - & o .                         . X $ 9 ( W.5X9XNXNXxXkX9X%X X`.M.l.' =.p.2.2.1.~ ! @.@.Q #.^ ^ ] ] ] } ] 6.1.1.1.1.=.#.#.:.>.1.2.9.) / 6.6.2.p.p.<.=.%.3.$.:.S.V.1.<.p.V.Z.A.i.;.J f J @.&.#.^ F ] @.$.<.3.2.@.g e - & X .     . X X . o + * - < r t t s k s y k z k l s y y r z L g r 4 - - ",
"X = t l A a p 8 5 5 , a a 8 5 8 8 5 3 3 2 $ - * * & & # o X . . 2 h ' ,.z.J.J.D.>.S n N S W Q L l N ^ ^ Y ^ W l J s g l k z z #.#.=.Q ! :.u.' ( ( _ ,.=.=.! Q Q J J Q @.#.#.#.#.#.&.#.` ^ S K S ^ ( ` J W 1.:.&.=.:.:.1.k.A.Z.1.z - & X .                         . # 2 N 6.].hXxXBXxXkX8X&X!.N.f.q.' ] >.1.1.:.#.! #.! @.~ @.^ ^  .7.6.6.6.e.3.3.2.1.Q L #.=.=.=.1.9.6.8.e.0.p.3.2.=.$.$.1.3.C.A.A.:.1.2.3.p.V.q.;.W ^ w.2.:.=.) ` 7.>.#.<.2.1.+.s e = # X .     . X X X o # & < t y y t t t g x L z g g g l l k l Q z s 4 - - ",
"X = y g C h a p 8 a 9 a f 9 5 8 9 6 , , , > < - - & & & o . . . % a K &.;.i.m.b.9.^ V N K W Q Q J N ^ S A A A x l g g g z s 5 j L @.=.:.<.1.;.^ S K ! L #.@.@.! Q Q @.@.#.#.#.&.! &.#.] ( ^ ^ S ( *.] K W =.1.1.:.=.#.=.V.C.V.<.k - & o X .                       . # 5 S f.:XhXxXxXhX1X|.c.j.e.e.[ ' ] 1.1.1.:.@.#.#.J Q #.=.*.] 6.6.e.e.e.w.V.3.2.1.$.+.$.:.1.2.2.>.5.;.*.6.u.2.2.<.#.<.3.C.A.>.=.@.+.3.<.=.3.6.9.' ] w.k.2.1.6.] *.>.@.=.1.:.L y 4 = # X .     . X o X X # = e e t r y g y y s s k k g g x z l z z k s 4 - = ",
"+ = t k l k f a p 9 9 a a a 5 5 5 5 3 , > = < < - * & + X . . . $ 9 K ;.q.j.b.z.9./ S S K A x Q Q S ^ S S N A Q J z z j j h z J g l #.:.2.1.] ' ( ' _ -.<.:.1.<.=.Q Q ! &.@.#.:.&.:.:.' _ ^ ` ( ( _ _ _ ;.2.3.=.@.@.#.=.1.p.k.=.g - - & o . .                     X $ 3 T c.:XgXgX8X}.M.f.w.6.' ` ] e.6.;.:.=.&.! Q J J @.<.1.9.6.7.e.6.d.d.w.Z.C.C.3.<.<.1.2.3.3.2.i.] *.( 5.z.2.2.1.$.$.3.C.p.<.$.$.<.V.k.2.Z.w.e.9.;.' ~ :.&.] ] ' ! J +.=.=.l t < = & o .     . X + o o & - e e t r r s t 4 r e g z l z z g g x k t r 4 - - ",
"+ * e s l z f 9 5 5 5 8 p p 5 5 , , 5 , 2 = 4 e < = # o + X     $ 8 K ;.;.i.b.b.a.) S S S A Q @.! F ^ ^ ^ ^ ^ Q i p l l h j J J j L =.@.=.,._ _ ' ' _ $.<.3.3.1.=.Q L #.:.:.:.:.1.1.<.( ^ ` ] 7.6.( S ^ 6.3.1.=.&.=.$.=.:.p.p.=.s - * & X . .                     X 2 0 ) W.>XdX6X}.x.w.6.*.! ^ ^ ' ,.=.} 6.:.#.! ! j Q <.1.3.e.e.8.j.e.e.f.d.H.C.V.p.:.=.2.3.1.=.:.w.*.] ( 6.C.2.1.<.%.=.3.k.1.<.3.<.2.V.Z.<.b.9.;.' ] ' #.! =.*.*.] -.#.@.=.#.l t - - & o X     . X o # & * - 4 e r y t t 4 e s g z z x Q k g l z s < e 4 < - ",
"X $ < r z A a 9 6 2 5 p p 8 5 9 5 > , , 2 1 e 4 - # + o o .     > q _ 9.9.q.m.m.u.) S S K K Q #._ W ^ T ( ^ ^ ! a p J l j l J J j J =.=.:.' N N ^ >.&.<.<.3.k.2.=.Q @.:.1.<.1.1.1.1.>.] ( ] ` 6.*.*.( I ;.-.=.! &.:.2.3.p.k.p.=.s - & # X . .                     X 6 N } !.6XdX,XN.6.` ' W S S ^ -.=.&.6.6.:.! &.=.$.<.2.3.k.j.w.w.d.i.6.w.x.D.p.k.C.#.$.=.@.L l J w.7.7.6.t.m.V.3.<.$.3.B.Z.2.<.3.<.<.3.V.2.u.*._ ( ;.*.&.J L _ *.] ] =.=.=.=.z y - - & o X       . . X & & - < e r s t e y g l k g k L z l z z l s s t e - & ",
"X # - e k C 6 6 5 > , 5 8 5 , 5 9 6 , , * > 4 4 - & + o X .     3 S *.>.q.j.D.D.z.] S S S K Q #.&.Y ^ ^ ] ' ] @.j h J l j J J L l l #.#.! &.^ ` ( _ &.<.3.3.3.2.<.@.%.1.=.Q <.2.1.2.6.*.] ] ] 5.*.-.' W ( ' =.:.1.2.3.p.p.k.p.$.g - & o . .                       # t ^ t..XdXsX}.e.] K K A N S K ( =.=.q.w.2.&.:.<.2.2.2.3.k.i.i.d.w.q.9.e.d.A.V.k.V.Q x Q z Q $.Q M.c.W.v.v.M.C.k.3.3.3.3.V.Z.C.V.3.3.2.3.V.p.9.' _ ' *.&.W J ^ ( ;.*.=.=.:.:.x y e - & + X       . . X # & = - < t k r 4 y y y s t s z z z l l l k z g 4 & # ",
"X * < 4 4 , > r r 1 , , 6 5 , 8 a 5 , 2 * = - < - * & + o X . . 8 ] 9.i.D.oX{.L.l.} T T T ^ Q #.&.^ S ^ ( ^ ' ~ Q J J j z J Q @.l j J J ! $.' ] ' _ =.4.3.3.p.1.=.$.=.<.L j =.<.=.2.1.6.*.*.*._ K W K ^ ] 6.p.V.V.k.k.p.p.k.p.$.y - & X .                       . = y *.f.&XhX8X!.} K a N A f N N ^ =.1.p.V.p.1.1.<.3.3.V.3.z.u.i.w.q.9.' ] 9.k.2.=.#.L x $.@.<.3.V.W.t.x.x.i.C.K.Z.k.3.3.3.p.V.V.k.3.<.4.<.3.3.>.K S K *.3.2.=.] } e.;.>.:.1.1.+.s r 4 - & o .     . . X + & * - r t t r r e e 4 t s s l z g t t l s s g r = * ",
". & 4 e < 2 5 e < - * , , 5 5 3 6 2 , , > > - < - * & o o X . . N 7.D.P.U.+X-X+XH.} T T ^ ^ ! ! ~ Y S S ^ ^ ' #.! Q J J L J @.#.j l Q Q Q J ^ ] _ _ =.$.<.p.3.1.=.=.=.2.2.:.:.:.:.#.! *.6.-._ ! C ( 6.5.6.;.V.C.Z.V.2.:.~ :.p.:.g - & X .                       X 1 k 6.c.&XdX6XW.} S N B N 9 8 N 6.1.p.V.2.3.2.<.:.=.2.V.3.9.>.9.;.*._ ] 6.*.>.:.J J x x %.=.3.C.C.v.x.v.i.>.k.K.A.k.3.3.p.p.k.C.V.1.<.3.:.2.:.' K ^ ( 6.p.2.#.S ( e.;.-.:.p.k.%.k t b - & o .     . . X + & & - r r 4 e y y y 4 r t t y g e r l x g s g t < < ",
". & e r y 6 1 r e > $ $ , 5 5 , , , , 2 = > - e - * & X . .   X S 8.P.+X=XtXtXeXD.9.^ T ( ^ ! ! #.T S S ^ ( -.&.@.@.Q L L L @.@.l J ! ! ! &.] ' _ K ' =.1.2.3.3.1.<.1.2.p.2.:.&.=.&.@.*.*.;._ ' ( *.*.*.*.*.u.p.2.1.=.#.1.3.z.<.k e ; o .                       X 2 l 6.v.XX8X5XW. ./ / / ^ S w F e.2.p.p.2.p.p.1.:.@.<.3.:.&.! W ' ] W K ] W ' =.@.%.L +.:.3.V.C.C.M.j.x.i.9.V.C.C.p.2.<.2.2.Z.k.3.:.$.<.=.2.2.w.` ( ] *.1.<.=.A N ! ! &.:.k.C.$.k y e - & & X     . . X o + & * < y e - r z g - r e e r y 4 y z l l k s t < = ",
"X & - 4 s a 5 t g 6 2 2 , 3 6 5 5 5 8 , * = - e - & & X X . . + N v.U.=XrXiXuX-XG.q.` ^ ^ ` #.#.&.) ^ ^ ^ ( -.&.&.#.Q p p L L L l J ! #.#.;.' ( _ K ' >.3.3.p.3.2.<.1.p.u.2.2.1.=.=.>.] ' *.' ( ( W A ' *.' 9.k.<.&.<.<.p.C.C.1.k e - o X .                     . , L *.7.|.5X5X~.7.}  .) ] ` ^ ) e.1.2.2.p.p.2.<.=.#.:.:.2.:._ S ( ( ( ] ` ' ] #.#.<.$.%.3.V.p.V.A.M.i.i.9.>.z.k.k.p.:.=.1.2.V.3.<.Q Q <.3.3.k.N.;.W ^ _ z g l ( a f ^ :.2.Z.A.<.x y r e - & o   . . o # o & * = - r y e e s y < e e 4 r r e s l g l g s t 4 & ",
"+ & < r y g p p a 9 5 6 6 , , 6 5 5 8 8 > = - - & & & o X . . $ 0 r.].-XtXuXtXoXZ.>.' ' ( ^ #.&.&.( W ^ ^ ^ ' &.#.#.Q j z L J l l J Q =.:.;.' ` ' W W $.2.1.3.p.1.:.1.3.2.2.2.=.Q @.>._ K ^ ( ] 6.*.] ^ ( _ -.p.2.#.2.k.V.Z.Z.1.l e - & X . .                   . , x ^ / ^.5X5X~.r.8.e.6. .;.^ ( *.2.2.=.p.:.=.=.#.:.<.<.2.:.W ^ ^ ) ] ] ( ` :.#.$.$.+.%.3.V.3.1.C.m.,._ ;.9.k.A.C.2.:.<.$.=.3.2.3.:.<.3.3.3.3.x.>.C S _ ~ @.<.6.C 0 ^ 2.V.A.P.k.@.k y e - & X   . . o o & & * & - e e y s s t e r g s < r t y l x z g g t 4 & ",
"+ = e s g s a 9 a p 9 8 5 3 6 , , 5 5 8 1 < < - & & & # X . . 6 F h.[.-XiXlXtXoXl.=.S S K ^ #.=.~ ( S ^ ^ K ' &.#.#.@.@.@.L @.Q L ! @.:.<.>.` ;.*._ A Q $.%.2.k.<.<.<.2.&.=.p.1.:.<.9.' ^ ( ] 6.;.9.w.6.*.' >.2.2.1.1.V.C.A.A.2.z r - & o . .                   . 5 z } t.~.7X5X|.w.8.e.[ ] ] ( ) 6.3.2.1.3.1.@.#.=.=.1.<.1.>.' ( ( ] ] ] ' ` :.<.<.<.=.=.3.B.p.=.p.b.&.N 6.s.p.Z.2.:.=.2.1.<.2.2.3.<.2.3.3.V.z.q.9.W ( ( <.1.2.w._ a N %.C.I.I.k.%.k y e - & .     . o o # & * * = - e s l k s y y s y t s s g l k z l g e - # ",
"+ - 4 e t s p 5 9 p 9 8 6 , 6 , , 5 8 5 1 - < - & & & & X . X 0 } ).W.OXuXcXiX{.z.=.K T ^ W #.#.#.( T ^ C f A &.1.:.! %.@.Q J J L @.#.:.2.,.' W W ~ ! +.=.=.3.2.<.=.:.:.! ! 2.:.:.<.,._ W ^ ( ;.' ] ;.*.W Q =.2.1.<.3.C.Z.Z.Z.1.l r e & o . .                   # 9 z 6.g. X8X8X.Xt.} ] ] ] ` ] ] 7.2.2.2.2.1.>.=.#.=.<.:.=.>.W ( ] } ] ( (  .1.2.3.2.<.<.2.p.V.:.<.i.;.) t.b.C.k.=.#.<.p.p.k.3.k.V.p.3.k.V.p.&.W -.W ] ] 9.1.C.i._ K 6.1.V.I.P.p.%.k r 4 - & .     . X o + & = - = - e y l k g k k r r k z g g L j g l s 4 * $ ",
"+ - 4 4 e p p 5 6 9 6 , , > 6 6 5 5 5 6 > = = & o + & o X . * N t.).~.:XsXcXuXL.u.&.^ T ^ ( #.~ ~ ( ^ C f 0 S ) :.:.#.@.Q L @.Q Q #.=.&.=.~ _ C K _ &.$.<.3.p.2.#.=.<.2.2.:.1.2.<.:.<.W H C A ^ ( ;.9.9.-.P j J J L =.C.C.V.p.:.z t e ; o . .                   2 p z >.v. XdXdX.Xc.6.] 6.e.7.6.] w.k.V.k.>.&.1.=.#.:.<.=.=.#.K K ( ( ' `  .w.N.3.3.1.<.1.p.C.A.p.3.N.e.w.c.N.V.2.@.@.1.V.V.k.k.V.k.3.3.k.p.#.-.' ! W ` ] 5.x.A.w.*.^ e.k.p.Z.A.V.=.z y e - & X     . X o & & * - - - e y k g g k g s y k z l y k g s y t 4 - # ",
"+ - e t y p 9 5 8 i 2 * = * 6 8 5 6 1 6 , = * & # o X X X X 4 T R.4X7X6XiXlXtXD.u.&.] ) ( ( &.@.! / ^ N N S ] &.#.#.#.@.%.+.Q Q Q ! #.=.#.! ( S K ( =.<.1.2.p.<.L #.<.1.:.:.:.>.:.:.<.! h N N S ] 6.w.9.*.-.&.:.=.=.=.2.1.1.1.$.l r 4 * X .                     * i x &.e.8.<XyX}.N.w.8.t.w.6.6.e.N.k.1.2.>.1.2.=.=.2.1.l =.&.^ K S S K ` e.w.x.V.3.2.1.2.k.V.A.G.G.i.6.N.N.b.V.V.k.V.C.C.V.k.k.p.2.k.p.p.2.=.0.*.-.( } w.e.j.V.w.e.6.e.2.p.C.C.A.3.Q y < & # X .     X X o & & = - * 4 r t s g k s y g g k k s s g s y e 4 - # ",
"# < t s s i 9 a t 5 1 2 = = > 3 6 , , 5 , + + + + X . . . o s 7.XX0X9XjXgXtXoXZ.u.1.&.` ( ^ &.#.~ ) ] ) ` ^ *.&.=.&.Q @.Q J Q Q Q @.&.@.#.#.( ^ ` ] >.1.1.3.p.2.#.$.<.2.<.1.1.1.:.:.:._ C N S ^ ] 6.6.;._ -.2.1.2.1.1.2.:.:.:.@.g 4 * + .                       $ 5 k ^ ] ..+XtX:Xm.x.w.w.w.e.6.w.b.k.>.:.2.3.=.:.1.2.1.Q #.-.A N ^ ` ( / t.w.x.k.p.2.2.2.2.k.C.Z.C.9.t.W.v.M.C.p.k.A.A.Z.3.A.Z.C.k.p.2.2.2.1.0.*.6.0.w.w.j.V.2.6.*.6.e.C.Z.C.V.A.p.%.g 4 * # o .     . X o o & & = = - 4 t s g k s s l k s t t g g s s e < = # ",
"# < e r r r 5 p s 4 , , 2 2 > 3 5 > * = $ + X . X X . . . & g x.$X0X9XnXcX-XP.p.1.:.&.` ( ^ *.:.:.;.} ] ] S ^ &.#.! l Q J l z Q Q Q @.J Q #.( ` ' 6.u.1.3.3.3.1.#.#.1.p.=.@.#.:.:.=.=._ S ^ ( ^ ( *.] *.&.~ 1.:.:.1.1.1.>.:.#.L t * o .                         + , t W ) t.-XtX,XF.N.e.] ;.e.w.w.z.V.V.p.V.Z.2.:.:.=.=.#.#.&.^ ^ / } ] ) f.j.i.Z.V.2.3.k.k.C.3.3.3.x.v.v.x.J.G.V.C.Z.A.A.A.A.A.K.V.:.@.1.2.3.u.' 6.j.x.q.a.p.2.6.^ ;.9.V.Z.k.2.p.2.=.x y - # o X       . X + & & - = - r t y s g e 4 y y k r < e t y y e < $ + ",
"# & < e t y i a g t 5 5 6 6 3 2 2 = $ $ # + X . . X . . . < L F.4X4X9XnXlXrXP.1.&.1.#.` ( S ' :.:.,.[ [ ] W S ~ ! H z Q L l z L L J Q J #.&.` ] ' *.a.2.2.1.3.2.=.%.#.:.=.@.Q Q =.&.*.K S ^ ^ W ^ ;.;.~ H A @.! W :.:.:.! ! ! J r * X . .                       . O * C ] c.oXeX*Xm.d.i.] ] 6.w.j.z.V.C.C.A.K.1.:.2.:.=.=.1.,.( ] ` ` ` ] 7.w.9.V.V.3.3.3.<.2.$.2.V.v.N.N.x.G.K.A.p.V.V.A.A.A.G.G.k.#.=.1.<.1.9.*.6.9.>.,.-.<.&.w.&.h K 2.2.:.:.1.2.1.@.s r - & o .     . X o & & * & = r t t y t - - - - y y 4 1 t t e 4 > $ # ",
"+ & 4 t s y p C j k s 9 8 8 2 $ $ $ $ * $ + o . . X . . o t @.L.4X0XkXvXgX-XP.2.#.=.#.( ( ( ^ #.1.>.] ;.^ S S K J Q Q @.L l J L @.Q #.&.:.;.[ ' l K >.3.2.1.p.p.2.=.=.=.! @.W L &.=.] K S A A K K ,.:.H a K &.H J &.&.! H H Q Q s = o .                           X * h ^ 6.F.L.].N.8.e.8.x.w.w.i.u.k.A.A.K.U.p.2.2.:.:.:.:.-.W ( ` ^ ^ ( ] j.i.C.V.3.3.3.3.Z.:.2.p.x.i.N.N.G.Z.K.A.A.A.A.S.A.I.A.1.<.:.<.=.:.] *._ ~ L W &.2.u.9.l 6 3 -.2.=.:.p.p.2.$.x y e & o .       X X + & o X & 4 e t t 4 - - - - < e t t t t e - 2 - & ",
"+ & < e t y h a i g p 5 5 3 2 * $ = $ $ $ + . X . . . X * z &.D.XX5XhXfXiX-XZ.1.&.W W ^ ( ( -.#.:.1.] ] ^ ^ S ! W Q Q L J l L @.#.@.=.:.$.&.*.l , f $.1.3.2.p.p.1.:.=.:.1.1.>.&.:.#.K A C h f f C &.&.A A ' ~ j J ! H j h J Q Q g < & X                         . + - p f S *.z.F.m.f.e.e.x.j.j.z.k.2.A.A.K.V.2.1.<.:.=.=.@.Q A W ( ^ ^ S ( x.b.C.V.C.3.3.V.A.V.V.C.i.6.9.i.l.Z.I.k.p.A.A.A.G.A.p.:.=.#.<.=.K j P H h a C 1.<.C._ C 8 n q.V.V.k.Z.Z.V.<.+.y e - # .       . X + & X X & - - 4 4 - - - - - - e e r t r e 1 = - & ",
"# * - t s s h 8 5 p f 8 , 2 2 2 + $ $ # + + X X .   . & t L *.b. X7XhXgX2XL.u.,.~ W W S S ^ #.&.#.=.` ( ^ ^ Y ! E E L J l l x @.#.! ! 1.=.=.;.h 8 F =.3.2.2.2.p.1.=.:.2.2.2.1.:.=.@.A C h a f N N W ! A h j Q j H H h h H ! @.L s < & .                           . + < 8 a W >.b.v.x.e.e.x.q.q.l.k.V.A.G.C.k.C.k.2.:.&.&.W j S ^ ( ( ( 6.8.s.b.C.C.k.1.3.k.V.C.C.S.q.9.i.9.>.C.A.2.:.C.A.I.A.3.2.:.#.@.Q j H p 9 p N Z ^ ` #.V.*.W S { N.A.A.V.C.I.A.p.%.k r - & o .       . X . X + * - - - - * = - - - - < 4 4 e e < < - * & ",
"& = 4 s s t s a 5 p f 5 * $ 2 2 $ + + + + + O . .   . = g ~ >.m.XX0X9X6XoXm.2.~ W E W S N W #.#.#.:.^ ^ S D T #.#.E J l z z z Q ! #.=.:.1.:.6.] ^ 8.<.<.2.2.1.2.1.=.:.2.2.2.1.=.&.! W A C f f B S ^ ! S p 8 j l J J W @.:.&.@.Q s = & .                           . X $ 6 9 H %.q.N.c.f.g.v.9.6.i.C.A.A.Z.Z.C.A.C.k.:.:.&.#.Q ^ ` *.] 6.w.e.e.j.Z.V.V.3.2.p.V.p.A.A.&.! 6.0.6.A.T.I.A.V.A.A.2.:.1.1.&.@.Q j Q J S S ( ` 7.x.2.k.2.[ ) 6.] p.V.V.Z.I.G.C.<.x y r - & X .           . + & * - 4 - - - - - - - - e e 4 - = < = & & ",
"& = e e r 5 6 9 , 6 8 , # * * * * $ + X X + O .   . X 4 l &.z.`.4X9X8X&XF.a.~ #.! ! ~ S w S ! ~ &.=.^ Y S V / ;.&.! Q l z j z @.=.:.1.:.=.:.6.6.6.6.<.<.<.1.1.p.<.#.@.:.1.:.=.=.#.#.^ A A f a N K S S C a a j J J #.=.:.:.&.#.Q y = # .                           . X + $ , f g ' e.v.W.'.W.x.i.q.k.C.k.k.Z.C.Z.V.V.2.1.1.&.&.( } 6.} 6.9.w.8.j.V.3.3.:.:.2.V.V.C.3.A I ( t.w.x.U.A.Z.Z.A.A.k.1.>.=.#.L J j l L ` S S ( 6.i.k.k.p.e.e.9.w.V.V.C.A.Z.A.A.p.$.l y e & o .           . o # & & = & & - = - - - - 4 - 4 4 - 4 - * & ",
"& - 4 4 - e 3 > 3 , 3 > 2 2 $ $ $ # + X X . . . . . # t H >.m.|.0X0X%X`.z.-.E ! ~ E #.^ S S W ! @.' ^ ^ ^ / ) ;.&.! J h l z @.:.1.1.1.=.:.1.6.*.' ! &.<.#.#.=.<.@.$.@.=.1.:.:.:.#.#.@.K C C N N C f f f a A Q J J #.&.>.#.#.~ Q e * o .                           . X o $ 2 p g K ' 6.v.`.M.v.b.m.l.k.C.A.A.C.V.k.p.3.1.1.=.:.' ] 6.8.w.e.8.w.D.k.:.@.%.+.:.B.p.V.:.^ c.c.N.i.b.Z.V.C.A.Z.Z.u.<.1.>.~ Q L J J Q _ ^ ^ ] e.z.2.1.p.;.*.] w.k.k.A.G.U.I.I.G.3.@.k r - & X .         . X + # # & o # & & & - 4 4 e e e e 4 e < * & ",
"& - 4 e e s 9 6 8 , , , > 2 = $ $ + X X . .   . X & 4 j -.z.J.%X0X4X XN.;.J j j Q H ! ^ W T ( ~ @.` ( ^ T ^ ^ =.&.Q l l $.Q Q =.&.! #.! =.9.' K J J Q :.@.#.#.:.$.%.=.:.:.:.=.:.$.#.&.K C C N N f f A N N ( &.J J ! ! &.~ &.W J 4 & X .                             . . + $ 5 s s f K ;.v.!.F.m.D.P.I.G.V.C.C.C.V.p.2.2.2.2.1.;.7.t.t.x.x.x.w.C.3.:.Q +.+.Q @.<.C.2.] 6.9.9.0.i.D.A.Z.G.Z.V.=.@.&.=.Q Q Q Q @.=.,.] ` ` ] ;.=.&.2.*.W ^ w.V.C.I.I.Y.Y.K.I.V.$.l r - & & X .         X X o & & + + & & & < e e r t t e 4 4 - & & ",
"& - < e y s p 8 5 2 2 > 2 2 $ $ # # O . .     + * 5 j ' 9.m.{.5X7X&Xv.9.#.J J L L J Q W S S ^ &.#.^ S N N K ^ ! #.#.:.=.:.@.Q @.Q Q #.=.1.6.] W C C J Q ! #.@.$.#.+.#.#.$.:.=.:.=.=.&.j f C C C N ^ W S ^ *.1.J Q #.#.~ ~ &.! J e & o .                             . . X + * = 4 5 a K 6.M.].`.L.P.I.Z.k.A.A.A.C.p.<.1.2.2.2.w.t.N.c.w.w.i.,.:.2.#.#.Q l L $.V.C.p.9.] ] 6.6.n.I.A.G.A.C.V.#.@.:.>.#.@.@.Q @.:.=.( ^ ^ ` ] 6.e.6.W ' 6.e.w.l.z.z.G.A.G.A.k.:.Q y e - & o .           X o & + o + & & * - < 4 r e e e e < - & & ",
"& & - 4 e e 5 , 2 2 * * $ $ $ + + + X . .   X $ i H =.l.i.J.,X8X5X~.w.,.#.Q l L Q ! ! ^ T ^ ^ &.! W K h p N B ! :.1.:.#.@.l j J #.=.#.#.1.;.' H a F Q ! #.#.=.=.%.Q @.#.$.=.:.<.=.=.Q f h S A N S ] >.*.^ *.1.#.#.&.&.&.&.-.&.J t * X .                                 . X + # = 6 5 f ( s.`.`.J.D.G.I.I.A.p.V.C.p.p.V.C.3.p.l.w.c.N.x.i.>.H C @.#.$.+.L +.<.2.2.2.;.w.8.f.x.G.Z.S.I.I.V.:.=.:.p.p.1.:.$.@.@.#.@.^ ^ ^ ( ] 6.;.! f S 6.w.6.9.' <.2.A.p.:.2.1.=.x y e - & .           . X & & o + & * & * - 4 4 e r r e < = & & ",
"& & & - - < 4 > $ = * $ $ $ # + X X X . . O $ , S ' l.H.D.oX1X8X5X!.6.,.#.! l J #.! ! I ^ ( ^ @.! ~ a , q R t.p.>.#.Q J J l J J #.1.:.#.:.&.^ C N ^ &.&.=.:.<.$.@.L L #.#.#.:.1.:.$.( K K K ^ ^ _ ;.>.' K *.1.=.&.&.&.#.~ ~ W z 5 & o .                                   . X + * , 6 a ^ t.`.].F.D.A.Z.A.A.k.V.C.V.k.k.V.3.p.Z.i.w.i.q.9.&.A 6.<.:.#.#.+.Q <.:.@.:.( 6.6.q.i.H.<.1.C.Z.p.<.<.1.2.:.#.J J L #.@.W A S ^ ( ` ] _ h N S 6.w.*.;.*.1.V.<.L @.:.1.1.$.z t - - o .           . X o o & & + & & * - 4 e e 4 4 < & # & ",
"o & * = = < e = # # # # # # + O X X . . X $ 3 m } 2.U.{.oX2XsX6X&XW.j.1.=.@.H Q ! ! W a I ( K @.H A 0 N ) } ^ Q Q j j j j L $.<.:.2.<.:.=.&.W ^ ^ ^ _ #.=.&.#.@.%.Q +.$.=.&.:.1.<.:.] ' ( ^ W K W _ *.! K ] 1.:.#.! W J J l g e < & X .                                   . X # = 6 i f ] N.}.[.F.D.G.V.V.C.A.A.V.V.V.C.3.3.k.l.w.w.w.>.&._ ( t.2.2.=.Q z @.1.=.=.=.( 6.! ' >.>.>.C.Z.Z.V.1.1.2.1.#.Q z l z Q @.W N N S ( ] ] _ S ^  .6.-.! a.2.k.C.@.#.p.:.2.p.1.+.k r - & o X . . . . . . . X + o X o & = - < 4 < & & & # & o ",
"X + & = = > - * + X + O O + + X . . X O 2 8 B ( i.D.tX*XtXuXyX&XW.c.b.2.:.&.@.#.&.! h 0 F K a s p ^ T ^ S f S J Q @.Q @.$.%.:.1.:.1.#.#.#.W A S ^ W ! #.#.=.#.$.+.L %.=.$.=.<.<.=.<.;.-.! J C H K ! _ H h ^ >.&.J h g p t r 4 < = & o .                                     . # > 5 a S e.v.&X:XJ.H.Z.C.A.K.K.C.#.3.3.C.3.p.k.>.;.w.x.9.! ^ 7.N.k.p.1.L g L #.L 1.:.6.;.S W *._ w.V.Z.Z.2.1.:.=.@.J j j l L @.Q W S V T ( ] ( ( ^ ^ ' _ A S @.1.k.C.p.2.p.p.p.C.2.#.z t e - - & & o o X .   . X X X X X & = - * = - & & o # # o ",
"X o & = = 2 = * # X X X X X X . . X O : 8 V { t.L.-XgXuXuXuX,X`.c.x.u.1.2.>.:.&.1.>.#.K I S A ! &.w.( A N 0 ^ =.:.=.:.$.=.=.$.1.=.#.#.! ! J S S N S _ #.#.:.&.:.$.%.=.#.%.=.1.1.<.<.;.' ! H f S A K ~ K C ^ :.#.h e 4 4 4 - - = & # X .                                     . + > 6 f _ e.!.>X:XJ.D.Z.A.A.A.k.2.#.2.3.V.k.k.V.q.] } w.&.'  .f.j.3.p.=.z z @.Q L 1.:.w.e.S 6.( K e.V.Z.Z.=.W &.#.J j h j l Q #.@.K S V ^ ] ' A C H A S ( K 8.A.2.&.! <.V.3.C.k.V.p.:.+.z y r e - ; & & o o . . . . X X X o & & & & & & & o o + o ",
". X # * * $ & & + X X X . . . . X O $ 8 S | h..XuXlXlXlXuXrX].b.x.w.9.2.k.1.:.2.:.&.E 8 n F ' 2.&.&.f a S ) =.:.:.=.:.$.<.1.@.#.Q #.! ! L @.F S S W -.=.#.:.1.1.=.Q Q @.=.1.2.1.2.1.*.! J H S S N A W A C K ( ! p < = = = * & + + X . .                                       # > 5 a S  .W.%X:XM.D.G.A.k.2.>.2.1.V.V.k.3.2.k.j.c.v.N.*.K ] e.>.<.=.Q J Q #.=.<.3.2.e.w.6.6.] 6.i.V.V.V.:.l J Q J l J j j L Q Q W S ^ ^ A f f a N N ^ } ] 6.*.K N K :.3.V.V.:.k.V.1.<.$.Q k y e e < - & o X . . . . X X o o & & o & & # o X X X ",
". . o + + + # + X . . . . . . X # : 9 V | R.)..XtXiXuXuXrXoXm.i.w.6.k.A.C.p.1.1.&.j p N R 6.>.&.h N N F T ] >.<.&.#.=.=.=.@.L @.l ! @.#.#.:.^ S S S #.:.:.:.1.:.$.+.%.#.=.#.#.#.#.#.K H C h C A N S A N a C K J e = * & # # o X X . .                                         X * 6 a S ] f.'.%X`.F.D.Z.K.C.V.V.V.3.k.V.V.k.k.N.N.x.>.&.W } ' _ #.@.Q Q Q @.&.<.2.2.;.6.6.] ` 6.w.u.p.k.1.:.&.Q @.#.:.! J j l J ( S I S f 0 N N S N S ^ ] ] *.( ^ ] 3.C.C.k.>.2.A.2.3.2.:.%.x k y y r - & o . . .   . . o o o o o & * & o X X X ",
". . X X o o o o X . . . . X O $ 3 N T | o.).4XdXyXtX-X=XY.D.u.6.6._ ~ H #.V.p.u.J ! &... .^ f j j / F ) ( ^ -.<.#.#.@.@.l h Q Q j Q @.@.<.:.^ ) ( ] <.2.<.#.:.#.$.#.$.<.:.@.J #.&.#.K C h f f S A S J S N N A C e = * + o . . . .                                             . $ 2 9 S F 7.(.4X|.`.G.A.A.G.p.1.1.2.k.C.C.C.C.N.j.9.K _ ' ] ] ' #.:.:.$.#.#.:.1.3.2.( 5.] ] ' *.9.w.q.u.:.J J #.=.:.<.! Q j j Q ^ C S I S N S S S S ^ ^ ( ' e.>.( T u.k.V.V.2.:.A.V.k.p.3.<.#.+.x s r e = & X X X .   . X X X X o o # # o X X X ",
". . . . X X X o X . . X $ : 3 8 N ) o.R.).4X9XgXtX-XoXD.Z.C.i.6.6.6.>.&.#.:.>.p.:.&.u._ K S K ! ! ) T ] ( K K =.:.#.Q J H J @.! ! @.! ! =.1.] e.[ 6.<.1.2.1.2.3.=.$.$.:.#.#.#.@.! @.A C h a 0 S S ! ! ~ I A C j e = * + X . .                                                   # $ 3 N / h.4X5X.XJ.D.k.V.C.&.:.1.2.k.V.2.k.k.i.q.-.C ( ] 6.] ;.#.1.2.:.$.1.1.:.<.2.;.6.] ] ^ ] i.2.3.V.<.z @.2.2.2.1.! J f a H A N N ^ K S K S N S S N ( 8.w.i.6.6.6.>.z.2.1.1.C.A.C.V.p.1.:.=.%.Q k s e - - & & & o X . . . . X X X o o X X . ",
". . . . . X X X . o 2 5 0 N S T } y.Q.$X0X9XxXgX-XoXH.1.&.p.w.7.t.c.k.p.=.&.:.k.k.1.&.8 N ( ] :.#.^ ^ ) W S S ! #.! J J l J Q Q #.#.&.#.#.<.W ` ' ' <.:.<.1.1.1.@.z L :.=.&.#.Q J Q S f a f N S ( &.:.=.` H j h 4 = & o .                                                       X $ : 0  .^.7X8X.XD.p.&.=.<.&.2.<.2.3.2.#.1.l.N.w.;.] ] ` *.] 6.:.<.3.:.L #.#.=.:.1.^ S ;.*.;.w.p.2.3.C.Q Q 1.@.Q =.#.Q J s j S N N N N N N S S S S S S ) w.e.;.' *.e.z.C.2.<.3.p.C.p.2.1.:.:.1.1.<.%.z g y y r - - = & + X . . . . X X X X . . ",
"  .     . . . X * t N ^ } ..r.g.E.).4X9XwXwXxXiXoXl.u.>.&.2.j.6.6.x.k.>.&.:.C.V.u.@.~ S / 6.6.#.#.A A ] ( S ^ ! ! J j H l Q @.#.#.@.! ! @.:.( ) ' f $.:.<.=.1.<.Q z %.=.! J W Q L Q K C f N ^ ) ] &.&.&.^ C p s < * # o .                                                       . $ 7 S r./.5X8X|.N.l.V.Z.A.V.V.@.<.2.1.2.1.b.j.q.>.*.' ^ ^ ( w.2.1.3.@.h L @.=.:.1.7.7.w.;.6.3.p.p.V.C.1.$.@.Q Q :.@.Q L J J S S S A N S S S T ^ ) T / ..e.;.6.( ] 6.k.3.:.=.<.p.2.:.:.&.@.@.2.p.p.<.$.+.L x k e e e < = * & o . . . . . . . . ",
"        . . + - g ' 8.g.^.(.(.XX4X0X0X9X9XhXsX-XP.u.,.#.:.2.e.] ] e.,.>.p.C.C.k.=.@.1.t.7.` ] :.! N F } ` S ^ #.W J H L J #.1.! #.:.=.<.1.1.e.6.' C -.#.@.=.:.<.$.s p Q Q l Q Q Q Q K A A ^ ^ W W :.:.#.A a i p < & # o .                                                       X $ 3 S  .Q.4X7X|.x.j.A.Z.A.Z.k.:.2.2.1.<.:.j.q.W _ _ ! K I ] 6.1.:.#.z p L #.=.:.z.w.e.6.;.6.V.3.V.k.V.=.=.#.@.@.=.! L L l S T ^ S N 8 N S /  .8.e.6.8.e.6.6.f.6.6.2.2.&.! &.<.3.1.:.2.:.&.:.2.k.C.V.2.1.<.%.+.l z l s e 4 < - & & X .         ",
"      . O = k z :.b. X%X%X4X7X9X9X9X9X8X8X6X*XP.C.#.:.1.2.2.6.6.w.d.p.C.Z.k.2.p.2.p.C.*.-._ ^ :.&.T T ) ( ( ^ ! Q Q ! @.! #.:.Q %.<.<.1.2.3.;.] ] W ' #.@.=.=.:.=.l g x J Q Q Q @.@.] W A W H C K #.#.! A p a s 4 = & # X .                                                     X $ 5 S } E.4X5X'.N.j.C.A.A.G.z.V.=.<.<.#.#.w.&.h K ` ^ I ]  .] &.#.Q Q z Q :.#.:.b.j.w.q.w.x.C.1.k.3.C.p.=.:.&.:.=.Q J J h S ^ C N N N S ^ ] ] ;.6.;.e.q._ ^ q.q.3.2.:.#.=.:.2.p.p.:.:.<.=.V.p.V.V.V.C.A.V.2.=.%.%.+.x g g y r u e - & o       ",
"    + 8 j Q 2.k.L.,XhX9X9X9X9X8X6X7X5X%X&X].D.C.k.&.:.p.2.u. . .w.e.k.p.1.! ~ 1.1.>.1.t 8 S ^ #.=.^ V T ^ W K W Q ! #.=.:.&.=.:.3.2.:.1.2.<.' ( ] ] e.1.1.:.#.=.! h g l Q #.=.W &.=.' K K H h f K Q ! W S a C k t < - & X .                                                     X $ 3 N / y.XX%X'.b.H.Z.V.p.A.V.=.h z =.#.:.*.L C I ` *.( } 6.9.:.&.&.#.Q =.1.#.:.m.j.i.q.w.N.Z.k.k.k.Z.2.&.1.&.1.<.@.Q Q H Q ( N 0 B N f a h a W ;.e.e.9.W ( *.p.2.3.1.1.1.:.=.<.1.=.=.<.<.V.V.k.=.1.p.Z.Z.V.3.1.1.1.<.$.Q x z x g e - & & X   ",
"X t W >.k.k.P.oXyXnXBXVXNXkX8X>X&X.X|.!.N.q.>.k.C.p.p.Z.C.k.e.w.q.*.1.>.u.p.=.:.&.&.L > 7 / ` ! &. .) / ) ^ ( #.@.@.@.#.=.@.Q $.1.3.=.:.2.#.] ` ` ] 9.2.2.:.<.1.@.j l L @.&.:.=.:.=.! C H h p a W W ! W ! W H z y e - & X .   .                                                 + = 5 N { h.&X7X.XD.D.G.A.V.1.2.#.L #.<.=.1.&.C N I ^ ] ( *.W *.2.1.<.@.#.=.2.V.k.b.9.6.e.e.j.C.Z.Z.C.k.p.p.! h L #.:.! Q Q Q #.S B S N 0 q N N ) 6.6.9.;._ ^ ] z.3.C.p.>.@.=.#.=.#.J #.=.=.<.1.V.&.:.1.2.k.k.V.Z.Z.C.p.1.=.$.%.@.x k y - & X   ",
"k Q :.P.-X;XuXvXnXBXVXBXxX8X%X'.~.c.w.e.;.*.a.1.k.p.>.1.p.p.9.;.K A :.p.1.:.&.&.W W A N / ) ^ #.,. .) ) ( ' ;.=.=.=.=.@.$.Q J =.3.1.&.<.2.<.] ( ^ _ K =.1.:.:.1.#.z Q Q #.=.:.1.1.#.K h C h C S ^ W ~ #.=.^ H J y e - & o .                                                     + 2 8 S X.Q.4X7X'.b.l.A.G.A.p.2.1.=.Q Q @.@.! C N ] 7.6.] ] K ^ >.<.:.%.@.#.3.k.2.j.;.w.n.d.i.C.A.V.1.&.p.p.! L l l L Q J J Q #.' S S S N B ^  .8.;.*.&._ -.W ] w.V.2.=.#.W ! h J @.H Q @.@.@.<.<.=.:.=.:.:.p.V.A.A.Z.V.2.1.:.#.+.x g e & o .   ",
"x =.p.tXcXMXFXFXZXBXxX8X>X.X`.c.w.] ( ' ` 9.1.>.>.>.>.1.k.>.K A S ] ,.1.:.~ &.&.h h ( T / K S ! #. .` ' K C ^ &.=.=.1.=.@.Q #.:.1.-.,.2.2.=.A A ^ W A L @.:.1.2.:.$.@.L $.:.1.1.=.! S C C C S ^ ;.:.1.1.6.W J Q s e - & X .                                                     X $ 9 ^ t.E.4X7X`.z.u.A.A.K.C.2.V.:.Q Q L L ( W F ] 9.*.] ( ( ^ ,.=.=.#.@.Q :.p.p.l.;.e.q.9.i.Z.1.:.<.1.2.=.Q L l l Q Q Q ! &.=.] F S S S S F ` *.*.' W K W A ^ 6.9.&.&.@.! #.W ! @.j r g Q #.2.<.=.=.#.=.#.2.2.p.k.p.1.1.1.:.#.L g e ; + X     ",
"Q 1.Y.lXAXGXGXGXZXhX%X!.x.w.w.w.6.K ^ I ( a.>.&.~ 1.1.p.&.A F ] 6.6.&.#.W H ~ ~ A j _ S S S S ! ! =.^ W S A ^ #.=.! =.#.@.@.:.:.:.^ ,.:.#.H A S F ^ ' =.:.1.1.k.<.$.Q @.$.=.:.:.@.Q S N C S I _ ;.>.>.:.W K K W g e - & X .                                                     . $ 3 V X.g.XX4X!.l.C.A.G.A.p.k.C.#.J L +.%.&.] ) ] S W ` ( ` ( &.:.#.#.#.=.1.u.p.p._ *.;.*.p.#.=.1.p.2.=.=.<.#.#.#.! #.:.9.] ( ] ^ I ^ ^ ` ( ( ] ' ( ' K A K ^ ] ' J @.J J J W Q ! ! s j %.<.1.=.&.<.&.&.:.<.&.:.>.&.@.&.1.1.=.L t - & o .     ",
"L =.C.-XMXFXFXFXvX.XN.q.9.*.( 6.9.K K S ( 2.1.>.>.,.&.:.W J w.7.' ! J A H A #.! J H S S A N S E Q &.K N S C C Q Q J $.#.@.#.=.#.&.~ #.! Q ! T F Y ( ,.:.1.1.2.1.=.@.Q Q #.=.=.&.#.Q S N ^ ( ( ! *.1.1.,.W K J J k e - & X .                                                     . # , S 7.E.XX&X'.m.Z.V.k.k.1.k.p.$.L L $.=.>.] 6. .] } ] ] ` K &.1.=.=.$.:.1.1.1.:.W ] ] *.>.=.2.p.2.:.<.1.k.p.2.2.1.&.=.@.=.@.=.H C ^ [ *._ K K K ! ' W j f A H C C Q J E H J W Q #.Q @.2.3.2.1.<.1.:.:.1.:.! :.&.! J ~ >.>.#.g e - & o . .   ",
"l @.u.U.lXuXmXCXsXv.e.9.( ^ S ] q._ S F ] p.k.C.k.#.A ! :.&.-.C p f f j H J #.~ E J V N N N S Q #.' S S ( h 5 h L Q #.&.! #.=.=.~ W Q W J W ^ ^ ^ ^ 6.2.1.1.:.:.=.+.@.#.#.=.@.#.@.&.] K ' ' _ W *.3.u.2.*._ J H k e - o .                                                       . # > S 7.R. X%X'.m.l.1.<.<.1.C.3.<.$.#.<.1.j.6.;.6.9.6.] e.6.^ W =.:.=.%.=.:.=.:._ ` 5.` ] 6.2.p.k.2.1.2.V.C.k.p.p.1.&.@.l J @.&.A f S ;.! A A K A K K A a a S C a N Q L J Q Q Q @.#.@.<.3.3.:.@.&.:.&.&.:.:.:.:.~ J J Q &.&.@.y 4 - & & X . . ",
"g Q :.D.=X*XlXMX1Xc.w.e.*.] ] ] *.( ( ) ] &.#.2.p.&.#.:.:.#.S a 7 N A H H J Q Q E J N N N A K Q #.W A ( ` h 8 p L l J @.L Q Q ! Q W J ! &._ ^ ( ^ ( 9.1.<.1.1.:.<.L Q %.=.:.<.1.<.1.9.*.] ] _ -.0.p.2.*.K K K K s 4 & X .                                                       . + , S 7.h. X4X`.j.p.#.@.=.3.V.<.$.=.<.2.k.q.*.] ;.] ] ] 6.] *.&.#.@.#.Q @.1.>.:.! ( ] 6.6.w.p.1.1.2.2.1.Z.p.p.p.&.Q @.Q l Q @.! S N S ^ K K K C C A A C N N N C a H J H J Q #.! @.$.=.<.:.<.1.:.:.<.! #.! #.#.! J J W W ~ =.#.s r 4 - o X . X ",
"s z @.u.D.oXlXcX:Xc.w.8.e.] *.W S ^ ` 6.v.2.E 1.k.2.2.>.:.-.^ f a S N h z x J L l l h N N N H L Q Q A S ^ A N J z l Q J h h L Q ! @.@.#.#.( ^ ( W ' >.<.:.1.:.&.#.z x @.=.<.2.p.3.3.9.-.' -.-.*.a.k.k._ h h _ @.s < & o .                                                       . + 3 A ..g.(.4X'.w.;.1.2.<.<.<.<.<.<.<.<.#.K *.*.' _ ' ] 9.W S _ $.@.#.%.=.2.&.=.] ^ } 6.6.m.V.p.p.2.p.=.#.2.Z.C.1.! Q L J Q @.%.' ^ I ^ K f A a a f h f C C h f f N j z Q Q Q L Q Q @.#.<.2.2.2.3.2.#.1.:.:.! J W J J ! #.1.=.s r e b & X . X ",
"g z #.u.T.+XlXlX>Xv.e.w.9.*.] ^ / ] ^ F k.C.>.k.V.k.k.1.:.#.T a q N A l l L @.Q z g g f 0 a g g z L a a C C C L z j j l p p J Q #.#.#.#.@.) ^ K K K @.:.=.<.1.<.Q s z @.=.<.2.V.3.2.;.-.-.' _ P J =.=.A f N &.+.s 4 & X                                                         . # , N } Q.).4X~.e.9.>.3.1.3.3.1.%.$.:.%.&.] 6._ A K A ( *.W ^ ] =.=.#.@.=.1.&.>.] ] 6.6.w.l.Z.V.p.1.k.2.=.3.A.Z.p.&.@.Q z z z W W C S W A h h a 0 p 9 p a d d f l z k x Q Q L Q L J @.:.<.2.1.#.@.=.=.2.@.! J J L g H =.1.2.<.k e - - & X .   ",
"g z $.1.I.-XpXlX=XM.6.*.' ]  .}  .6.S T p.k.p.z.p.2.<.:.=.! S N 0 N S l l l x l g s g f 9 9 i e s k 5 5 3 9 8 g s s h h l J L Q ! l J Q ~ ` ^ f f N _ &.<.1.2.1.Q g l %.=.<.1.3.1.3.9.-.*.! ! H K ! ;.^ A K -.+.g 4 & X                                                         . + , N 7.Q.XX%X!.w.6.i.u.1.k.1.2.@.$.$.-.*.' ] H 0 N S 5.( ' ] ,.=.=.%.@.=.:.=.=.` ] 6.9.w.l.k.p.C.k.C.C.V.Z.K.I.p.=.@.j j L L S C f f h p 5 s t p 8 6 4 , i i p g s k x g x x j l L %.<.=.<.@.J =.<.=.=.Q #.J j J L &.:.1.2.:.l e = = & X     ",
"t g %.V.U.rXlXcXeXD.9.^ F  .w.7.` 6.) 8.A.u.p.k.>.=.=.=.@.Q N 0 0 a C k g y y t e e e 9 5 5 5 4 e t , > , 3 3 5 p g h h l l L L W J H J S N N N S S *.! #.1.1.:.L 5 4 l %.<.<.2.p.p.9.-.L h C K *.=.:.*.^ K *.%.k 4 & X                                                         X $ , a } E.(.5X'.x.x.z.2.:.3.1.1.:.<.K _ ' ' ] W T } } 5.] *.*.2.1.1.@.@.2.2.=.>.6.6.] 6.6.q.p.2.V.A.K.A.C.A.A.C.V.#.L z L x A f f C a 5 , , 5 4 4 * # $ $ , 1 r r y y s t k k s g x Q $.$.$.+.=.2.<.=.Q H %.! J &.:.>.:.1.2.:.x e - - & X     ",
"y z $.Z.P.eXpXpX+XD.e.6.6.6.e.*.K ` ` 6.i.1.&.&.@.=.#.@.Q z 9 8 8 a j y r 4 < - = * * * * * = * & - * $ : : > 5 t p g l J z J J L J Q K K V S T ) ` 9.1.<.1.1.1.@.g 6 j +.<.<.2.3.k.-.H a K ^ ] b.2.2.1.` ( *.=.k e = X                                                         + , 9 N { Q.4X9X.Xv.H.C.C.k.3.2.1.=.=.K W -.6.] ( *.} 6.6.5.;.' =.2.<.+.$.1.2.2.=.) } ;.6.v.D.V.V.K.A.A.I.A.A.2.&.<.Q ^ K K h a a i 5 t 5 * = = * $ X . X $ # # & - - - - 4 r r y k x Q $.$.Q x +.:.<.<.:.1.V.V.p.p.V.C.1.2.2.1.x r - - & .     ",
"t k @.1.Z.+XrXuXY.b.6.*.' W ` -.^ F ( 6.p.=.~ W Q Q @.L l g 9 8 5 5 4 - * & + & 1 1 = * = = * & X o + + + + $ - e t g s l l l H H j j J C S / } ] 6.1.2.2.1.:.@.Q h g z ! <.4.2.2.p.-.C A ] ;.9.z.k.k.k.u.' -.:.z e = + . . . . . X . . . . . . .         .   . . . X X . . X & 1 a S V { /.4X9X.Xx.z.Z.k.k.2.2.:.$.:.&.P #.w.] W ^ ( *.q.9.6.;.1.1.<.<.=.<.1.:.Q 8.e.6.] x.A.Z.G.I.A.C.C.V.C.1.Q @.Q L C p 5 5 6 > # # # + # + & 1 > * & * = * # o + + & * - e t y k k +.+.l %.%.<.2.V.V.3.B.V.2.1.2.3.2.2.p.p.+.y e - & X .   ",
"t k @.:.k.D.=XrXP.z.;._ ( S ( ( S ] ) ( =.Q Q L J H x j y e 5 6 = * & = 1 1 1 5 C _ J d C h d 5 > = = 1 1 * + # = < < 5 s l l j j h f j A T ^ ) ] *.2.2.1.@.@.! Q j l L #.<.1.2.1.1.' K ' -.&.,.z.p.p.C.V._ ! ' z e = # X o # & - = & o o o & & & + . . X + O X + + & # + & & - p ^ } X.E.(.0X9X&Xx.p.2.1.2.3.3.p.1.=.Q j L 6.;.^ ) ( ' ! ' *.-.:.1.1.$.Q @.:.2.:.v.d.e.c.v.A.Z.k.1.p.V.2.p.2.&.Q Q L l g 8 6 , * $ # # * 1 1 > 5 h K H d C h a 5 > = = 1 1 = & - e r e k x +.%.$.4.3.3.C.C.V.V.C.C.A.2.k.k.z.V.%.y e - & o .   ",
"t j @.:.:.Z.oX=XD.a.` ( ( _ W ^ } 6.S S S J Q J z j s e e - = > > 1 5 4 i a d s K ' -.' ' H H _ K h h K H i > > * * = 4 4 s t t h h g l J ^ ] [ ] ' :.:.:.Q #.#.! l z L =.2.V.k.p.p.;._ ' W H J :.1.1.2.2._ ( *.Q y 4 - = - e y t r 4 4 4 e r r e 6 2 > > , , > > 1 - - * - e y H 6.E.^.(.4X0X9X.Xb.p.=.1.2.k.k.p.<.:.Q Q %.e.9.^ ` ' A C K K H K @.L L z Q :.2.k.x.j.f.M.J.A.C.k.1.<.C.2.=.1.=.! L L l e 5 > * = = < 5 1 r p p p H _ _ _ ' H H ! K h h K H i > > = - - t k x @.%.<.3.3.V.V.3.p.G.A.C.p.:.2.Z.C.$.y e - & o .   ",
"y l #.! &.Z.U.oXl.>.} 6.W p 3 F ` W A T ( Q J j s t 4 = = = 5 h d d h d C _ K C H *.i.i.*.C _ *.` K W ' H i 5 p 5 = * * < 4 > 1 s h z J S ( ] ] ] _ Q j J Q =.&.#.L x Q :.3.C.k.C.V.-.! K A C C _ #.#.=.=.=.*.w.%.k y y y z x Q l l j l k x x x x H N f a a C C C C k s r k x %.<.n.5X9X0X4X9X9X|.i.,.:.1.3.V.k.p.2.2.=.%.#.;.;._ W H a N S S N ^ @.L z %.<.p.V.C.e.e.w.N.b.G.A.G.I.k.G.C.2.2.=.@.z g t < = = 5 h p p d p h K H h C ' 0.0.*.C K *.' K K ' H i 5 p 5 = - 4 t k x %.<.4.k.V.V.V.3.A.A.C.V.V.k.Z.C.%.y 4 - & o .   ",
"s j @.#.=.l.L.L.u.:.] ` A 0 q T S S N S #.L l g p e > 5 h K H ! H C K H K -.` ' J _ x.`.n.5.*.-.K ^ K H a p p p d d 4 # & = < e s g z L W T ^ ` ( ` #.W #.:.=.#.#.+.l l <.3.C.3.V.2.A A C C A K _ #.~ &.:.=.6.w.%.k k k %.<.:.<.@.:.$.:.:.:.@.#.$.&. .] ] ` ] ` ` ] =.:.=.<.<.p.m.'.8X9X9XqXwX9X~.w.9.<.<.:.2.1.2.#.<.=.%.%.' ' J 9 N N F T F ^ } #.@.<.<.3.V.A.U.i.w.N.j.i.Z.I.Y.K.A.I.A.C.1.=.L k s e 5 a H C W j h J C H ' ` _ H ! i._.b.*.*.' K U K H a p p p d d 4 * e y k x %.<.3.3.V.3.3.A.G.A.V.V.2.k.p.@.t - * & o .   ",
"e z @.:.:.z.D.J.u.=.^ ^ S N T ) F N V S Q l g s e 4 p K -.q.*.*.A H ! _ _ *.9.9.*.P *.F.'.M.x.*.K _ _ K C i i p C H p 5 * # = e t g z z Q T Y ^ ( *.:.=.#.@.@.#.#.$.%.$.3.3.V.1.1.1.W C C f C C W #.=.<.2.9.9.9.$.L +.:.Z.I.P.C.p.C.C.A.G.I.k.V.G.L.W.v.c.c.E.c.8.w.m.Z.p.C.C.D.D. X9XVXVXwXVXNX Xx.i.2.p.p.3.2.p.@.Q %.#.#.&.W h 9 F F )  . .6.w.2.3.2.<.3.C.A.C.&.w.M.N.b.A.T.Y.Y.G.k.V.k.<.#.L k t s J -.9.-.*.C h K ! P *.*.*.-.K -.m.`.n.s.*.K U U K C i i p C H s 5 = < y k x @.<.4.2.3.Z.A.A.K.p.>.1.k.k.%.y 4 - & o .   ",
"t l @.&.>.l.J.J.u.&.S S S F ^ ) T S S S J p 5 e e 5 H _ 9.9.K H ] 9.9.*.9.0.x.x.9.*._ 9.m.[.F.i._ ] *._ H C C d H C H K 5 & * 4 e e g z Q ( ^ h C J :.@.J Q :.:.#.%.%.<.2.2.3.1.1.:.W N C C C C ] #.1.p.V.q.6.9.1.:.2.G.eXtXrXY.Y.U.U.Y.=XeX=X=XeX2X<X%X%X&X XW.v.v.[.L.P.U.oXtXiXhXkXNXNXNXVXNX&Xm.k.p.2.<.p.1.1.W C Q Q @.#.] ^ F  .] ] 6.e.*.;.V.2.:.=.p.A.p.=.*.6.w.i.b.A.I.I.U.K.A.C.k.:.L x y e H _ ;.>.J C ' *.*.*.*.9.i.i.6.] _ *.n.[.F.i._ ' *._ C C h d H C H K 5 & - y v x +.$.3.V.Z.C.C.I.V.3.V.A.A.$.y e - - # .   ",
"e g Q #.1.H.L.J.>.! K S N S S A ^ S S S l p 4 4 - 1 p ~ >.' K H ! *.9.*._ _ 0.s.0.0.*.0.F.n.b.F.w.*._ K C C h C C h h H 5 = < < < 4 t g x ( ! 5 > 6 l J L &.:.#.@.#.#.=.1.>.<.=.=.#.W N N N N K i.3.V.C.A.9.9.i.k.k.C.L.rXiXtXeX=X+X+XeXrXuXuXiXuXsX8X5X5X>X'.v.v.`.OX*X-XrXtXlXfXjX9X9X9X9X9X7X`.l.u.2.@.W L Q =.K j g Q @.=.e.e.6.8. .( ] q.] ^ p.:.#.J =.V.A.p.b.t.8.w.b.A.A.V.I.G.K.C.3.$.+.l < 1 p ! *._ H h K ' 6.' P ! 9.i.9.0.*.9.F.b.b.F.0.*._ K C h h C C h h H 5 = < < y k l %.<.3.Z.k.3.A.k.A.G.U.I.<.v r - & + .   ",
"4 g Q #.1.Z.P.m.,.! W T S S N N S S S K z s 4 < > i ' i.;.q.0.C K 0.0.*.*.9.i.n.W.n.9.9.F..X_.[.M.i.! h i i a H ! K C d 5 5 i 1 = < y z x W h r 5 5 h J Q #.:.:.L Q $.#.&.&.&.#.@.@.` I S ` ] 9.l.p.V.p.V.9.;.q.l.p.u.l.D.U.Y.U.P.P.P.U.Y.=X=X+X+XOX`.M._.`.c.t.t.M.].oXY.Y.+X-X;X:X|.'.~.W.E.c.e.>.>.&.! h p +.+.@.+.Q :.2.2.w.w.w.d.d.6.^ 6.6.9.:.k.V.:.1.p.p.p.N.j.e.w.N.I.A.V.I.I.A.C.@.z k e > i _ 0.*.9.>.h H 6.9.*.' ;.i.b.n.s.5.9.F.}.M.'.n.0.K h i i p H P K C d 5 5 i 4 r k l %.<.V.2.$.Q =.B.V.I.U.K.<.k r e & o .   ",
"4 g l J u.Z.P.m.>.~ ~ W A S S S F S S C j t 4 5 a K ' 0.9.n.i.H _ x.n.0.0.i.b._.[._.x.b.[.'.F.'._.M.*.h r p h h H K K ! C C d i - e y x +._ h 5 q A +.#.J L @.@.Q L @.#.#.#.#.#.Q #.0.] ] ] -.*.l.V.k.2.1.i.w.C.a.,.>.>.1.k.l.l.k.k.C.C.Z.A.A.Z.G.M.w.;.e.x.w.6.7.i.b.D.Z.A.A.G.D.x.w.;.;.` ( ^ ^ W W @.! J Q <.=.1.<.:.1.3.k.i.w.w.i.e.e.6.w.w.V.1.2.3.:.2.p.k.p.x.;.' w.M.U.I.G.I.A.Z.=.x k e e a K _ 9.*.s.9.C K i.x.9.9.i.x._.'.W.s.b.'._.F._.W.n.*.h r p d d H K K _ C h h i e y x +.<.3.z k L <.V.2.C.K.A.$.y r - & o .   ",
"t g l &.k.D.P.D.2.&.@.S N S S S ^ ^ S N h t 4 d K _ K _ *.0.0.*.w._.@Xb.*.9.m.n..X:X}.'._._.:X6X}.[.F.*._ K H P _ _ ` *.K K K h 5 - r g x J C W ] ~ L Q Q L Q Q ! z Q Q #.#.&.:.1.1.i.-.' ' _ -.i.V.V.Z.k.w.i.C.>.#.=.=.1.2.2.p.2.1.p.k.p.p.1.1.2.i.;.' ] w.*.6.7.e.x.C.C.C.A.A.C.' ' K W S S S F ^ Q #.:.=.@.<.2.2.#.:.:.1.p.e.] 6.q.e.e.w.d.N.A.1.>.1.2.p.V.Z.i.w.w.7.f.`.T.Y.Y.I.k.3.:.%.l e p H U K K ' 5.5.' 9.n.[.i.*.9.b.n..X@X.X_.F.F.@X1X[.'.F.*._ K H U _ ` *.*.K K K h e r k L $.k * e l <.C.k.V.A.V.%.y e - & X .   ",
"t g L 2.1.z.L.D.a.,.=.` ^ S S ^ ( K S S x e > i d H U K K ! *.0.n.[.<Xm.9.i.`.n.b.[.}.}.M.F.6XvX6X<X:X'._.i.*.*._ _ 9.s.6._ H _ H < e y k A K W A Q ! Q #.Q ! @.L J L ! ! =.2.k.p.p.w.' _ *._ _ m.C.k.V.C.w.q.C.1.=.:.=.2.2.=.>.>.#.:.&.:.@.! @.:.i.' _ ^ ( ( ] 6.;.9.p.p.2.C.k.p.H a N S N B F / ) :.2.p.k.<.3.3.3.:.<.=.2.k.m.6.w.w.e.q._ i.x.G.p.2.=.<.k.Z.C.! 6.d.w.f.N.I.I.G.A.V.2.:.+.s > r d C K C K K _ 6.s._.:Xb.9.w.'.M.n.}..X.Xn.F.6XjX>X:X@X'.'.i.*.*.' ` 0.s.9.' K _ H 4 y k s * = < g V.S.3.3.V.p.+.t - & + X .   ",
"t l J &.' z.P.D.a.,.=.' ^ S S S S S N a l 4 1 i d p d H _ q.i.i.[.[.[._.n.s.x.x.i.i.i.n.[.<XjXnXsX<X>X#X:X[.M.w.' 6.W.`.b.0.U C p r - < g s h H A Q #.%.@.@.Q ! Q L x #.:.1.:.2.k.p.q.;.;.;.-.9.b.Z.C.C.C.9.,.2.<.:.:.:.3.2.1.2.:.#.H z J Q ! <.:.a.^ ^ F ^ ( ` *._ ,.:.1.>.=.&.&.h 8 S I T ) 6. .e.3.3.1.:.1.V.V.p.1.1.:.2.k.l.9.x.i.;.,.A 0.b.K.A.A.V.3.Z.A.k.S } x.w.N.b.Z.G.V.=.3.2.:.x e 1 i a p a h K 6.9.9._.'.`.M.x.s.x.c.x.s.s.M.[.>XfXvX6X#X:X#X<X}._.s.*.0.'.'.n.0._ C p r r r < = g x Q 3.3.:.k.V.2.+.t e - X       ",
"t l L &.,.z.H.D.1.&.&._ S S S S K S A 9 t < i h a p K *.i.}.'.m..X1X.X'.`.i.i.x.x.n.n.'.6X6X6XdX6X<X<X}.:X1X.Xs.*.s.'.}.'.`.6.H d C r - r 6 5 a p L @.Q %.Q l @.Q L z %.1.1.1.1.2.1.-.-.,.-.' ,.j.Z.A.C.1.K ! ! :.<.<.3.V.k.k.2.&.z s J Q @.$.2.2.2.S ( ] ] ( W K J W &.#.&.#.J l S F } }  .7.} ] 9.1.1.#.=.2.=.=.3.3.1.1.2.3.C.i.e.q.;.*.( c.j.A.I.G.p.p.C.A.D.^ t.x.w.i.b.C.p.2.<.3.2.<.s = r a p p H _ 9.F.M.x.[.:X[.'.`.i.x.b.n._._.[.6X1X5XdX6X:X:X.X1XsX<Xn.5.n..X:X}.'.9.H d C p e r r l $.$.3.p.V.Z.V.2.+.r - & o .     ",
"e g J #.:.a.m.D.q.&.! ^ A N S S S h f p e < p h p K 9.9.i.m._.@XaXhXdX>X<X_.[.#X>X>X[..XgXfX6XdXgXfXsX1X@X1X:Xx.i.M.'.}._.n.*.! K _ s & < 6 5 9 a l +.Q $.l p J %.+.@.#.<.#.#.=.B.p.-.( _ P -.=.u.Z.A.Z.:.A C ' 2.V.k.V.A.p.k.2.L W h Q $.<.1.2.2.&.S ^ K _ K N S C S @.Q Q &.H a ^ ] 7.e.] _ _ ^ _ Q Q 1.2.V.<.=.1.2.p.3.1.1.m.x.e.e.w.w.t.v.x.A.A.C.>.p.V.A.U.9.w.6.9.*.9.p.V.2.1.<.:.$.e < i d i H *.*.9.x.m.}.1XdX6X:X<X_..X>X6X6X.X:XfXfX6X6XsXgXsX6X>XsX1XW.n.'.:X,X[.M.*._ K _ s e 4 t Q $.s @.2.k.V.V.3.+.r - & o .     ",
"y z Q #.2.z.H.D.q.&.~ ^ B V T S A f f p 4 r h H h _ 0.w.9.0.x..XhXjXhXdXdX1X1X6XgXfXjXnXCXnXdX6XgXnXgX6X1XaXsX:X[.`._.M.x.6.*._ *.*.h & - 6 5 9 a H Q %.%.t g @.%.@.+.#.:.<.<.2.3.<.! *.>.! ! ! >.2.2.2.! S K @.<.3.V.C.A.V.p.2.:.:.J ! $.:.1.2.2.&.S S C C f N ^ S ' &.&.&.>.=.=.} S ^ ] ! p 9 N ^ @.#.3.3.z.C.k.1.2.3.3.2.3.l.i.9.e.e.w.v.v.x.C.Z.Z.k.V.A.k.p.1.j.*.6.6.7.V.A.V.2.<.%.L e r d C p J *.*.-.*.i.[.dXhXhXdXdX6X6XdXvXvXnXnXCXnXdX5XsXvXdX6XsXfXzX6X>X.X.X'.m.9.*.' ;.*.j < e k L $.+.<.3.3.3.Z.C.@.r - - & X     ",
"< e Q #.k.D.D.D.a.&.! ^ F R S N N a a i d C -._ K w.[.'.w.i.n.}.6XhXhXdXsXhXnXjX6XjXnXnXnXvXsX<XdXaX1XsXdXsXsX,X}.'.b.9.` _ _ *.i.9.H * * > 6 p f l Q @.Q l Q $.%.L +.$.:.<.3.C.2.$._ ] *.*.*.-.i.V.V.1.! ` _ Q @.<.V.V.Z.Z.p.2.C.A.2.1.V.k.1.&.#.J F N 0 8 N S ^ S ;.1.1.=.1.:.:.! C A U K a n F [ 2.k.2.k.k.k.V.2.<.<.3.k.k.l.9.*.w.9.6.e.w.w.A.A.C.2.2.2.#.H W ;.;.e.v.c.`.A.C.C.k.<.Q s j _ ! H ;.m.n.*.9.b.'.6XdXhXdXaXjXnXvXdXnXbXbXbXvX6X>XsX6X1XfXfXcXcXgX6X:X`.s.*.' ' *.i.9.H < e t k +.$.$.=.2.p.A.A.%.y e - # .     ",
"> t L @.2.G.L.L.u.&.#.] S S A a 9 a 8 5 H -.9._ *.m.1X1X[.n._.'.:XhXhX>X:XjXZXBXdXCXBXvXgXzX6X}.#X.XaXfXsX<X<X,X1X@Xv.6.' _ 6.i.F.m.~ * & = 6 p j L Q Q L +.%.%.%.Q z %.<.2.p.V.<.$.w.9.*.*.*.*.u.V.p.<.J ] ' Q #.:.1.<.1.p.2.1.1.1.&.1.1.Q #.@.=.S F S S S F F / 6.2.1.&.:.! ! #.h a N N N N S ( ' :.p.2.z.k.p.2.3.p.3.3.p.2.C.i.w.c.e.6.;.-.9.1.p.A.p.2.:.J j ] 7.e.f.W.M.`.L.G.Z.3.$.x H ' *.K _ i.}.OXF.i.n._..XhXhX>X:XxXZXCXjXZXCXnXfXvX6X}.@X.XsXvXfXsXgXgXfXsX'.w.*.( 9.j.F.m.~ - e < s z L +.<.3.V.A.C.@.y e - o .     ",
"e g l Q 1.Z.Y.=XC.1.:.:.Y S N 9 7 8 5 , H 9.i.*.9.s.}.fXdX}..X:XdXnXhXaX>X>XBXSXbXZXCXzXsXdX6X<XsXsXfXgXsXaX6X6XsX6X@X_.i.i.x.i.m.j.W & + * , 9 h x %.Q Q Q Q %.+.x L %.:.<.p.1.<.%.0.9.9.*.-.&.9.2.3.k.1.6.*.! :.2.1.=.<.:.#.#.=.! J =.<.#.#.&.#.S S S F ` ^ S ( *.:.2.:.:.! Q A a 9 N N N N V ^ K ! #.:.3.V.V.V.V.3.2.<.<.:.m.x.w.x.9.9.*.K J j &.p.p.1.=.! L #.g.!.!.N.x.b.j.i.u.3.$.g H 9.9.' ] 9.F.1X<X_.[..XdXnXhX1X>X>XSXCXSXZXZXvXdXdX6X>XsXsXzXcXfXfXfXfXnXcX6X.Xn.b.b.j.m.j.! * - 4 r s z +.<.p.k.A.V.+.r - ; o .     ",
"t g z #.,.l.oXeXG.p.1.&.A A N f q 8 3 4 H ] *.*.6.0.n.<X6XdX1X6XjXxXzXnXCXgXbXCXCXCXvX<X1X>X>X1XsX6XdXdXsXgX6X1X<X<X:X[.`.M.j.i.b.q.J + o $ > 6 i z x L @.L j +.%.x L %.=.<.1.<.<.:.6.*.;.*.Q z >.V.1.1.:.` 6.=.@.1.1.:.1.2.:.! Q L Q ! :.=.Q @.! ^ S F ` ' A S S S #.#.#.! ! Q ! N 0 S N S V S ^ ( #.1.3.k.k.C.C.V.3.1.:.<.1.j.9.6.j.&.W _ ! H N S ^ :.<.1.k.u.z.v.N.v.i.9.;.u.9.2.1.+.t H ' *.` ] *.w.[.@X<X:X1XdXjXjXvXbXdXbXZXCXCXnX<X1X>X>X1XsX6XfXfXfXvXfXgXgXgXsX:X}.].x.j.m.i.J + o - y x +.$.:.2.k.C.2.x e - & o .     ",
"r g +.:.k.P.-XrXP.k.2.j 7 0 N N a 8 3 5 K ' ' *.9.s.'.n.:XnXdX:X>X6XdXbXZXnXvXzXbXbXzX[..X>X1XzXdX[.M.}.<X6X<X1X6XsX<X`.`.`.b.b.l.;.h o X # = > 5 s g l Q +.Q Q Q L L %.<.<.:.1.<.1.w.9.9.&.h 1 h <.1.2.=.] 6.1.Q =.2.1.:.:.! Q ! ! ! ! @.W Q @.#.! ^ ^ K K ^ S A f H h j J W @.@.S S T N S S T ( 6.2.:.2.u.p.V.V.3.1.<.<.<.<.i.6.] 9.K ^ ` ^ ] 7.v.k.:.:.C.Z.G.A.x.e.j.i._ 9.V.1.1.<.x e J _ _ _ *.9.b.i.'.fX1X}.#X1XaXnXCXvXvXvXbXbXvX}..X>X1XfXgX[.`..X6XfXsXdXfXzXsX.X}.[.m.m.b.;.g o o e k L @.%.<.$.<.p.2.z - & & o .     ",
"s l $.<.C.P.-XtXP.p.:.f 8 n V N a 0 9 6 K _ 9.i.v._.[.x.'.dX:X#X>X>XhXMXZXvXvXvXzXgXOXs.n.<XjXCXbXgX`.m.}.1X@X:X}.<X<XF.0.i.j.F.i.K 5 . . + # * 1 y g l l x Q @.Q +.Q @.<.1.#.3.3.3.w.;.;.&.p 8 i =.1.2.1.6.w.2.<.! :.2.=.@.H Q W #.@.! &.! Q @.! W K A C f N S N 0 H H H J J J J N S S B S S / ^ W &.:.p.2.2.k.V.2.:.<.=.=.2.H.j.8.e.6.6.( ( u.V.Z.G.k.3.K.C.I.G.j.e.x.i.>.u.A.V.B.1.Q e K _ >.q.x.b.m.0.n.<X[.'..X.XdXnXCXvXzXvXvXgX:Xx.n.>XfXCXbXgX].F.:X6X1X1X2XsXsX[.w.j.b.F.i.K 5 . + < v z g g $.Q <.2.1.l - - & & .     ",
"t g +.=.u.l.P.{.l.>.! J 0 n V A f 3 5 = C *.q.q.i.0.N.b.`.:X[.1XjXvXnXZXZXZXCXBXgX}.w.*.6.M.1XvXCXAXnX1X1X6X1X}.[.].[.}.j.i.l.].m._ p # . O + $ , y g g t l z Q j l L +.:.2.3.2.2.2.;.*.;.-.W K Q 2.:.#.#.;.x.k.k.<.! 1.:.Q J W ! Q @.#.<.&.j K f S S N N V N N f N J J J l J z H D B D S Y W ( ) ` @.&.p.3.1.=.1.3.<.1.p.<.1.C.q.e.w.e.e.6.6.k.A.A.A.V.V.K.k.V.:.i.x.v.w.q.<.3.3.3.<.x 1 C *.9.9.0.*.i.i.b.`.F..XdXfXvXCXZXSXCXBXgX}.i.*.5.m.1XvXBXAXmX1XsXsXsX:X.X.X}.OXb.j.z.].m._ s & o - r k k g +.$.1.p.1.x e - - & .     ",
"t l L @.>.l.l.m.a.&.! l q n N N f 8 > > K *.' 9.n.`.@X}..X}.,XfXfXnXSXbXnXjXfX<X'.0.*.9.9.w._..XsXnXnXsXfXsX<X:X<X[.x.}.`.b.M.J.x._ ! 4 . X + $ , r e 4 t j l l g l @.$.<.1.2.2.1.=.6.6.;.*.*.b.V.k.p.:.=. .i.k.k.k.=.:.:.! Q @.&.#.! Q #.#.E S N S S N N S S A 0 N J J h j h p j V S S S S f N ] w.:.<.3.2.:.<.=.3.2.1.p.2.1.p.q.9.e.e.' 6.j.9.k.A.A.k.k.p.1.p.1.M.v.v.v.b.p.3.3.4.=.+.e K -._ *.x.m.[._.`.F.[.sXsXvXbXnXnXjXfX1X[.0.*.9.9.0._..XsXnXnXsXzXsX<X<X>X}.b.}.`.b.M.J.x._ ! 4 o - e s k x %.=.1.V.2.O.y e - & .     ",
"t z @.#.,.z.u.z.,.&.W h N N N a 9 8 2 i *.x.i.9.M..X6X6X1X}.{.,XsXgXsX#X<X'.b.9._ H C H K *.0.*.>.i.b.[.6X}.}.1XsX[.x.F.m.x.x.q._ H H = . X + $ 2 < 4 5 e g z L +.Q %.<.2.<.1.3.2.1.w.*.' *.;.9.3.V.1.:.<.] p.2.2.2.:.&.#.~ ! ! #.Q ! J ! #.! ! H W S N N S F S 9 0 H J l H l j H S S S N ^ S S } -.=.J :.2.k.<.1.V.3.3.2.=.#.~ *.] e.j.;.] 9.9.V.A.A.3.2.:.H =.l.v.v.v.j.q.C.p.k.<.=.x s *.j.i.6.n.[.<X:X.X`.`.OX1XsXaX@X:X'.b.0._ H C H K *.9.;.>.i.b.[.6X}.}.1XsX}.x.F.m.x.x.q._ H H = X & e y z Q +.$.<.C.V.@.y e - # .     ",
"y l Q #.,.z.z.j.>.&.W J J N N 0 7 3 $ p x.:Xm.s.M.>XsX:X[.b.W.`.[.[.m.9.q.-.H _ K h p 5 > r p h p h K i.m.s.n.}.:X:X'._.`.j.x.x.*.*.K = . . O # $ < 4 t s z z x @.$.$.=.3.3.1.p.V.C.w.' ^ ' *.-.2.>.@.&.:.^ a.2.1.1.&.#.~ #.#.#.@.J J J E ! ! W J ! S N N S S S 0 N A H W W Q j l S F ) T ) S a ^ _ #.Q Q :.:.#.1.V.Z.C.@.p z S A ] 9.9.6.( 8.b.Z.Z.2.:.1.<.L :.A.`.M.M.j.e.8.V.k.<.$.l h x.:XN.i.n..X6X.X_.i.n.M.`.].m.9.q.-.H _ P h p 5 > r p h a h K i.n.i.b.[.@X:X`.M.`.i.x.i.*.*.K = . & - y x %.%.%.:.S.A.$.y e - o .     ",
"y j Q &.&.>.j.z.>.&.! E K N N 0 8 3 $ h 0.q.i.M.`.<X:Xm.i.x.n.s.9.! W h d i r C J p 1 1 = & 1 h H p r p C h _ x.}.6X:Xi.m.m.M._.i._ H 4 . . X # : 4 4 s k x z Q @.%.$.%.2.3.:.k.k.Z.9.' *.6.;.&.,.&.E =.1.^ 6.:.:.=.#.! ! #.Q Q z j j J E E E ! Q ! S N B S S S N T ) #.J W ! j J ) / ( ) 5.( A a N ! ! #.<.<.3.2.1.C.k.#.#.@.S N ( ' ' 6.6.t.b.G.A.k.1.2.p.2.C.I.J.M.M.j.x.v.L.3.L l y j q.q.i.m.W.#X@Xb.w.i.s.i.9.W K h d p r H K p 1 1 = & 6 h H g 5 p h d K s.'.6X.Xq.b.n.M.M.i._ H 4 X # - y s O.@.=.V.I.I.<.y e & X       ",
"e g Q ! ~ u.D.D.a.&.! Q S N N a 8 3 = P _ K ! *.! K H h d h H H p > 4 > = = r K 9.-.h p C p p r p i > = 1 5 p K ! _ ' J H K *.6.i.i.q.J * . X # 2 r y k k g z Q +.%.$.$.2.p.:.k.3.p.w.*.*.*.*.! >.1.:.&.>.W ) :.&.#.&.! W J j l i h z J J E E W ! ! S S S ^ S S B S ' #.j J @.Q J ) ) ^ F ( ( K N T ! #.&.=.1.3.V.=.k.V.1.1.&.N B ^ ^ K _ ] 6.e.2.C.p.1.:.1.C.K.I.b.M.M.x.x.x.z.3.%.x e P _ K ! *.! J H h p d C H p < 1 = * = i ! i.*.C a C d p i p i = + + * 5 H ! _ ! j C J ' ;.i.i.q.J * + - e 4 x +.<.C.I.I.<.y - & X       ",
"e g J ! ,.z.J.J.a.&.! E J A N 0 5 > 5 H h p 4 > 5 r 5 > 1 5 5 6 6 > + * > > p K *.;.' ' 5.' K d 5 i * = 5 i 5 1 1 > p h t > > 5 H i.i._ i X . $ 6 y g k g l L +.$.$.$.1.k.2.1.V.V.3.x.;.6.;._ W p.2.&.! >.] } :.~ ~ =.@.! J g x g t 4 j E Q Q J ! ! S S S S A N N N A J p 8 j L L ^ ^ ( ]  .( K A ` =.&.:.<.:.3.C.C.C.p.k.p.>.^ /  .` K N S } x.C.V.V.k.1.&.k.K.U.x.j.i.q.q.>.k.<.+.k r H h p 6 * * 5 i 5 , 1 4 1 > $ * = * = p ! ;.9.*.*.9.*.W h i p $ . . + $ > 1 > & & = = 5 p H i.i._ i & - r y x @.<.V.A.A.$.y - & X       ",
"4 s x #.>.z.D.J.u.&.! Q Q N 0 8 3 5 H K r * $ * 1 5 6 1 1 5 1 > > > > = = = 4 d _ -.H C J *.*.K 5 * # & * 1 1 1 5 = > r 5 > < > > p ' 0._ > X + > t g g g z +.%.$.<.$.<.3.2.3.k.V.V.j.] ] e.*.*.3.k.2.1.k._ ] >.#.! #.J Q x j z s 5 5 x @.:.:.! ! ! N A S S S N N N H H J j j l ! ^ S ( 6.] ' A N ^ &.&.#.=.<.V.C.I.I.Z.C.2.:.` } 6.] ( ^ ^ ` i.V.C.A.C.Z.C.G.P.Z.b.x.w.;.' @.$.$.g t H K 5 = * * & > 1 > * = 1 * * + X * 4 4 t j ' *.K H W 6.6._ 5 * + X . X # & > 1 = * * > 1 e r d _ 9._ < & r k x %.3.C.A.A.%.r - & X       ",
"4 g Q :.k.k.D.P.k.&.! Q Q f a 9 , r K C 1 > 1 > = > & & * # + + X + & = = = 5 j J j *.].0._ *._ p > = # + O & & * # X + & & * = * $ i _ K 1 X # 2 e y l k x %.+.L $.=.<.p.1.V.V.V.V.w.6.9.q.;.9.V.C.C.Z.A.W ^ #.@.#.#.j j p t t r 5 j x @.<.:.&.#.W N N A N N N B S ^ ! ! #.@.#.2.*.F ] ] W A f N ^ @.@.@.:.<.C.V.z.k.3.V.1.:.]  .6.*.( ( ^ ^ w.V.A.K.A.Y.C.Y.U.p.j.z.' *.;.@.@.z < r K C > * = = & + X + + + + X X + X O * 4 p H P H 9.@Xs.*.9.*.h > * # X X + X + # + + # # = > = * i _ K 1 & e y x +.3.V.V.V.+.r - & X       ",
"t s Q &.u.k.P.L.k.=.@.Q Q A N 8 1 1 r 5 & * = # X X .             . . + & i *.*.d K b.F.b.*.-.j.*.5 > * + . X . . X + . .   . X * $ + 1 5 & X + * 5 y g z L @.z l %.$.#.3.2.V.V.V.V.w.9.9.>.&.,.V.C.Z.C.G.*.` &.#.#.#.Q g i p s s J @.J Q :.&.~ ~ W S V N N N N S ^ *.=.#.:.:.2.p.;.^ ) ] ^ A N N ^ &.=.#.:.:.3.V.2.1.1.k.k.p.e.6.*.' K ( ( } t.V.A.A.V.A.C.P.C.:.q.( W ] w.<.+.k < 1 r 5 # # $ + + + X .   .       . # + + i ;.*.h _ _.}._.w.9.F.0.8 2 + . X X .     . . .   . # & $ # 1 5 & o & e k x %.=.p.k.+.r - & X       ",
"s g L :.k.l.P.oXk.:.#.%.+.W A 9 5 h r * # + + . . .               . $ & 2 J 9.*._ 9.*.i.w.*.! ;.*.5 & # + .         . .       X & = # + > 4 & X * 4 t k x L $.<.=.$.%.=.=.Q 3.V.k.V.w.9.w.9.W 0.A.A.A.A.C.i.6.&.&.=.#.@.i i z J j J Q E J W ~ ! ! W Y S A N N V T ] 9.1.<.1.2.V.3.! K ^ ( ^ K A S W ! =.:.<.3.k.Z.V.p.k.k.k.u.;.*._ H W ( ] e.x.A.A.C.p.p.>.p.p.2.i.} t.w.6.<.%.x e h r * + + # X     .             X * > 1 ! i.*.' i.w.M.n.q.*.i.0.p * * + .                     X + X + > 5 & # * e g z %.3.k.+.r - & X       ",
"t x Q #.,.u.P.Y.k.=.Q +.+.K C 8 * h h & + + o .   .       . .     . = > 1 p ! OX1XM.9.x.s.9.].OX! > > = $ X                   . + * * # > 5 # X $ 4 y l +.%.$.<.<.=.@.=.<.#.2.V.C.V.j.;.9.w.9.i.G.G.G.K.K.l.f.V.V.V.:.#.J J @.Q l Q E ! #.! J ! ! ! ^ ^ ^ N S ) } 6.i.k.C.p.p.k.p._ S I ^ W C 9 A ( #.#.=.<.3.k.Z.G.P.G.k.C.:.H W A N ^ ] 6.e.i.V.2.2.1.2.1.k.u.2.x.t.M.w.q.:.@.e * h h * + + O .               . . X # - 5 p _ ,XsX[.i.F.F.x.,XyX*.6 5 = + .                 . . X + + + > 5 # . # * e x <.2.p.@.r - & .       ",
"y l j L &.u.P.Y.p.#.@.%.x A a , * h z < # + + X             .   . + = 4 6 r ;.aX1X_.s.*.9.9.F.}.-.1 1 > * O . . .             . X + # * 8 5 # X # 4 y z O.%.=.<.1.2.=.=.:.1.2.1.k.k.*.;.9.w.w.l.Z.G.G.K.K.Z.v.Y.K.k.:.@.! ! @.W ! ! ! E W ! ! ! ! ! ] ` ` ^ ) ` ' *.>.3.p.2.:.! ~ ' W I S C p 8 S ( 2.p.3.k.Z.V.C.k.A.p.#.&.Q , N S S S ] *.( ;.:.2.p.:.2.2.V.2.k.m.q.*.' <.%.k & * h H 1 # & + .     .         . . O & = > 5 9.dXsX[.n.q.s.j.OX1X9.8 5 4 $ O .               . X + # + # i 5 # X # < k z @.1.3.@.t - & .       ",
"y k L =.W ~ D.T.k.:.%.+.x C a > 5 h p < * * + . .   . . . . . X & = 4 r 5 a b.:X`.'._.0.0.0.*.0.*.a 1 & + O . . X             . + & = 1 K ! i # + - y k Q %.:.<.2.2.$.@.:.3.p.2.p.1.( *.w.w.i.i.k.V.Z.K.G.G.b.Y.k.2.&.@.~ #.#.! Q Q W ! ! ! #.&.#.K _ W W K K W K ! ~ 1.2.:.2.2.>.*.S S N N N N T 6.1.3.V.k.V.V.C.k.p.1.&.:.! V T S N S ^ ] *.w.2.k.2.1.2.2.p.1.>.;.;._ ! #.+.e * 5 h p > + + + .     . . . . X + # = r r 4 i m.,X[.}.}.b.b.b.9.x.9.C 1 6 > * # . .         . . . X # + 2 K ! i # o e k k +.3.p.@.r - o .       ",
"y k Q :.&.>.P.+XZ.1.$.%.%.h p > p h i = # # # + . X X O . X # + * & > 4 i x.1X*XF.:X2X`.J.b.>.9.M.9.i 1 = * + O X X . . . . . + & & * 5 ' 9.J * X - y k Q %.:.%.:.p.<.2.p.k.V.p.p.2.6.` 6.6.6.w.z.V.A.K.V.C.q.2.#.&.#.W #.! J L p j Q &.&.! ~ &.#.H h a f N a S K W _ 1.1.:.>.2.a.( ( ^ K K S F ^ *.2.p.z.V.V.C.1.&.:.1.1.:.=._ N N n F } 7.e.i.p.V.V.2.p.=.! #.=.( *.` ' J x e = p h p = + + # + X . . X X + + - r p j j i v.sX,X`.1XsX@X@X[.i.s.'.i.p 1 1 > # O + X . . . . . X + & $ 5 ' 9.J * # < k x $.2.3.+.e & o .       ",
"y z +.:.2.C.U.=XZ.1.:.$.x t 6 * 5 r r > & & + + + + . . . X + & X . + & H aXfX{.}.F.F.].b.9.w.x._.x.C r r 5 1 = # + X + + # + & * * > H *.&.j * + - y k x %.$.@.#.2.<.1.k.V.C.Z.Z.Z.q.*.e.*.] 9.z.k.V.V.:.>.! ~ ! @.&.#.&.! J h 5 J L ! #.W E ! &.f 8 7 q N B K K ( 6.u.p.k.C.k.>.' 6. .^ N T } ] >.p.V.k.2.#.#.l #.=.2.2.:.#.j 0 B / ) ) 6.6.q.3.k.p.k.:.P J L <.] ` ' 6.@.z e * 5 r i > # # * = $ + + # # * * 4 p h H J _ gXzXoX*X`.[.@X`.j.N.m.[.M.K , 1 > * # * * * + . X + * = * > H *.-.j * # e k +.%.=.<.Q 4 & o .       ",
"t k +.:.>.k.D.L.C.<.=.+.z p 3 + 1 J *.d * * * $ * = + . + + + # .   O ! 1XMXsX*Xb.p 5 h 5 = _ b.`.1X:X! i p i > # X O + + & * * * * C n.b.-.j * + < y y x $.<.1.<.2.2.2.V.Z.Z.Z.3.2.6.] ` ;.] _ a.k.V.C.&.~ C A Q W ! ~ ~ Q J J j Q Q Q J J J J W N n n N N S ( ( ] 9.z.C.Z.G.A.C.l.N.f.6.( } 7.' ,.1.k.2.1.Q ! ! #.#.:.1.1.<.-.( /  .] K ] ' *.3.C.V.V.:.H J J :.-.6.` ] %.x s # 1 K *.h = & > < = * = & * = > 6 p s p _ 1XCXgX,XD.d r H 5 < -.F.[.sX1X_ 1 5 5 = * * = # + # * = = * h c.n.-.j * & e y e g %.$.L e & o .       ",
"t s z &.2.>.u.D.k.<.$.+.z j 5 # e -.0.K 5 + # * = > = * & & + O X i j.jXCXbXfX[.H           * ! b.:XfX1X-.h 5 > O . . o # + # $ + > w.M.! J j * + < r t x $.<.:.1.3.2.p.C.A.A.k.1.1.N.w.w.e.;.-.<.p.C.2.! ! S ^ #.W &.W @.! @.Q J Q J J J J J J S N n N N N S ^ ( *.,.1.k.V.A.A.A.C.x.N.f.w.w.w.K ' :.k.1.=.! @.&.=.&.&.:.C.3.0.6.] 6.( N S ^ ;.2.p.C.p.1.A J J @.! e.6.] &.%.k & r *.w.K 5 O # * * = > = = * * = r C i.gXZXbXjXOXK           * _ m.,XfX6X*.h r 1 = & + + & & * & O > 0.M.! J j * o # * 4 g @.%.l - & X .       ",
"e s z ! >.>.u.C.2.:.%.L z h , + 4 H K K K 6 + + # # = # + # * H 9.OXnXMXjXsXyXi.>             6 ' w.n.:X1X[.9.J 6 * * = , # 1 4 i 6._.0.! J h * + < y y x $.<.<.2.3.2.k.C.Z.A.Z.p.k.!.x.w.-.*.*.=.p.k.p.&.&.{ e.=.~ 1.#.#.! Q Q Q L J H J J l h N 0 0 a a a a h j H L +.$.<.1.2.2.k.b.x.x.x.i.9.] 6.1.1.:.<.:.2.1.1.2.2.1.C.C.&.W ^ ` ^ S R 6.q.1.V.3.:.1.@.~ @.#.' t.x.6.;.Q s # 5 H W _ K 5 + + $ * = * + O $ C >.].vXCXjXgXsXi.1             6 -.i.m.@X<X].*.C 5 = & * > & < 5 r 6._.0.! J h & . * e k x L ! l - # X .       ",
"y g +.#.1.C.H.C.>.%.+.L L C 4 X = h h h U ` _ C r * > p h _ b.:XgXgXsX6X1X[.9.6               . 8 *.i.s.'.}.}.<X'.b.9.! H *.s.i.w.'.0.J P h r # + < y s x =.3.<.=.<.<.V.C.Z.K.G.K.Z.N.-.-._ ^ 0.2.3.k.3.2.C.x.i.p.>.:.2.1.#.@.@.Q J l z h s p i 8 3 3 5 3 , , 6 r t s k l z L +.$.:.i.j.j.j.i.x.w.w.q.>.>.2.p.3.2.2.p.p.=.1.:.] ^ ) 6.` [ ] ] >.1.3.2.=.2.1.1.1.1.2.w.w.9.>.%.g o = h C C ` *.] H p > > r d ! i.}.aXaXaXsX6X}.u.5               . i *.i.i.'.}.}..Xn.i.*.H C ' w.w.w.'.0.J K h r + X e k k l L ! j - # .         ",
"e p Q =.2.Z.D.l.&.Q +.+.x p 5 X = s t 5 d _ s.}.[.m.*._ `.1XgXgX:X@XOX}.'.9.=             .     + K i.i.b.x.x.'.:X.X0.W ! x.M.x.0.5.! h t 4 & . + 1 y k x @.=.:.=.=.#.2.V.A.Z.k.k.u.l.K W ] ] w.C.V.C.C.C.p.q.>.p.2.:.1.<.=.#.@.L z g s e 4 4 , : $ $ * = * * = - 4 e t r r t y k x @.*.;.;.9.i.j.z.l.p.2.p.#.&.=.<.=.#.l 1.<.f.w.w.w.] _ S ^ ;.2.3.3.3.V.k.p.p.#.>.6.6.9.>.@.t + = h p r C ` n.@X[.b.-.W m.:XaXaXOX}.@X}.[.0.2               .   + K i.i.b.x.s.'..X'.9.K K s.n.x.0.6.! h t 4 & . o e y t z Q ! s = + .         ",
"e y l Q ! >.z.z.#.L x Q k 8 4 o + * < 4 r i H 9.n.v.9.a ! w.[.1X1XaX1XF.i.! X                   . C 0.q.b.M.x.0.w._ 1 * i C d d H C h i > & X . + 5 g x @.$.=.#.=.=.#.p.C.A.A.C.k.2.l.K } e.e.9.C.V.V.p.>.>.q.2.2.2.p.2.<.:.$.+.z k y e < = = * $ $ # $ * * * * * - 4 e e e e r y s k l j l J ~ 9.i.l.C.p.p.=.p.<.! @.@.H k.A.x.x.e.6.;.W T 6.f.3.p.3.2.V.C.>.1.&.>.e.6.;.>.:.x & + = < 5 p p K q.m.n.>.p W 9.F.:X,X6X1X`.x._ X                   . C 0.q.N.m.x.9.9.W > * r C d d H C h i > & X . o < s z L Q @.t * o .         ",
"e g l J E &.l.H.:.Q J z g 9 6 + . X * 1 1 * * * > 1 1 X   > 9.@X<X.X`.9.-.a .                     p i.i.i.i.i.9.;.5     * 1 * # > 6 5 < * o . . $ e k L %.=.<.2.V.V.1.V.C.C.Z.C.p.k.z.' e.e.6.9.l.k.C.C.V.u.9.1.1.1.2.1.<.$.+.z y t e - = * * # # # & & & * * & + # & - e < e e e r y t t t t p H &.u.C.C.p.2.2.p.3.2.:.2.I.I.x.N.q.] 9.^  .f.x.k.k.V.2.k.k.k.p.p.:.b.w.9.>.$.+.e X X = 4 1 > = = 1 4 4 X . 2 *.[.}.[.`.q.*.h .                     p j.i.i.i.i.6.*.5     & < * + > 6 5 < * o . . # = s z L Q @.e * + .         ",
"5 s l #.&.:.Z.D.1.@.L z l a 3 # . # = > * + X & & # o X 5 _ 9.i.m.x.w.;._ 1           . .         5 i._.v.F.F.i.' H 5 X . + # * * + * < 1 # . . * r k +.$.:.3.p.C.V.p.V.Z.p.k.k.u.C.N.6.e.w.9.;.l.k.V.k.V.;.*.:.>.2.1.=.%.x k y e < - - & & * # o + # # # # & & + o X o & & & = - 4 e 4 < 4 4 < 5 h #.2.p.p.p.k.C.A.I.C.C.C.Z.j.i.9.;.e.( ] ;.6.p.p.V.2.V.Z.A.2.:.-.e.6.6.q.$.+.t . # > 1 > + X * * & o X 5 P *.q.b.s.q.9.-.1           . .         5 j._.n.M.M.w._ C 5 X . + + & & + * < 1 # . . & * t g l Q ! t * + .         ",
"4 t l ! &.1.Z.D.1.&.@.Q l a 8 , # > 1 * # + * * + . . i w._.0._ x.i.x.0.! *           . +         * 9.'.F.[.'.9.K ;.-.p X . . # = + + < 5 = + + > t l +.$.<.2.V.Z.V.2.V.C.V.G.G.Z.Z.N.e.w.j.;.*.p.p.1.:.>._ *.1.1.:.%.L z k y e - - - & & & + X . . . X X X X X X X . . . X o & = - - - = * & * = 5 j +.=.1.p.C.C.G.A.A.V.A.U.j.*.K ( ' W ^ ` 6.u.u.2.1.2.2.2.2.2.u.6.7.w.q.$.+.k * 1 5 = # + = > # . X i w.n.>.P i.i.j.w._ *           . +         * 9.'.F.[.'.6.K *.' p X . . # = + + < 5 = + . * - t p l Q @.t = # .         ",
"e p g J #.>.Z.D.p.=.#.Q z A f 5 * * * + + * $ + o o > h 6.-.6 p K -.9.0.! + . .               . . * q.OX@X[.x.! 1 i H p # X + # * = & # * & + + > i x +.%.#.1.p.k.p.2.k.Z.V.A.I.Z.Z.v.w.9.9.-.>.V.p.=.=.p.` ;.1.1.@.z g y r - - & & & & o X .                   . .   . . . . X o & * * # # + # * 1 t g x %.2.V.A.A.Z.C.Z.Z.P.>.9.^ ^ ` ] 5.5.6.2.2.:.! 2.C.V.V.V.D.w.6.w.9.<.+.k < > > + # = * + + + > j *.' 1 r K -.9.0._ # . .               . . * q.:X@X[.i.! < i j p # X + # * = & # * & + + = = e g L #.=.s - # .         ",
"4 t s J &.:.l.D.p.=.#.%.Q J a 5 = # X X + + + & * * 4 r d h 4 i J K *.0.0.1 X X     .         + * = q.OX}.b.-.d * + # # + + * = # # # O X o + + 2 8 z L $.=.1.p.p.V.p.k.Z.k.G.I.G.G.x.9.*.' K ! &.:.1.1.2.] *.=.+.l y e e - & & X X X . .                                       . o + + o X X + + * 4 r y k %.1.V.C.Z.C.Z.Z.V.' ;.*.] } 0.6.6.6.1.2.2.2.3.Z.Z.Z.Z.G.c.s.w.;.1.<.+.y * + o # # + * = = 5 i h h 4 i H K *.0.i.6 O X     .         + * = i.:X}.b.-.s * + # # + + * = # # # + X o X + = r g L $.:.1.k < & X .       ",
"4 t j H &.u.H.P.2.#.@.+.L Q p , > # . . . o # & # * > i p p h i h _ i.F.b.e . .   5 -.h H 5   . . = 0.[.@Xb.h * & O X # + X + * # . . . . X + $ , p x +.=.2.3.k.k.p.3.3.V.k.G.P.Z.1.>.W W ^ W H ! &.=.1.<.' @.x g t 4 = & & o X . .                             . . . .             . . . . . . + * = < e r k +.<.3.V.Z.G.K.k.*.;.6.*.] *.` 8.M.Z.C.p.2.3.Z.Z.V.C.G.N.x.b.i.p.2.$.x e . . X + & * & * 1 p g p h t h _ i.F.m.r . .   r ;.z J r   . . = q.}.:Xb.h * $ O X # + X + * # . . . . . X * - t x %.<.2.3.z e & + .       ",
"4 t l @.&.,.C.D.2.Q j l z L a 9 5 > X .   . X X X X # * * < s t 5 J m.].].&.=     p j.j.j.J     + j F.@X}.6.1 O + X . X . . o + + .     . X + 2 5 a x %.=.2.3.p.V.p.2.p.G.Z.Z.Z.p.&.;.H W ( K p C =.:.<.&.W z y e 4 * + X X X .               . .   . . . .     . . . . . . . .               . X + * - < e y k Q $.2.V.V.A.p.-.] ^ 6.6.6.6.f.M.A.A.Z.Z.A.A.Z.V.C.V.e.x.b.N.V.p.<.Q y - X . . o + X X # = = < g t 5 W m.{.oX&.=     p b.b.b.W     + j J.:X.X9.1 O + X . X . . o + + .     . X & - e g x %.2.p.V.x r = & .     . ",
"4 p j W W W 1.z.:.L l l L +.a h p 4 * + . . . . X o o + = * 1 p h J a.&.q.].b.&.Q >.~ j j h z -.9.b.b._._.( 6 > + X X . . o + X .       . # : 5 a C L %.=.2.2.p.k.p.2.3.Z.k.V.G.V.:._ C K W C C ( =.:.=.Q l y e - * + X . .                 . . . . . . . . . . . . X X X . X X   . .           . X # * - < e y g x %.1.p.p.2.:.w.6.e.7.f.8.v.F.G.G.G.Z.C.G.Z.k.A.A.v.v.N.b.Z.k.<.%.x k e + . . . X + + # = = 4 p h Q u.&.u.oXD.&.~ i.&.H H j H *.i.F.m.'._.' 5 > + X X . . o + X .     . X & = e s x +.+.$.2.p.x r - & X       ",
"> p j J J W &.1.&.! %.@.L H a a p 5 < = * + X . . X X o * = p h s z &.*.q.m.*X*X}.,Xi.1 h m.}.,X}.:X}.sX[.H 5 i > + X X . . .     . . . + = 3 9 f A Q $.=.:.3.1.1.p.3.p.Z.p.u.p.=.W h a C C C C _ #.#.+.l t e < & o X .                     . . . X X . X X X . . . . X X . . . . . . . . .         . o & - - e - r k @.<.p.k.k.b.i.6.8.w.e.x.u.A.C.K.V.k.A.G.A.A.A.N.M.v.M.G.k.1.:.+.x t - - # . . o o + * > p j h H ,.>.i.J.2X,X,X1Xj.4 z F.:X1X*X<X:XsX}.H 5 p > + X X . . .       . # & - = 4 g x %.:.=.1.2.l r - & o .     ",
"< 5 g H Q -.>.z.1.#.%.$.~ K K S h p 5 < < & o X . . . 4 s t g p < r j K &.W W &.i.i._ j _ F.[.b.i.[.}.,Xi.5 * 1 * & = = X       . . o # & > 3 9 a f L =.:.2.3.1.:.1.p.:.>.>.:.:.! J H C N C N h H Q L k y < - = & o X                       . o + X X X + X X . . X X + o X X X X . X . . .           . X o # & & * r k %.1.V.C.w.6.] w.w.;.>.' p.C.A.A.C.A.K.G.A.A.x.x.N.v.A.C.3.<.+.x k r = & X . . X 5 h p h s 1 t H ! *.~ ~ >.j.j.*.H -.`.{.F.b.}.OX<Xi.r * 1 * & = = X       . X & - r y r k @.<.:.3.V.k.p.l e - & X .     ",
"4 5 p z ~ q.l.L.u.#.Q @.*._ ^ K C h t 4 < & & o X   . 4 z j p r 1 j H h d p 1 + i *.*.H W 9.*.! j.l.-.*.j 5 * * & > 1 = .     . . X o * - > 5 8 a f Q %.=.3.p.1.:.:.#.&.:.&.#.@.H j K N N N f h h z g t e = * * # X .                 . . . X & # O X X . X X . . X X + o + & X o + X X . . .   .         . o o # * 4 y x %.1.C.j.;.! 6.9.' ' ;.2.p.=.1.V.C.A.T.I.K.n.e.w.i.Z.V.3.<.$.s y 4 * # o X . . e H H p i 5 C J C h d 5 + p 9.9.K _ i.>.' b.b.&.;.H 5 : * & > 1 = .     . o ; - - r k x $.$.<.<.3.A.K.C.x e * & X .     ",
"< e s J &.u.D.L.p.#.L z @._ W A h h p 1 4 < * + X .   o = < = 1 5 H _ ' H s 4 & p *._ K h j J ~ *._ i d h r > * # # # X     . . . X X # < 3 5 , a N %.=.1.3.2.:.:.=.@.@.&.#.@.@.J J ` S N N C h j g t e - $ # & o .         . .   . . . o o . & * # X X X + O X . . o + + & & + & + + + + X . X . . .     . . o + & - r k x $.p.l.6.S K  .w.9.9.1.V.2.<.3.k.p.K.A.K.v.q.-.' :.#.! ! l > 4 < - = - & o   + < 1 > 4 r H *.*.H h 5 * d 9.*.! j H ! &.;.' i h j r > * # # # X     . X & e e 4 t y k L +.=.2.3.A.I.C.x e = & X .     ",
"4 s z ! 1.z.m.D.u.#.Q %.%.` ^ A f 5 r e s e - & + X   . + # & * 4 J 9.*.J H > 5 j ! ;.s.' 5 ! q.H p p h s 5 * # + + + .     . . X + # = 4 8 8 , 0 S :.=.@.Q :.<.:.#.@.@.#.Q Q ! j ! ] K Z N N h g t e 4 - * + o X .     . . X . . . . X o X X & * + + + # + + + + + & - & & & o o X # # + X . X + X X .     . X o & * 4 t s L :.l.x.] ) 7.c.] ( >.k.k.=.<.p.Z.A.A.D.j.&.A K W Q J H j r k k y e - & X   . # & & * 5 P q.;.W J 1 r H _ 9.b.*.r _ i.J s p h s 5 * # + + o .     X o & - y e e y l %.$.<.3.V.A.A.2.l 4 & & X .     ",
"t z Q &.:.u.H.D.>.! L #.:.;.] K C h i r g y < & + o . . # * # * p J ~ W J ! r 1 1 5 H K h * i J g W K d i i > o + & # .     . . o # = < t 5 9 9 a N @.@.@.=.#.l J Q Q Q =.:.&.@.J Q _ K N N C h s e 4 - * & X . .     . X o X X X . . # & o o o * * * * + X O + + # < 4 & & & & * = $ # # + . O + + X . .   . . o & & - < e l #.u.x.6.[ t.6.W *.2.p.:.#.p.A.Z.C.A.D.*.A C ( &.L J H J L l t 4 = # o .   . & * & * p J &.~ ! _ t 6 4 5 K P h * p K h ! K h i i > o o & # .   . o & - e y y k x +.<.<.4.3.V.I.V.<.x e & & X .     ",
"4 s Q #.:.l.P.D.1.! Q =.<.*.( W A d 5 5 e e < - & o . . # * & + 4 e 5 5 H J r # o * 5 5 < # = 5 j *.K 1 * 5 > X + # o . . . . . o # - 4 t , 7 8 0 N J J #.:.:.=.~ &.J #.&.#.=.#.l J #.S C N N a t < - * # # . .     . X o o + + o o + & + & & & < 1 2 2 $ # # $ $ $ > < < - * = e 6 $ $ $ $ + + + + o X X . . . . X o & < e l %.>.q.6.6.v.6.A K &.1.1.k.C.C.2.V.C.u.&.W K ^ #.W J j g j g 5 1 = * + X . . # * & # 5 e e e H K r $ + * 5 5 1 # > 5 j ;.K 1 * 5 > X + # o .   X + - e y t k x +.%.4.3.<.3.k.I.V.1.Q r & & X .     ",
"4 s Q =.2.l.L.P.u.=.$.=.#.' _ K H h p 5 5 e e e - o . . . . . . # * . < h > + 5 i > o . . = H K 5 5 i 5 . # > . . . .     . . . X # - 4 r 5 0 M N N Q W &.#.#.&.J :.Q =.=.&.<.&.! #.&.^ S N a 5 4 = * # + o .     . . o o + & & & & & & + & - - 4 4 > , , , , 2 $ $ * < e 4 = e r , * $ * $ $ $ $ + + + o X . . . . o & - e k L #.;.e.8.v.f.W f &.2.p.C.p.V.k.C.3.J ! K ^ J J E J j i i s e 4 > * * # X . . . . . # = . 1 h < # 5 p > + X . = J K 5 r i 5 . # > . . X .   . o & & - e 4 y k +.x $.<.<.3.V.A.C.2.@.y - & X .     ",
"t s L #.p.P.+XoXk.>.:.=.L W W H C a p p s y r e - & + X + & * # 5 h + H *.< > *.0.H +   . h w.9.1 * ' _ # H K = * = & . . . X o + + + # < r a N B T ! W ! ! =.~ h h t Q :.3.p.<.:.&.=.` S N 5 > = * & X X . .   . X o o o + & & * = & & & = - - e e , , 1 6 5 , $ # > e r < * e e > = * > = $ $ $ $ * & o o X . . . X # = 4 y l @.6.w.f.N.w._ ^ W J :.3.1.2.<.=.#.N ` ( ( W H l j J z j i 4 4 = 4 = & + . + * * # 5 h + J ;.< > *.0.H +   . h i.9.1 = ` ! # H K = * = & . . o & & = < < r g k z +.=.<.1.A.V.p.2.%.y - & X .     ",
"y g l ! u.G.=X+Xk.>.=.#.J S A C h a a p e y y r - * & o X * * # 5 p * K ~ * > *.5.C *   * K 9._ * # p i = J s & = 1 + . . . X # X X X + 4 g S ^ ( ^ @.Q Q ! #.E h j j L W 1.<.p.V.2.>.` S a , $ # + X . .     . X X X + & & & & & = = & * < = - y 4 > 6 6 6 p 8 * * 1 e e - - - * * , > 3 2 $ $ $ $ * & & & o . . . . o & - r l %.9.i.x.9._ K *.>.! W :.=.>.1.&.Q ! 6.] ^ ! j J x g l L g p t 5 t e - & o o * * # 5 p * P ~ * > *.5.C *   * ! 9._ * # p i = J s & = 1 + . o & = - < < * - y z +.<.<.<.3.S.C.k.2.%.y = & X .     ",
"e s l ! p.U.=XoXp.:.=.#.L W f f f a h g 1 y y y e < - & o . . # = 5 * p p * & j h i 1 . 4 ! ! j * # 5 > * 5 = * & X . . X . X + + + + + e g N C J H @.Q @.J ! #.Q J l l J =.:.3.C.2.2.] N 8 $ + + X . .     . X o o + & & & & * & + * - * < < < y - * > 5 6 8 5 $ * > - - < e < # $ * * 2 , * $ $ * * & & & o X . . . . o * e g Q >.j.c.9.*.} } u.1.@.@.&.=.2.p.1.@.] A f ! L Q J l Q @.$.%.l y 5 < * # X . . . # * 5 * p p * * j h i 1 . 5 ! ~ j * # 5 = * 5 = * & X . . o & = = = e = 4 e y g $.Q Q @.1.V.k.2.%.s - & X       ",
"t l #.:.k.L.oXU.p.:.=.Q H K C f a a h h s y y y e e - * & o . X o * * < p 5 < i 5 5 > X > p s p 4 p d = # * o # o . . o X X # # # # + $ 4 g f N f f L ! #.Q H &.H A j j E ! <.3.p.C.p.] h 6 + X X . .       . X X o * * * & * = * # - < & - e e e - * * 6 > 2 , 2 1 > & - t e 6 > > * * > , 2 $ $ 2 , - - & & o X .   . . & - y L >.b.c.s.e.f.7.l.k.1.:.=.Q :.2.:.=.^ N B l l J Q ! #.@.$.%.+.l t > # X . .   . X o * * < p 5 < i 5 5 > X > p s p 4 p d = # * o # o . X . & - # = < 4 = < t y p L $.@.J #.1.k.2.$.g - & X       ",
"k z Q #.W i.L.P.1.=.$.@.W S N A A J W J L k y y y y e - = & . . . . X o < < < 4 * # # . . # > 1 < i r * . .   . . . o + + # # # = < > 4 4 g S W N W ! =.#.! H #.#.! Q Q E J Q 1.A.C.1.W t = X . . .       . . . . + - * & * - - = - - - < - 4 r e e 4 * * * 2 , 2 6 t - < r e 6 6 , 2 > 6 , $ * 2 > 1 < - & & + X X .   . o = t z &.i.N.c.x.8.9.z.V.p.p.2.@.J :.#.&.( / { =.:.<.&.@.! ! J J l s e 4 4 + . X o o . . . X o < < < 4 * # # . . # > 1 < i r * . .   . X o & & & < * - 4 4 4 4 t s g l #.Q J Q =.p.p.$.s - & X       ",
"t s p a p -.l.Z.>.=.#.Q @.^ W K J K L z l k y y k y e e e - + X . . . . . X . X . . .       . . . + # X .       X + # & # * * = < 4 4 t t g ( W f S #.2.2.1.~ &.#.W J H l j j l #.=.~ h > + .           . X X . o # & & & - < < * = * & & & 4 e r y 4 * * $ , 2 2 5 t y e r e 8 6 = $ > 6 , 2 , 6 , , 1 < = & & o . . . . X & e l #.9.x.N.c.e.*.z.p.1.1.1.=.#.2.C.C.6.}  .;.:.<.=.&.J h p s l p s t t 4 * - - * o . .     . X . X . . .       . . . + # X . . X o & * = - - e 4 4 e 4 y s g g s l Q J @.@.&.2.3.%.y - & X       ",
"4 s s f J ,.H.P.p.:.<.<.=.J C J H J H l s y e e y e y e 4 > $ # + + o X . . . . X X X . . . . . . . . . . . . . + # # = * - < 4 4 y p 5 t z ' _ A N Q 1.2.p.:.&.~ Q l g j j j l Q Q H 5 $ X .           . X + + o # # & & = - & & = & & & 4 e r s t 1 * * * * $ 8 5 < e < < < 1 5 6 2 > , 5 5 5 5 2 , 4 < = & * # X X . . . o = k @.;.6.e.e.6.*.>.J i j <.2.:.1.1.q.] ] ] >.#.J Q Q j h h H L J x s t s r e - * o . . .   . . . .   . . . X X X . . . . . X X & & - - - e u u y r e s x Q z j r z L L Q :.#.1.2.%.y 4 & o .     ",
"4 p g J u.A.oX+XZ.p.2.4.%.a C K A H H j g s t 4 t y y r r 5 6 > * * & & # o o X + & + X X X o o o o o + O + # $ & * * * # < 4 5 p j s p s l W A S S =.<.<.1.2.1.&.W z j j j l j J J s * + X .         . X o # X + & & + & - - + & - & # * r e s k 1 1 , , 6 2 2 5 > > 4 t e - > 6 6 , * * 6 8 5 5 , , 1 4 - - * o + o X .   X & y x ! _ ( ] *.;.;._ l @.1.V.=.@.1.l.*.' K @.h z J Q @.@.&.! J L L p t s r - * # O X . . . X . . . X + X o o o & o X X o o # o & = < e e e u y y s e k z L @.z p z s J Q =.#.1.1.%.g 4 & o .     ",
"< t j Q p.L.eXeXP.k.:.L g S ^ K C C h W J k g k c k k k k h a 5 , = - - - = & = * & & # + $ & * = * = = $ $ = 2 = = < > = 4 t y s p p j L Q W S ) 6.>.1.1.2.<.:.#.Q h z j f j J W J e # X .       . . o o + o + & * & & = = & & * - * & - 4 e t r 4 1 5 8 , 1 > > , 4 r g s - , , , , , , 5 8 5 5 5 5 1 - - - & o X o X .   . o e g j f C W *.q.i.z.,.#.&.:.:.:.@.&.C N W ! H &.:.:.>.#.Q J j J j p s r 1 4 4 2 $ + O O O + + o # $ * * & & & & & & & & & & # - e r e r v k k k x k g l L Q L g z z ! #.&.&.>.2.%.g - & X       ",
"4 y j #.k.P.eX-XD.2.&.Q @.7.6.( W ^ _ _ J x z L L L L x x J h i 5 6 e e e e < e 4 4 4 = 2 2 4 4 e e e , , , , 3 e e 5 4 e r t s s p j H Q ! K ^ ^ ' >.2.p.p.1.:.=.#.L L J Q W &.~ j = # X .         . o # o & * = - * & & & & = * 4 4 < 4 4 e r r t , 1 , $ , > > * 4 s k t e r 5 5 a 6 , 8 5 5 5 , 2 * - < # o o o + o X .   X * e p a a A ^ q.u.l.p.&.&.#.@.@.W W ^ ` ] *.&.:.>.,.:.J j z l l l l j p 5 5 e 6 > : * $ $ $ * & * = = < - - e e < < - - - - < e e e e e r k k x x l l x z L Q Q Q #.:.:.&.>.1.3.$.g 4 & X       ",
"r s L 2.U.L.oXoXl.1.1.1.1.6.6.;.] ' ] -.' %.@.%.%.%.$.%.%._ J C h h g s y y y s y y p 6 1 1 e y y y y 9 8 5 5 9 g s p p s g h j h j l J W ~ W T W ( :.2.p.k.p.p.p.>.&.#.~ ~ -.&.! s & + . .       . . o + & * < 1 < & & * & - - - e 4 - = = e t g t > # 1 , $ * * = e g l s t t 8 8 p 6 , 8 3 , 2 $ $ = < - o o + o o o o .   . & < t p a N K ;.q.a.>.&.&.#.&.&.&.9.6.e.6.;.>.>.:.=.&.~ Q ! #.#.@.Q L z g g g g i i 9 8 5 5 < - - 5 5 5 r r y y y y r e e t y y s s s s s g z x x x Q @.%.#.#.#.&.:.:.:.>.2.z.z.=.y - & X       ",
"g l Q >.a.u.*XoXz.>.1.1.2.e.6.*._ ' ] 6.*.:.=.:.:.:.<.<.$.W J C h H x x l l l l k k k 9 5 5 t y g k g i i 5 5 9 h j g g j j z z j h j l J W ^ S S ( &.>.2.2.2.3.p.2.:.:.:.&.&.&.Q t & O .           . X & - = * > - * - - = = - e e - * - - e y r - $ $ 1 6 > 2 = > e s y s s t 5 6 5 8 8 5 3 , = * * = * & & & & + o X X . . . o - e 9 a f C W ~ L L Q ! @.@.#.&.-.' _ W ! #.&.@.! ! #.#.=.:.:.&.@.L z z z l k g g f a i i e 4 e r y p s y g k k g y y s g l z l l l z z x L L z x +.%.#.#.$.#.:.>.>.>.1.p.l.p.+.t - & .       ",
"g L J J ' m.uXP.:.z z z z K A C h N A S H x z z z l x l k i r 5 5 i s y y y t r e e e 6 6 6 5 r y y t 5 5 5 , 3 5 e e e e e e 4 4 4 4 e t p 0 9 9 a g l z z x x Q Q L Q Q L L J g 4 & X .         . . X & * & # * - < < - * = < e e < - r e 4 t - * # $ + > a 1 = * e y e e s t i 8 6 5 a 5 , 2 2 , 2 - = & & # o o + X . . .   . & 4 8 8 8 9 p r 4 e t s s s s g s p p a g g g s s s g k g k k l k g s s g g y y r 5 5 5 4 - - < e e 5 5 e r r r e 4 4 4 e e r e e e t y s y t e t y g g g k l z z z l J L +.+.z e = & .       ",
"s g J ,.j.L.D.&.e 4 4 e e 5 6 3 6 6 5 5 5 e e e 4 e e < < > > > > - < < - - - = & & & $ $ $ > - - - = * * * $ $ = = = = = * * & # # # * = = > 2 2 > 4 e e e e r t y y g g s s t 4 - & .           . . X o & = * = - < - - - 4 4 < e t e e - - y < e 6 * o * 8 > > , 4 r t y g y g a 5 p 5 , 2 * 2 2 * = = * * & o & o o X X . . . + > 5 8 5 , 2 # & - < - < - - = = 2 , 6 4 - - - - - < < 4 4 e e e e e e r r e < - > = = = & & & = = # # & & - - = & & & & * * * * * = - 4 < - = = - - < 4 e e e t e 5 e r t y r - & o .       ",
"t j ! a.D.z.Q 4 = * * - > 2 2 = > > , , > < - - - = * * = 2 = > - = - - = = & & & & # # # $ * - - & & $ $ # # $ * * & & & & & # + + # & * * 2 2 $ 2 < < < < - 4 4 4 e e e t r < - & o .           . . . o * - * = - 4 4 e t e - - 4 y t 4 * e 4 e s 6 $ + $ 6 5 6 > - e e s s s s a a a > * * $ 2 * * * & & * & & & o & o X . . . X $ 3 5 , $ O X # & # # # # & # $ $ 2 > - = * * * * * = = = - - - - - e e e e e < - = * & # & & & & + # & & & & & & # # & & & # & & & * - - - = & * - = < e e e e = - - = < < - & + X         ",
"t l W >.2.L < * # + # & $ $ $ $ : : 2 2 = * & & & + + & & $ # + & & & & & & & & & & # # # # & & = & & $ $ # + + & & & # # & & # + + # & & & $ $ $ = = - - - - = - = - - - < - = * & X             . . X # & & = < < e y y t e 4 < 4 s r e r 4 = r t > $ # # * 6 , 2 < < t y y t e p a 8 2 * * = 2 * * - * & & & & & * = & X . . . . # 2 > $ X . . . . . o X + & & + + + & & & + + # # & & # & & & & & - - * - - - - - # + # + + & & # # & & & & & o o o + # # # + + # # & & & - & & & * * - - - e e X # & + # & & o X .         ",
"1 p J W g - & + X X . X + + # + # # # # # # o X X X X X o X . . X o o o o X X o + o + + + + # & & & + + + X . . X X X X X o + + + + + + + + + + + # & & & & & & & & & & * & & # + X .             . . X + & & * 4 < < r e e e e 4 e r e e y - # 4 e , * # + $ 2 * * < - r t e - e 5 5 , : # * 3 > $ & & * & & & & o & & # o . .     X # $ O           . . . X X X X . . X X X . . . . X X . . X X X o # + + & & & & & + X X X X X o + + + o o X X X X X o o X X . . X . X o o o X X & + & & & & * & . # + . . X X . .           ",
"4 t t < # o X . . . . . . . . . . X . X X . . . . .   . . . . . . . . . . . . X X X X . . . X X o o X . . .     . . . . . . . . . X X X X . . . X X X X X X X X X o o o o o X . . .               . . . X o # # * = - - - < - & - e 4 - 4 e * & & # # $ + . + * # $ = = < - - - 4 2 2 $ $ + $ 2 $ # * & # + o & & o X o o X .       . X X .           .     . . . . .     . . . . . . . .       . . . . . X X o o o o X . . . . . . X X X . . . . . . . X X . . . . . . . X . . X X X X o # & & & X . . .       .               ",
"= = + X . .                           .                             .   . . . . . .       . . . . . . .                 . . . . . . . . .         . . . .         . . . . . . .                         . X o X + & & = = & # o & - - * - * + * o . X O . X X X X # * & & * * = = $ + # # X X O + + * & X X X + o + o o o . .         .                           .                                       . . . X X . .             . . .     . .   . . .                         .     . . . . X .                             ",
"+ . . . .                         .                                                                                                                                       .     . .                   . . . . X o # # & & # + o & & & # & o X + + . . . X O . . O + o . o & & & & $ + # O . X O + + + # X . X o X o o X X . .                                                                                                                                                                   .                               "
};
