/* XPM */
static char *_63b5665d62b45bea99d60c623479042WJm96DGnQsgn1g7B[] = {
/* columns rows colors chars-per-pixel */
"128 128 201 2 ",
"   c #3D3F3E",
".  c #423F3D",
"X  c #3E403F",
"o  c #44413E",
"O  c #4C413D",
"+  c #5D4137",
"@  c #54433C",
"#  c #5C443B",
"$  c #5E483F",
"%  c #634137",
"&  c #6A4137",
"*  c #63443B",
"=  c #6B453B",
"-  c #65483E",
";  c #6D483E",
":  c #734237",
">  c #7C4237",
",  c #73453B",
"<  c #7B453A",
"1  c #73483E",
"2  c #7C483E",
"3  c #3F3F40",
"4  c #374546",
"5  c #3E4343",
"6  c #3D4748",
"7  c #3E4849",
"8  c #434545",
"9  c #4B4543",
"0  c #454847",
"q  c #4C4846",
"w  c #424748",
"e  c #454A4A",
"r  c #4A4D4D",
"t  c #534642",
"y  c #5B4641",
"u  c #544945",
"i  c #5C4944",
"p  c #534C4A",
"a  c #5B4C4A",
"s  c #4E504F",
"d  c #51504F",
"f  c #5B514E",
"g  c #454F50",
"h  c #4C4F50",
"j  c #465355",
"k  c #4D5152",
"l  c #525252",
"z  c #5B5351",
"x  c #634641",
"c  c #6B4641",
"v  c #634A44",
"b  c #6B4B44",
"n  c #644D49",
"m  c #6B4E49",
"M  c #744641",
"N  c #7C4740",
"B  c #734B44",
"V  c #7C4B43",
"C  c #734E49",
"Z  c #7B4E49",
"A  c #65514D",
"S  c #6C514D",
"D  c #765046",
"F  c #7B5046",
"G  c #74524C",
"H  c #7C524C",
"J  c #645351",
"K  c #6C5350",
"L  c #735450",
"P  c #785350",
"I  c #824237",
"U  c #8C4237",
"Y  c #83453B",
"T  c #8B453A",
"R  c #84493D",
"E  c #8C493E",
"W  c #904237",
"Q  c #9B4337",
"!  c #94453A",
"~  c #9C453A",
"^  c #94493D",
"/  c #9C4A3E",
"(  c #9C503F",
")  c #A34437",
"_  c #AC4437",
"`  c #A4463A",
"'  c #AB463A",
"]  c #A34A3E",
"[  c #AC4B3D",
"{  c #B34437",
"}  c #B4463A",
"|  c #BC463A",
" . c #B44B3D",
".. c #BC4B3D",
"X. c #A5503E",
"o. c #AA503F",
"O. c #B3513D",
"+. c #BD513D",
"@. c #C64537",
"#. c #C94437",
"$. c #C54639",
"%. c #CA463A",
"&. c #C44B3D",
"*. c #CB4A3D",
"=. c #D3473A",
"-. c #DA463A",
";. c #D24A3E",
":. c #D9493D",
">. c #C3503D",
",. c #CA513E",
"<. c #834740",
"1. c #8C4740",
"2. c #844B43",
"3. c #8B4C43",
"4. c #834E48",
"5. c #8D4E48",
"6. c #934C42",
"7. c #9B4D45",
"8. c #984F47",
"9. c #9E4C44",
"0. c #9D4E46",
"q. c #9B4D42",
"w. c #845146",
"e. c #8C5146",
"r. c #86514B",
"t. c #83524B",
"y. c #8B534C",
"u. c #945145",
"i. c #9B5245",
"p. c #935048",
"a. c #94534B",
"s. c #9B534B",
"d. c #A14B41",
"f. c #A74B41",
"g. c #A24C40",
"h. c #A24C43",
"j. c #A54D40",
"k. c #A74C43",
"l. c #A54C43",
"z. c #A24C44",
"x. c #A14E45",
"c. c #A44D44",
"v. c #A44D41",
"b. c #AA4D40",
"n. c #AB4D43",
"m. c #A84D42",
"M. c #AD4D41",
"N. c #AF4D40",
"B. c #AF4C42",
"V. c #AF4E43",
"C. c #AC4D43",
"Z. c #A84D44",
"A. c #AC4D41",
"S. c #B24D40",
"D. c #B24E40",
"F. c #B24C42",
"G. c #B04D42",
"H. c #B74D40",
"J. c #B44F41",
"K. c #B74F41",
"L. c #B64C42",
"P. c #B64F43",
"I. c #B14F44",
"U. c #B44D41",
"Y. c #BA4E41",
"T. c #B94D42",
"R. c #BB4F42",
"E. c #B84E41",
"W. c #BD4E41",
"Q. c #BF4E41",
"!. c #BC4E42",
"~. c #BE4F42",
"^. c #BD4E41",
"/. c #A45244",
"(. c #AB5243",
"). c #A45349",
"_. c #AB5349",
"`. c #B55042",
"'. c #B75042",
"]. c #B25045",
"[. c #B55145",
"{. c #B75145",
"}. c #B45243",
"|. c #BC5043",
" X c #B95044",
".X c #BB5145",
"XX c #BD5143",
"oX c #B25248",
"OX c #BA5348",
"+X c #C04E41",
"@X c #C14F42",
"#X c #C44E41",
"$X c #CB4E41",
"%X c #D24D41",
"&X c #D84B40",
"*X c #C25043",
"=X c #C15044",
"-X c #C25044",
";X c #C45142",
":X c #CB5143",
">X c #D15043",
/* pixels */
"r r r r r r r e e e e e e r r r r r r k k k k r r r r r r k k l l l l k h r e 7 6 4 4 4 4 5 8 9 u i b M N 2.1.6.q.l.[ [  .S.L.`.}.}.}.}.I.V.Z.x.q.6.6.3.2.4.Z C S A z l l j j j j j j j j k l l l l l k k k k k k k k k k r r r r r r h h h h k k r r r r r r e ",
"r r r r r r r e e e e e e r r r r r r k r k k r r r r r r k k k l l k k r r r w 7 5 5 5 8 8 9 t y v M V 2.1.6.q.z.n.[ S. .L.L.`.}. X}.}.I.V.n.l.z.7.6.6.3.4.4.Z G S J z l l k j j j j j k k l l l l k k k k k k k k k k k r r r r r r h h k r h h r r r r r r e ",
"r r r r r r r e e e e e e r r r r r r r r k k r s r r s r k k k k k k r r r e e e 8 9 9 9 u i x b M N 2.1.6.9.l.n.S.S. .L.Y.Y.Y.XX X X XL.L.S.C.l.z.9.7.6.6.5.4.H H G S J z z l l l k k k k k k k k k k k k k k k k k k k r r r r h r h h r k r h r r r r r r r ",
"e e e e e r r e e e e e e r r r r r r r r h h r k r r k r r r r h r r r r e e q u u i i v b B V <.1.6.q.d.f.V.S.Y.Y.Q.+XQ.+X+X+X;X=X=X=XQ.Q.Y.L.S.V.n.n.c.x.9.7.a.e.r.H G L K J z z l l l k k k k k k k k k k k k k k k k h h r r r r h k h h h h r r r r r r r ",
"e e e e e r r e e e e r r r r r r r r r r h h r k k r r r r r r r r e e e q u u i v b V 2.3.6.q.d.f.M.U.T.Q.+X#X#X$X$X$X$X$X$X$X$X:X:X$X$X#X#X+XQ.Q.Y.Y.L.L.I.(.(.(.).s.a.y.t.P K J J z l l k k k k k k k k k k k k k k k k k r r r r h h h h h h h r r r r r r ",
"e e e e e r r e e e e r r r r r r r r r r r s r r r r r r r r r e e e e q u i v M V 2.6.7.z.n.S.Y.Q.&.&.$X$X$X%X%X>X>X>X>X$X$X$X$X:X:X%X$X$X$X*.$X#X#X#X#X+X+X;X;XXX}._.).s.a.y.t.P K J z z l l k k k k k k k k k k k k k k k h h r r h k k k k k h r r r r r r ",
"e e e e e e r e e e e r r r r r r r k k s s r r r r r r r e e e e e q u i v b V 2.6.7.l.V.L.Q.#X$X*.;.;.;.%X%X%X%X>X>X>X%X%X%X%X%X>X>X%X%X%X$X*.$X*.*.$X$X$X$X:X:X:X=XXX}._.).s.a.y.H G S J z z l l k k k k k k k k k k k k k h h r r h k k k k k k r r r r r r ",
"r r r r r r r e e r r r r r r r r r r k k s r r r r r e e e q q u u i b M N 2.6.q.j.V.L.Q.#X$X$X%X;.;.;.;.;.%X%X%X>X>X>X%X%X%X%X%X:X:X>X$X$X$X$X$X*.*.$X$X$X$X:X:X:X:X-X=XOXoX_.).s.a.y.r.H G K J z l l k k k k k k k k k k k k k k k k k k k k k k r r r r r r ",
"r r r r r r r e e r r r r r r r r r r s k s r r r e e w w 8 9 t y c M <.1.q.] [ S.Y.Q.#X$X$X%X%X%X;.%X;.;.*.*.$X$X:X:X$X$X$X$X$X$X:X:X:X:X:X$X#X$X$X$X$X#X#X#X;X:X:X:X;X-X=X=XXX X}._.).s.a.y.H G J z l k k k k k k k k k k k k k k k k k k k k k k h r r r r r ",
"r r r r r r r r r r r r r r r r r r r r s s r r r e e 8 8 9 t y c < E / ]  .....&.$X*.$X%X%X%X%X%X*.*.*.*.*.*.$X#X;X;X#X#X$X$X$X$X:X;X;X;X;X;X;X;X;X#X#X+X+X+X;X;X;X;X:X:X:X:X:X;X=XXX X}.(.).a.t.G K z l l k k k k k k k k k k k k k k k k k k k k h r r r r r ",
"r r r r r r r r r r r r r r r r r r r r r r r r e e q 9 t y * 1 R ^ / [  .&.&.*.*.;.;.%X%X%X%X%X$X$X*.*.*.*.#X#X+X;X;X;X#X#X$X$X:X;X;X;X;X;X;X;X;X;X;X;X+X+X+X;X;X;X;X:X:X:X:X:X:X:X:X;X=X X}.).a.r.H K J z l k k k k k k k k k k k k k k k k k k k k h h r r r ",
"r r r r r r r r r r r r r r r r r r r r r r e e e 9 t y x c < T ^ ]  ...&.*.*.;.;.;.%X%X%X%X%X%X$X$X$X$X$X#X#X#X;X;X;X;X;X:X:X:X:X:X;X;X;X;X;X;X;X;X;X;X;X;X;X;X;X;X;X:X:X:X:X:X:X:X:X:X:X-XXX}.).s.y.t.G J z l l k k k k k k k k k k k k k k k k k k h h r r r ",
"r r r r r r r r r r r r r r k r r r r r e w 0 8 9 t x c < E ^ ] [ ..&.&.$X$X%X%X%X$X%X%X%X%X%X$X:X:X:X:X$X$X:X:X;X;X;X:X:X:X:X:X:X:X:X:X:X;X;X;X;X;X;X;X;X;X;X;X;X;X:X:X:X:X:X:X:X:X:X:X:X:X-X=X XoX).s.y.H K J l l k k k k k k k k k k k k k k k k k h h r r r ",
"r r r r r r r r r r r r r r r r r r r e e w 8 9 t x 1 < E / [  .&.$X$X%X%X%X%X$X$X$X:X:X$X:X:X:X:X:X:X:X:X:X:X:X:X:X:X:X:X:X:X:X:X:X:X:X:X:X:X:X;X;X;X;X;X;X;X#X#X$X$X$X$X$X$X:X:X:X:X:X:X:X:X:X:X=X X_.s.y.P L J l k k k k k k k l l k k k k k k k k h k h h h ",
"r r r r r r r r r r r r r r r r r r e e 8 9 9 t x 1 R ^ ]  ...&.$X%X%X%X%X%X%X$X$X:X:X:X$X:X>X:X:X:X:X:X:X:X:X:X:X:X:X:X:X:X>X>X>X:X:X:X:X:X:X:X:X:X;X;X;X;X;X#X$X$X$X$X$X$X$X:X:X:X:X:X:X:X:X:X>X:X-XXXoX).a.t.K J z l k k k k k l k k k k k k k k k h k h h h ",
"r r r r r r r r r s r r r r r r e e e 8 9 t y c 1 R ! ]  ...&.*.%X%X%X%X%X%X$X$X$X:X:X:X:X>X>X>X>X%X$X$X:X:X$X$X$X$X:X:X>X>X>X>X%X%X%X%X:X:X:X:X:X:X:X;X$X$X$X$X$X$X$X$X$X$X$X:X:X:X$X$X$X$X:X:X>X>X:X-XXXoX).a.t.L J z l k k k k k k k k k k k k k k h h k k k ",
"r r r r r r r r r r r r r r r e w 8 8 9 t x c N E / [  .&.&.*.$X%X%X%X%X%X%X$X$X$X$X$X>X>X>X>X>X>X%X%X%X%X%X%X%X%X%X%X%X%X%X%X%X%X%X%X%X%X$X$X$X:X:X:X$X$X$X$X$X$X$X$X$X$X$X$X$X$X$X$X$X$X$X$X$X$X$X:X:X:X=XOX).s.y.P K z l k k k k k k k k k k k k k h h h h h ",
"r r r r r r r r r r r r r e e e 8 8 8 t x M R ^ ]  ...&.*.*.*.%X%X%X%X%X%X$X:X:X:X$X$X%X%X%X%X%X>X%X%X%X%X%X%X%X%X%X%X%X%X%X%X%X%X%X%X%X$X$X$X$X$X$X$X$X$X$X$X$X$X$X$X$X#X#X$X:X:X:X:X$X$X$X$X*.*.$X$X:X:X:X-XOX_.s.y.H J z l k k k k k k k k k k h h h h k k k ",
"r r r r r r r r r r r r r e e 8 8 8 9 y 1 R ! ]  ...&.*.*.;.%X%X%X%X%X%X%X:X:X:X:X$X%X%X%X%X%X>X>X%X%X%X%X%X%X%X$X$X%X%X%X%X%X%X%X%X$X$X$X$X$X$X$X$X$X$X$X$X$X$X$X$X$X#X#X#X;X;X:X:X:X:X$X$X#X&.*.$X$X$X>X>X:X-XOX_.s.y.L J z l k k k k k k k k k h h h h k k k ",
"r r r r r r r r r r r r e e 8 8 9 t $ ; R ^ ]  ...&.*.*.%X%X%X%X%X%X%X%X%X>X>X>X>X>X>X>X>X>X>X>X>X%X%X%X%X%X%X$X$X$X$X$X%X%X%X%X$X$X$X$X$X:X$X:X$X:X:X:X:X:X$X$X$X$X:X;X;X;X;X:X:X:X:X$X$X$X*.#X$X$X$X$X>X>X>X:X-XOX_.s.r.G J z l k k k k k k k k k k h h k k k ",
"r r r r r r r r r r r e w 8 8 9 t * 1 R / [  .&.&.*.$X$X%X%X%X%X%X%X%X%X%X>X>X>X>X>X>X>X:X:X:X%X>X%X%X%X%X$X$X$X$X$X$X$X$X%X%X$X$X$X$X#X#X#X#X#X;X:X:X:X:X:X:X:X:X:X:X;X;X:X:X:X:X:X:X$X$X$X$X$X$X$X$X$X:X:X:X:X:X-XOX).s.r.G A z k h h k k k k k k k h h k k k ",
"r r r r r r r r r r e e 5 8 8 t x 1 R / [ ..&.*.*.$X$X$X%X%X%X%X%X%X%X%X%X>X>X>X>X:X:X:X:X:X:X$X>X>X%X%X:X:X:X:X:X:X:X:X:X:X:X$X$X#X#X#X+X;X;X;X;X:X:X:X:X:X:X:X:X:X:X:X:X-X:X:X;X;X:X$X$X$X$X$X$X$X$X:X:X:X:X:X:X:X-XOX).a.r.G A p h h k k k k k k k k k k k k ",
"r r r r r r r r r e e 8 8 8 9 y ; R ^ [  .&.*.*.*.$X$X$X%X%X%X%X%X%X%X%X%X>X>X:X:X:X:X:X:X:X:X:X>X>X%X%X$X:X:X:X:X:X:X:X:X:X:X$X$X#X#X+X+X;X;X;X;X;X:X:X:X:X:X:X:X:X:X:X:X:X-X-X;X;X;X$X$X$X$X$X$X$X$X:X;X;X:X:X:X:X:X=X{.).a.w.m a r h h k k k k k k k k k k k ",
"r r r r r r r e e e 8 8 8 9 t - R ! ]  .&.*.*.*.*.$X$X$X%X%X%X%X%X%X%X%X%X:X:X:X:X:X:X:X;X#X:X$X$X%X%X%X$X$X:X:X:X:X:X:X$X$X$X$X$X:X;X;X;X;X;X;X;X;X;X:X:X:X:X:X:X:X:X:X:X:X:X-X;X;X;X:X$X$X$X$X:X:X:X:X;X;X:X:X:X:X:X:X=X{.).e.C n p r r k k k k k k k k r r r ",
"r r r r r r r e w 8 8 8 9 t x < ^ ]  .&.&.&.*.*.*.*.$X$X%X%X%X%X%X%X%X%X$X$X:X:X:X:X;X;X;X;X#X$X$X$X%X%X$X$X$X$X$X$X$X%X%X%X%X$X$X:X:X;X;X;X;X;X#X#X#X#X;X:X:X:X:X:X:X:X:X:X:X:X:X;X;X:X:X:X:X:X:X:X:X:X:X:X:X:X:X:X:X:X-XXX}.i.4.C a p r h k k k k k k k h h r ",
"r r r r r r e e w 5 8 9 t x M T ]  .&.*.&.&.&.&.*.*.*.*.%X%X%X%X%X%X%X$X$X$X$X#X;X;X;X;X&.&.&.*.$X$X%X%X%X%X%X%X%X%X%X%X%X%X%X$X$X$X$X:X:X:X;X#X#X&.&.#X$X$X:X:X:X:X:X:X:X:X:X;X:X:X;X;X;X;X:X:X:X:X:X:X:X:X:X;X;X;X;X:X:X;XXX(.6.Z m a p h k k k k k k k r r r ",
"r r r r r e e w 5 5 8 9 x 1 R /  .&.*.*.*.&.&.&.*.*.*.*.;.%X%X%X%X%X$X$X$X$X#X#X;X;X&.&.&.&.&.*.*.*.%X%X%X%X%X%X$X$X$X$X$X$X$X$X$X$X$X:X:X:X$X$X#X&.&.$X$X$X:X:X:X:X:X:X:X:X:X:X:X:X;X;X;X;X-X:X:X:X:X:X:X:X:X:X;X;X;X:X:X:X;XS.9.3.V m a r h k k k k k h r r r ",
"r r r e e e e 8 5 8 9 t c <.! [ ..*.;.;.*.&.&.&.*.*.*.*.*.%X%X%X;.;.*.*.*.&.#X#X+X&.&.&.&.&.*.*.*.;.;.;.%X%X$X$X$X$X$X$X$X$X$X$X#X#X$X$X$X$X$X$X$X$X$X$X$X$X$X$X:X:X:X-X-X-X-X:X:X;X;X;X;X;X;X:X:X:X:X:X:X:X:X:X;X;X;X:X:X:X#XY.n.7.2.C n p r r r k k k h r r r ",
"r r r e e e e 8 5 8 9 * < ! [ | &.*.;.;.*.*.*.*.*.*.*.*.*.*.%X%X;.*.*.$X*.&.&.&.&.&.&.&.&.*.*.*.;.;.;.;.;.*.$X$X#X+X+X+X+X+X+X+X+X+X#X#X#X$X$X$X$X$X$X$X$X$X$X$X$X$X$X$X;X:X:X:X;X;X;X;X;X;X;X;X;X:X:X:X$X$X$X$X:X:X:X:X$X$X#XQ.L.l.6.4.m u q r r r h r r r r r ",
"r r r e e e 8 8 8 9 @ = T ` | &.*.;.;.;.*.*.*.*.*.*.*.*.*.*.*.;.*.*.*.*.*.&.&.&.&.&.&.&.*.*.*.*.;.;.;.;.*.*.&.+XQ.Y.L.L.L.L.L.L.L.Y.Y.Q.Q.+X+X#X#X$X$X$X$X*.*.*.*.$X$X$X;X:X;X;X;X;X;X;X;X;X;X;X;X;X;X$X$X$X$X$X$X$X$X$X$X&.&.+XQ.S.z.3.B i u e r r r r r r r r ",
"r r e e e 8 8 8 9 t * < ~ } &.*.;.;.;.*.*.*.*.*.*.*.*.*.*.*.;.;.*.*.*.*.&.&.&.&.&.&.*.*.*.*.*.*.*.*.*.*.&.....S.V.[ l.l.l.l.j.j.[ [ [  .S.L.L.Y.Y.Q.+X#X#X*.*.*.*.$X$X$X$X:X;X;X;X;X;X;X;X;X;X;X;X;X#X#X$X$X$X$X$X$X$X$X$X&.&.#X#XQ.V.7.V b i u r r r r r r r r ",
"r r e e w 8 8 9 t # , T ' | *.;.;.*.*.*.*.*.*.*.*.*.*.*.;.;.;.;.;.;.*.*.&.&.&.&.&.*.*.*.*.*.*.*.*.&.&.|  .[ ] ] / ^ 6.6.^ ^ ^ ^ ^ / / / / ] j.j.n.V.S.L.Y.+X#X$X$X$X$X$X$X:X:X;X$X$X$X:X:X:X;X;X;X;X+X#X$X$X$X$X$X$X$X$X$X$X$X$X$X#XL.l.1.B v a p r r r r r h h ",
"r r e e w 5 8 9 y = R ~ } &.;.;.;.*.*.*.*.*.*.*.*.*.*.;.;.;.%X;.;.*.*.*.&.&.&.&.*.*.*.*.*.*.*.*.&.|  .[ ] ^ ^ E R R R 2 2 2 2 R R R R R E E E ^ ^ / 9.j.V.L.Q.+X#X$X:X:X:X:X:X;X$X$X$X$X:X;X;X;X+X+X+X+X#X$X$X$X%X%X%X$X$X$X$X$X$X$XQ.V.q.2.B n p r r g h h r r ",
"r e e w 5 8 8 t x < ^ ' | %.=.;.;.*.*.*.*.*.*.*.*.*.;.;.;.;.;.;.;.*.*.*.&.&.&.&.*.*.*.*.*.*.&... .[ ] / E R 2 2 1 1 ; ; ; ; ; ; ; 1 1 1 1 1 2 2 R R E 6.9.n.S.Y.+X#X:X:X:X$X$X$X$X$X$X$X;X;X;X;X+X+X+X+X+X#X$X$X%X%X%X%X$X$X$X$X$X$X+XL.l.6.2.C a r r g r r r r ",
"e e e w 5 8 9 y 1 T ~ } $.%.=.;.*.*.$.&.&.*.*.*.*.*.;.;.;.;.;.;.;.*.*.*.*.&.&.*.*.*.*.*.&.&.|  .] / ^ E R 2 1 ; - - * * * * * * * * * * * = = ; 1 2 2 R 6.q.z.V.L.Q.+X;X;X$X$X$X$X$X$X$X#X;X;X+XQ.Q.Q.Q.+X#X#X$X%X%X%X%X$X$X$X$X$X$X#XQ.S.x.3.V n p r r r r r r ",
"e e e 8 8 8 t x < ! ' | &.%.;.;.*.&.$.$.$.*.*.*.*.*.*.;.;.;.;.*.*.*.*.*.&.&.&.&.*.*.&.&.| } ' ] ^ E R 2 1 ; - - * $ # # # @ @ @ @ @ @ # # $ * * * ; 1 2 R E 6.9.l.V.L.Q.+X;X:X:X$X$X$X#X#X+X+XQ.Q.Q.Q.Q.+X+X#X$X$X%X%X%X$X$X$X$X*.*.&.+XY.V.9.2.m a r r r r r r ",
"e e e 8 8 9 t c T ` } $.&.*.*.*.$.&.&.&.&.&.*.*.*.*.*.*.*.*.*.*.*.*.*.&.&.&.&.&.&.&...} [ ` ! E R 2 1 ; = * - - $ # # @ t t t @ @ @ @ @ @ @ # $ * * = ; 1 1 2 E ^ / n.S.Q.;X:X:X:X$X$X#X#X+XQ.Q.Y.Y.Y.Q.Q.+X#X$X$X$X$X$X$X$X$X*.*.&.&.&.Q.L.l.6.Z n p r r e e e ",
"w w 8 8 8 9 y M ! ' | *.*.*.&.&.&.&.&.&.&.&.*.*.*.*.*.*.*.*.*.*.*.&.&.&.&.&.#X&.&... .[ / ^ Y < 1 = * * * * $ $ # # t t t t 9 9 9 9 t t t t @ # # $ $ * * = ; 1 R E ^ l.S.Q.;X;X:X$X#X#X+X+XQ.Y.Y.Y.Y.Y.Q.;X;X#X$X$X$X$X$X$X$X*.&.&.&.&.&.Q.S.9.4.m a p r r e e ",
"7 8 8 8 9 y c <.`  .&.*.*.&.&.&.&.&.&.&.&.*.*.*.*.*.*.*.*.*.*.*.&.&.&.&.&.#X&.&... .[ / ^ Y < = * * $ $ # # # # t t t t t u u u u u u t u t t t t t # # # $ - - 1 2 E / n.L.Q.;X;X#X#X#X+XQ.Q.Y.Y.L.L.Y.Q.;X;X#X$X$X$X$X$X$X$X&.#X&.&.&.#X+XL.c.5.Z m a r r e e ",
"7 5 8 9 t x M 1.' ..*.*.*.&.&.&.&.&.&.&.*.*.*.*.*.*.*.*.*.*.*.*.*.&.&.&.&.&.+X.. .[ / ^ R , = * * $ # @ @ @ t t u u u u i i i i i i i i u u u u t t t t t t # - * 1 2 E 7.n.S.Q.;X;X;X;X;XQ.Q.Y.L.L.L.Y.Q.;X;X#X$X$X$X$X$X$X$X&.+X&.&.&.*.#XQ.V.7.4.C n p r e e ",
"4 5 8 9 i c <.q. .&.*.*.*.&.&.&.&.&.&.*.$X*.*.*.*.*.*.*.*.*.*.*.*.&.&.&.&.&... .[ / ^ R 1 = * * $ $ # @ t 9 9 q u u i i n n m m S A A n a a u u q q 9 9 u u u i $ - 1 2 E 7.l.S.XX;X:X;X;X+XQ.Y.Y.L...Y...;X;X#X$X$X$X$X$X$X$X#X#X+X&.&.*.&.&.L.z.3.Z m a r r e ",
"4 5 8 t v M 1.d.| *.;.;.*.&.&.&.&.&.*.*.*.$X*.*.*.*.*.*.*.*.*.*.*.&.&.&.&.....[ / ^ R 1 ; * $ # # # t t t 9 q u u i n m m D D F F F D S S A a a u q q q q u u u i $ - 1 2 E / n.`.;X;X:X;X+XQ.Y.Y.Y.Y.Y.Q.;X;X#X$X$X$X$X$X$X$X$X#X#X&.&.*.&.&...n.7.3.C n p r e ",
"4 5 9 i c <.! [ ..*.;.;.*.&.&.&.&.*.*.*.*.*.*.*.*.*.*.*.*.*.*.*.*.&.&.&.&... .] ^ R 2 ; * $ # @ @ t t t u u u i n m D F w.w.e.e.e.e.r.t.H D m n a u u u u u u u u u i v 1 2 E q.V.XX;X;X;X+X+XQ.Y.XXXXXXQ.+X;X#X#X$X$X$X$X$X$X$X#X#X&.&.*.&.&...S.z.6.Z m a r r ",
"4 8 9 i M 1.`  .&.*.;.*.*.&.&.#X#X$X$X*.*.$X$X*.*.*.*.*.*.*.*.*.*.&.&.&... .[ / E 2 ; - $ # @ @ t t u u u i n m C F e.e.u.i.i././.i.i.i.a.e.r.Z C m n a u q q q q u u i v b N 6.l.L.;X;X#X#X+X+XQ.Y.XXXXXX;X;X#X#X$X$X$X$X$X$X$X#X#X&.&.*.&.&... .n.q.3.C n p p ",
"5 8 t v N ! ' | &.*.*.*.*.&.&.#X$X$X$X;.;.;.*.*.;.;.;.*.*.*.*.*.*.&.&.....[ ] ^ R 1 * $ # @ t 9 9 q q u a n C w.e.i./.(.(.}.}.}.}.}.}.}.(.(./.u.e.Z C n a u q q q q u u i v M 2.7.V.Y.+X#X#X#X+XQ.Q.Q.XXXX;X;X;X#X#X$X$X$X$X$X$X$X$X&.&.*.&.&.&...S.l.6.Z S A f ",
"8 9 u c 1.` } &.&.*.*.*.*.&.&.*.*.*.;.%X*.*.*.*.;.;.;.;.*.*.*.*.*.&.&.|  .[ / E 2 = * # @ t t q q e q a n D w.u./.(.'.XX;X;X;X;X;X;X;X;X;XXX}.(./.u.2.C n u q e e e q q u i v V 6.l.S.Q.+X#X#X#X+XQ.Q.XXXX;X;X;X+X#X#X#X$X*.*.$X$X$X*.*.*.&.&.&.&...n.7.r.D S A ",
"8 9 i M 1.` | &.*.*.*.*.&.#X&.*.*.*.$X$X$X*.*.*.*.*.*.*.*.*.*.*.*.&... .[ ] ^ R 1 * # @ t u q q e q p n D w.u./.}.XX;X:X,.,.,.,.,.,.,.:X:X:X;XXX}./.u.4.m a u e e e q q q u i M 2.q.V.L.+X#X*.#X+X+XQ.XX;X;X;X;X+X+X#X#X#X*.*.$X$X*.*.*.*.&.&.&.&...S.z.3.w.D G ",
"9 t x N 6.[ ..&.*.*.*.&.&.#X&.&.*.*.*.*.*.*.*.*.*.*.*.*.*.*.*.*.*.&... .] / E < = $ @ 9 9 q q q p p n C w.u./.}.XX;X,.,.,.,.,.,.*.*.,.,.:X:X:X;X;X`./.6.V m a q e e 0 8 8 q u b N 6.z.S...&.*.$X#X+X;XXX;X;X;X;X+X+X&.&.&.&.&.$X$X*.*.*.*.*.&.&.&.&.Y.n.7.e.w.H ",
"t y c N /  .&.*.*.*.&.&.&.&.+X&.&.&.&.&.&.&.&.&.*.*.*.*.*.*.*.*.*.&...[ / E R 1 * # 9 9 q e q p a A D r.u./.}.XXXX;X;X>.>.&.&.&.&.&.>.;X;X:X:X:X:X;X`./.3.C n u q e w 8 8 q u n M 1.7.n...&.*.$X#X;X;X;XXXXXXXQ.Q.....&.&.&.&.$X$X*.*.*.*.&.&.&.*.&.Q.S.x.6.6.3.",
"y x M <.]  .&.*.*.&.&.&.+X+X+X&.&.&.&.&.&.&.#X#X#X*.*.*.*.*.*.*.*.&. .[ / R < = $ t 9 0 e r r a A D r.u./.`.+.>.&...Q.................+X&.#X&.,.,.:XXX(.6.4.m i u 0 8 5 5 0 q i b N 6.d. .&.*.$X#X;X;X;X;X;XXXQ.Y.......&.&.#X#X*.*.*.*.*.*.*.*.*.&.+XL.n.z.7.6.",
"x c N E [ | *.*.*.&.&.&.&.&.+X&.&.&.&.&.&.&.#X#X&.*.*.*.*.*.*.*.&... .] ^ 2 ; * t 9 q e r r d A G r.i./.`.+.,.,.&.........................+X+X*.,.,.;X}.i.3.C n u 8 5 7 7 w q u v M 1.9.S...*.$X$X;X;X;X;X;XXXQ.Y.......&.+X#X#X*.*.*.*.*.&.&.*.*.*.+XQ.S.n.z.z.",
"M N 2.^ [ ..*.*.*.&.&.+X+XQ.+X&.&.&.&.&.&.#X#X#X$X$X*.*.*.;.*.*.&...[ / E 1 x y t q e r r k f S r.s.(.`.+.,.&.&.&.........................Q.+X,.*.&.+.S.q.3.V v u 9 8 7 7 w e u i b 2.6.V.Q.#X$X$X;X;X;X;X;XXXQ.Y.......&.&.&.*.*.*.*.$X$X#X&.*.*.*.&.Q.L.V.n.n.",
"N 2.1./  .&.*.*.&.&.&.+XQ.&.&.&.&.&.&.&.$X$X$X$X$X$X$X%X;.;.*.*.&.| [ ^ R b i u q e r r k l J H a.(.`.;X&.&.&.&.&.......&.&.&.&.&.........Y.Q...&... .[ 7.3.V v u q w 7 7 w e u i v V 3.l.Y.#X$X$X:X;X;X;X;XQ.Q.Q.Y.....&.&.&.*.*.$X$X*.*.*.*.*.*.*.&.+XY.L.S.V.",
"1.6.q.[ | &.*.*.&.+X+X+X+X&.+X+X#X#X$X$X$X$X$X$X$X%X%X%X;.;.*.*.&. .] ^ V v u q e r r k l z L t.).}.;X&.&.&.&.............&.&.&......... . .L. . . .[ ] ^ 2.V b i e 0 7 7 w e q u n B 2.z.L.+X$X:X:X;X;X;X+XQ.Q.Q.Q.....&.&.&.*.*.*.*.*.&.*.*.$X$X$X$X&..... . .",
"q.9.j. ...&.*.*.*.#X+X+X+X&.&.#X$X$X$X$X$X%X%X%X%X%X%X%X;.;.;.*... ./ E M i u e e r k l z J G y./.XX&.&.&....... . . . .| | | |  . . . .[ [ [ [ [ ] ] / E <.M v i q e w w w e e q a m 4.q.S.+X:X:X:X;X;X;X+XQ.Q.Q.Q...&.&.&.&.*.*.*.*.*.&.&.&.$X$X$X$X#X&.......",
"j.f.[  .&.*.*.*.*.#X+X+X#X&.&.$X$X$X$X%X%X%X%X%X%X%X%X:.:.;.*.&.| [ / R b i q e r r k l z K H a.(.Y.&.&..... . .[ [ [ [ [ [ [ ' ' [ ] ] ] ] / / / / ^ E R 2 M v u q e w w w w e e u v Z 7.S.;X:X:X;X;X;X;X;XQ.Q.Q.Q...&.&.&.&.&.&.&.&.&.&.&.&.$X$X*.*.*.&.&.&...",
" . .| ..&.*.*.*.$X#X#X#X#X*.*.$X$X%X%X%X%X%X%X%X%X&X&X:.:.;.%.$.} ` ^ N v u e e r k k l J G w.u.l. ...|  .[ [ ] ] ] ] / / ~ ~ ~ ! ! ^ ^ ^ ^ E E E E R R 2 1 b x u q e w w w w e e u n V 6.V.XX;X;X;X;X-X;X;XXXQ.Q.Q.Q...&.&.&.&.&.&.&.#X+X+X&.#X$X*.*.*.&.&.&.&.",
"| ..&.&.*.$X%X$X$X#X#X#X$X*.*.%X%X%X%X%X%X%X%X%X%X&X:.:.:.-.%.$.} / E M n u e e g k l z A G w.6.z.[  . .[ ] / / / ^ ^ ^ ! T T T T Y Y Y R R R R R 2 < 1 1 ; x y t q e w w w w 0 q u n V 6.V.XX;X;X;X;X;X;XXXXXQ.Q.Q.Q.....&.&.&.&.&.&.+X+X+X+X#X$X*.*.*.*.*.*.*.",
"&.&.&.*.*.%X%X$X$X$X$X$X*.*.;.;.%X%X%X%X%X%X%X%X%X:.:.:.-.-.%.$.' / R M i q e e g k l f A G Z 3./ ] ` ` / / ^ ^ E E T T Y Y Y < < < < < < < < < 1 1 1 ; = * $ t t q 0 w w w w 0 q u v V 6.V.Y.;X;X;X;X;XXX;XXXQ.Q.Q.Q.Q.+X&.&.&.&.&.&.&.Q.+X+X#X$X*.*.*.*.*.*.*.",
"*.*.*.*.*.%X%X$X$X$X$X*.*.;.;.;.;.%X%X%X%X%X%X%X;.:.:.:.-.-.%.| ' ^ <.b i q e e r k d f n m V 2.E ! ! ! ^ E E R R Y Y < < < < , , , , 1 1 1 1 1 ; ; = * * y y t 9 8 8 5 5 8 8 8 q i b N 7.V.Y.;X;X;XXXXXQ.Q.Q.Q.Q.Q.Q.Q.+X+X+X+X&.&.....Q.Q.+X+X#X*.*.*.*.*.*.*.",
"*.*.*.*.;.%X%X$X$X$X*.*.*.*.*.;.;.;.;.%X%X%X%X%X;.;.:.:.-.-.%.| ' ^ N b i q e e r r p a n b M 2 R Y Y Y Y R < < < < < < < , , , 1 1 = = ; ; ; = = * * * $ y t 9 8 8 5 5 5 5 8 9 u n M 2.q.V.Y.Q.Q.Q.Q.Q.Q.Q.Q.Q.Q.Q.Q.Q.;X+X+X+X+X......Q.Q.Q.+X#X*.*.*.*.*.*.;.",
"*.;.;.*.*.$X$X$X$X*.*.*.*.*.*.*.;.;.;.%X%X%X%X%X;.;.:.-.-.-.%.| ` 6.V b u e e e r r r p i v - 1 , < < < , 1 1 1 , 1 1 1 1 1 1 = = = = = = = = * * * * y i u t 9 9 8 8 8 8 8 q u x b N 1.z.S.........Y.Y.Y.Q.Q.Q.Q.XXXXQ.;X+X+X+X+X....Q.Q.Q.Q.+X#X#X*.*.*.*.=.=.",
";.;.;.;.*.*.$X$X*.*.*.*.*.*.*.*.*.*.*.$X$X$X%X%X;.;.:.-.-.-.%.| ] E V v u e e e r r r p i x * = = = 1 = = ; ; = = = = = = = = * * * * * * x x x x x x i i i u u u q 9 9 u u i v M N 3.7.]  .............Y.Q.Q.Q.Q.XXXXQ.+X+X+X+X+X....Q.Q.Q.Q.+X+X&.*.*.*.%.%.=.",
"=.;.;.;.*.*.*.*.*.*.*.*.*.*.*.*.*.*.$X$X$X$X%X%X;.;.:.-.-.-.%.| ] 1.B v u e e e r r r p i i * * = = = = * * * * * * * * * * * $ $ $ y y i i i i x x x n n n n n n n n v b b B V 1.6.q.l.[  .................Q.Q.Q.XXXXQ.+X+X+X+X+X+XQ.Q.Q.Q.Q.+X+X&.*.*.*.%.%.%.",
"=.;.;.*.*.*.*.*.*.*.*.*.*.*.*.*.*.$X$X$X$X$X$X;.;.;.:.-.-.-.%.| ] 1.M v u r r e r r r p i i * * * * * * * * * * $ $ $ y y y t t t t u u u i i i n n n m m m C C B V Z 2.1.1.6.7.z.n.[  . .........| ..........Q.XXXXXX;X+X+X+X+X+X+XQ.Q.Q.Q.Q.Q.+X&.*.*.%.%.%.%.",
"=.;.*.*.*.*.*.*.*.*.*.*.*.*.*.*.*.$X$X$X$X$X$X;.;.;.:.-.-.-.%.| / 1.M n p r r r r r r p u i y $ * * * * * * $ y $ y y y y u u u u u u i i i i n n m C C V Z 4.2.3.6.6.7.z.l.n.S.L.Y.............| | | ........Q.;X;X;X;X+X+X+X+X+X+XQ.Q.Q.Q.Q.Q.+X&.&.*.*.*.%.%.",
"=.*.*.*.*.*.*.*.*.*.*.*.*.*.*.*.*.$X$X$X$X$X$X%X;.;.-.-.-.-.%.} / 1.B n p r r r r r r r u i i y y * * * $ y y y y i i i i i i i i i n n n m m C C V Z 2.3.3.6.7.9.z.n.V.S.L.Y.Q.+X&.&.&.&.......| | ........&.+X+X+X;X+X+X+X+X+X+X+XQ.Q.Q.Q.Q.Q.&.&.&.&.$.$.$.$.",
";.;.*.*.*.*.*.*.*.*.*.*.*.*.*.*.*.$X$X$X$X$X%X%X;.;.-.-.-.-.%.} / 2.B n p r r r r r r r u u u i y y y i i i i x x x v v m m m m m C C C V Z 4.2.3.3.6.6.q.z.l.n.V.S.L.Y.Q.+X+X#X#X$X&.&.&.&...............&.&.+X+X+X+X+X+X+X+X+X+XQ.Q.Q.Y.Q.Q.Q.+X&.&.&.$.$.$.$.",
";.;.*.*.*.*.*.*.*.*.*.*.*.$X$X$X*.$X$X$X$X%X%X%X;.;.-.-.-.=.$.} / 2.B n p r r r r r r e q q u u u u i i i n n n m m C C F F w.w.e.e.u.u.6.7.q.z.l.l.[ [ S.L.Y.Y.Q.Q.+X+X;X;X+X+X#X#X#X#X+X+X&...........&.&.#X#X+X+X#X+X+X+X+X+XQ.Q.Q.Q.Y.Y.Q.+X&.&.&.&.$.&.$.$.",
"%.%.*.*.*.*.*.*.*.*.$X$X*.$X*.$X$X$X$X$X%X%X%X%X;.;.-.-.-.=.$.} / 2.B n p r r r r r r e e e q q u u i i n m m C D F w.w.e.u.u.i.i./././.(.}.S. .........&.&.&.&.&.&.#X+XQ.Q.Y.Y.Y.Q.Q.Q.Q.Q.Q.Q.Q.Q.Q.+X+X#X#X#X#X#X#X+X+X+XQ.Q.Q.Q.Y.Y.Y.Y.Q.+X&.&.&.&.&.| | | ",
"%.%.*.*.*.*.*.*.*.*.*.*.*.*.*.$X$X$X$X$X%X%X%X%X;.;.=.-.-.=.$. ./ 1.B n p r r r r r r e e e e q u i i n m C Z w.w.e.u.i.i././.(.}.`.XXXX+.&.&.&.&.&.*.*.*.*.*.*.*.&.&...L.S.V.V.V.V.S.S.L.Y.Y.Q.Q.Q.+X+X#X#X#X#X#X#X+X#X+X+X+XQ.Q.Y.Q.Y.Y.Q.Q.&.&.*.&.&.| } } } ",
"$.$.$.&.*.*.*.*.*.*.*.*.*.*.*.*.*.*.$X$X%X%X%X%X;.;.=.-.-.=.*.| ] 1.V v u r r r r r r e e e e q u n b C 2.3.u.i.i./././.(.}.`.XXXX;X>.,.&.*.*.*.*.*.*.*.;.;.*.*.*.&... .[ ] q.q.q.9.d.l.n.V. . .....&.+X#X#X#X#X#X#X#X#X+X+X+X+XQ.Q.Q.Q.Q.Q.Q.&.*.*.&.&.} { ' ' ",
"| | $.$.&.*.*.*.*.*.*.*.*.*.*.*.*.*.*.$X%X%X%X%X;.;.:.-.-.=.*.| ] 6.N b a q r r r r r r e e e u i b V 3.6.l.(.}.`.`.XXXXXXXX;X;X;X&.&.*.*.*.*.*.*.*.*.*.;.*.*.&.&...[ ] ^ E R R R E E ^ / ] [  . ...&.&.#X#X#X#X#X#X#X#X#X#X+X+XQ.Q.Q.Y.Q.Q.&.&.*.*.&...{ ` ) ~ ",
"{ { } | $.*.*.*.*.*.*.*.*.*.*.*.*.*.*.$X%X%X%X%X;.;.:.-.-.=.%...[ ^ <.b i q e r r r r r e e e u x M <.^ ]  .+.,.,.,.,.,.*.*.,.,.*.*.*.*.*.*.*.*.*.*.*.*.*.*.*.&. .[ ] ^ R 2 1 1 1 1 2 R E ^ / [  ...&.&.&.&.#X#X#X#X#X#X#X#X#X+XQ.Q.Q.Q.Q.&.&.&.*.*.&.| ' ~ ! ! ",
") _ ' } | &.*.*.*.*.*.*.*.;.;.;.;.;.*.*.$X%X%X;.;.;.=.-.:.=.%.| [ / 2.M i q e e r r r r r e q u x M R ^ [ ..&.*.*.*.;.;.;.*.*.*.*.*.*.*.*.*.*.*.*.*.*.*.*.*.&...[ / ^ R 2 1 = = = ; 1 1 2 R ^ ] [ | &.&.&.#X&.#X$X$X#X#X#X#X#X+XQ.Q.Q.Q.&.&.&.*.*.*.&.} ` ! T T ",
"Q Q ) ' | &.*.*.*.*.*.*.*.;.;.;.;.;.*.*.$X%X%X;.;.;.=.-.-.=.%.&. .] 1.M n u e e r r r r r e q u x ; 2 ^ ' | &.*.;.;.;.;.;.;.;.;.;.*.*.*.*.*.*.*.*.*.*.*.*.&.| [ ] ^ R < 1 = * * * * = ; 1 < E ^ [  ...&.&.&.&.$X$X$X#X#X#X#X&.&.Q.Q.....&.&.&.*.*.*.| { ~ T Y I ",
"U W Q ` } &.*.*.*.*.*.*.*.;.;.;.;.;.;.*.$X$X%X;.;.;.-.-.-.=.%.&.} ] ^ N v u q e e r r r r r q u i - 1 Y ~ [ | &.*.;.;.;.;.;.;.;.;.;.*.*.*.*.*.*.*.*.*.*.&... .] ^ Y < 1 = = * * * * = = ; 1 < E ]  ...&.&.*.*.$X$X$X$X#X#X+X+X..........&.&.$.*.*.$.| ' ~ T < > ",
"> I U ~ { &.*.*.*.*.*.*.*.;.;.;.;.;.*.%X$X*.;.;.;.;.=.=.=.%.%.&.| [ / 2.b i q e e r r r r r r u u $ = < T / [ | &.*.;.%X%X%X%X%X%X;.*.*.*.*.*.*.*.*.*.&... .[ / T < 1 = * * * * * * * = = = < T / [ | &.&.$X$X$X$X$X$X#X+X&.Q.........&.&.$.$.$.%.$.| ` ! Y > : ",
": > Y ! ' | *.*.*.*.*.*.*.*.;.;.;.;.;.$X$X*.*.*.;.;.=.=.%.%.%.&.| } ] E M i u e e e e r r r r u u y * 1 Y ! / [  .&.*.$X$X$X$X*.*.*.*.*.*.*.*.*.*.*.&... .[ / T < 1 = * * * * * * * * * = 1 < E / [ | &.&.$X$X$X$X$X$X#X&...Q.........&.&.$.$.$.$.$.} ) T < : = ",
"& : < ! ' | &.*.*.*.*.*.*.*.;.%X%X%X%X$X$X*.*.*.;.;.=.=.%.%.$.$.| } ] ^ V v i q e e e r r r r p u t $ = , Y T ~ [  ...+X#X$X$X$X$X$X$X*.*.*.&.&.&...| } ] / T Y , = * * $ $ $ $ $ $ * * = 1 2 E ] [ ..&.&.#X$X*.*.*.*.&.+X............&.&.&.$.$.$.| ' ~ Y : & % ",
"* - : T ) } $.*.*.*.*.*.*.*.;.%X%X%X%X%X$X*.*.;.;.;.;.%.%.%.$.$.&.| [ / 2.M n u q e w r r r r p u u y * = 1 < T ! ] [  .Q.+X#X$X$X$X$X$X&.&.&... .} ' ~ ! T < , = * * # $ # # @ @ @ $ * ; 2 R ^ ]  ...&.&.#X$X*.*.$X*.&.+X............&.&.&.*.$.&.| ' ! Y : % % ",
"@ * = Y ~ { &.*.*.*.*.*.*.*.*.;.;.%X%X%X$X*.*.;.;.;.;.%.%.%.$.$.$... .] 6.N b i q e w w r r r r u u u # * = 1 < Y ^ / ]  . .^.+X+X+X+X&...|  . .[ ) ~ ! Y < 1 = * * # # # @ @ @ 9 t # x 1 R ^ / [  ...&.&.#X#X*.*.*.&.&.Q.....| ....&.&.&.*.*.&.| { ` ! < & # # ",
"@ @ * < ! ' | $.$.*.*.*.*.*.*.*.;.%X%X%X%X;.%X;.;.;.;.*.*.*.$.$.$.&.| [ 7.1.M v u 9 e w e r r r q u u t # * * 1 < R T / ] [ [  . . . . . .[ [ ] ~ ! T Y < 1 = * * * $ # @ t 9 9 9 9 y c 2 E / ]  .....&.&.#X#X&.&.*.&.&.......| ....&.&.*.*.*.&.| ' ~ T : % # @ ",
"O @ # , T ) } &.$.*.*.*.*.*.*.*.;.%X%X%X%X%X%X;.;.*.*.*.*.*.$.$.$.&... .] 6.2.M i q 8 w e e r r q u u u @ # * = 1 < R T ^ ^ / ] ] ] ] ] / ~ ! ! T Y < < 1 = * * * # # @ 9 9 9 8 9 9 y b R ^ ]  .....&.&.&.&.#X&.#X*.&.#X&.........&.&.&.*.*.*.&.} ' ! Y = # @ O ",
"o O @ = Y ~ ' | &.*.*.*.*.*.*.*.*.%X%X%X%X;.;.*.*.*.*.*.*.*.*.$.*.&.&.| [ ] 6.V b u q e w e e e e q u u t # # % = = 1 < < Y R T T T T T Y Y Y < < , 1 = = * * * $ # @ 9 9 8 8 8 9 t i M E ]  .....&.&.&.&.&.#X#X#X&.&.&.&.+X....&.&.&.*.*.*.*...{ ) T > % # O O ",
"o o @ * < ! ` } &.*.*.*.*.*.*.*.;.;.;.;.;.;.*.*.*.*.*.*.*.*.*.*.*.&.&.....[ / 3.M n u q 0 w w e e e q u t # # # * * = = = 1 , , < < > : , 1 : = = & = * * * * $ # @ t 9 8 8 8 8 9 i b N 6.[ ..&.&.&.&.&.&.&.+X#X&.&.&.&.+X+X&.&.&.&.&.*.*.*.&.| ' ~ Y : % @ O o ",
"X o O # : T ~ ' | $.*.*.*.*.*.*.*.;.;.;.*.*.*.*.*.*.*.*.*.*.*.$.$.&.&.&... .[ 7.<.b i u q 0 w w e e e q u t # # # * * * * = = = = = & & & % % % % * * * * * $ # @ t 9 8 8 8 8 9 u n M 3.z. .&.&.&.&.&.&.&.&.+X+X+X&.&.&.+X+X+X&.&.&.&.*.*.*.&.| ` ! I = # O o o ",
"X o O @ = I ! ` | $.*.*.*.*.*.*.*.*.*.*.*.*.*.*.*.*.*.&.&.&.&.&.&.&.&.&.&... .] 6.N b i u 9 w w w e e e q t t # # $ # * * * * * * * * % % % % # # $ $ $ $ # # t t 9 8 8 8 8 8 t n M 2.7.[ ..&.*.*.&.&.&.&.&.+X&.&.&.&.&...&.&.&.&.&.*.*.*.*.&.} ) U > % @ O o X ",
"X X o @ % : T ~ { &.*.*.*.*.*.*.*.*.*.*.&.&.&.&.&.&.&.&.&.&.&.&.&.&.&.$.$.&... .] 6.<.b i 9 8 8 w w w 0 9 9 t t # # $ * * * * * * * * * * * # $ $ $ # # t t t 9 9 8 8 8 8 8 t x M 2.7.n. .&.*.*.*.&.&.&.&.&.+X&...Q.........&.&.&.&.*.*.*.*.&.{ ~ Y : % @ o o X ",
"X X o O # = I ! ' | *.*.*.*.*.&.&.&.&.&.&.&.&.&.&.&.&.&.&.&.&.&.&.&.&.$.$.$.&.| [ ] 6.N b i 9 8 8 8 8 8 0 q q t t t # $ $ $ $ $ * * * $ $ $ $ $ # y t t t 9 9 8 8 8 8 8 8 9 i b 2.7.[  ...&.*.*.*.*.&.&.&.&.&...............&.&.&.*.*.*.*.*...' ! < & # O o X 5 ",
"X X o O @ % : T ` | $.*.*.*.*.&.&.&.$.&.&.&.&.&.&.&.&.&.&.&.&.&.&.&.&.*.$.$.$.&.| [ ] 1.V b i u 9 8 8 8 8 e q q 9 t t @ # # # # # # # # # # # @ t t t 9 9 9 8 8 8 8 8 9 u i b <.6.]  ...&.&.*.*.*.*.&.&.&.&.................&.&.&.*.*.*.*.&.} ` T : % @ O o 5 5 ",
"    . O . # = Y ~ { &.&.*.*.*.*.&.$.&.&.&.&.&.&.&.&.&.&.&.&.&.&.&.&.&.*.$.$.$.&.&...[ / 1.N b n i t 9 9 8 0 0 8 9 9 9 9 t @ @ t t t t @ @ @ t t 9 9 9 8 8 8 8 8 5 8 9 t i m 2.6.l. ...&.&.&.&.&.*.*.#X#X&.......Y.Y.........&.&.*.*.*.*.*.| { ~ I = # @ o o 5 5 ",
"    . o O # & < ! ' | &.&.*.*.*.&.$.$.&.&.&.&.&.&...........&.&.&.&.&.*.&.$.$.$.$.&.| [ ] 6.2.V b n i u q 8 8 8 8 8 8 8 8 9 9 9 9 9 9 9 9 9 9 8 8 8 8 8 5 5 5 5 8 8 u n B 2.6.l. ...&.&.&.&.&.&.&.&.&.#X&...Y.Y.Y.Y.......&.&.*.*.*.*.*.&.| ' ! > % @ O o o 5 5 ",
"  X o o . @ % : T ~ ' | &.*.*.*.&.$.$.$.$.$.&.&.&.| | | | | | &.&.&.&.*.&.$.$.$.$.&.&... .[ q.3.<.M b i u q 8 8 8 8 8 8 8 8 8 8 8 8 8 8 8 8 8 8 8 8 5 5 5 5 8 8 9 u i C 2.i./. ...&.*.*.&.&.&.&.&.&.#X+XQ.Q.Y.Y.Y.Y.....&.&.&.*.*.*.*.&...} ~ T : # O o o 5 5 5 ",
"  X X o o O # = Y ! ) { ..&.*.*.$.$.$.$.$.$.$.$.&.&.| | | | | &.&.&.&.&.$.$.$.$.*.*.$.&... .[ z.6.2.V b v i u q 9 8 8 8 8 8 8 8 8 8 8 8 8 8 8 8 8 8 8 8 8 8 9 u i n C 2.i./.O.&.&.*.*.*.&.&.&.&.&.&.&.+XQ.Y.Y.Y.Y.......&.&.&.*.*.*.*.&.} ` ! Y & @ O o o 8 5 5 ",
"5 5 X o o O @ % : Y ! `  .&.*.*.$.$.$.$.$.$.$.$.&.&.| | | | &.&.$.$.$.&.$.$.$.$.*.*.*.*.&..... .] / 6.2.V M b n i u q 9 9 9 9 8 9 8 8 8 8 8 8 8 8 8 9 9 u u i n m C 2.6./.`.&.&.*.*.*.*.&.&.&.&.&.&.&.&...............&.&.&.*.*.;.*.*...[ ~ T , % @ O o 8 8 5 8 ",
"5 5 8 o o O @ # & : Y ~ ' | $.*.$.$.$.$.$.$.$.$.&.&.&.&.&.&.&.$.$.$.$.$.$.$.$.*.*.*.*.*.$.$.&.|  .[ [ ] ^ 3.2.V C v n i u u u q 9 9 9 9 9 9 9 9 9 t u i n b B V 2.6.q./.L.&.&.*.*.*.*.&.&.&.&.&.&.&.&.........Y.Q.Q.&.&.&.*.*.*.;.*.&. .) T < & @ O o 8 8 8 8 8 ",
"5 5 8 o o O O @ # & > T ) { | $.$.$.$.$.$.$.$.$.$.$.$.$.$.$.$.$.$.$.$.$.$.$.%.%.*.*.*.*.*.$.$.&.&..... .o.X.i.u.2.V B b v x i i i y t t t t t i i x v b B V e.u.i./.}.XX&.&.*.*.*.*.*.*.&.&.&.&.&.&.&.............&.&.&.*.*.*.*.*.*...' ! Y = % @ O 8 8 8 8 8 8 ",
"5 8 8 8 o o O O @ % = I ! ' } | &.$.$.$.$.$.$.$.$.$.$.$.$.$.$.$.$.$.$.$.$.$.%.%.%.*.*.*.*.$.$.$.$.&.&.&.+.O.o./.6.3.2.V V B M b b b b v v v v b b M V 2.3.6.q./.(.XX..&.*.*.*.*.*.*.*.*.*.&.&.&.&.&.&...........&.&.&.*.*.*.*.*.*.&.} ) T , % @ O 8 8 8 8 8 8 8 ",
"8 8 8 8 o o . . @ # & : T ~ ' } | &.$.$.$.$.$.$.$.$.$.$.$.$.$.$.$.$.$.@.$.$.%.%.%.*.*.*.*.$.$.$.%.*.*.&.&.+.O.O.] / / ^ ^ E E 2.2.2.V V 2 V V 2.2.E 6.^ / ] [  ...&.&.*.*.*.*.*.*.*.*.*.*.*.&.&.&.............&.&.&.*.*.*.*.*.*.&.} ` ! < = # @ O 8 8 8 8 8 8 8 ",
"8 8 8 8 8 o . . @ + % = < T ~ ' } &.$.$.$.$.$.$.$.@.$.$.%.*.*.%.$.$.$.@.$.$.$.%.%.%.%.*.$.$.$.$.$.$.$.$.&.&..... .O.o.o.o.X.] ] ( ( ( ( / / ( / ] ] [ [  . .....&.&.*.*.*.*.*.*.;.;.*.*.*.*.&.&.&.........Q.+X&.&.&.*.*.;.;.*.$.} ' ! Y : % @ O o 8 8 5 8 8 8 8 ",
"8 8 8 8 8 o . . O @ # & : > U ~ ' | &.$.$.$.$.@.@.@.$.%.%.*.*.%.%.$.$.$.@.$.$.%.%.%.%.*.$.$.&.&.&.$.$.$.&.&.&.&.....O.O.+.+.O.O.O.O.O.O.O.O.O.O.O. .......&.&.&.*.*.*.*.*.*.*.*.;.;.;.*.*.*.&.&.............+X&.&.*.*.*.;.*.&.| ' ~ T , % # O o o 8 8 8 8 8 8 8 ",
"8 8 8 8 8 o . . O @ # % & : I ! ) { | &.$.$.$.@.@.$.$.%.%.*.*.%.%.%.$.$.$.@.#.%.%.%.%.*.$.$.&.&.&.&.&.$.&.$.$.&.&.&.&.&.>.>.>.>.>.>.+.+.>.>.>.>.>.&.&.&.*.*.*.*.*.*.*.*.*.*.*.*.;.;.;.*.*.&.&.............+X+X&.*.*.*.*.*.*.$.{ ~ T < = # @ O o o o 8 8 8 8 8 8 ",
"8 8 8 8 8 8 . . . @ # + % & : Y ! ) ' | | &.$.$.@.$.$.%.%.%.%.%.%.%.%.%.%.%.#.#.%.%.%.*.$.$.&.&.&.&.$.$.$.$.$.$.&.&.&.&.&.&.>.&.&.&.>.>.>.,.,.*.*.*.*.*.*.*.*.*.*.*.%.%.%.%.%.*.;.;.*.*.&.&.............&.&.&.*.*.*.*.*.*.&.} ` ! < = % @ O o o o X 5 8 8 8 8 8 ",
"8 8 8 8 5 5 o o . @ # + + & & > Y ! ) ' | &.$.%.$.$.$.$.%.%.%.%.%.%.%.%.%.%.%.%.%.%.%.%.$.$.$.$.$.$.$.$.$.&.&.&.&.&.&.&.&.&.&.&.&.&.&.&.*.*.*.*.&.$.$.$.*.*.*.*.*.*.*.*.%.*.*.%.%.%.*.&.&...| ..........&.&.*.*.;.;.;.*.&.| ' ~ Y 1 * @ @ O o o o 5 5 8 8 8 8 8 ",
"e 8 8 8 5 5 8 o O . @ + + % & : > Y ! ` } | $.*.$.$.$.$.%.%.%.*.*.%.%.%.%.%.%.%.%.%.%.%.%.%.$.$.$.$.$.$.$.&.&.&.&.&.| | | | | | | &.&.&.*.*.*.*.$.$.$.$.$.$.$.$.$.$.*.%.%.%.%.%.*.*.$.&...| ..........&.&.&.*.*.;.;.*.&.| ' ~ T < = # @ O O o 8 8 8 8 8 8 8 8 e ",
"e e 8 8 8 8 8 o O . . @ @ + & & : < T ~ ' | &.$.%.%.%.%.%.%.%.%.*.*.%.%.%.%.%.%.%.%.%.%.%.*.*.*.*.*.*.$.$.&.&.&.&.| | | | | | | &.&.&.$.*.*.*.*.*.$.$.$.$.$.$.$.$.$.$.$.%.%.%.*.*.$.&......... .......&.&.*.*.*.;.*.*...' ~ T < = * @ O O o 8 8 8 8 8 8 8 8 8 e ",
"e e 8 8 8 8 8 o o . O . @ + % & & : < T ~ ' | $.$.%.%.%.*.*.*.*.*.*.%.%.%.%.%.%.%.$.$.$.%.*.*.*.*.*.*.$.$.$.&.$.&.&.| | | | &.&.$.$.$.$.*.*.*.%.*.*.$.$.$.$.$.$.$.$.$.$.$.$.$.$.&.&.| ..............&.&.&.*.*.*.*.*...} ) ! Y : * # @ O o o 8 8 8 8 8 8 8 8 8 e ",
"e e e 8 8 8 8 o o O O @ @ # % % & & : I ! ~ ' | $.*.;.;.=.=.=.*.*.*.*.%.%.%.%.%.$.@.$.$.$.$.$.*.*.*.$.$.$.$.$.$.&.&.&.&.&.&.&.$.$.$.$.*.*.*.*.%.%.%.%.%.%.%.%.$.$.$.$.$.&.&.&.&.| | | | ............&.&.*.*.*.*.&...} ` ^ R 1 * # @ O O o 8 8 8 8 8 8 8 8 8 8 e ",
"e e e 0 8 8 8 8 o o O O @ # + + % & & : I W ) ' | *.*.;.;.;.;.*.*.*.*.%.%.%.%.%.$.$.$.$.$.$.$.$.%.%.$.$.$.&.&.$.&.&.&.&.$.$.$.$.$.*.*.*.*.*.*.%.%.%.%.%.%.%.*.$.$.$.&.&.&.| | | | | | | ..........&.&.*.*.*.*.&...} ` ! R , * # @ @ O O 8 8 8 8 8 8 8 8 0 0 8 8 ",
"e e e e 8 8 8 8 o o o O . # + + # % & = > Y W ) { | *.*.;.;.;.;.*.*.*.*.*.%.%.%.%.$.$.$.$.$.$.$.$.$.$.$.$.&.$.$.$.$.&.&.$.$.$.*.*.*.*.%.*.*.*.%.%.%.%.%.%.%.$.$.$.&.&.&.| | | | | } } | ........&.&.&.*.*.*.&.| } ` ! T , = # @ @ O O 8 8 8 8 8 8 8 8 8 e 0 e e ",
"e e e e 8 8 8 8 8 o . . . @ # + # # % & & > I ! ) { | &.*.;.;.;.;.;.;.;.;.;.%.%.%.%.$.$.$.$.$.$.$.$.&.&.&.$.| | $.$.$.&.&.$.$.$.*.*.*.*.*.*.*.%.%.%.$.$.$.$.$.&.&.&.&.| | | | | } } } | ....&.&.&.*.*.*.*.&...{ ) ! Y > = * # @ O O o 8 8 8 8 8 8 0 8 0 e 0 0 8 ",
"e e e e e 8 8 8 5 X . o O @ @ # + % % & & & : I T ~ ' } $.*.;.;.;.:.:.:.;.;.;.=.%.%.%.%.%.$.$.$.$.&.&.&.| | | | | | &.&.&.&.&.&.$.$.*.*.*.*.$.$.$.&.&.&.&.&.&.| &.&.| | | | | | } } } | | ..&.#X*.*.$X*.&.| { ` ! Y , = * # @ @ O O 8 8 8 8 8 8 0 e e e e 8 8 8 ",
"e e e e e 8 8 8 8 5 o o o O @ @ # + % % % & & : < T ~ ` } | *.;.;.;.:.:.:.:.=.=.=.%.%.%.%.%.$.$.&.&.&.| | | | | | | | | | &.&.&.$.$.$.$.$.$.&.&.&.&.| | | | | | | | | | | | | | | |  .| ....&.*.*.*.$X&... .) ! Y , = * # # @ @ O 8 8 8 8 8 8 8 0 e e 8 8 8 8 8 ",
"e e e e e e 8 8 8 5 5 o o O O @ # # % % # + % & : < T ! ` { | &.*.;.;.:.:.:.:.-.-.=.=.%.%.%.%.$.$.&.&.&.| | | | | | | | | &.&.&.$.$.$.$.&.&.&.| | | | | | | | | | | &.&.&.&.| | ..| ......&.&.*.$X$X&... .) ! Y < = * # # @ @ O 9 8 8 8 8 8 8 8 0 e e 0 8 8 8 8 ",
"e e e e e e 8 8 8 8 5 5 o o O O @ # # + # # # % & : > I ! ~ ' } $.%.=.=.;.:.:.-.-.-.-.=.%.%.%.*.$.$.$.&.&.&.&.$.$.&.&.&.&.&.&.&.$.$.$.$.&.&.| | | | | | | | | | | &.&.&.&.&.&.&.&.&.&.&.&.&.&.*.&.&.| [ ] ! Y < = * # # @ @ O O 9 8 8 8 8 8 8 8 0 0 0 8 8 8 8 8 ",
"e e e e e e e 8 8 8 8 5 5 . . . O @ # # # % % % & % = : < Y W ~ ' | &.*.;.;.-.-.-.-.-.-.=.%.%.*.*.*.*.$.*.$.$.$.$.$.$.&.$.$.$.$.*.*.$.$.&.&.| | | | | | | | | &.&.&.&.$.$.&.&.&.&.&.&.*.$X$X$X&... .[ / T R 1 = * * # @ @ O O 9 8 8 8 8 e e e 8 8 8 8 8 8 8 8 8 ",
"e e e e e e e 8 8 8 8 5 5   . . O O @ # # % % % % % % & & : I U ~ ' } $.%.=.-.-.-.-.-.-.=.;.*.*.%.%.*.*.*.%.*.*.*.*.*.$.$.$.$.*.%.%.%.$.&.&.| | | | | | | &.&.&.&.$.$.*.*.*.*.*.*.*.$X$X$X$X+X|  .] ~ T < 1 = * * # # @ O O 9 8 8 8 8 e e e e 8 0 8 8 8 8 8 8 8 ",
"e e e e e e e 8 8 8 8 8 5 5   . o O O @ # # % % # # # + % & : > T ~ ` { | $.%.%.%.=.=.=.=.*.*.%.%.%.%.%.%.*.%.*.%.%.*.*.*.$.*.*.%.%.%.%.$.&.&.| &.&.&.&.&.&.$.$.$.*.*.*.*.*.*.*.*.$X#X#X#XQ.| [ ] ! T < 1 * * # # # @ @ O 9 8 8 8 8 e e e e e 8 8 8 8 8 8 8 8 8 ",
"8 8 8 8 8 8 0 0 0 8 8 8 5 5   . . . O O @ # # # # # # # + % & : > Y ! ~ ` ' } | $.$.%.%.%.*.*.;.;.=.=.=.=.=.=.=.;.%.%.%.%.%.%.%.%.%.%.%.$.$.$.$.$.$.$.$.$.$.$.%.*.*.*.*.*.*.*.&.&.+XQ.Y.L. .[ / ^ R < 1 * * # # @ @ @ O 9 8 8 8 8 0 e e e e e 8 8 8 8 8 8 8 8 8 ",
"e e e 0 0 0 0 e e 8 8 8 8 5 5   . . . . O @ # # # # # # + + + & = : < Y T ! ~ ` ' } | $.$.*.*.;.=.=.=.=.=.=.=.=.=.=.=.=.%.%.%.%.%.%.%.%.%.%.$.$.$.$.%.%.%.%.%.%.*.*.*.*.*.*.&.&...|  .[ ] / ^ T < , = * * # # @ @ @ 9 9 9 8 8 8 8 e e e e e 8 8 8 8 8 8 8 8 8 8 ",
"8 8 8 8 8 8 8 e e 8 8 8 8 5 5       . . O O @ @ # # # % + + % % & % = : < Y T ! ~ ` ' } | $.$.%.%.%.%.%.%.=.=.=.=.=.=.=.%.%.%.%.%.%.%.%.%.%.%.%.%.%.%.%.%.#.%.$.$.$.$.$.&.&...|  .[ ] / ^ T < 1 = * * # # # @ @ @ 9 9 9 8 8 8 8 0 e e e e 0 8 8 8 8 8 8 8 8 8 8 ",
"8 8 8 8 8 8 8 8 8 8 8 8 8 8 5         . o O O @ @ @ # # # # # # # + % % & : < Y T ! ~ ` ' { | | $.$.$.$.$.$.%.%.%.%.%.%.%.%.%.%.%.%.%.%.%.$.$.$.$.$.$.$.$.$.$.$.| | | | |  . .[ ] / ^ T Y < 1 = * # # # @ @ @ @ 9 9 9 8 8 8 8 0 e e e e e 0 8 8 8 8 8 8 8 8 8 8 ",
"8 8 8 8 8 8 8 8 8 8 8 8 8 8 5           . o O O @ @ @ # # # # # # # # % % & = : < Y T ! ~ ) ` ' ' { } } } | | | $.$.$.$.$.$.$.$.$.$.$.$.$.$.$.$.| | | | } { { { { { ' ' ` ) / / ^ T R < , = * * # # @ @ @ @ O 9 9 9 8 8 8 e e e e e e e 0 8 8 8 8 8 8 8 8 8 8 8 ",
"8 8 0 8 8 8 8 8 8 8 8 8 8 8 8 5 5         . . o . O @ @ # # # # # # + + % % % & = : : < Y T ! ! ~ ~ ~ ) ` ` ' { } | | | | | | | | | | | | | | } } { ' ' ' ` ` ) ) ~ ~ ! ! T T R < 1 1 = = * * # # @ @ @ O O 9 9 9 0 e e e e e e e e e e e 8 8 8 8 8 8 8 8 8 8 8 ",
"8 8 8 8 8 8 8 8 8 8 8 8 8 8 8 8 8 3           . . O O @ @ # # # # # + + % % % % % % & = : > < Y Y T T ! ! ~ ~ ` _ { { { | | | | | | | } } } { ' ' ' ` ) ~ ~ ~ ! ! ! T T Y < < 1 ; = * * # # # # # @ @ O O 9 8 8 8 e e e e e e e e e e e e 8 8 8 8 8 8 8 8 8 8 8 ",
"8 8 8 8 8 8 8 8 8 8 8 8 8 8 8 8 8 5 5           . . . O @ @ # # # # # + + + + # # # % % & = : < < Y Y T T ! ! ~ ) _ _ { { } } } } } } { { { ' ' ` ) ~ ~ ! ! ! T T Y Y < < 1 = * * # # # # # # # @ @ @ O 9 8 8 8 8 e e e r r r e e e e e e 8 8 8 8 8 8 8 8 8 8 8 ",
"8 8 8 8 8 8 8 8 8 8 8 8 8 8 8 8 8 5 5             o O O @ @ # # # % % + + # # + + # # # % & = : : < < Y Y T ! ~ ) _ _ { { { } } } { { { { ' ' ' ` ) ~ ~ ! T T T Y Y < < 1 = = * # # # @ @ @ @ @ @ @ @ O 9 8 8 8 8 e e e r r r e e e e e e 8 8 8 8 8 8 8 8 8 8 8 "
};
