/* XPM */
static char *_a8dc3c3a70e462fdb603bf68f366aacj40IF6HMamgTaVzW[] = {
/* columns rows colors chars-per-pixel */
"256 256 231 2 ",
"   c #3C3E3D",
".  c #393735",
"X  c #3C332F",
"o  c #51271E",
"O  c #562D24",
"+  c #5A342B",
"@  c #423F3C",
"#  c #4A3D38",
"$  c #5D3E34",
"%  c #553D36",
"&  c #422C26",
"*  c #63392F",
"=  c #67362C",
"-  c #77372D",
";  c #633E34",
":  c #6B3D33",
">  c #733E33",
",  c #7C3D32",
"<  c #652E25",
"1  c #3E403F",
"2  c #43413E",
"3  c #4C423E",
"4  c #5D4137",
"5  c #55443D",
"6  c #5D443B",
"7  c #5D483E",
"8  c #564137",
"9  c #624137",
"0  c #6C4136",
"q  c #63453B",
"w  c #6B453C",
"e  c #64483E",
"r  c #6A483F",
"t  c #734136",
"y  c #7C4136",
"u  c #73463B",
"i  c #7B453A",
"p  c #73483E",
"a  c #7B493E",
"s  c #3E3F40",
"d  c #3F4140",
"f  c #434544",
"g  c #4B4543",
"h  c #454847",
"j  c #4C4946",
"k  c #454748",
"l  c #464949",
"z  c #4A4D4D",
"x  c #484748",
"c  c #534641",
"v  c #5B4740",
"b  c #544945",
"n  c #5C4943",
"m  c #534D4B",
"M  c #5A4D4A",
"N  c #4D504F",
"B  c #53504F",
"V  c #5B514D",
"C  c #4D4F50",
"Z  c #4E5151",
"A  c #515454",
"S  c #5B5453",
"D  c #545758",
"F  c #565859",
"G  c #5A5B5B",
"H  c #585857",
"J  c #514F50",
"K  c #624740",
"L  c #644A41",
"P  c #6B4A41",
"I  c #674D47",
"U  c #734B42",
"Y  c #7B4C42",
"T  c #764D47",
"R  c #64524D",
"E  c #6C514C",
"W  c #74524B",
"Q  c #7C534C",
"!  c #7A5046",
"~  c #675955",
"^  c #765954",
"/  c #65615E",
"(  c #6E6664",
")  c #86382C",
"_  c #843E33",
"`  c #893D33",
"'  c #973E32",
"]  c #97392C",
"[  c #BB3E31",
"{  c #B4392D",
"}  c #B02A1F",
"|  c #C6392D",
" . c #DA382C",
".. c #C43E32",
"X. c #CB3E32",
"o. c #D43E33",
"O. c #DD3D32",
"+. c #E23A2E",
"@. c #E23D32",
"#. c #844136",
"$. c #83453A",
"%. c #8B453A",
"&. c #83493E",
"*. c #8C493E",
"=. c #8B4236",
"-. c #9C4236",
";. c #93463A",
":. c #9C463A",
">. c #94493D",
",. c #9C4A3D",
"<. c #944336",
"1. c #AC4536",
"2. c #A3463A",
"3. c #AC4639",
"4. c #A44B3D",
"5. c #AC4B3C",
"6. c #A44336",
"7. c #B44535",
"8. c #BC4535",
"9. c #B64936",
"0. c #BC4837",
"q. c #B34739",
"w. c #BC4738",
"e. c #B54B3C",
"r. c #BC4B3C",
"t. c #AD513F",
"y. c #B4513E",
"u. c #BC523E",
"i. c #BF583F",
"p. c #B1412F",
"a. c #C34436",
"s. c #CB4336",
"d. c #C24937",
"f. c #C54639",
"g. c #CB463A",
"h. c #C44B3C",
"j. c #CB4B3D",
"k. c #CD4936",
"l. c #D34236",
"z. c #DA4136",
"x. c #D3463A",
"c. c #DB453A",
"v. c #D34A3E",
"b. c #DA4A3E",
"n. c #D44B37",
"m. c #C4523E",
"M. c #CB533D",
"N. c #C5593E",
"B. c #CC5B3D",
"V. c #C95336",
"C. c #D3543C",
"Z. c #D35C3D",
"A. c #D8563D",
"S. c #E2463B",
"D. c #E3493E",
"F. c #E24135",
"G. c #D0603F",
"H. c #834C42",
"J. c #8D4D42",
"K. c #834F48",
"L. c #934D42",
"P. c #9B4E42",
"I. c #83534B",
"U. c #8B544B",
"Y. c #895146",
"T. c #945145",
"R. c #9B5245",
"E. c #93544A",
"W. c #9B544A",
"Q. c #9A594D",
"!. c #875A53",
"~. c #975B52",
"^. c #A34E42",
"/. c #AB4E41",
"(. c #B54E41",
"). c #BC4E41",
"_. c #A45244",
"`. c #AC5243",
"'. c #A3554A",
"]. c #AC564A",
"[. c #A8594B",
"{. c #B45243",
"}. c #BD5243",
"|. c #B45649",
" X c #BD5649",
".X c #B35A4C",
"XX c #BC5A4A",
"oX c #B95945",
"OX c #A85C52",
"+X c #B75D52",
"@X c #93625A",
"#X c #B46154",
"$X c #8E7470",
"%X c #C44E41",
"&X c #CC4E41",
"*X c #D34D42",
"=X c #DA4D42",
"-X c #C35244",
";X c #CC5244",
":X c #C45B43",
">X c #CC5C42",
",X c #C45649",
"<X c #CB5649",
"1X c #C4594A",
"2X c #CB594A",
"3X c #D35245",
"4X c #DA5146",
"5X c #D35C42",
"6X c #DB5B44",
"7X c #D45549",
"8X c #DB5549",
"9X c #D3594B",
"0X c #DB594C",
"qX c #C65C52",
"wX c #D95C51",
"eX c #E24D42",
"rX c #E84E43",
"tX c #E25245",
"yX c #E2554A",
"uX c #E1594D",
"iX c #E45846",
"pX c #E25D52",
"aX c #CD6145",
"sX c #C9624C",
"dX c #D36143",
"fX c #D86148",
"gX c #D16356",
"hX c #E36257",
"jX c #E26049",
"kX c #C06A60",
"lX c #9D827E",
/* pixels */
"z z z z z z z Z Z Z Z C C z z l l l l z z l l z z z z z z z z z z z z z z z z z Z Z z C A Z z C C Z Z Z Z Z Z Z Z C A Z Z Z A Z Z Z A A z z C A A Z A A A A A A C Z A A Z A A A Z z h f 1 f f f h f     d 1   s       1 f f f f d f h f f h f f h f f f f f f h f l z z z $X( Z z z z z l l z z z z z z z Z z z z z z l z z z z z Z Z Z A A A A Z A A A A Z A A A A A Z Z A A A A A A Z Z C Z A A Z A A A Z Z A A Z Z A A A A z z Z A A Z A A Z Z z Z Z Z C C Z z z C C C C z z Z z Z Z z Z A A Z Z Z A Z Z A Z Z C C C z Z z z ",
"z z z z z z Z A Z Z Z Z Z z l z z l l z z z z z z z z z z z z z z z z C C z z z Z Z Z Z Z Z Z Z A A N Z Z A Z Z C z z z N z z Z Z Z D D z z z z Z A A A A A A A Z z Z Z Z z z C z l f f d f d f       s   d 1       d f f f f f f h h h f g g g c c 5 5 n v 5 n M R ~ ~ S lX$X/ S h z z z z z z z z z z z h h h l l z z z Z z z l z z z Z A A A A A A A A Z A A A D A Z A A A A A A A Z Z Z A A A A A A A Z Z A A A A A A Z Z Z A Z Z Z Z Z Z A z Z Z z Z N z Z z z Z C C Z C z z Z Z z Z A Z C C Z C Z Z Z Z Z z z Z z z C z l ",
"z z z z z z Z z z z C Z A z z l z l l z z z z z z z z z z z z z z z z Z A Z z z z z z Z Z Z A A A A Z Z Z Z Z z z z z z z Z Z A Z Z Z C z z z z z z z Z Z A A A z Z Z C l f d d f f f     d 1     1 2   1 1 1 f f f f h f f g c 5 q w t $.*.;.;.;.>.<._.'.^.`.`.`.`.].[.'.OXOXOX~.Y.Y U P I n V m z j j z z z z z z z z f l z z z z C A C C Z A A F D F F F A A A A A D D A A Z A D D A A A A A A Z A A A A A Z Z A A A z Z z C Z Z Z Z Z Z Z Z z z Z z z z C Z Z Z Z z Z A Z Z Z Z Z z z Z Z Z A A Z Z C Z Z Z z l l l z z l z ",
"z z z z z z z z z z z z z z z z z z z z z z z z z z z Z Z Z z z z z z C A A A N Z Z Z C Z Z Z C Z Z z Z z Z Z Z z z z C Z A Z Z Z A Z Z z z z Z Z Z Z z Z Z Z A z z l l f d   f d f f d f   f 2 d f f f f h l l l z b M R W J.P.-.{ q.q.r.u.m.-X<X3X3X0X8X4X4Xb.n.n.v.v.3Xj.v.3X;Xh.w.r.).e.5.`.T.Y.U I E R M b m z z Z z z Z z z z z C Z z Z Z z Z A D D F D Z Z A A D A A A A A A A D D A A A A Z A A A A F A Z A A Z Z Z Z Z Z A Z A A A A Z Z Z A Z z Z Z z A Z z C A Z Z Z Z Z Z Z z Z Z A Z z C z z z C z z z z z z z z z ",
"z z z z z z z z Z z z z z z l z z z z z z z z z z z z z Z Z Z z z z z C Z z Z z z Z Z Z A A C z z z z z Z z z Z Z A A Z Z A A Z Z Z Z A A A A Z Z A A A A A A Z h f f d d f d f     d d f f f h l l l l z z S R ^ !.Q._.(.w.a.f.a.s.C.6X0X0X0X0XuX8X0X8Xb.x.v.x.b.b.b.4X8X8X4X8X8X8X4X4X4Xb.x.v.j.f.w.%X}.|..X[.Q.U.Q E R V A A A A A A A A A Z Z Z A A A A A A A A A A A A Z Z F F A D D A A A A A A A A Z Z Z Z Z Z Z A Z Z A A A Z A Z A A A Z Z Z Z Z Z C Z C z z Z A C z z Z Z Z Z Z Z Z A A Z Z z z z z z z z z z C Z Z z ",
"z z z z z Z z z C C z z z z z z z l l l l l l z z z z z z Z Z z z z C Z C z z z C Z Z A A Z z z C C C z C z z z z z C Z A A A Z Z Z Z Z A A A Z A A A Z z z z h 1         f f f     d d f z z A G G B V ^ ~.OX.X,X;Xg.s.x.v.v.n.v.v.4X4X4X4X4X4X4X4XA.b.b.v.4XA.A.tX6X6XA.A.A.v.v.x.x.=X4XyX4X=X=Xv.v.=X=X=X4X3X3Xj.d.}..XQ.U.W I V A D A z A A A Z A A Z z Z A A Z A F A A A A A F G D A A Z A A A A A Z Z Z Z A Z A A Z Z A z Z Z Z A A D Z Z Z C Z A Z A A A Z Z Z z z z z C C Z A A A Z Z Z A Z Z Z z z z A Z z z z C Z Z z ",
"z z l l z C z C z z C z Z z z z Z z z z z l z z z z z z z Z C z z z Z Z Z Z A Z Z A A A A A Z z z C A A A C z z z z C z Z A A Z A Z A Z A A Z A D A z l h h     s   s f s     f f f f z D A z S ~ ^ U.].).h.f.s.k.j.j.v.C.4X4X6X3X6X8X8X6XiXjXuXiXiXiXiXtX6X8XC.A.4X3X3X3X6X3X4X3X3Xv.b.b.6XtX8X4X4Xv.v.v.=X=X3X3X3X*X=X4X3X;X,X.X'.U.W ~ G F F D A A A Z A A A A A A A A A A A A A A A A Z A A Z Z A A z Z A Z A A A Z Z Z Z A Z A D A A Z Z A Z z z Z A A Z Z Z z Z Z Z A C Z Z A A Z Z Z Z Z Z Z Z Z Z Z A Z z Z Z Z C Z z z ",
"z z l z Z z z z z z z z z z z z z z z z z z z z z z Z A Z Z z Z z z Z Z Z Z Z Z A A A A A A A Z z Z Z C C C Z z Z Z A A A z z z N A A A Z z z A A Z Z Z l f     s   f 2 f f f f z A D D S V I U.].(.a...| j.=X4X;X;X3X3X4X8X8X8X8XuXiXiXiXiXiXtX4XA.A.n.v.n.v.v.v.v.j.j.j.3X*X3X3Xj.v.b.x.b.b.b.=X4X3X5XC.3X3X3X3X4X3X3X3X3X4X4X=Xj.%X-XOX@X~ ~ G G G D A A A F F F A A A Z A A Z Z Z z Z A A A A A Z Z Z Z Z Z Z Z C Z A Z Z A Z A A A Z C Z Z Z Z Z C Z Z Z C z z z z Z z z C Z Z Z C Z z Z Z A A A Z Z Z Z z z Z C z z z z z ",
"z z l z z z z z Z z z z z z z l z z z z z z z z z l z z Z z Z Z Z z z Z Z Z A A A A Z Z A Z A A Z z C Z z Z Z z Z Z Z Z A Z z Z A A A A A A z A Z z z z f d f f f f 2 1 f z Z A A A m R Q W.q.a.| X.k.v.3X7X3X&X%X;X3X4X4X4X8X8XtXtX4XA.b.z.z.z.b.4X=Xv.&X&Xj.j.;X;X;X;X&X3X3X3X3X&X*X=X=XtXb.b.v.j.v.*X*X3X=X*X=X4X3X3X*X*X=X3X4X4Xn.x.v.;XqX~.^ ~ G G F A A F D A A A A A D F A Z A A A A A A A A A Z A A Z Z A Z Z Z Z Z Z A Z Z Z Z Z Z Z Z Z Z Z Z Z Z z Z Z Z z z Z z z Z Z Z Z Z Z Z A Z Z Z z z z C C Z Z C z z z z z z ",
"Z z l l z z l z z z z z l l z z z z z z l z z z z z z z A A Z Z Z Z Z z z Z A A A Z C C Z Z Z Z Z z C Z C z z Z Z Z Z z Z Z Z Z A A A A A A N z z Z l h f f f f f f h l Z D A V E ^ ~./.w.a.s.v.=X3X3X&X;X;X;X;X3X3XC.4X4X4X4X4X4X=X=X=X=X=X=X=X4X7X7X7X3X3X;X;X3X;X<X;X;X7X3X7X3X*X3X8X=Xb.=Xb.v.j.v.j.v.*X*X=X3X3X*X3X=X3X8X7X4X=X4X4XC.v.b.0XgXOX!.~ G G A Z Z m A A D D A A Z Z A A A A A A Z A A A D D Z Z A A A Z Z Z A C Z Z A A A A A Z Z Z C Z z z z Z Z Z Z Z Z A Z z N z z Z Z Z Z z z z z z z z z z z z z z z z z l ",
"l z l l l z z z z l z z z l z z l z z z z z z z z l z z Z A Z z z z Z A A Z z Z A Z A Z Z A z z z z z z z z Z N Z Z z Z A A A A A A A A Z z l h l l h h f f f f h z A z A ~ !.'..X}.h.j.v.3X&X&X&X;Xj.;X&X3X8X8X8X4X=Xb.=X=X4X4XyXyXuX8X4X*X4X*X3X3X8X4X*X*X3X3X4X3X7X8X3X8X8X8X4X=X=Xb.x.*X=X*X*Xj.j.j.j.v.*X3X3X3X3X3X3X3X3X3X3X4X3X4X4X4X4X4X4X0X9X+X!.~ / G D A A A D G D Z Z A A z Z A A D A Z Z A A A A A A D A z A A Z Z A A A A A A A Z A Z Z Z z z z z Z Z Z Z z z z C z z z Z Z A Z Z Z Z Z z Z Z z z z z l z z l z z ",
"l z z z l z Z z z z z z z l l l l l z z z z z z z z Z Z z z Z z z z Z A Z A A A A Z A A Z Z z z z z N Z A A Z Z Z z z z Z A A Z A Z Z z l h f f f f h f f f f z z z V I.Q.{.d.f.j.;X&Xj.h.h.h.%Xj.&X&X3X3X8Xb.b.v.=Xb.=X8XyX4Xb.=X=X*X*X*X*X;X&X&Xv.v.j.*X*X*Xj.v.*X*X*X*X=X=X=Xv.v.v.b.*X=X*Xj.*Xj.&Xj.j.j.*X&X&X;X;X&X&X&X;X;X;X5XC.C.3X3X3X4X4X4X4X3X7X.X!.~ / G G A A A A A Z Z Z Z A F A A A A A A A A A F D F A A A A Z A A Z Z A Z Z Z Z z Z C Z Z z Z Z Z Z Z Z Z Z Z Z Z Z A A Z Z Z A Z Z z z Z C z z Z C z Z C z z l ",
"z z l z z z Z N C z z z z z l l z z l z z z Z C z z z z C z z z z C Z z Z A A z z Z A Z Z A Z z N Z z z A A A A z z Z A Z z Z Z z z l h f f f f f f f h f f f b E !.'.-X&XM.3X3Xj.&X-X;X;X-X-X;X*X*X=Xv.=X=Xc.b.=XtXb.=X=Xb.b.x.v.v.;X;X3X;X;X;X&X&X&X&X;Xj.&Xj.&X;X;X3X3X3X3X*Xj.&X3X3X3X&Xj.j.&X&Xj.j.j.&X3X&Xh.-X;X&X&X;X;X;Xj.;XM.5X>X;X;X3X3X4X3X6X4X0X2X|.[.~.@X( G A A A A A Z z Z A A A A A Z A A A A D D A Z A Z A Z Z Z Z A Z A Z A Z Z z z Z Z Z z Z Z Z Z Z Z Z z Z Z Z A A A Z Z Z Z Z z Z Z z z Z z z z C l z Z z ",
"l z l l z z z z z l l l z z l z z z z z l z Z A A Z z z Z Z Z z N Z Z Z Z A A Z Z z z z z Z z z z z z z z z z z z z z z z z l l f f       f f f f f k z h c P J.4.0.h.j.M.M.h.d.r.h.<X7X3X3X3X=X=X*Xb.b.b.b.b.l.l.z.z.l.x.x.b.=X3X3X7X;X;X<X;X&Xj.;X;X&Xj.j.;X3X3X3X;X7X3X3X3X3X3Xj.;X;X;X3X;X&Xh.h.h.h.j.j.;Xh.).,X-X;Xh.&X;X;X;X;X;X7X<X<X2X;X;X;X;X3X4X4X4X5X-X|.[.~.@X^ S N Z A A Z Z A A A Z A z Z Z Z Z A A A Z Z Z Z Z Z Z Z Z Z A A Z C Z Z Z Z Z Z Z Z Z Z A A Z N z Z Z Z Z A Z Z z Z z z Z C Z Z C z z Z Z C l z z z ",
"z z l l z z z z z z l z z l z z z z z z z z z z z z z z Z Z Z z z Z A Z Z Z Z Z z z z z Z Z C z C C z z z z A Z Z z z z l h f f 1       f f f h f l z b T W.(.a.f.M.;Xm.h.h.m.-X;X;X7X8X8X4X4X4X=X=Xv.x.x.s.X.s.v.x.b.*X=X3X3X3X;X;X;X,X-X;X;X&Xj.;X;X;X;Xh.,X;X3X3X;X;X;X3X3X3X3Xj.;X&X;X3X;Xj.h.h.h.h.h.h.-X-X,X,X-X-Xh.&Xh.h.&X&X;X;X;X;X9X;X<X;X;X;X;X;X3X=X3X1X{.'.'.OX~.I.E S A D A D A D A A A Z A A A A A A A A A A A A A Z Z A Z Z Z A Z Z Z Z Z Z Z A Z A Z Z A z Z Z Z A A Z Z Z C Z z Z Z Z Z A Z Z Z Z z z z z z z ",
"z Z z z Z C Z Z z z z z z z z z z z z z l l z z z Z z z z Z A Z z z A A Z C Z Z z z z C C Z Z C Z A Z z Z A Z Z z z l h f f d f f f f f d d f k x c P R.,Xj.j.v.;Xh.r.h.h.;X;X3X*X=X4XyX=X=X3X8X3X&X&Xj.*Xv.v.j.3X*X=X*X*X*X3X3X;X&X;X;X;X3X3X*X3X3X3X7X7X&X;X;X3X7X;X&X&X;X;X;X;Xh.-Xr.-X-X-X-X-X-Xr.0.r.-X-X-X,X-X-X,X-X-Xh.h.;Xj.;X;X;X;X;X;X-X-X-X<X;X;X3X3X3X7X9X1X|.`.{.XX+XQ.W V A A D D A A A A A A A A A A A A A A Z Z A A A A A Z A A A A Z Z A A A Z Z A Z Z Z Z Z Z Z Z A A A Z A A Z A A Z z C C z z z z C z z z z ",
"l z Z Z z z z z z z z z z z z z z z z z l l l z z Z z z z z Z Z A Z A Z Z Z Z Z z z z Z Z Z C z C A A A z z z A Z z f d     d f h f f f f h h c U *.6.d.M.;X;Xh.r.u.h.j.3X3X4X=X=Xb.x.x.=X3X3X3X3X;X;X&X&X3X&Xj.3X*X*Xj.&X&X3X3X;X;X3X0X7X7X3X*X3X3X=Xv.*X*X3X3X*X3X;X;X;X;X-X-Xr.r.}.e.,X-X}.}.}.).}.}.-X-X-X}.}.}.,X,X-X-X-X-X;Xh.;X;X;X3X;X;X;Xh.-X;X;X3X;X;X;X3X3X6X2X,X{.5.{.,X XE.R A Z A A A A A A A D D A A Z A A Z A A A A Z Z A A A Z A A Z Z Z Z C Z z z Z Z Z Z Z A A A D D A A A Z C C z z z z C z z z z z z z z z ",
"l l z z z z z z z z Z Z z z z z z z z z l l z l l Z z z Z z z z Z Z z z z z z Z N z Z Z Z z z z z z Z z z z Z z k d   d 1 d f d f f h f f 5 P L.e.0.h.j.k.h.u.u.r.-X;X=X8X4Xb.l.g.s.j.=X4X4X8X8X4X3X3X;X;X3Xv.j.*X*Xj.g.j.j.j.;X;X;X3X7X3X;X&X*X*Xj.j.j.j.&X;X3X3X;X;X<X;X<X,X,X}.%X-X%X-X%X).-X,X,X-X}.,X,X}.e.}.}.<X<X;X%X-X;X;Xh.%Xh.%X;X;X;X;Xh.-X-X;X;X&X;X;X;X<X;X;X;X;X-X}.}.-X2X.XQ S A A A D A Z Z A A A A A Z Z Z A D A Z Z Z Z A Z Z Z Z Z Z A A Z Z Z Z A Z Z Z A A A Z Z Z F D D Z Z Z z Z z Z Z Z A z z C z z z z ",
"z z Z Z Z Z Z C Z C z z z z z z z z z z z z z z z z z Z Z Z Z Z Z z z z Z C z z z z z C z z l z z z z z Z z Z z h f d   1 f f f f f f 2 q L.}.m.h.M.M.m.h.h.h.h.;X3X4X4X=Xx.s.f.j.*X3X=X=X=X8X8X4X3X&X&X&X;Xj.j.&X3X&Xj.h.h.-X-X-X<X;X-X,X;X;X3X3X;Xj.&X;X;X;X;X3X;X;X;X;X<X2X1X-X-X,X-X-X-X-X,X-X-X-X;X-X<X}.}.).).3Xj.h.h.,X<X%X-X%X%X<X;X;X;X-X-X-X-X-X&X;X;X;X9X2X<X-X-XM.C.;X2X,X-X<X1XE.V A A A A A A Z Z Z A A A A Z A A A A D D A Z A A A Z Z Z A A A A A z Z Z C Z Z Z Z Z Z Z Z A A Z Z Z Z Z Z Z A Z z z z Z z z z z ",
"z Z Z C Z Z Z Z Z z z z z z z Z z z z z z z N z z l z Z Z z Z Z C z Z Z A Z z z z Z z N z z z Z z Z A z Z z l z l h f f d f h f f x K &./.d.k.k.h.h.h.-X;Xj.h.&X3X3X=Xx...s.j.j.j.3X=X*X*X4X8X4X3X3X&Xh.j.;Xj.h.j.j.j.h.h.-X,X}.).}.-X}.}.%X%Xj.j.j.;X&X&X;X<X7X3X;X;X;X;X,X}.}.}.}.}.}.-X-X;X-X-X&Xh.j.&X<X,X,X-X%X..{ d.-X,X-X).-X%X-X<X,X,X,X-X,X,X,X,X-X;X;X3X<X,X,X,X<X;Xj.M.h.;X2X<X;X2XOXW S A A A A Z Z A Z Z Z Z A A Z A A A A D A Z Z Z A Z Z Z A D Z Z C A Z Z Z z Z Z A A A Z A Z A A Z z Z Z Z A Z z C z z z Z Z Z ",
"z z Z Z Z C C C z z z z z l z z z z l z z z z z C Z Z C Z C Z Z Z Z Z Z z z Z Z Z z Z z Z Z A Z Z Z Z z l l z l h d 1 d d f f f c Y ].%Xs.k.h.h.h.h.&X&Xj.&X*X3X*Xj.g.j.j.h.-X;Xj.j.4X=X4X8X4X3X3X3X;Xh.h.;X*Xh.h.;X;Xh.%X-X}.,X,X}.-X-Xr.r.h.d.h.h.&X&X;X&X;X3X*Xj.;X;X;X<X-X,X-X-X-X}.,X<X<X;X;X-X;X%X-X-X-X-X-Xr.j.&X%X-X,X%X%X;X-X,X,X,X,X,X,X,X,X,X-X-X;X;X;X-X,X,X-X;X;X;X<X,Xm.%X;X3X7X9XqXE.V Z Z Z A A A Z Z Z A D A A A A D D A D A Z Z Z Z Z Z Z Z z C A A Z A Z Z A A A A A Z Z Z Z A Z Z Z A Z Z Z Z Z C z Z Z Z A ",
"Z Z Z C z z z z l l z l z Z z z l z z z z z z Z Z Z Z Z z Z Z Z Z Z A A A Z A z Z z Z Z z z z z Z z z h f l l h f     2   d g K >.q.d.h.;X;Xh.h.j.j.*X*X=X*X*Xj.&X&Xj.j.j.j.;X;X3Xj.v.v.4X*X3X4X7X*X&Xh.h.;X&Xj.;X;X&X&X;X-X-X-X-X,X,X-X-Xr.e.q.r.-X%Xj.j.j.h.;X;Xj.h.h.;X-X,X,X-X-X-X-X;X;X-X;X%X%X-X;X<X-X-X}.,X).%Xh.h.e.}.h.r.h.-X-X-X,X1X,X,X-X,X<X<X<X;X;X-X,X-Xr.h.;X;X;X9X9X;X<X;X;X3X0X0X2X'.E D Z A A Z Z A A A A A A A A D F A Z A Z Z Z Z Z C Z Z Z Z A Z Z Z Z Z Z A A A Z Z Z Z Z Z Z Z Z Z Z Z Z Z C z z Z Z A A ",
"Z Z Z z z z Z Z z z z l z z Z z z z Z Z z Z Z Z Z z z z z z z Z C A A Z A A A N z z Z Z Z Z z z Z z h f f f d f d   f @ 2 5 0 6.8.d.-X;Xm.h.j.*X*X8X8X4X=Xj.j.&X&Xh.;X&Xj.j.&X3X&X*X*X=X*X*X3X3X;Xh.%X}.h.h.h.h.&X*Xs.j.h.}.,X}.}.-X,X}.).).e.e.e.).%Xh.%X&Xh.-X-X-X-X-X}.,X,X,X,X-X%X%X;X;X;X%X%X%X-X;X&X;X;X,X,X,X).%X}.}.-Xr.-Xh.-X-X-X<X,X,X,X-X;X;X7X3X;X;X<X<X%Xr.h.h.h.-X;X7X7X;X;X2X;X3X0XwX9X XI.M A A A Z A A A Z Z A A D A A A A Z Z A A Z Z Z A A Z Z C C Z Z A Z Z Z A Z Z A A Z A Z z Z A Z Z Z A A Z Z z z z C A ",
"z z Z Z z z Z A z z l l z z z z z Z Z A z z Z A A Z z z Z z N N z Z Z z C C Z z z Z z Z A A z z z l l f f f   d f f f g P ,.1.h.M.m.;Xh.h.;Xj.=X4X8X=Xx.b.3Xj.h.&X;X;X;X;X&X3X3X&X&X&X3X;X&X&Xj.h.r.r.}.}.-Xh.h.;Xj.f.&X;X-X,X}.-X,X,X}.}.e.e.}.}.}.-X,X,X;X-X-X-X-X;X-X}.,X,X,X-X}.-X-X;X<X<X-X-X;X;X;X;X;X;X<X;X,X,X,X-X,X-X%X-X-X-X-X,X;X-X<X;X;X;X;X3X3Xj.;X;X&Xh.;X;Xj.h.;X<X;X;X;X3X9X>X<X3X8X8X0X<XW.R A A A A A A A A A D F A A A A Z Z Z A Z Z A Z Z C Z Z Z Z Z Z Z Z Z Z A D A A A Z z Z A A Z D A A A A z z z z Z Z ",
"l l z Z A A Z z z z z z z l z z z z Z z Z Z C C Z Z z z Z Z Z Z A Z z z Z z z z Z A A z z Z z z l l h f 1   f f f 2 n H.5.h.j.-X-Xm.;X3X;Xj.v.=X=Xx.l.g.j.&X;X;X3X3X3X*X3X3X3X;X;X;X&X&X;X;X;X;X%X-X-X}.r.-X-X;X3X&X;X3X;X<X-X).,X<X-X-X-X}.-X,X,X,X<X,X,X;X-X-Xh.m.h.%X-X-X;X;X<X-X-X<X<X<X-X-X-X%X;XM.-X-X-X,X,X<X<X-X-X,X-Xh.r.}.-X-X,X;X<X;X;X;X&X;X;X;X;X;Xj.&X;X3X3X;X;X;X;X-Xh.h.M.4X3X7X;X3X3X7X0X9X|.W S A Z A A A A Z A A A A A A A A A A A D A A Z Z Z Z A A A Z A Z C A Z A A Z A A Z A A A A Z Z Z Z Z z z Z C C Z ",
"z z Z A A Z z l z z z z z z z z z z z z z Z Z Z C z z z z z z z z z z Z N z z z A Z Z Z z z h f f f d f f f 1 @ 5 a ^.e.d.h.m.-X-X;X3X3X3X3X4X=Xb.*X=X*X*X3X3X3X3X7X3Xj.j.&X;X;X;X;X3X3X;X3X7X7X;X<X<X;X;X;X;X7X7X;X3X8X3X3X;X-X,X;X;X-X-Xh.,X<X<X<X;X<X<X;X;X;Xh.h.h.-X<X<X7X3X;X-X,X,X<X<X-X-X-X;X3X;X<X,X,X,X,X,X;X;X<X,X-X-X,X,X-X,X,X).;X;X&X&Xh.;X&X;X;Xj.&X;X3X&Xj.&X;Xh.%X,Xh.h.M.5X3X0X7X;X;X7X8X8X0X,XU.V A A D A A Z A A A A A A A A A A D D A Z Z Z Z Z A A A Z Z Z Z A Z C Z Z z Z Z Z Z Z Z Z Z C Z A Z C Z C z C ",
"C z Z Z Z Z Z N z A A Z Z A A A D D F F D D A A A A A z z Z A A Z Z Z Z z z z z Z A A D z h f f f f f h l h g r >.}.h.h.-X-X-X;X8X8X3X0X0X*Xj.j.*X3X3X*X=X*X*Xj.;X3X&Xj.;X-X-X,X;X&X3X7X7X3X7X3Xj.h.h.&Xj.;X7X7X3X;X3X*X*X;X;X;X<X;X;X<X;X-X<X2X<X3X7X7X7X7X7X;X;X;X<X<X7X9X7X3X;X<X<X<X<X-X,X;X;X<X<X<X2X,X,X1X1X2X<X;X-X;X;X;X-X,X-X;X-X,X;X3X;X&X%X;X;X;X&X;X3X7X3X;X;X;X&X&X-X,X<X&Xj.M.;X3X3X7X3X;X7X7X8X0X2X[.W D A D D F F A A A A A D A Z Z A A A Z Z Z Z A A A A A A A D D A A D A A A A A D D Z A Z A D A z z Z Z A A ",
"A D A A Z A Z A Z A A Z z z Z A Z Z A F D A Z A A A D A A A A A A A A A A A A D A A z l h h f f f f h x g v Y _.).r.r.u.}.-X;X8X=X=X3X3X3Xj.;X;X;X3X*Xv.*X3Xj.j.;X;X%Xh.-Xh.-X-X;X;X7X3X7X7X3X3X;Xj.h.3X3X7X3X3X;X;X3X3X;X7X;X<X<X9X<X<X<X;X;X<X7X3X7X7X3X3X7X3X7X3Xj.;X7X3X3X;Xh.%X-X<X-X,X<X;X2X<X,X}.}.}.}.,X1X-X,X-Xh.;Xj.;X;X3X7X;X7X;X;X;X3X;X;X;X;X;X;X;X;X;X;X7X3X;X;X<X,X,X,X%Xj.3X;X;X;X4X3X<X;X3X3X*X0X9X.X! S D D A D A A A A A A A Z A A Z A A A A A A F D F D D G F F F G G F F G G D A Z Z D D D D A A A Z Z Z C ",
"z l f z l h f l z z l l h h z C z z z l z z z z z l l l z z z Z z z z Z z l z Z Z z f f   s f f f f f f q P.e.7.7.9.9.e.h.*X=Xv.=X*Xj.j.j.h.;X3X3X*X=X*X*X*Xf.h.-X;Xh.h.r.r.r.h.j.3X3X3X3X3X;X&Xj.h.h.&X&X;X;X;X&X-X;X3X;X3X;X;X;X;X;X;X-X;X;X;X7X7X3X7X7X3X3X3X7X3X&X3X4X4X3X;X;X-X-X,X-X,X,X;X3X8X;X-X}.}.}.}.}.}.}.r.-X;X&X;X&X3X3X3Xj.&X-X&X&X&X&X;X;X&X3X7X3X;X;X;X;X;X-X-X,X,X-X;X;X;X;X;X;XM.M.4X3X3X;X3X4XuX0X1XU.R D A Z A A A A D D A D G F A A Z A A Z A A Z A A Z C Z Z z Z A A A A C z Z C z C Z Z Z Z Z Z Z C z Z ",
"z l l z z z z z z z z l l z l l z C C z Z Z A Z z l l h l z z z z z l l l l l z l f f f       d h h 2 r ^.f.8.0.r.r.h.;X3X=Xg.j.j.j.j.j.&X&X3X*X*X*X*X*X*X3X&Xj.;X;X&Xh.h.h.%X;X3X3X8X*X*X&X&X&X;X;X;Xj.&X;X3X&Xd.h.;X*X;X;X;X;X;X;X;X;X;X;X;X3X8X7X7X3X8X3X3X7X8X7X3X3X=X=X4X3X;X;X<X<X,X-X%X;X..s.;X<X-X,X,X-Xe.}.}.r.-X3X3X&X3X3X&X*X*X3X7X7X;Xh.h.j.j.7X7X3X3X3X3X;X-X,X,X-X;X;X;X;X;X%Xj.&X;Xh.;X*X4X7X9X7X4X4X8XuX9X'.W G A A D A A D A A A A Z A Z Z Z Z A C z Z Z Z Z z z Z Z z z z z Z z z Z Z A C Z A Z z z z z z Z A ",
"Z A A A A A A A Z Z Z z z z Z z z Z A A A A A Z z z z z z Z A Z z z z z z z l f   1 1 1     1 f h 3 Y (.a.f.h.-Xh.M.;Xj.s.g.j.d.h.;X&X*X=X3X3X*X3X*X&X&X&Xj.;X;X3X3X3X&X;X;X;X3X3X8X8X8X8X8X3X*X;X;X;X*X3X3X3X&Xh.h.*X*X7X7X3X3X3X8X8X3X3X3X3X3X4X8X8X4X4X4X8X8X8X=X3X4X=X4X8X*X*X&X3X;X;X;Xh.&X&X&X;X;X;X;X,X-X-X-Xr.h.;X&X*X*X3Xj.&X3X&X*X=X3X3X;X;X;Xj.&X&X*X3X8X4X;X-X}.-X-X-X;X;X;X&X;X;Xj.h.;X;X3X3X3X3X3X3X3X=X4XyX7X|.! A Z m Z Z Z Z Z Z z z A A A Z Z A Z A A A A A A A A A A A A Z Z z Z A Z Z C Z Z z Z Z Z A Z Z Z ",
"z z z z z C C z z z Z z z z z z z z z z z C z C Z z z z z z z z z z l l l f 1     1 1 1 f f f f 5 i q.a.d.;X;X&X*X3X3Xj.j.h.-X-X,X;X3X*X=X4X4X4X=X*X*X&X;X;X;X;X;X3X3X*X3X;X;X*X3X8X8X4X8X8X3X3X3X*X;X3X3X3X7X7X3X;X*X=X=X*X*X3X4X4X4X=X=X=X=X=X4X4X4X4X4X4X4X4X4X=X*X=X=X4X4X4X=X3X4X3X8X*X3X4X=X*X;X3X;X;X;X<X;X-X-X;X&Xf.f.4X*X;X&X&X&X3X7X8X3X*X3X7X3X;X&X3Xj.*X*X;X-X-X-X-X;X<X;X;X;X;Xj.h.;X;X;X7X3X3X3X3X3X;X3X=X=X4X7X{.U B B Z A A A Z A A A A A Z A Z Z z Z Z A A A A A A A A A Z Z z z z Z z z z Z z z z z Z C Z Z Z ",
"l l l z z z z Z z z z z l l l l z z Z Z Z Z z z z z z l h l z z z z z z f   f f 1 f f f h h x K L.w.a.r.h.3Xv.*X=X*Xj.&X-X-X;X;X<X;X3X*X=X=X*X=X*Xj.&X&Xj.3X3X;X&X;X3X=X3X*X3X3X3X3X4X4X4X3X8X3X3X3X3X3X8X4X8X0X7X3X7X3X*X=X=X4X=X4X4X=X4X4X4X=X4X4X8X8X4X8X4X4X4X4X4X4X8X8X8X8X4X4X3X8X4X4X4X=X*X4X7X7X7X7X;X;X;Xh.;X;X&Xj.&X&Xj.3X3X;X7X3X3X3X3X*Xv.*X3X3X3X3X&Xj.;X-X-X-X-X<X;X;X;X;X;Xh.h.;X;X;X3X&X3X3X3X4X3X7X7X7X*X4XpX0X XI.S A A A D A A A Z Z A A Z Z A Z Z Z A Z A A Z Z Z A A A Z z Z Z z z z z z z Z Z Z Z z C Z Z ",
"l l l z z z z z z z z z l l l z Z Z Z A A A Z Z Z Z Z z z Z Z Z z Z z h f f f f 2 f f f h g q >.f.g.-X}.-X*Xv.j.s.a.f.h.h.%X;X;X;X3X*X3X*X&Xj.&X*Xj.j.&X7X3X3X7X7X3X3X*X*X*X3X3X3X3X4XuX8X8X8X3X3X4X8X8XuXuXuX8X4X=X3X4X8X8X4X4X8X4X3X*X*X*X3X3X=X=X3X8X4X3X*X3X=X*X*X=X4X8X8X3X3X3X3X*X*X=X=X*Xv.j.j.&X3X3X;X3X;X;X&Xj.j.j.&Xj.j.&Xj.;X3X3X&Xh.h.j.*X*X*Xv.3X3X3X&Xj.-X-X%X-X;X&X;X-X-Xh.h.h.h.-X3X&X;X;X;X;X;X3X8X0X9X7X3X4X0X0X,XY.A A D A A A A A A A A Z A A A D A C A A A Z A Z A A Z A A A A Z Z Z Z Z Z Z Z Z Z Z Z Z z ",
"z z z z z z z z z z z z l z z z z z N A z Z A A A Z z z z A A A z l f d d d 1   f h f h g w 2.a.k.m.-X-X;Xj.v.g.h.h.j.;X;X&Xj.*X3X4X3X3X3X;X;X;X3X3X;X3X9X9X7X0X0X0X7X3X7X7X3X7X7X3X8X8X8X4X4X3X3X8X8X8XuXyX4X=Xx.*X=X=X=X*Xj.v.*X*X*Xj.j.j.j.j.*X=X*X*Xv.*X*X*Xj.j.&X*X4X3X3X3X3X*X;X;X&X3X*X*Xj.j.j.j.&X&X&X;X;X;X;X*X*X&X*Xj.;Xj.h.;X&X;X;X3Xj.;X3X&X&X;X;X&X3X3X3X<X-X;X<X;X;X;X-Xh.r.%X-X&X;X&X;X;X;X;X;X3X3X3X3X7X9X9X8X3X0X8X XI.S G D A A A Z z A Z C Z A Z Z C Z A A Z Z A A A A A A D Z A A Z Z Z A Z A A Z A A Z C C ",
"Z Z Z Z z Z Z z Z Z Z Z z z l z z l z z Z z z z Z z z z Z A Z Z l     f f f f f f f h c 0 3.k.k.j.-X-X-X&X&Xj.j.j.;X;X&X*X*Xv.=X=X=X3X3X3X;X7X;Xh.;X3X3X3X;X3X3X3Xj.*X&X3X3X;X;X;X3X3X*X=X=X3X4X=X4X4X=X4X4X4X=Xx.j.v.v.*X*X*X=X*X*X3Xj.j.j.j.j.*X=X=X*X*X*X3X3X*Xj.*X*X8X8X3Xj.&X&X;X3X;X&X&Xj.j.&Xj.&X3X;X;X;X&X;X3X3X&X3X*Xj.;Xj.;X;X-Xh.h.;X;X;X;Xh.h.h.&X&X&Xj.3X3X;X3X;X;X-X-Xh.h.h.h.;X;Xj.j.;X&X;X-X;X7X3X3X3X3X9XwX9X3X4X0X0X,XQ.S A A Z Z z z A Z Z Z Z Z Z Z Z A A Z Z A A A A Z Z Z z Z Z Z z z C z z z z C C C z Z ",
"z z Z z z Z Z z z Z N z Z A z z Z Z Z A A A A A A A Z z z z z l 1   2 @   f f f f 2 g Y q.k.k.h.-Xr.m.h.h.r.0.h.j.j.j.j.v.b.b.=Xv.v.*X3Xj.;X&X&Xh.h.;X3X3X3X*Xj.f.s.*X3Xj.;X;X;X3X3X3X4X3X3X=X4X=X*Xv.*X=X=X=X=X*X*X*X&X*X*X*X*X*X*X&X&Xj.&X*X*X*X=X=X*X=X=X*X=X=X=X3X*X4X7X;Xh.h.;X3X;X3X3X;Xj.;X&Xj.;X3X3X;Xj.&X&X;X&X3X3X*X3X3X;X;X;X-X-Xh.-Xh.%X%Xh.-X-X;X;X3X3X3X*X3X7X7X7X;X;Xh.h.h.h.j.&Xj.;X3Xj.-X<X3X&Xg.j.j.3X4X7X7X7X0X0XuXwX<XL.M D A A A A A A A A D A A A A Z A A Z Z Z Z C Z Z Z Z C z C Z Z Z Z A Z Z Z Z A A A ",
"z z z z z z z z z z N Z Z N Z A D G G D A A Z Z z z l f h z z f   1 f   f f f h f g Y }.v.g.j.-Xh.h.&Xh.r.).).h.h.h.j.*X*X=X4X*X*X=X*X3X3X3X&X&X3X3X;X3X3X3X3X*X&Xj.*X*X&X&X;X;X;X*Xv.=X3X3X8X4X=X*X*X=X=X4X=X=X*X*X3X&Xj.j.*X*X*Xj.*X&X*X*X&X*X*X*X*X3X=X=X*X=X=X4X4X4X8X3X;X%X%X;X&X&X3X3X&Xj.;X&X;X;X3X3X;Xj.;X3X3X;X3X3X7X0X;X;X<X-X-X).-X-Xh.-X;X;X-X-X<X;X;X;X&X&X&X*X7X3X3X&X;Xh.%X;X&X&Xj.&Xj.%X-X;X%Xh.h.j.j.&X3X3X3X0X0XwX0XhX0X2XQ.~ S F D A A A D D A A A A A A A Z A A Z Z A A Z Z Z Z Z Z C Z Z A D Z Z A A Z C C ",
"Z Z z Z Z Z z z z z z Z z z z f f Z F Z z z l z z l z z z z l d   f 1 f f f f f g Y }.C.j.j.j.;X;X&X;Xh.}.,X,X}.h.h.;X3X=Xb.=Xb.v.=X*X3X4X*X;Xj.;X3X3X&X3X3X4X4X3X3X&Xj.&X&X;X7X3X4X=X4X3X3X3X4X4X3X=X=X=X4X=X=Xv.&X;X;X3X&X3X*X*X*X*X;X&Xj.j.&Xv.*X3X3X&X&X*X*Xb.b.v.*X3X3X;X-X-X-Xh.h.&X;Xj.;X;Xj.;X;X;X;X;X3X;X3X;X;X3Xj.f.f.g.;X<X-X-X}.}.).-X-X-X-X-X<X7X7X;X3X3X;X7X7X3X3X*X=X;Xh.-Xh.h.h.h.h.h.&X;X&Xh.;Xj.%X&Xj.3X3X3X3X3X&X;X7X0X0X,XW.~ G A A A A D F D D A A Z A A A A Z z Z Z Z Z A Z Z A A C A A A A Z Z A A Z C C ",
"Z Z z Z Z Z z z z C z C Z Z z l f f l z z Z Z A A Z z z z l f 1   2 d f f f f 3 a e.C.4X;X;XM.&X;X&X-X-X-X-X-X}.%X;X7X4X=X*Xv.*X=X=X*X*X4X3X&Xj.;X3X*X3X;X3X3X3X3X3X3X;X;X3X&X;X3X=Xv.3X3X3X3X3X4X3X3X=X3X4X4X4X3X3X;X;X3X&X3X3X3X3X3X3X;X&Xj.&X*X3X&X3X3X3X3X8Xb.v.j.j.&X;X-Xr.r.r.h.;X;Xh.h.h.h.h.;X;Xj.%X;X;X;X;X&X;X&Xj.g.g.;X;X;X;X,X,X(.e.}.}.}.}.e.r.h.%X&X&X;X;Xh.&X;Xj.j.*X=X&Xh.r.r.h.d.d.h.;Xj.j.;X;X-Xh.h.h.j.j.;X&X3Xj.&X;X7X8X7X<XQ.~ C C Z z C A F A z Z A A Z A A A A A A A A Z Z Z Z Z Z A A A Z z z z z Z Z z ",
"z Z A A Z Z A z z A A A A Z z z Z h l Z Z A A z z z Z z f f         f f f f 3 &.0.v.4X4X;X3X3X&Xh.-X,X-X-Xh.r.-X;X7X8X=X*Xj.j.v.b.b.*X*X=X4X*X3X3X3X*X3X3X3X*X3X3X3X3X;X;X;Xh.;X3X=Xv.3X7X3X3X3X8X8X8X4X3X4X4X*X*X&X;X&Xj.j.3X3X3X;X&X&Xj.j.j.;X3X;X3X3X3X3X3X4Xv.j.j.j.j.h.}.e.r.r.h.;X;Xh.h.h.h.j.3X3X3X;X;X;X;X;X;X3X;X&X*X&X;X;X%X%X;X-X-X}.{.{.{.}.}.r.-X-X;X;X;Xj.&X;X;Xj.3X*X*X=X&X;X-Xh.h.%X;X;Xh.;Xh.h.%X-X-X-Xh.-X;X3X3X&X3X;X3X7XwXwX,XQ.~ D D A z h z A A Z Z Z A A Z z z Z Z Z z z Z Z Z Z Z Z A A D A A A Z Z z Z ",
"z z z N A A Z z z z z z z Z z z Z z z z z z z z z z Z l           d 2 1 h g i 0.n.C.3X3X3X3X&X&Xh.e.}.}.%X%X-X&X3X4X4Xb.*X3X3Xv.=X=X=X=X=X4X4X3X3X;X;X3X3X7X3X3X3X*X3X;X;X;X;X3X3X3X*X;X;X;X;X;X3X7X4X*X*X=X4X4X8X7X3X3X;Xj.;X;Xj.j.h.j.j.h.j.;X3X3X3X3X3X3X3X3X*X;X;X;X;X%X}.}.}.-X-X-X-X-X-X&X&X3X3X3X;X%X;X&X3X3X3X3X;X;X*X3X3X;X3X7X;X;X2X,X,X X X,X,X,X,X,X<X<X3X;X;X;X;Xj.&X3X*X*X3X3X;Xh.;X&X&Xh.-X;X&X;X;X;X<X-X-X%X-X;X&X*X3X;Xh.;X7XwX7X-X~.G A Z Z f h z C Z Z Z A A Z Z A A Z z Z Z A A Z Z C z C Z Z Z C C z z l z ",
"z z z z z z z z z z z z z z z z z z z z Z z z z z z f 1       f 1   2 f c a e.C.v.=X3X4X4Xv.&X-X,X}.}.-X-X;X;X3X=X=X=X*X3X3X8X3X=X=X=X3X*X4X4X*X&Xj.;X;X;X&X3X3X3X8X3X3X3X7X7X3Xj.&X&X&X&Xh.;X3X3X3X*X*X3X=X4XyX8X3X3X3X;X;X;X;X%X-X-X;X&X&X;X;X;X;X3X3X3X8X3X3X3X;X;X;X;X-X}.}.}.}.,X,X}.-Xh.h.;X3X3X;X;X;X;X;X3X3X3X3X;X7X3X3X7X7X7X3X3X<X<X,X2X2X1X,X,X2X1X,X,X-X;X3X;X%Xh.&X&X&X;X3X*X4X*X;X;X3Xj.;X;X;X7X;X;X<X-X,X-X-X<X;X;X&X3X;X;X;X7X9X9X7X|.!.R m A Z Z A Z A A A A A A A A A D A A Z Z z Z z C Z Z Z Z Z A A Z Z Z Z ",
"A A A z z z z z C Z z z Z Z z z Z A Z Z A Z z z z f   1 f f f f f f h b H.}.C.C.3X0X8X4Xv.j.j.-Xr.e.).-X-X;X*X4X=X=X3X3X8X=X4X4Xx.b.*X*X*X=X3X3X&X&X;X<X;X;X3X3X;X3X3X7X3X3X4X*X&X;X3X;X;X;X3X3X3X3X*X4X4X4X=X4X8X3X3X3X;X-X-X<X<X<X<X;X-X;X;X;X;X;X;X3X8X4X=X=Xj.h.h.h.%X}.}.}.}.}.}.).}.-Xh.h.;X3X;X<X-X;X;X;X;X;X;X;X;X;X;X3X;X;X;X;X;X;X<X<X<X2X<X-X,X,X-X-X-X-X;X;X-X-Xh.&X&X3X;X;X3Xj.*X3Xj.h.h.;X;X;X%X%X;X;X-X-X,X<X<X;X7X3X3X;X3X3Xj.;X3X7X2XXXOXI A A A Z z Z A A D D A A A F F A C C C z Z Z Z A A Z C Z A A Z z z z ",
"A A z h z Z z z Z Z z N Z Z N z Z Z Z Z Z Z A A f 1 f f h h h f f f b U.e.j.j.j.*X4X8X*X;X-Xr.h.-Xr.-X;X;X3X4X=X*X3X3X=X4X3X*X4X*Xb.*X=X=X=X*X4X=X3X&X;X;X3X3X3X3X3X7X8X3X8X4X4X7X<X;X;X&X;X3X3X8X0X8X4X8X4XtX4X=X*X*X3X&X-X-X<X<X,X,X-Xh.h.h.;X3X;X7X8X8X*X3X3X;X;X;Xh.h.}.-X,X,X,X,X}.-X-X-X-X%X;X;X-Xh.;X&X;X;X-X;X;X;X;X;X3X3X;X&X;X;X;X3X;X<X;X%X<X7X-X}.-X-X,X,X-X-Xr.%Xh.&X&X*X3Xj.&X3X*Xg.h.&X&X;X<X,X,X;X;X<X,X<X;X;X&X;X;X;X3X3X7X;X&X3X3X0X2X-XE.V A A z f l z C Z Z Z C Z Z Z Z C A A Z Z Z A F A A A A Z A A A Z z ",
"z f f z z Z A A A Z Z A Z Z Z Z Z A A A A z z f     d     d f f f g U.}.j.n.j.;X*Xb.l.h.h.-Xr.r.-X-X;X3X8X4X=X*X3X3X3X=X=X4X=X4X8X*X=X=X8X8X8X8X8X7X8X3X7X7X7X7X7X7X8X8X3X3X8X3X-X}.r.r.0.-X<X3X7X7X8X=X4XtX=X=X=X=X*X3X;X-X-X;X,X,X}.r.r.r.-X;X<X9X7X4X=X&X3X7X3X;X;X;X<X-X;Xh.;X;X<X<X-X%X-X-X<X<X7X<X<X;X;X<X<X;X2X<X<X;X;X;X;X;X;X;X;X3X3X3X3X&X;X3X;X;X,X-X}.-X-X,X-X-X-X-X;X;X*X4X3X7X7X3X3X3X3X;X-X,X,X-X-X-X,X-X&X&X&X%X;X;X<X;X;X;X3X;X;X7X8X0X<X|.^ A N z k h l Z A Z A A A A A A A A A A A A G A A A F F A A A Z z Z ",
"h l l z z z z z z z z z z z l z z z z Z Z Z l               f f g Y ).a.n.k.j.v.*Xx.a.8.0.r.r.).-Xh.&X3X*X*X3X&X3X3X3X8X4X4X8X8X8X*X*X4X4X8X8X4X4X7X8X3X3X;X-X;X;X7X3X3X3X*X*Xj.e.}.}.-X).e.h.&X;X;X*X*X=X=X=X=X*X*Xj.;X-X,X,X,X,X,X,X,X,X,X2X<X;X<X;X*X&X&X3X;X;X;X;X7X9X9X;X;X;X;X-X,X-X;X%X;X2X;X;X%X-X,X;X-X-X<X,X-X-X-X-X-X-X;X;X&X3X3X7X7X3X8X0X3X3X7X7X<X9X7X,X,X<X;X,X1X<X&Xj.j.3X8X3X3X7X4X3X3X;X;Xm.-X-X-X-X;X&X-X;X<X<X;X<X;X3X3X;X3X;X;X3X7XwX2XOX^ m l l h h l z C Z A A A A A A Z A A C Z C Z z z A A Z C z z Z A ",
"z z z z z z z z z z Z Z Z z z z z z l l l l 1     d     1 f h f P {.k.C.C.v.j.*Xg.g.h.h.r.}.}.e.h.&X=X*Xj.j.&X;X3X3X=X4X=X=X=X=X*X*Xv.=X=X=X=X*X*X4X3X3X;X3X;X;X3X3X3X;X-X&X=X&X}.}.}.,X,X,X,X;X;X3X*Xj.j.*X*X&X;X-X-X-X}.,X1X2X<X<X;X<X,X,X2X<X;X-X<X;X,X-X-X}.,X,X,X-X;X<X-X%X%Xh.-X-Xh.%X%X;X;X;X3X&X<X;X;X;X-X<X<X2X2X<X,X,X,X<X,X<X7X9X7X7X0X8X3X;X7X3X;X9X7X9X,X;X-X-X-X,X%Xh.h.h.*X4X7X&X&X3X3X3X3X3X<X2X;X;X;X<X<X9X9X7X<X,X-X-X%X;X*X&XM.j.h.;X3X7X-XU.~ h f f f f l Z Z C A Z A A A Z Z A Z N h z A F A z z z z A C z ",
"A A Z Z z z z z z z z z l l z l l z z h f 1   f h h f f d f h K 4.h.C.4Xj.g.h.s.j.;Xm.h.r.e.q.r.&X3X*Xv.j.j.j.3X3X=X=X=X4X=X*X=Xv.=X*Xs.g.b.=X*X=X4X3X3X3X3X3X3X3X;X<X}.,X3X3X*X;X-X,X<X-X,X<X-X;X;X;X,X;X;X<X1X1X,X,X-X<X9X<X;X;X;X;X;X;X;X3X;X;X;Xh.;X-Xe.q.e.}.,X).).-Xr.e.).}.}.,X,X,X,X-X}.-X-Xr.-X;X;X;X;X;X-X-X,X,X,X,X,X,X,X<X<X<X<X3X7X7X&Xj.3X3X;X3X3X;X;X;X%X-X-X}.-X-X-X,X;X;X3X4X*X;Xj.*X;X;X3X7X7X7X;X<X<X<X;X%Xh.%X-X%X-X-X;X3X3X3X3X3X;X3X3X9XW.^ S f l h d f z Z Z A A A D A A A Z Z Z Z z l z h l z Z Z Z z z ",
"z z z z z z l l l l l l z z z z z z z z h f f h f f       f c L.d.C.C.x.g.j.h.a.h.h.h.-X%X).e.r.h.j.j.&X*X=X=X4X=X=X4X4X4X=X*X*X4X=X=X*Xg.j.=X=X=X*X8X3X0X7X7X;X,X,X1X,X,X3X3X;X-X-X}.%X%X%X-X-X}.}.}.<X7X;X-X<X2X;X;X;X;X3X;X;X&X;X;X&X;X;X3X3X3X;X&X3X&Xd.r.-X<X<X-X-X-X-X}.}.}.,X1X}. X}.}. X X{.{.}.r.h.j.;X3X;X,X,X,X-X-X,X-X-X-X-X%X%X;X3X;Xh.;X3X;X3X7X3X;X3X3X7X<X,X,X-X,X,X,X<X;X;X3X8X3X3X;X3X3Xj.&X3X7X7X;X-X-X-X-X;X;X;X;X,X,X<X;X;X3X8X7X;X3X7X0XgX#X@Xm k k f f h C A D F D D A Z Z Z Z A A Z A A A A Z A A A Z Z ",
"z l z z z z l l l l l z z A z z z z z l h f f f f f   2 f m H.e.j.v.v.j.*Xj.j.h.h.-X-X}.-X-X}.}.%Xh.h.j.*X4X4X0X4X4X8X3X3X4X=X3X4X4X4X3X3Xh.&Xv.=X*X=X*X3X3X&Xh.}. X X}.r.&X3Xh.r.r.e.0.h.h.r.-Xr.q.h.3X3X3X;Xh.&Xh.h.;X;X3X3X7X3X*X*Xj.3X3X3X3X3X7X3X8X3Xj.&X;X<X<X<X,X,X,X,X,X}.-X,X}.{.}.}.}. X}.}.,X%Xh.;X3X;X;X;X,X<X<X<X<X,X<X<X<X;X;X;X;X;X3X3X3X3X;X;Xj.3X;X;X;X7X;X-X-X}.e.-X<X;X<X;X3X3X3X&X;X&X;X3X3X;X&Xh.%X-X-X,X<X<X<X-X,X,X,X,X-X3X3X*X*X&X<X7X0X7X+X^ h h h h f z Z A A D F F D D A A A D D A A F D A Z z z z Z ",
"Z Z Z Z z z A A A A z z z z z z z Z z f d d f f h f f f z W `.m.4Xv.g.j.%Xr.r.h.-X-X,X,X,X-Xr.-Xh.h.j.j.j.=X=Xb.=X*X*X3X3X*X3X3X=X=X3X*X;X-X%Xj.v.v.*X=Xj.j.r.e.(.{.(.{.e.j.*Xg.h.h.r.h.&X&Xh.;X;Xh.v.v.*X3X3X3X3X3X*X*Xv.*X*X3X3X*X*Xj.*X*Xj.j.&X3X3X=Xv.j.;X-X-X-X-X<X<X,X,X,X-X;X;X<X,X,X,X<X2X,X2X;Xh.j.3X7X7X7X8X7X7X7X0X9X2X2X,X-X;X;X,X,X;X7X<X<X<X;X;X&X;X;X;X;X7X;X;X<X,X,X,X,X,X-X-X;X3X3X3X3X3X7X8X3X;X;X;X3X3X<X<X-X,X,X-X<X,X}.}.}.%X3Xj.*X&X-X;X*X7X,X!.A k h f f h C A A A A A D F A A A A D A Z Z Z A A A z z z ",
"A A z z z A A Z A C z z z z l z z z f d   d d f f f f z E _.0.;Xj.g.d.h.h.r.r.q.r.-X,X,X,X-Xe.h.h.h.h.j.g.v.b.b.v.*X*X*X*Xj.3X=Xv.g.j.v.&Xh.j.*Xb.=X=Xv.h.r.(.{.y.{.{.}.-X=Xb.j.j.&Xj.h.;X*X&X;X3X*Xv.b.*X4X4X=X*X=X=X=X=X=X=X*Xj.g.j.j.j.j.&X&Xg.v.*Xv.s.j.3X;Xh.h.d.-X<X-X-X;Xh.;X3X3X3X3X,X9X;X-X;Xj.h.d.r.-X;X;X*X=X7X*Xg.3X%X;X-X-X&X<X,X<X9X-X}.2X;X;X;X;X;X;X7X;X;X;X;X;X-X,X).).-X,X,X;X3X3X3X3X7X3X*X3X;X3X7X7X;X<X-Xr.h.-X-X-X,X,X}.}.-X3X3X*X3X7X;X;X3X7X+X!.b z l k l z A G G G A A Z Z Z C Z Z Z Z Z Z A A Z Z Z Z ",
"A A Z C z Z Z Z z z Z A A z z z z l d   d d s f f f h n L.q.d.j.j.h.-Xh.d.r.r.0.r.-X%X;X;X;X-Xr.h.h.h.j.&Xs.x.v.=X*X&Xj.s.v.=X*X&X&X&Xj.j.;X*Xb.=X*Xj.h.-X}.{.{.}.}.}.}.-Xb.b.*X&X&Xj.d.&X3X*Xj.*X=Xb.b.v.=X=X=X*X=X*X*X*X=X*X*X*Xv.*X3X3X3X8X0X8X4X4X4X=X=X8X3X3X;X;X7X;X;X&Xj.f.h.j.3X3X*X;X3Xj.j.&Xs.f.r.0.0.r.d.j.*Xj.v.s.&X;Xh.h.;X;X;X-X-X%X}.}.,X-X-X%X;X&X&X&X&X;Xh.j.3X;X-X-X-X}.,X,X-X<X;X;X&Xh.j.j.&X*Xj.j.&X-X-X,X;X;X-X-X,X,X,X}.}.%Xj.&Xj.h.;X<X-X<X3X7X+XT j k h h l z A D F D A Z A A C z Z z z l z z Z z z l h ",
"A Z z Z Z Z z z z z l z z z z l l d     1 s     1 f g a q.a.f.s.h.&X;Xh.r.d.d.h.j.&X;X-X-X&Xh.h.h.*X*X&Xj.v.v.v.=X*X&Xj.j.3X=X*X3X;X3X&X*X3X=X*Xb.j.h.}. X X X}.,X,X}.r.;Xv.b.v.&Xr.r.-X-X;X3Xj.j.=Xb.x.x.b.b.b.*X*X=X=X*Xj.j.*X8X4X4X8X8X8X8X8X8X4X=X4X=X=X=X=X4X*X7X7X7X&X&Xh.h.j.j.*X*X*X3X*Xg.&X=Xs.j.j.h.d.;Xj.3X3X3X*X*X3X3X7X;X;X;X;Xh.).}.,X-X-X}.1X;X;X;Xh.;X;Xm.-X;X3X3X<X<X1X,X,X}.,X,X-X;X;X;X;X3X3X3X3X;X<X;X<X;X;X;X-X-X-X-X-X-X).r.0.r.r.r.r.%Xh.h.;X&X;XU.x h f f f f l z z z z z A A Z Z z z z z z l z l h h h ",
"z z l l l z l h h l h l l l l z z f             1 x K 2.a.s.v.s.*X4X8X3X;X;Xj.&X3X3X3X;X;Xh.h.j.*Xj.v.*Xj.&X*Xv.j.&Xj.3X3X3X*X*X3X3X3X=X=X*Xj.j.h.h.h.}.}. X}.}.}.r.r.h.&X=X=Xg.r.e.}.r.r.r.h.&X&X3Xb.x.b.b.tX=X=X=X*X*X3X=X=Xb.4X4X=X=X=X*X=X4X4Xx.x.v.g.v.j.v.*X*X*X*X3X*Xj.j.&Xj.j.j.j.&X;X&Xh.j.g.a.j.s.a.f.;X7X7X3X7X7X3X3X3X3X3X;X;X-X-X-X,X<X-X,X,X,X<X<X,X;X;X;X;X;X;X&X&X&X-X-X,X}.}.,X,X<X;X3X7X3X3X3X3X7X9X7X3X3X;X<X,X,X;X;X;X;X;X,X}.r.-X}.-X;X3X7X<X,X&X3X+X~ k h h l z z z A A Z A A Z A Z Z Z A Z Z Z Z z z Z Z ",
"h l z l h z z l z z z z Z z z l f 1           f z R L.h.h.h.j.v.*X8XuX8X3X&Xj.j.3X3X*Xj.j.*Xj.j.=Xb.j.j.j.g.j.*Xj.j.&X&X*X=X*Xv.j.=Xb.*Xb.g.f.d.%X%Xh.}.}.}.,X}.e.-Xh.&X*Xx.g.d.r.}.).r.e.e.h.j.&X*Xb.x.eX=X=X4X=X4X8X8X4X=Xb.x.x.b.v.*X3X*X=X*X3Xg.g.j.j.*XM.h.j.j.j.j.j.j.j.v.3X*X&X&Xj.&Xj.h.h.d.d.d.h.f.a.a.j.&X;X3X;X;X;X;X&X&Xj.&X;Xh.h.-X,X,X,X<X;X-X,X,X,X%X;X7X7X;X;X-Xj.3X;X,X<X<X1X1X2X2X2X7X7X7X;X3X3X&X;X7X3X3X3X;X;X;X;X;X;X;X;X-X-Xr.-X-X-X<X3X7X<X-X-X*X1X@Xj l h h l z z Z A A D F D A A Z Z Z Z A Z Z Z z Z Z ",
"z z z z z z z z z z l l z z z l d       d f f h m U.r.j.h.j.j.*X3X4X=Xb.*X*X4X4Xj.j.j.h.f.g.&Xj.x.*Xv.j.j.j.j.*Xj.j.*X*X*Xv.v.j.s.j.=X*Xx.g.h.d.%Xh.h.-X-X,X,X-X-X;X&X&X=X=X&X%X-Xr.d.r.u.r.h.j.g.v.x.x.x.x.l.b.eX4X=Xb.b.g.s.g.f.s.j.j.j.&X3X*X=X=Xj.j.&X7X9X7X7X&X3X3X3X3X&X*X3X*Xj.j.j.&X3X<X-Xr.-X-Xh.h.8.h.j.j.*X4X*X;X;X;X&X&Xj.*X3X3X7X;X-X,X-X-X-X-X}.,X-X-X;X;X&X&X-X,X2X;X3X;X<X<X,X,X}.}.,X<X%X-X-X&Xj.j.j.j.j.h.;X7X7X3X3X;X<X;X%Xh.h.r.-X,X-X-X-X-X;X;X;X3X7X+XW z l l h l h l z A A Z Z A Z A Z z Z A A Z Z Z A G ",
"Z Z A A A Z z z l z z l z z z l f   d f z h   2 6 2.8.a.h.j.=X4X8X=Xl.l.*X*X3X3X&X;X3X;X;Xj.j.=Xv.b.b.j.j.j.j.j.&X&Xj.*X*Xj.&X;Xj.&X=X=Xj.j.j.h.h.r.h.;X;X-X;X-X;Xj.j.*X*X*X3X&X,X-Xd.h.-X;X&X3X*Xv.b.b.s.x.b.b.b.x.b.b.v.j.-X-X;X;Xd.r.0.h.;X;X-X%Xh.r.-X;X8X8X8X4X0XpX0X9X7X7X3X7X4X*X&Xj.&X%X-X}.}.}.).r.8.f.h.f.j.j.;X&Xj.h.&X&Xj.j.;X3X*X3X7X;X-X}.).-X-X}.-X-X-Xr.%X;X-X,X}.%X&X;X;X-X,X,X X}.}.r.r.h.%Xh.g.j.%Xh.j.j.&X3X3X3X3X;X;X;X&Xd.h.h.%Xr.q.r.r.h.r.h.&X&X3X<X[.c h h f f f l l Z A Z Z Z z z z z z C Z C z Z Z z ",
"z z z z z z h l l z z l z z l h     1 d f   1 m *.7.0.h.&X=XeXeXeX=Xl.v.3X;X3X&X;X;X3X3X*Xj.g.*X4Xv.v.*Xj.&Xj.j.j.h.h.v.*Xj.h.&X&Xj.b.b.j.s.h.d.r.h.h.&X;X;X;X;Xj.h.h.h.r.r.j.h.;X;X&X;X;X3X3X8X8X=X=X4X=X=Xb.z.b.=X*X*Xj.h.-X,X,X X X|. X{.}.}.{.XX|.{.{.q.r.j.*Xb.=XyXpXuXwXhXwX8X*X*X3X3X;X;X;X&X;X<X-X%Xd.h.j.j.h.h.h.h.j.j.j.g.s.&X&X&X*X*X3X7X;X,X,X-X-X,X-Xr.r.-X;X;X<X-X-X,X;X3X3X<X,X,X-X,X-Xh.h.%X;Xj.j.;X;X&X&X3X3X3X3X3X3X7X7X;X%X%X-X%Xh.0.0.r.%X%X-Xh.;X;X;X&X<XY.g l h f f h h z Z Z Z Z z z z z z z l z z z k f ",
"z z Z z z z z z z z z l l h f 1     1 d f f f P 1.8.f.*X=Xb.z.c.S.l.g.j.j.&Xg.f.h.0.d.s.v.j.v.g.v.v.g.v.&Xj.&Xj.h.j.j.j.&Xj.&X3X*X=X=X4X=Xj.h.h.r.h.-X;X3X;X;X;X;Xj.d.0.3.3.h.j.&X&Xj.j.j.j.v.=Xb.b.b.D.z.x.=X=X4X4X&X%Xe.).}.}.{.{..X.X|.{.(.).}.1X1X2X2X2X2X<Xj.j.v.g.s.| | s.3XpXhXhXwX8X7X7X9X7X3X;X;X;X;X;X&X;X;X;X;Xh.j.j.g.f.&Xj.j.3X3Xj.&X*X;X;X<X,X,X}.e.u.-X-X;X;X;X<X<X-X,X-X3X;X-X,X<X,X-X,X;X;Xh.h.j.;X;X;Xj.3X3X*X3X3X3X&X&X;X;X).e.e.r.h.&X%X-X<X-X%X&Xj.h.;X;XXXT j l h f l l l C A Z A A A A Z A A Z Z Z z z Z ",
"Z C A A Z z z Z z z z z z f 1     d f 1 f z M -.8.h.j.=X=Xb.z.S.z.X.g.*X*X*Xs.s.j.-X%Xj.g.=Xb.b.x.*X*Xv.*X&X&X;X%Xj.=Xj.j.&X*X4X4X4X4X4X3Xj.h.-X,X-X-Xh.j.;X;X;Xj.&X&Xr.e.}.;X3Xj.j.v.g.v.b.b.x.b.b.l.X.l.v.v.j.;X-X).{.{.{.(.e.(.{.}. X}. X}.}. X{.e.e.).}.}.-X<X9X2X2X2X7X;Xh.a...g.*XwXhXhX0X7X7X7X3X3X3X3X7X;X-X-Xh.&X3X;Xh.a.j.*X&X*X*Xj.;X3X3X=X3X3X,X}.}.,X-X).-X;X;X;X;X;X;X%X-X;X3X;X;X;Xh.-X,X<X;Xh.h.;X;X;X3X3X3X*X=X=X*Xj.j.j.&X%X%X).}.-X;Xj.%X-X-Xh.h.h.;X<Xh.;X;X^.5 h f f f f h l Z A Z A A A A A C z z z z z A ",
"z l l z l l z z z z z z z f 1 f d f f f f A Y 7.f.j.&X4X4XtXtXb.l.x.j.*X*X3X3X3X3X&X;X&X*X=X=X=X4X3X3X*X*X;X%X%Xh.j.*Xj.&X=X=X4X4X=Xb.*X=X&Xh.h.-Xh.;X-Xh.&X;Xj.h.h.h.-X%X;X4Xj.j.v.=X=Xb.x.=X=Xv.s.s.h.h.h.h.f.).{.{.{.{.t.5.e.{.{.{./.^._.R.L.*.&.H.J.&.$.$.%.%.>.>.#.>._.^._.`.{.).r.w.f.3XpXhXwX3X3X7X0X0X3X3X;X;X;X-X;X;Xh.h.d.j.j.*X*X3X3X;X3X3X3X*X3X<X<X,X-X-X;X-X;X;Xj.h.&X;X-Xh.;X3X;X&Xj.&X;X-X).r.-X-X-X;X3X*X=X=X=X3X=X*X*X3X3X3X-X-X,X;Xg.j.;X-X}.h.j.h.r.,X;Xj.;X<XH.g l h f f h h z z z z z C z z z z Z z z Z C ",
"C l z z l l l z z z z z l f f f f f f f z E 2.a.h.3X4XeX=X=X=Xx.x.j.&X*X&X;X3X;Xj.j.h.h.f.b.b.b.=X=X*X&X&X-Xr.h.j.&Xj.4X=X*X=X=X4X=X=X=X=Xj.h.h.h.d.d.h.j.&X;Xh.-Xh.h.h.j.j.b.b.v.v.v.b.b.c.v.v.&X;X;X;X-X}.e.e.{.`.(.).}.{.`.`._.'.T.! r I I I K q q q q q q q q q w w 0 w 0 0 0 u i $.%.:.{ [ j.7XhXpX0X7X7X3X8X8X7X9X2X,Xr.h.h.j.j.h.j.3X;X;X;X;X3X3X3X=X3X3X<X;X-X-X-X-X-X;X;X;X;X;X,X-X;X;X;X;X;X;X-X).-X-X-X-X;X=X=X=X=X3X3X3X3X7X*X*X3X;X7X7X3Xf.j.;X-X-X-Xh.h.h.<X<X;X;X7X Xw x h z h h h l z z C z z z z Z Z Z Z A Z Z ",
"z z z z z z l l l z z l f d 1 d f f   l m ;.a.h.j.4XtXz.l.z.x.x.*Xj.&Xj.&X3X*Xj.a.f.&Xd.f.X.l.b.x.j.g.d.0.r.d.j.3X3X3X3X*Xv.b.=X=X4X*X3X*X*X;Xh.h.j.h.h.&X&X&Xh.e.}.h.&Xj.v.b.b.z.x.x.v.x.l.x.*X;X;X%Xr.e.{.{.{.{.{.(.e.e.5._.J.Y U P e K 6 K K 7 e e q 6 q q q e q q q q q q q r r r w w w y ;.<.] [ ;XhXhX7X3X3Xj.v.*X&Xj.;Xd.w.d.h.j.%X%Xh.h.;X;X&Xj.j.=X3X=X8X3X3X-Xr.-X-X<X;X,X-X;X;X-Xh.h.&X;X;Xr.r.-X-X-X-X-X;X3X=X*X*X=X3X3X3X*X=X8X8X3X3X&X&Xh.;X;X;X;Xh.-Xr.%X&X&X;X<X;X3XP.5 f f f f z z C A A A A Z Z A A A A A z z ",
"z Z Z z z l l f l z l f f f   1 d f f z U 7.f.h.v.D.eXl.l.l.x.x.v.=X&X&Xj.j.g.s.j.j.j.3X*Xx.s.x.b.v.j.h.r.d.h.&X*X*X3X=X*Xb.b.=X=X*X=X3X=X*X;Xh.h.j.j.h.;X;X-Xr.r.;X3Xj.j.*Xc.z.z.z.c.z.s.g.x.g.d.r.e.e.{.{.{.{.y.{.{._.P.J.i w e e L L L L L K K K e e L e q e e e K 6 e e L q e e P P P P U w u t #., ) ^.qXhXhX0X7X3X3X3X;X&X-X-X%X%X-X).%X-X-X-X&X3X3X3X3X*X*X3X3X%X0.r.%Xm.<X,X-X-X-X-Xh.h.j.&Xr.q.r.h.r.r.e.-Xh.j.j.b.x.v.*X=X3X3X8X4X*X*X&X&X;X;X<X;X&X%X}.-X-X&X&Xj.*X3X7X*X;X0 @ h z h h h z Z Z Z Z z z Z C A A Z z l ",
"z z z z z z z z z z l f 1 1 d d 1 1 h M :...f.h.v.o.o.x.=Xx.v.v.v.g.j.j.j.j.h.h.j.3X&Xj.*X*X=Xv.*X=X*X3X;X;X&X*Xv.v.*X=X=X=Xb.b.*Xj.j.*X*Xj.&X%X-Xh.&Xj.h.).).-X;X;Xv.*X*Xb.z.z.z.l.x.x.g.h.h.d.e.{.{.{.(.e.e.(.}.{._.H.r q q q q L K K e K K K K L L L L L q q q 6 K L L e I P L L L L e q q q q r P U 0 : - -.;XhXhX0X7X3X;X<X;X;X2X2X,X<X<X2X-X-X;X;X3X3X&X&Xj.j.*X&Xd.%X;X&Xh.;X-X,X,X-X;X<X;X%Xh.r.}.}.}.-X,X-X-X;X;X*Xb.b.b.b.=X=X=Xb.j.&X;X;X;X3X;X3X*X;X;X;X&X&X;X;X&X&X<X*X3X/.% f z z f h z Z z z z z Z Z Z A Z z z l ",
"l l z z z z z Z z z z h d f f   d h m Y 8.s.j.j.b.l.l.=X=Xv.=X*Xj.j.*Xj.j.s.h.r.g.3X%Xh.h.j.*X*Xv.g.j.j.*Xj.*Xv.v.=X*X=X4X=Xb.b.*X=X&Xv.*Xj.h.j.h.&X;X;X).}.-X<X;Xj.g.j.=X=Xz.z.x.b.b.&Xh.m.}.}.{.{.{.{.{.y.`.^.P.$.u q q q q e q q K K K L K q L L L L K q e q q q q e q q q q e e e L L L L K 6 e e r q r q = ) { f.3X8X3X7X7X3X7X9X9X7X<X<X;X,X<X,Xm.h.;X;X&X&Xj.*X3X7X3X;X3X;X;X;X<X,X;X;X-X-Xh.-X-X}.}.}.}.}.,X,X,X<X&X*X=Xv.b.=XyX8X8X0X7X7X3X3X8X8X3X*X*X3Xv.s.h.-X-X;X&X&X;X3X<XH.2 Z A f f z Z Z Z Z Z Z Z Z Z Z z h f ",
"Z A A A Z z Z A Z z l h f f f f f A R 6.a.h.g.j.b.b.b.x.l.b.v.j.&X&Xj.j.f.g.j.h.&Xh.r.d.f.d.j.*Xv.x.x.g.v.=X=X=X*X*X*X=Xb.b.=Xb.=X=Xj.&X&X&Xj.j.3X&Xh.r.q.e.-Xh.g.*X*Xb.=Xb.v.x.v.b.*Xh.h.e.{.{.{.{.`.{.{.{.R.a r L L e q e e 7 K L K K q K e e L e L L e e e e q q q L e P e e q q q q L L L e L e e q 6 q q e w #.:.r.;X3X8X8X*X3X;X;X;X;X;X;X-X-X-Xq.0.h.j.*Xj.j.j.3X;X;X;X&X;X;X;X<X-X-X-X-Xj.-X-X).).).}.}. X}.}.}.%Xh.&Xj.3X=Xb.b.=X=X*X*X=X=X*X4X8X=Xj.g.j.s.f.r.).r.h.h.j.;X;X*X(.4 B D z f l z z Z Z z Z Z A Z Z z l l ",
"A Z z z z l l h h l h f f f     f j y [ a.d.g.v.b.c.l.l.v.j.j.j.f.j.h.h.f.s.s.f.h.j.f.f.g.f.s.j.v.x.x.g.v.*X*X3X=X=X*X=X=X*Xv.*X=X*Xh.j.j.j.;X*Xg.r.0.e.e.r.r.a.g.v.b.x.x.v.v.v.v.j.h.e.e.e.e.(.e.}.XX|.P.&.u e e e e L K e e e 7 K K q K e e e q q q e e e e q e e q e e e P e q r r q q P e q q q q K e q e e q r w &._.}.-X3X0X8X3X3X3X;X;X<X,X}.).).}.e.h.3X7X;X;X;X;X;X;X3X;X;X;X<X,X,X-X-Xh.-Xh.-X}.}.}.}.}.}.}.-X,X;X;X3X7X4X4X=X=X4X3X*X=X4X*Xj.&X8X3X*X3X&X;X-X-X}.-X&X3X;X;X*X;XL.~ D Z l l C Z Z z Z A z z z z l f f ",
"f f f h l h h h f h f           h 5 -...h.j.*Xv.x.x.=Xv.j.&X&Xj.&Xj.j.j.v.s.f.h.h.&Xh.h.g.j.b.v.*Xx.v.b.b.*X=X=X=X4X=X=Xb.b.v.*X*X*X3X;Xj.j.3X*Xj.r.).}.,X;X&X3X&Xb.z.x.x.x.*X*Xj.h.}.{.{.`.{.e.r.).`.*.u q q e e e K K L L e K L e e K K K K e q q 6 6 q q 4 q L L q 4 e e P L e e r r r P P L L L L L L e e L L L L q w &._.e.h.8X0X0X0X7X;X<X<X,X,X,X,X).%X;X;X;X;X;X3X;X;X;X&X&X;X-X-X-X).}.,X-X&X%X).}.}.}.}.}.,X,X<X;X;X3X3X3X=X4X4X=X*X=X3X*X*X&X3X3X*Xj.&Xj.&X;X-X,X-X;X&Xh.h.&X3X}.U ~ A z l z Z A C z Z A Z z z k f f ",
"z z Z Z z z z l l h h f d d 1 z z U w.f.h.j.*Xv.g.x.x.*X&Xj.&X&Xj.j.j.j.g.j.&X-X-X-X;Xj.j.j.=X=Xv.x.b.=X=X=X=Xv.*X*X=X=Xb.=X*X*X*X*X&X;X;X4X*Xg.;X}.}.}.,X-X3X3X4Xb.x.x.g.g.g.s.8.q.{.|.`.{.}.}.e.>.t q L L L L K L K K K K L L L n K K L L L P e e e q q e q 4 q q 4 % q q q q q L L L L L e e q e L L L L L L P P L K L e w $.4.h.*X0X0X7X;X;X-X-X-X}.).,X,X,Xh.;X;X;X;X;X;X;X;X;X;X<X,X}.}.}.,X-X;Xh.r.r.{.|.,X-X1X,X,X,X;X;X3X&X*X*Xv.x.x.*X*X*X*X*X3X=X*X*X&X&Xj.%X}.}.}.r.h.j.j.j.j.&XP.R D z z k Z Z z Z Z Z C z z f f f ",
"z z z z z l f f f f f h f f l A V ^.a.h.h.j.*Xv.v.b.b.*X;X&Xj.&Xj.h.;X;Xj.j.%X%X).-X;X;X;X;X*X=X*X*X=Xb.x.v.*X*X*X*Xx.g.x.v.j.j.*Xj.g.a.j.b.g.h.}.{.{.).%X3X3X4X=Xv.v.v.g.s.a.7.7.7.7.q.r.h.e.,.i 9 6 6 q 6 6 e 6 7 e e 7 7 6 6 5 5 6 q e e q e q q e q e P e e q q q q L L e q q q q q e q q q q q q q e L e e e P q q q q q : i P.w.f.3XuX3Xh.h.&X&X-X).}.,X}.e.h.&Xj.h.j.*X;X-X-Xh.;X,X}.}.).}.}.-X-Xh.r.}.1X,X-X-X-X,X-X;X;X&X&X*X*Xv.s.j.&X&X3X3X3X7X3X3X3X;Xj.h.%X).e.<X<X;X;X;X;Xh.3X,XW D A Z z Z A A Z z z Z Z Z l f f ",
"z z z z l f d d     f f f f z A Q w.f.d.j.*X=Xv.j.v.j.j.j.j.;Xh.h.h.h.h.h.h.).e.r.r.h.;X;Xj.j.v.x.v.g.s.s.&X*X*X*Xb.b.v.v.s.s.j.&Xj.j.j.j.f.h.h.r.r.}.-X*X=X3Xx.s.j.v.j.&Xh.e.e.e.e.0.r.d.3.#.0 9 6 6 6 6 4 6 e 6 5 5 6 6 7 7 q e e q e e q q q q q q e e e e e L L P L P e q q e e q q q q q q q q q q q 6 q q q q q q q q 6 q q : L._.1.j.8X;X;X;X3X<X,XXX1X2X<X-Xh.j.&X=X*X&Xh.r.h.r.e.(.e.0.r.r.r.-Xr.q.}.).}.e.r.%X%X-X;X;X&X*X4X=Xv.*X&X&X3X3X=Xj.j.&X3X3X&Xj.h.h.h.h.j.d.h.;X;X;Xh.;X7X'.~ A z z z Z A A A A A A Z l f f ",
"z z l l l f h d f f f d 1 l z n /.a.w.h.3X=X=X*X*Xj.j.j.j.h.%X%Xh.-Xh.h.f.d.).r.r.-Xh.h.&X*X&Xv.v.s.f.f.g.&X3X*X*Xb.b.=X4X=Xs.s.j.h.;X&Xh.m.-X-X-X-X-X-Xj.{ s.v.&Xh.d.0.0.r.r.e.y.e.%X}.,.i q q q q e q q e e K 6 7 7 7 e L L L L L P L L P P P e q q L L e e q q q q q q q q q q q q e e L P e q q q q q e K e q q e e P P e e e q w u L.e.;X8X3X;X;X;X<X,X,X-X-Xr.r.h.j.*X=X3X3X-X-X}.{.{.}.e.e.r.r.0.).}.}.e.e.e.-X,X-X-X-Xh.%X*X4X=X*X&Xj.&X3X*Xv.j.j.;X;X*Xj.m.-X%Xj.h.f.h.&X&Xj.&X;Xj.&X-XI.A z z z N A A A A Z z z h f d ",
"A A z l z l h f f f   d f z j i [ f.j.;X*Xv.j.j.s.f.h.j.h.r.).e.e.h.d.j.j.h.).e.h.&X;X&X&X&X&X*Xv.a.f.h.j.j.j.j.j.v.=X=Xj.g.j.s.f.h.h.d.r.).-Xh.h.-X%X;X;X&X&X&Xh.e.5.5.e.0.e.r.r.r.e.;.w e 6 6 q e q 6 6 6 6 6 7 n K L e q q q q K K L e L e e q 6 5 5 5 5 5 5 c 5 5 5 5 6 6 K K K e e e e r P L e e e e e K K L L L e r r e L e q q q u _.r.;X7X;X;X;X;X-X-X}.-Xr.e.r.d.&X=X*X&X-X}.}.{.{.`.`.{.(.q.).-X}.}.e.}.-X%X).,X-X}.<X;X;Xj.*X*X*Xj.j.*X*X*Xj.&X;X;X&X%Xr.}.-Xh.h.<X2X,X;X3X3X3X;X;X3X].R z l C Z Z A A A C z l h f f ",
"l l l z l l f f f f   f l z n 4.[ 8.h.s.s.s.s.f.a.a.8.8.8.7.7.1.1.w.a.a.f.r.r.r.r.j.*X3X&X&Xj.&Xj.s.f.h.j.&X;Xj.j.j.&X&Xg.s.j.j.j.j.j.r.h.-X;X;X&X-X-X;X3X*X&X}.{.t.`.{.e.r.e.e.5.;.i q 6 7 7 5 5 K q q e 7 7 K L L P q q q e L e q q q q 6 5 5 5 b g j g j m m j j j j j b m b b M n n n K q q e e P e e e K q e e e e 7 e e e q e q 7 q t ^.w.&X;X;X;X;X<X,X,X-X-X}.-Xr.h.&X3X3X;X,X,X X{.`.`.`.{.{.).-X-X}.}.,X-X%X%X%X}.-X-X;X3X;Xj.&Xj.j.j.*X*X&Xj.j.h.r.h.%Xh.e.r.d.%X;X%X).}.;X&X&X;Xh.j.,XI.A z z z z C C Z C Z z h h f ",
"f h l l l l f f       f z z P 7.8.w.g.v.x.v.j.j.j.j.h.r.e.e.0.r.e.r.f.g.j.;X;X%Xh.j.&Xj.j.j.&X&X*Xj.f.h.j.s.h.%Xh.j.&Xj.j.f.h.j.j.h.d.0.0.m.&Xh.h.;X;X3Xj.g.r.e.4.`.{.}.e.e.e.4.a q 6 4 q 6 5 5 6 6 6 6 6 6 L e e q q q q q q q e e K n n b j j z z z z z z f x k h l l l l z j j j j b b b b n n L e e q q q e e P L L K L L e e L e q q q u ^.r.3X3X&X3X3X9X<X,X-X,X-X,X}.-X-X;X3X%X}. X{.`.`.4.`.`.{.}.,X,X,X}.}.,X).-X,X;X;X;X;Xh.;X;X;X;X3X3X3X*X&Xh.e.).%Xh.h.e.%X;Xh.0.r.e.e.).h.h.j.h.&X3X`.E Z l z z Z Z A A A z h f f ",
"l l l l h f f h       d h g %.8.h.j.j.v.v.=X4X*X&X3X;X%X}.}.-X,X-X-Xj.j.h.%X-Xh.-X;X;X3X&X&Xj.h.g.s.h.d.d.h.d.d.d.w.f.g.h.h.h.j.j.h.r.0.0.d.h.h.j.&X3X&X3X-Xe.`.`.`.}.-Xe.e.5.W.P 5 6 6 6 5 6 6 5 5 e K e q q q q q L e e r e K n b b j x j z z z z z z z z l z l h l h l l h h h h j N B j z m b b n n e L L K e q e L e q q e e e L P L L e Y ,.).9X3X;X;X3X<X,X-X,X,X,X}.}.,X;X&X&X-X,X X`.^.4././.`.{.}.}.).}.}.e.).,X,X<X7X3X;X;X;X-X-X;X;X*X3X;X;X-X}. X<X-X}.-X%X%Xr.}.r.).}.e.%X&X&X;X&X&X-XU.S Z A D F G F F A z h h f ",
"l l l l l z l l f h l z z I /.h.h.h.j.*X3X8XyX3Xj.j.g.%X-X}.,X}.}.h.h.j.-X,X-Xh.;X;X3X;X&Xj.j.j.j.j.h.h.h.h.;X&Xh.&Xh.d.d.h.&Xh.&Xh.q.).h.h.j.j.&X*X=X3X;Xe.`.`.{.}.-X-X}.5.^.H.q 4 6 7 v 5 n n e e e L P q q q q e e P P L n M b z z z z z z z z z z l h l l z l h h h h l z l z h h h z z z z z z m b n K K e 6 6 q e e L e K K q e q e e q L u ,.%X0X;X;X&X3X;X-X,X).}.,X,X-X;X3X3X;X}.e.`./._.`.{.{. X-Xr.0.0.q.r.-X-X-X-X;X&X;X<X-X%X-X;X;X&X;X;X3X;X}.}.-X-X).e.r.r.r.r.%X).).e.r.h.&Xj.d.h.j./.R z z z C z z Z z h f f f ",
"l l l l z z Z z h l z z A H.h.h.h.h.j.*X4X=XeX=Xj.j.h.%X).).}.}.r.h.%Xr.r.).).-X;X;X;X;X&Xf.j.j.j.j.j.j.j.&X&X&Xj.&Xj.h.h.%Xj.&X&Xr.e.r.j.h.h.h.j.b.v.&Xh.(.{.{.}.-Xr.r.e.,.$.q 6 6 6 n v 5 6 q q q e e L e L q q q q n n b b j z z z j j j f f l l l h h h h f f f f f h h l z l h f f f 2 f h l z z j b b n 6 q q q q q r P e e L K q e e e K L Y ,.-X3X&X;X3X*X,X}.-X-X-X2X,Xh.&X&X&X-X}.(.4.`.`.`.{.}.%X0.0.7.0.}.-X-X-X;Xh.&Xh.h.%X;X;X%X-X&X;Xj.j.j.%Xe.).-X).).%Xd.h.%X%X).).e.7.h.&X&X&Xh.j.%XU z z z z z z z l d   f   ",
"z z z z z k f d h l z z I /.s.j.;X3X*Xv.=Xc.c.j.j.j.h.).).}.}.).h.h.h.r.r.r.r.;X;Xj.&Xh.f.f.j.h.j.j.j.j.g.&Xj.j.j.j.j.j.3X;Xj.*Xh.0.0.%Xj.h.j.j.*X*Xj.d.r.{.e.}.%Xe.e.q.4.*.q 6 6 7 n n n 6 6 q q q q e P L q q q 6 b g x h h l z l f f h z h h h h l l z z z Z z z z z N z l z l f f f f f h l h h h h h j m b b n n n 6 q q e q q q q q q q L L e p >.}.9X3X0X8X9X<X<X<X<X,X,X-Xh.&X3X;Xh.(.`.`.`.`.}.%Xr.r.0.0.-X}.}.}.-Xh.&X&Xj.;X;X;X%X%X%Xh.;X;Xj.*X&Xr.-X-X-X-Xh.j.;X;X%X%X}.{.e.0.&X;X;X%Xj.&X_.M Z z z C Z Z z f 1 f h ",
"h l l l h f     f l z B J.h.f.h.h.v.v.b.l.z.o.v.&Xh.-X).e.).).r.h.h.h.d.j.;X;X&X3X;X;X&X&X&X*Xj.3X*Xx.g.*X3X&Xj.j.j.3X7X3X3X3Xj.d.h.h.h.j.j.j.j.v.j.h.0.e.e.e.}.e.{.{.,.J.w q n 7 n 5 5 5 6 q q q q q e e q q q n b j h h z l z z z h l l l l h l z F A A A A A A A A A G / G A Z z z l h z l l l l h h h h z A A A m b n n K L L L e L L e e e e q r i ;.}.7X7X7X8X;X<X<X-X-X}.).h.;X&X&X;X}.(.{.{.`.{.{.).w.d.-X-X}.}.-X-X;X;X;X;X;X-X-X-X-Xh.;X;X;X;X*X&X;X;X;X%X-Xh.&X&X%Xh.).}.).e.q.&X*Xj.%Xh.j.}.Q D Z A Z C l z z l h D ",
"f h l h h f   d f h z I q.g.h.d.j.*X*X=Xz.l.v.j.r.-X-X}.}.}.).-X%X&X&X&X;X;X3X7X4X3X3X3X&X*X3X=X*Xv.s.j.j.&X*X3X&Xj.*X3X*Xj.j.&X;X&X&Xh.h.j.j.g.g.h.).e.e.{.}.(.e.}.P.U L q 7 7 7 n n 4 6 4 4 q q q q q q q n b j z l h l z z l z z l l h l z z z Z Z A A A Z B A D A B A G G D F F A N z z l z z z h h l h l z Z D A A A m n I L e q q K L K e e K q r H.;.-X3X3X3X;X;X-X,X-X-X}.r.%Xh.j.j.&X}.).e.4.`.{.}.-X-X}.}.,X-X-X<X;X3X;X-X;X;X;X;X-X;X7X7X;X;X3X3X;X;X;X;X;X;X;X%X-X;X-Xr.0.).e.h.&X&X;Xj.*X*X[.S A Z Z C z Z C C z G ",
"h l z Z z f h l z z m H.f.j.d.h.j.=X=Xb.x.3X*Xj.%X}.}.).}.-X-X-X;X;X&Xh.h.&X3X3X*X*X=X*X*X=X=X*Xx.v.&Xj.&X*X&X*Xj.*X=Xb.*X*X&X&Xj.=Xj.j.j.j.j.j.h.r.e.e.{.}.-X{.}.{.Y.K n K n 7 n n q q L q 4 q e q q q n b j z z z z z z z l l l z l l l z A Z A B m M M R E W W W ^ ^ W R V A A D D A z z l l k k h h l l l h l Z A A D A m b n 7 e L e e K K K n 7 6 r H.4.7X3X3X;X;X-X-X,X,X,X,X-X-X;Xj.&Xr.e.{.{.{.{.}.}.}.}.}.}.}.-X-X-X;X;X3X7X3X&X;X;X;X;X;X;X;X*X*X3X;X;X;X;X;X;X;X;X;X%Xh.r.).e.h.j.&X3X;X3X8X2XY D D Z A A A A A A ~ ",
"l l z z l f f z z z M :.s.f.8.h.*X*X*Xg.v.j.j.%Xr.}.(.e.e.h.;X;X3X3X3X3X;X&X*X*Xv.=X=X=X=X=X=X*Xv.j.j.j.j.j.g.j.j.=X=X=X*X3X3X;Xj.v.j.&X&X&Xh.h.r.0.e.e.}.}.).-X}.4.i 6 7 7 7 6 6 q 4 q q q q q q q 7 n b h f h l h h h l z z z l z h f h z m ^ @X@XOX+XXXsXsXsXsXsX+XqX+X[.Q.U.E M A A A z z z h h h f f h h h f l z z z Z A D n n P P P e q K K 6 7 K q U J.{.7X3X3X;X;X-X,X,X,X,X,X;X;X*X&X-X}.{.{.{. X}.}.}.}.}.r.-X-X-X-X-X3X*X3X*X3X3X3X;Xj.j.&Xj.&X*X*X;X;X;X3X3X;X*X&X&X&Xh.r.q.e.r.j.g.h.h.h.g.*X`.R Z z z z B Z Z V U.",
"l z z z f f h l l B T q.s.f.h.;X=X=X*X*X*X*X&Xh.r.e.e.).}.h.h.&X3X*X*X3X3X3X=X=X*X=Xv.4X4Xb.x.x.g.s.g.j.s.s.j.j.v.v.v.=X4X*Xj.%Xj.s.g.j.j.s.d.-Xr.e.e.e.).e.).r.e.>.w 5 5 6 6 6 q q q 4 q q q q q n M j l k h h h h l z z z z z z z z M E U.[.sX5X5XA.A.A.C.A.A.A.Z.6X6X6X6XfXsXsX#X@X^ ~ S S D A z z z h h h f f f f f h z z z j n 7 e e r e e 7 6 q q K P U *.-X4X8X7X;X,X-X-X-X-Xr.h.j.j.j.%X).}.{.{.{.).e.}.r.-X-X;X%X-X;X;X&X&X&X3X3X*Xj.&X3X3X3X&Xj.j.j.&X3X;X&X&Xj.j.j.j.h.h.r.r.e.).h.j.j.h.d.j.v.-XY z Z z z z z C R _.",
"l l z z h h h h l S P.s.g.r.j.*Xb.b.=Xv.j.*X&Xh.-X}.-X).-X-Xj.&X*Xj.j.*X*X=X*X*X=Xv.x.x.v.b.v.=X*Xj.j.j.j.&Xj.=X=Xx.b.b.v.j.d.r.h.f.j.j.s.f.h.-X}.5.e.0.r.r.u.y.,.u 6 5 6 6 q e L L q q e q q K M m m z l l x l l l z Z A z z l j E U.OXXX:XB.C.Z.dXZ.dXZ.5X5X6X5XZ.B.B.V.C.C.C.6X6XfXgXkXOX!.~ A A Z z l l h f l h f f h l z Z m m b 6 e q q q 6 6 7 e q q P a ,.3X4X3X;X-X-Xr.-X,X}.}.&Xj.j.h.r.).e.e.(.}.}.-X-X<X<X;X;X;X;X;X;X&X3X&X&Xj.*X3X3X*X=X&X*X3X;X&X&X&X;X;X&Xh.h.j.h.h.%Xh.r.h.h.j.v.j.f.a.j.;XP.M z Z Z z N A ~ T.",
"f h z l f f f h l I 3.s.r.0.j.b.x.v.g.f.j.*Xj.h.r.e.e.}.-Xj.&X&Xj.j.j.j.j.j.j.v.*X*Xb.v.*X=X=X*X*Xj.*X*X&X3X3X=X=Xb.b.b.j.h.-X%Xh.j.j.j.j.h.-X}.(.e.}.(.).}.u._.U 6 7 7 e K L L L L e e q q n b j z l l z l z z z z z z z l j I U..X:XN.B.aXdXdXdXZ.5XZ.5XdXdX6XfXfX5X5X5X>XB.>X5X>XB.B.C.3X9X+X!.E A z z l l l z z l l l l z z Z z z m n b b c n 6 7 q K 7 q p &.).=X*Xj.-Xh.r.-X-X).e.&X3X;Xj.h.r.3.5.}.,X-X-X,X,X,X;X;X;X-X-X<X;X;X%X;X;X3X3X*X*Xj.g.*X3X;X3X;X;X;X-X,X-X-Xh.;X;X&Xh.d.h.h.j.b.j.h.d.j.3X,XT A Z z z z N ~ E.",
"f l z k h f f h j U w.g.7.w.x.x.b.=Xh.d.j.j.h.h.h.h.r.%X%Xj.j.*X=X=X=X3Xj.&X*X=X4X4Xv.j.j.*X*X=X3X*X*Xj.&X3X4X=X=Xb.b.b.&X;X-X;X;X;X3X3Xj.-X}.).{.).}. X X}.`.I.K e e e e K K q e q e q q 6 b z l z z z z z z Z z z z z z A Q .X1X5X>X>XdXdXdXfX5X5XC.M.;X7X6X6X3X7X5X5X6X5X5X>X>X>X>XaXaX>X;X3X9XqXQ.I z Z l h h h f f l l l z Z z h h j M b j m I I I K 7 7 P H.^.;X3X3X;X-X-X-X-X}.}.&X&Xj.j.h.).e.{.}.-X-X,X-X%Xh.%X-X%X-X-X-X-X%X-X;X;Xj.&Xj.j.j.v.v.*X*X&X&X&X%X;X-X-X%X%X%Xh.h.h.h.h.f.s.v.v.j.h.j.=X&XJ.B Z z Z C A ( ].",
"l z z f h f h h b >.j.j.d.g.v.b.b.*Xj.&X3Xj.f.r.r.h.-X-X&X&X*X3X=Xv.*X*X;X;X=X=X*Xg.j.j.j.*X=X*Xj.*X=X&X*X4XtX=Xb.b.x.v.h.h.&Xj.j.j.j.&Xh.h.}.{.{.e.r.-X,X}.'.I e e 7 6 q 6 e L q q q L n b z l l z z z l z z z k f h z V !.+X>X>X>XdXdXfX5XC.C.M.;Xh.d.j.M.3X3X3XM.j.k.M.5X5XM.>X>X>X>XaX9X>X5X3X*X8XqX!.S Z l h h h l l l l z l z l l h j m m x b I I n 7 n K T >.-X7X8X7X<X-X-X2X,X,X<Xj.&Xj.h.%X}.}.-X-X-X,X,X-X-X-X-X-Xh.).-X<X-X%X-X%Xh.g.j.;X3X*X*Xv.j.&X;X&Xj.h.-X%Xh.h.h.&Xj.h.h.h.%Xh.j.v.j.%X;X3X3X`.R A z z z H !.{.",
"h z h f f f l z U e.s.h.j.j.*Xb.=X=X3X3X3X3X;X<X,X,X,X<X3X3X3X3X*X=X*X&X&X3X3X=X=Xj.j.j.h.h.j.&Xj.v.j.j.=X=Xb.=Xb.x.g.f.0.0.&X&Xj.&Xj.d.%X%X).{.e.0.r.h.r.}.L.q 7 6 6 7 q e e K L L K b j h h h l l l h l h h h f z N M U.XX,X>XaXdXdX5XM.;XM.k.j.&Xr.-Xj.j.;Xj.j.g.j.&Xh.j.v.3X;X2X;X;X5X5X5X5XM.h.g.*X2XQ.E z z h l z z z z z z z z z z z z m j j b K I I K 7 r i 3.3X7X7X7X<X<X<X<X2X,Xh.*Xj.;X%X,X}.-X-X-X-X,X-X,X-X}.}.-X,X-X-Xh.r.-Xh.h.h.&X;X&X&Xv.*X*X&X&X&Xh.%X-X%X%X;X;X&X&Xh.h.%X%X%Xj.j.*X&X%X&X3X,XI.D A A Z ~ !.(.",
"h h h l l h l b *.f.j.j.j.j.g.s.b.j.g.j.j.j.h.j.%Xh.h.h.*Xj.v.*Xj.v.*X*X4X3X=X*Xj.h.h.h.h.r.h.j.;Xj.s.j.*Xb.=X=Xb.g.s.h.0.r.j.=Xh.j.h.-X;X-X}.{.).e.}.}.}.4.w 7 n n 6 7 K q q 4 6 K c h h h z z l l l z z h l z z z M U.oXN.N.M.5X5X>XN.m.-Xr.h.h.h.-X<X;X;X;X%Xh.d.r.%X;X*X*X;X;X<X2X3X3X5XM.M.m.m.e.e.0.-X'.E A Z z z z l h l z z Z z l z h f z z g n K L L K K p ;.%X*X3X3X;X;X;X;X<X}.r.j.*X;X-X,X,X,X,X,X,X}.}.-X-X}.,X-X-X-X-Xm.h.-Xh.h.h.h.j.&X&X3Xx.v.&X*X3X&X-X-X-X;Xh.h.&X&Xh.h.h.%X%Xh.j.&X&Xh.%X&X&XT.B Z z C ~ Q.-X",
"h f   f f f l v ' a.d.g.j.v.v.b.*Xj.j.j.h.h.d.h.h.h.d.d.j.&X*X*Xv.v.g.j.=X4X=X=X3X;X<X-Xh.-X;X-X-X<X;X3X=X=X=Xb.=Xv.j.d.r.h.*Xv.;Xj.h.;Xh.}.e.e.e.e.r.r.).%.4 6 v n q 6 7 6 4 4 6 5 f h l l z z l l h h l z z A z m U.XXN.N.5X5XB.M.m.}.}.(.e.r.r.%X-X-X-X-X-X-X).q.%X&X&Xj.j.h.-X,X<X3X3X5X7XM.N.<X1XoX{.}. XW.R A z h l z z z z z z z Z Z z z z h h m n K 6 n v L u (.3X*Xj.h.d.r.h.-X-X}.d.j.;X;X%X).-X-X}.}.).}.,X,X-X-X%X-X-X;Xh.h.h.-X;X;X%X-X;X;X3Xx.g.j.*X&X;X-X-X-X;X;Xj.&X&Xh.h.m.h.r.f.j.j.h.r.r.-Xm.^.R Z z z ~ _.h.",
"f h f f   f A U q.h.d.j.v.b.x.g.*X&X;X&Xj.h.%X%Xh.;X;X;X3X3X3X*Xv.s.j.v.=X=X=X3X3X3X7X;X-X<X<X<X;X;X&X&X*Xb.=X=Xv.j.*Xf.h.&Xv.s.j.f.f.f.8.r.0.7.7.0.0.0.2.> 6 6 5 6 6 6 6 5 4 6 c x l z z z z z l l z z z A N A R E.}.N.:XdX5X;Xm.d.0.e.}.).h.-X-X-X-Xh.-X,X-Xr.e.e.-X;Xh.r.r.r.%X;X;X3X&XM.7X5XN.h.;X,X X X1XXXU.S D z l z z h f h z z z z z l z z Z m M n n n n K U P.;Xv.3X7X;Xr.h.-X-X}.}.j.;X;X-Xe.}.}.}.-X,X,X,X-X-X&X&X-X%X-X-X-X-X-X-X-X-X-X-X;X&Xj.g.*X3X;X;Xh.).-X;X;Xj.j.f.h.%Xr.h.%X&Xj.j.h.h.r.h.h.{.Y m z z ^ `.h.",
"l z l h f z ~ U.h.j.j.j.x.x.j.h.h.h.j.j.h.-X-X%X-X-X%X%X&Xj.j.s.j.h.&X*X=Xx.b.&Xj.h.h.&X;X;Xh.;X&Xj.&Xj.j.b.v.b.b.j.j.h.d.f.f.f.f.a.h.d.q.q.e.e.e.e.e.4.i 6 5 6 6 q q 6 q n 5 j z z z z z z z z z Z A Z A D Z S ~.XXN.;X>XM.M.;X-Xr.r.}.}.-X-X;X,X-X;X;X-Xh.h.h.e.e.e.r.e.e.,X-Xh.&X3X*Xj.f.h.M.N.N.;X;X<X,X}.{.R.E A A z l h h h h h l z z z l h z z z j b I K n n U #.%X=X8X7X;X%Xh.%X-X}.}.&X7X2X<X}.}.-X,X<X,X,X}.,X-Xh.%X-X-Xh.%X-X-X).}.}.).).-X%Xh.;X*X*X*X*X*X;X;X;X&Xj.j.f.a.h.h.h.-X,Xm.j.*X;X-X%X;X;X).T.M z m !.{.%X",
"l h @ f f h ~ ^.s.d.j.M.v.x.j.&X;X&X&Xh.h.}.}.).e.e.q.q.r.r.j.j.d.r.h.j.g.s.s.h.d.r.r.h.h.h.h.-X%Xj.j.j.*X=Xb.b.x.v.j.s.g.h.j.3X;Xh.-X).`.`.{.{.{.}.}.'.P 7 n e q q q 6 6 n j l l z z l h h l z Z A Z Z z A m Y.}.m.N.5XM.h.m.-X%X%X}.}.}.<X7X;Xj.h.h.j.h.r.h.h.r.e.5.e.}.}.e.%Xh.j.v.j.g.j.j.h.;X>X5X5XM.;X-X{.`.T.M z C z z z l h h h h h f f f h h l z m M K n 5 P H.e.3X3X&X&Xh.d.h.%X}.q.8.*X3Xh.q.e.).}.,X}.}.}.}.}.}.-X-Xh.r.r.r.).}.}.).}.).e.).-X;X&Xs.j.3X3X;X;X3X;X;X&Xj.g.h.-X-X-Xh.h.j.*X*Xh.-X;X;Xe._.I C A !. Xh.",
"l f f f f j E (.a.0.h.j.v.g.g.j.&X&Xj.h.h.%Xe.q.e.}.}.,X,X;X3X*Xd.r.h.h.f.h.d.h.h.h.r.r.r.r.r.r.h.h.h.h.*X=Xb.x.s.f.s.j.v.d.h.&Xj.h.h.}.{.`.{.{. X%X-XJ.q 6 6 q q 4 6 n 5 g f f h l z l h h l z z A A A N V U. X<X5XC.h.r.r.-Xh.j.%X-X,X,X-X-X%Xh.h.j.h.e.e.r.h.h.e.(.(.}.-Xr.h.r.h.s.h.h.h.;X;X&X;XC.3X5X;X;X,X`.'.Q m Z z l l z l l l l l l h f h h l l h g v v 5 e I.4.7X7X&Xj.;X;X;X;X%X-Xh.v.3X%X}.{.}.}.-X-X-X-X-X}.-X%Xh.0.e.}.r.q.e.}.}.).).e.}.&Xj.j.&Xj.=X*X;X-Xh.&X;X;X&Xj.h.%X%X%X&X;X&Xj.v.j.-Xr.h.).{.H.z A ~.(.d.",
"z f h f f z !.).d.h.h.*X*Xj.&X&X3X3X&Xh.-X-X}.u.}.(.e.}.-X&Xj.j.8.r.h.r.h.r.h.h.-X}.}.r.r.q.q.0.r.r.d.&X=Xv.x.j.f.8.f.*Xx.h.&Xj.h.h.r.}.e.5.e.e.r.h.e.w 5 5 q q q q n b j f f f f h l z z Z z A Z A A A V I. X;XM.B.M.-X-Xh.,X-X;X;X-X).-X,X-X-X-X<Xj.h.-X}.}.-X-Xe.e.e.u.-Xr.0.r.h.;X-Xh.-X%X%Xh.M.5X5X3X;XC.;XXX].'.R z z h l l l l h h f f h h h l z z z x b 5 7 n P *.;X*Xj.j.j.h.&X;X-X%X[ f.3X<X,X,X,X-X-X-X<X,X,X}.}.).%Xr.e.-X-X}.}.(.).e.}.).-X;X&X&X;Xj.3X&X;X-Xh.h.j.&X;X;X%Xh.h.&X;Xj.&X*X=X=Xh.e.h.-X).W.M ~ Q.).d.",
"j f f f d x Q.d.r.h.j.*X*Xj.j.j.j.&X&X&X;X;Xh.%X}.e.(.}.-X&Xj.j.d.r.).}.%Xh.%X-X-X-X,X,X%X}.,X-X-Xh.d.j.=X*X*X&Xj.h.h.b.*X;X3X3X&Xj.r.e.e.5.5.e.d.h.;.6 5 7 q 6 q K b z h l l l l l l z Z Z A A A A A S I.XX<XM.B.N.m.}.h.-X-X-X%Xh.}.,X,X,X}.}.-X,Xh.r.,X-X}.-X-X-X}.}.}.r.}.{.}.).,X<X-X%X-X-Xh.h.3X6X3X;X;XM.<X X_.Q m z l h h h h h h f h l z l l z l z z z b n 5 v Q {.*X*X*Xj.h.j.;Xh.%X-X;X3X7X-X}.-X-X2X,X,X,X,X,X}.}.-X-X,X,X-X).}.}.}.}.}.}.-X-X%X%X;X;X7X3X;X-Xh.h.;X;Xj.h.h.&X;X;Xj.h.j.&Xv.*X&X%X;X%Xe.`.I ~ R.e.r.",
"c f f f f c '.8.7.h.j.*X*X*Xj.j.&X&Xh.h.h.h.h.-X}.}.,X<X;X;Xj.j.h.-X}.}.r.h.h.;X-X-X,X-X-X,X,X-X-X-X;Xj.=X3X&X&X&Xh.h.v.j.;X7X*Xg.&Xh.}.}.(.t.).h.{.u 5 7 e e q n b z l l l l k z z A A A D D A A A H ^ oX5X3XC.B.-X,X}.h.h.).).e.e.}.}.}.}.}.,X).r.q.q.{.}.).}.-X}.}.}.}.}.}.XX{.}.-X<X;X;X,X}.).r.M.5X5X3X3XM.;X-X4.Y.I z l l z l h l h h z z l l l h l z z l m n 5 c I >.&X=X*Xj.g.j.j.j.h.,X;Xj.;X-Xr.-X,X,X-X%X-X-X}.}.).h.%X-X).e.).}.).}.).}.e.}.r.-X;X-X;X&X;X;X-X&X;X%Xh.j.&X;Xh.h.j.;X;X&X&X*X3X3X&X;X-Xr.{.U ^ R.}.e.",
"v f f f f L (.8.0.h.j.*X*X&X;X3X3X3X;X;X;X-X-X-X,X,X-X;X;X&X8.8.r.r.r.r.0.d.d.h.%X%Xr.h.-X-X}.}.,X;X;X;Xv.j.j.&X;X3X3Xb.=X*X*Xj.j.&X-X}.}.{.{.e.-XL.q n K e n K n A C l h l l l l z A A Z A A Z A A E `.M.M.;XB.M.h.r.-Xr.r.r.e.e.}.}.e.}.-X}.}.).0.0.q.3.{.}.r.e.}.}.,X,X,X1X X X}.,X,X-X-X,X}.}.).-X;X6X3X6X5X;X;X,XL.W x f f h l z z l h l z z z z l l l l z j c n c n J.-X*X&Xh.d.h.f.s.j.%X).%X%X%Xh.,X,X,X-X-X<X,X-X-Xr.r.r.r.).0.e.0.e.e.r.).r.%X;X&Xj.j.;X&X&Xh.h.j.&X&X;X&Xj.h.d.d.h.&Xj.j.*X*X=X3X&X-X-X-X}.Y.!._.r.h.",
"6 f f f g H.%Xr.0.&X*X=X3X&X&X*X*Xj.j.-X-X}.}.}.-X-X-X;X&X%Xh.).e.e.).h.h.;X;X%X%X%X-X-X-X-X-X-X-X;X*X3X*Xj.j.j.;X;X4Xb.=X*Xv.*X3X&X<X-X).{. X%X%Xi 4 4 6 e n n B z l l h h h l z z z Z Z z N Z A V R.;X3Xj.;XM.m.-Xr.e.r.r.u.}.}.}.).e.).).).).(.q.0.7.1.e.}.).r.e.}.e.r.e.).q.q.7.q.r.-Xh.r.r.0.q.0.h.j.j.h.h.u.e.%X>.P j f h l f h h l l z z z l z z z z z z z m n n b W {.j.j.h.8.h.h.%X%X-X,X,X-X;Xh.-X-X-X-X<X-X-X-X-X}.d.d.h.h.r.0.q.e.).).).%X3X*Xx.b.yX0X4X3X3X;X3X*X3Xj.d.h.h.j.j.j.j.j.j.j.v.=X&Xj.r.r.r.).J.I.,.e.h.",
"U h h f n '.h.h.h.3X=X*X&X;X*X&X&Xj.-X-X}.}.(.}.m.;X&Xh.h.h.-X,X,X,X-X-X;X;X;X;X;X;X-X%Xh.).-X,X;X;Xj.j.h.j.j.j.h.j.l.l.j.j.v.v.v.h.h.d.e.}.-X&X5.w 4 4 6 n n m z l h h h h f z Z A A A A N A G S U.2X3X;XM.>XM.m.-X).r.).).}.).}.e.e.e.e.e.e.e.).e.r.r.q.q.e.e.e.e.e.e.e.e.e.e.e.0.0.0.h.h.e.{.e.e.0.h.g.j.h.m.-X-X<X/.T z l l z z h h h f f f h h l l z z z z z z m b c ^ _.-X&X%Xh.d.h.-X-X-X,X,X-X<X<X,X,X,X,X,X-X,X-X-Xr.d.d.r.0.0.r.).}.}.).%X3X4Xl.x.{ x.=Xb.*X8X3Xv.j.&X&X%Xh.&Xj.j.*X&X&X&X*X=X=X=X=X&X-Xr.r.4.H.,.}.-X",
"Y 3 f   K 3.[ 0.f.s.s.s.j.j.g.f.f.r.r.r.r.).e.e.e.h.h.h.h.0.e.e.r.%X;X;X;X&X%Xh.j.h.h.j.-X-X-X-X;Xj.j.j.&X&X&Xj.j.=Xz.b.&X=X=Xj.g.h.h.r.y.r.j.&X%.q 4 e K M m j h h h h l l z Z Z D D A A A A G E XX6X3XM.5X5XM.h.r.r.r.}.}.).).}.}.e.q.e.e.).}.h.r.h.r.).r.r.e.e.-X%Xh.}.-X-X,X}.}.-X}.-X}.}.{.{.(.{.0.f.h.h.m.m.<X;X}.a j z l z z z z l l h l l l h h z z z z Z z j b V R T.2X<X%X-Xh.-X,X;X<X,X,X1X2X-X,X,X,X,X-X-X,X,X,X).r.r.r.}.}.}.r.-X,X-X;X*X[ | | { x...} ..*X*X&X&X;X;X&Xj.h.h.j.&X;X&X3X8X4X4X=X=X&X&Xh.}.{.J.P.}.-X",
"i # f   u 8.a.8.a.g.j.*X*Xj.s.h.h.r.0.0.e.r.r.%X-X%X).r.r.r.e.q.0.r.h.h.h.j.h.&X;X;X;X;X;X;X;X3X3X;X;X&X&X3X3X3X3XtXz.v.j.=X*Xj.h.d.-X}.e.d.j.q.: 4 6 7 c j z z l h h h l z A A A z A A D F G G U.6Xb.%X>XM.M.j.h.h.).}.}.(.e.e.).}.e.e.r.h.e.}.h.h.%Xh.h.h.h.;Xr.).h.h.h.r.-X,X,X}.-X}.,X}.}.}.(.(.}.(.e.r.r.u.-Xm.M.-X;.b z l l l z z l l z z z l h l l l z l z z z z m V Y }.h.h.;X;X<X,X9X2X,X}.1X,X,X,X<X<X;X;X;X,X}.e.r.}.,X}.}.}.}.}.r.).-X,X;X3X=Xv.s.g.f.j.&X&X3X&X3X3X&Xj.&X%Xw.a.h.j.;X;X3X*Xv.x.*X*Xh.).{.{.>.L.{.,X",
"T.n z b J.s.j.d.j.*X*X=X3X*X*X&X;X;X-X;X,X-X-X,X-X-X-X-X-X-X%X).}.-X-X%Xh.j.3X3X3X3X3X7X7X7X7X8X8X3X;X;X3X3X3X3X8XeXz.j.j.b.v.&Xh.h.%X}.e.d.%X;.9 6 n n j z z l h h l l z A A Z A A A D D G / ~ +X4Xj.-X;X;X3X;Xh.h.-X}.}.e.}.}.}.}.).).).%X).).-X-X;X-X-Xh.j.&X&Xh.%X&X;Xh.-X-X,X1X1X,X-X}.}.}.e.e.).{.}.-X).r.m.m.m.r.`.I z z l z z l l l l z z z l l l h l l l l l f f S Q {.&X&X&X&X-X-X;X,X,X}.}.-X-X%X-X-X;X;X-X-X-X}.0.e.).).}.}.e.).).e.).r.%X&X*X*X*X;X;Xh.&X&Xj.j.3X*X&X&X;X-X-Xh.j.&X&Xh.h.j.j.v.=Xj.h.-X5.(.^.P.}.,X",
"T.I D M /.g.f.f.j.&X*X*X*X&X3X;Xh.%X-X-X).).}.}.).e.}.-X,X-Xr.}.-X-X-X%X-Xh.j.&X&Xj.&X*X&X&X3X3X=X*X;X&X3X*X*X4XtXS.x.&X&Xv.g.h.h.}.r.r.).r.e.t q 6 K M A Z z l l z z Z A A Z Z A D D D F / / U.9Xv.-X>X;X-Xh.d.h.h.h.%Xr.r.}.{.{.{.e.e.e.-X}.}.}.;X7X-X}.-X&X&Xv.j.j.s.s.j.%X-X-X-X,X-X,X-X}.e.q.).}.1X<X%Xh.%Xe.{.y.(.|.T z z l l z z z z z l l l z z z z l h h l l h f m ^ `.%Xa.j.h.r.d.f.h.h.;X;X3X&Xh.%X-X;X;X;X-X}.}.r.e.}.-X}.e.0.r.r.r.r.%X;X;X3X*X3X&X&X&X&X;X&Xj.*X&Xj.h.%X-X-X-X%X;X&Xh.j.*X8X8X4X3Xd.e.e.{./.2.).h.",
"T.I D E  Xg.h.h.j.&X&Xj.j.&X&Xj.h.%X-X).r.}.}.).).-X-X-X-X-Xh.%X%X%Xh.h.%X;X%Xh.j.;X;X&X&X&X&Xj.j.j.j.j.*X&X3X4XrXO.x.j.*Xv.j.d.r.h.r.r.%Xe.:.; 4 5 M A A z h h z z z Z Z z z A A F D D A G V '.=Xh.N.;X3Xj.f.h.h.d.j.g.r.q.q.e.5.3.1.q.0.%X;X;X3X3X*Xj.r.h.s.f.g.j.a.a.g.v.j.h.%Xh.-X-X-Xr.r.0.q.e.}.,X;X%Xr.e.{.{.[.,.>.P j x l l l l l l l l l l z z z z l f h f h h h z ^ ].d.a.j.h.r.h.*X&X;X&X*X*X*X3X7X3X;X;X-X}.).e.}. X,X-X}.).h.h.-Xr.h.%Xh.h.j.j.*X&X%X;X;X-Xh.h.j.&X&X%X%X-X%X-X-X;X;X;X;X;X*X&X3X*Xh.}.(.}.(.3.).-X",
"R.W D T %Xv.j.j.*X*X3X*X=X*X&Xj.%X-X-X-X-X}.}.).}.,X-X%Xh.h.;X&X&X&Xj.j.&X;X;X;X;X&X*X3X3X&X*Xj.j.*X*X3X3X7X7XyXD.O.b.=X=Xx.j.%X-Xm.h.h.r.e.*.; 4 n m A Z l h h l z z z z Z A Z Z D F A G G I XXj.m.M.n.j.h.d.h.h.j.g.a.0.0.0.q.e.q.r.0.w.g.j.s...X.s.j.g.a.a.s.s.s.d.h.;X3Xj.&X;X<X;X;X;X;X}.}.,X-X<X%Xr.{.`.,.L.T.H.u t P n h h h l l h l l l h l l z z f l l l l z z h z ~ '.d.h.&X%X-X;X;X3X3X;X;X;X7X7X7X3X&X%X}.{.}.}.}.}.-X-X-X%Xr.h.h.h.h.-X;Xh.&Xj.j.j.%X-X%Xh.r.r.h.&X*X;X;X-X-X-X;X;X&X&X;X3X;X&X=X8X&X-Xe.5.(.e.).%X",
"_.I.S K.&X*X;X;X*X*X*X=X=X*X&Xj.h.j.;X-X,X,X}.,X,X,X,X;X;X&X;X&X3X3X3X3X7X7X3X3X3X3X*X*X3X3X4X4X3X*Xj.&X3X3X8XtXS.z.eX4Xb.x.v.-X;X-X-X-Xr.{.i q 6 b A Z h h z z z Z Z Z A A A z Z Z D F G ~ E.7XM.;XM.3X;Xd.d.&X3Xg.h.r.r.r.).(.}. Xe.e.q.r.a.d.h.h.h.g.g.s.X...a.h.).{.-XM.m.M.h.h.;X;X;X,XXX.X].^.P.,.>.&.u p U Y p p w P n z l l z z l z l l l l h l l h z l z z z z h z ~ W.}.h.f.h.%X%X&X*X;X;X;X&X3X3X;X;X&X-X-X}.}.}.}.).,X-X&X%Xh.;Xd.r.h.;X;X&X;X;X;X;X;X;X;X;Xh.h.h.j.g.&X;X;Xh.%X;X-X;X;X&X;X*Xj.v.=Xg.h.e.4.e.q.q.r.",
",.Y.~ R.*Xj.j.j.*X*X*X*X*Xv.j.h.h.h.&Xh.h.-X-X-X-X-X-X;X;X3X;X;X*X*X3X*X3X3X3X3X3X3X3X&X*X*X=X=X*X*X*X3X3X4XtXrXD.c.=X=Xl.g.f.h.%X-X-Xh.0./.u 6 n B A z l z z z z Z A F F F D A D F A D G ^ .X6X;X>X5X3X%Xh.h.3Xj.d.-Xh.h.-X}.{.`.{.e.{.e.h.m.-X%Xh.h.j.j.x.s.w.q.).-Xr.h.h.0.e.4.^._.P.>.*.$.y t > u p p u u p U Y p w w q c z z l z z l z l l l l l l z z z z l z l l z z ~ Q.}.,X;X;X-X-X;X;X;X7X3Xj.j.&X;X&Xj.h.}.).e.}.}.}.-X-X-Xh.h.%Xr.0.d.;X%Xf.j.;X&Xj.%X%X%X;Xh.h.j.j.g.j.-X-X%X-X-Xr.%X%Xh.&X3X*X*Xv.v.*X-X5.}.).r.).",
"^.Y.E 2.x.j.j.*X*X*X=X*Xv.j.g.&X%X%X-X%Xh.h.h.h.%Xh.h.h.&X3X*X*X&X&X&X&X&Xj.j.j.&X*X&X*X3X4X4X4X8X3X=X=X4X4XeXS.S.z.=Xb.l.j.d.h.h.d.r.8.q.,.9 n m A z h l N A z A D A A D D A D F D D G ( I.2X7X;XM.j.;X-Xh.j.s.d.h.-X-Xr.r.e.(.{.{.}.e.h.%X-X,X,X-X;X;X&Xh.q./.,.4.|.{.4.>.%.$.i t t u u u t u p u u u p u P r u U r r w r n z z z l h h h l l h f h h h f z z l l z z z z S E.}.,X%X;X-X-X-X-X;X;X;X&X3X7X;X&Xh.-X-X).}.}.}.}.}.}.}.-X).%X-X-Xw.h.h.f.j.;X&X&X-X-X%X&Xh.h.h.j.a.&X,X;X,X,X-X).-X%Xd.h.3X*Xj.*X*X=X&X).-X-Xr.(.",
"e.W.Q 5.s.g.*X=Xb.b.b.v.j.g.h.h.).}.}.-X%X).r.%X-X-X&X*X=X=X*X*X*X*X3X3X3X3X3X8X8X8X8X8X8X8X8X4X4X4X=X4X=X4XeXS.S.c.=Xv.x.*Xh.r.d.r.r.r.e._ q n A A z z z Z Z Z Z D D A F F A Z Z A A A ~ '.7X;X;Xg.a.d.d.j.g.h.h.h.-X}.e.e.e.e.).}.}.r.h.;X;X-X,X}./.{./.,., y $.i a a u u U U p p p i u p U U U p w w U U U U U U w u U r n j z l l l z z z l k l l l h l l l h l z z z z B Y.1X-X%X;X2X1X,X,X<X<X;X&Xh.%X).).).-X-X}. X X}. X,X,X,X}.r.).).).0.h.a.h.;X;X3X3X;X<X;X;X%Xr.r.0.a.&X-X-X-X-X%X-X%X%X%Xh.j.a.h.j.j.=X4X%Xr.d.e.{.",
"q.'.U.).g.j.v.v.x.*X*X*X*X*X&X;X;X<X<X,X-X-X-X;X-X;X=X*Xb.=X3X4X8XuX8X8X0XuXuXuXuXuX8X4X=X=X=X4X4X4X8X4X4XyXtXrXS.z.b.l.x.j.d.r.h.-X}.0.3.- 4 b A z f l l z l z Z Z A A A A Z Z Z A B D ^ }.n.;Xj.a.a.f.f.f.d.-Xh.-X}.}.}.-Xr.).).r.e.0.e.{./.,.>.*.i t i t p p U p u p p p p p p U U p u u u p U Y H.Y Y H.Y Y U U U U U r 5 z h f h l z z z l z z z z l l z l h h h h h z z Y  Xr.h.;X;X,X}.,X,X,X,X-X-X}.}.}.,X,X,X-X,X,X}.-X-X-X-X).r.).).e.0.r.w.h.-X;X;X;X;X%Xh.%Xr.r.).}.h.j.%X-X-X%X;X;X&X%X%X;X&Xj.&X3X*X=X8X;X-Xh.r.(.",
"7.P.P.f.s.j.v.v.v.v.b.*X*X3X&X;X-X-X-X-X%X-X-X%X&X&X*Xv.v.b.b.b.=X4X4X4X4XyXyX=X=X=Xb.=X=X=Xb.b.*X*X=X=X*X4XrXD.F.z.j.l.c.g.r.h.h.0.h.0.3.; 5 m A h f h l h l z z Z A A A Z Z A A A A D !.5X4X;Xj.f.d.j.j.j.h.;X%X}. X}.).h.q.{.(.5.4.;.$.t t t : 0 0 u u U U U r r r p r w w r w u u t i &.$.i i a H.Y U Y Y p U U U Y p r n z l l l l z l h h h f l l l h l l l l f f f f h u {.).r.&X;X,X,X,X}.-X,X-X,X,X}.,X<X;X-X}.).).}.}.%X%X-X}.}.}.}.}.7.[ 8.0.d.d.h.&Xh.h.h.%X0.).}.}.h.j.<X-X,X-X-X-X%X%X&X;X3X=X*Xg.*X*X*X&Xr.;X-X X",
"r.^.^.f.s.j.*X=X*X=X=X4X3X3X3X3X;X;X&X;X;X&X-Xh.j.j.j.g.g.=X=X=Xb.b.b.b.=X=Xx.x.x.b.b.b.z.l.x.x.v.b.x.v.*XtXrXS.O.l.j.l.b.v.-Xh.h.d.h.0.' 9 b m f f l l z h z z Z A A A D D A D D Z z V ].3X;Xr.h.g.j.;Xs.j.h.-X}.}.{.`.`._.P.J.$.i i u w r r u u w w w w w r r w r U U U u u u i a &.i i i a Y p p p U p u u u w r Y U U I M j z z z z z Z z z l h l z z z z z z l z z l l z U |.).-X;X%X}.-X,X,X1X2X-X-X}.}.-X-X-X-X-X,X,X,X,X-X-X-X}.,X X}.}.r.h.%X).%X;X;X&X&Xh.h.d.r.r.).}.r.h.3X;X<X;X-X;X;X&X&X;X&X=Xj.h.a.j.=Xj.w.&Xh.{.",
"j.4.5.v.j.*X=X*Xj.v.v.v.v.&X&X;X&X;X;X3X3X;X;X;Xj.j.f.j.=X=X=X=X=X=X=X=X=Xv.c.b.b.c.x.z.z.z.c.=Xv.b.v.*X4XtXD.F. .z.=Xl.z.b.;Xh.&X;Xh.r., 6 m A z z z z l z A A A A A D D A A A A A A W }.0.5.1.0.r.e.,.4.-.,.P.T.T.J.Y U p w w u u w w r P U w r r r w r p p u w w p i a i a a Y Y Y a a u u t u u u u u U u u w q r w r I n z l z z z z z l l z z z z l z z z z z z z l h h U `.e.r.h.}. X,X1X,X2X,X-X}.}.}.,X2X2X-X-X-X-X,X-X%X-X-X}.}.}.}.(.e.}.}.-X-X-X;X&Xh.h.h.d.r.).}.y.e.h.&X&X;X-X;X;X3X;X&Xj.g.b.s.h.j.v.=X=Xj.&Xr.3.",
"x.r.r.v.*X=X*X*X*X*X*Xj.*X3X3X3X;X;X;X;X3X=X*Xv.j.f.g.j.*X*X*Xb.b.b.b.b.=X=X=X=Xb.c.z.c.z.x.v.*X*X=Xb.v.b.eXz.O. .z.*Xz.l.x.h.d.d.h.&X{.t 5 m A z z z z l l z Z Z z Z A A N Z A A A A T 4.,.>.%.*.*.$.: : ; 0 w r r w r r r U U U r U U U P p p r w w w u u u u p u u t t t u u t t u u u a i p u u u w u u 0 : w w w w w P 5 f h l l l z z l l l f l l l l h f h z z l h h f Y {.r.h.r.).}.,X}.}.,X}.}. X X}.}.;X;Xh.&X;X,X,X-X,X-X-X}.}.}.).e.}.,X-X}.,X;X;X;X&X&Xj.h.0.e.e.e.-Xh.h.-X-X-X-X;X;X&X&X&X*Xb.g.&X3X=X=X4Xj.s.f.q.",
"x.h.f.b.=X*Xv.&X&X&X3X&X&X*X3X3X;X;X;X;X;X=X=Xv.v.j.j.j.v.b.b.x.l.l.x.=X4X=X=X*Xv.v.b.b.b.*X*X3X3X3X*Xb.4XtXS.F. .l.v.z.x.v.j.8.f.g.h.e.: 6 m z l z l h f l z z z l h l z z A Z A D A T *.H.H.t t w w w w w p r p p U p w w u p r w w r w w 0 0 t 0 0 0 u u u u u u 0 u u u 0 w w p p u u p u u w p U P U U u u w w U U w P c h h l l l l l h h l l z z z l h f h z l h l h 3 J.}.).h.).}.-X,X-X}.,X X{.(.e.(.).%X&Xh.;X<X<X%X;X-X}.).e.).%X%X).r.).).}.-X%X%X%Xr.h.h.h.}.}.).).-X-X}.}.}.-X-X-X&X&X;X;X3Xb.j.;X3X4X4XeXb.v.s.r.",
"x.f.8.z.=X=X*X3X3X3X3X3X7X3X3X3X7X2X<X;X3X=X3X*X*X&X&Xv.=Xb.x.l.s.s.b.=X=X=X*X3X3X*X3X=X=X4X4X=X*X*X=X4X8XyXD.F. .z.v.x.b.*Xj.d.h.g.h.5.: n z l h l l h f l z Z z z z z Z z Z z Z A V Y a p Y Y u 0 w w w w P U u u r w r P U p u 0 9 : w w u 0 t t u u p p p u u u w w U U U p U U u u u u w p w p U U u Y Y p p p U P U I b z f f h h l l f f h h l z l l h h h l l z z f 5 P.}.e.}.}.}.-X-X-X}.).}. X{.(.).).%X%Xh.h.%X-Xh.h.r.e.e.).}.r.r.-X-X-X}.}.-X-X-X-Xh.&X&X%X}.e.q.e.e.e.e.e.).}.%X%X%X&X;X;Xj.g.g.;X3X3X4X=Xb.=X&X}.",
"j.a.8.z.=X*X=X&X*X*X*X*X&X*X=X3X3Xd.&X3X*X*X;X&Xj.&X&Xv.x.l.l.g.j.*X*X*X*X&X*X3X3X*X*X4X4X*X*X3X3X3X*X*X4XtXD.@. .l.j.x.b.3X&Xh.h.j.h.-.: b z z z h h l l z z Z A A A Z Z z A A A Z b u p r u w w r r r w r r p r p w r U w r w p u u u t u 0 t u u U p w w u u t u U r P U p u u u p p U U U U U Y a Y a u u Y Y p w r P L b l l l h l k l l z l z z z z l l h l l l z z z I ^.-X-X}.}.,X,X-X%Xr.r.}.}.}.}.}.).}.-Xh.%X%X-X).}.(.}.}.}.}.}.).}.,X,X,X,X;X<X;X&X;X;X%X).}.r.q.0.e.).e.e.e.(.r.h.h.h.h.f.a.a.a.f.j.=X=Xb.x.v.&X).",
"j.j.s.b.b.=X*Xj.*X*X*X*X&X&X*X*Xh.d.j.j.g.j.&Xj.&Xj.j.x.l.l.b.*X*X*X*X3X3X3X3X3X=Xv.*X=X*X*X3X3X*X*X*Xb.b.eXF. . .l.v.z.s.f.h.r.h.j.r.<.; b z l z h h h l z A Z Z A A D A z z z Z A b q 0 : * 0 p p w p r p P r U U U U U p U u u u u u u U p u u u p u u p a i u u u w w w w w w u p u w u u u u u u u p u u u u w q q q n j l l l h l l l l l z z h l z z h h h k z z z R U.{.}.}.}.,X1X,X-X-Xr.).}.}.}.}.{.}. X-X%X-X;X-X,X}.{.{.}.}.}.}.}.).).).).%X&X-X&X%X;X;X%X).-X).e.r.r.).(.{.}.}.}.-X%X-X%Xj.j.*Xj.h.j.*X=Xz.o.s.j.h.",
"&X*Xg.=X=X=Xj.j.3X=X=X=X*X3X3Xj.h.&X;X;X;X&X;X;X&Xj.v.v.l.v.3X*X*X3X3X3X7X3X*X3X*Xj.*X*X*X*X*X*X3X*X*Xv.=XeXS.+. .c.=Xc.b.j.h.h.h.h.h.=.q b z l l h l h z A Z z A A A A z Z A Z z Z b $ : t t 0 u u a a Y U U p u u u p p u U w U U U u u u i y i a a Y a u t t w u p U w P p p p u p p u u u u p p p u w w w r r q e L L n g f f f h h f f h l h h h h h h h f f f l l m U.`.).}.}.}.,X,X,X}.1X1X,X1X,X-X X{.}.}.}.}.,X-X-X-X}.{.(.).).).}.).).-X-X}.-X%X-X%X%X;X%Xh.h.%Xr.).-X}.}.}.}.}.-X-X;X<X<X;X;X&Xv.g.j.&X=Xc.l.X.f.j.h.",
"g.v.*X=XeX=Xj.&X;X&X*X*X4X*X=X&X&X;X3X;X3X3X*X*Xj.j.*X*Xv.3X;X&X;X3X3X*Xj.*X*X*X&X&X3X3X3X8X7X3X3X3X7X3X4XtXD.+.+.c.b.z.*X3X3XM.j.j.r._ 6 B A z l l l l z A A A A Z Z z Z Z Z z z z b : &.&.a u t u p u u w w w w p u p p p U U p u t t i i i i i i u 0 0 u u p p u u u w U U U p p p p a p p p p P P P r P P P e q K L I n x f f f h h f h f h h f f h f h h f d f l x P _.e.e.q.q.r.0.r.w.0.).r.).-X}.}.{.{.}.}.}.-X,X,X-X-X).}.}.}.,X,X}.}.,X,X}.}.-X-X%Xh.h.&X%X).q.q.r.e.).).}. X}.}.}.).-X<X;X;X;X3X*Xx.j.j.b.b.c.X.s.j.h.",
"s.x.x.z.z.v.&Xj.j.*Xj.j.v.*Xv.j.&X;X3X;X;Xj.j.j.g.j.3X*Xs.h.j.&X;Xj.g.g.j.j.j.s.j.j.j.*X*X*X&X&X&X*X3X*X4XyXD.O.+.z.b.x.b.j.&Xj.j.=Xh.y n A Z z z l h h z z z z l k l l z z Z z Z Z b w i *.a U p u u w p p r w r U U U p w u a p u u 0 u u u u p w p u p p p u u a p u w w w U U U r P P r r r r q e e q L I n v n n 5 b b j f h h h h l l l h h h f h h h h h h g g 5 J.XX}.u.r.).}.e.0.0.7.7.7.0.q.e.e.5.(.e.e.e.).r.).-X-X-X}.}.}.-X-X}.,X,X-X-X-X%X%Xh.r.h.&X-X-X%X-X).e.}.}.}.|.|.}.}.}.).).).}.-X;X*X*X*X=X4XtXD.l.v.&Xh.",
"j.g.x.c.eXb.j.&X&X*Xj.j.&X*Xj.j.j.&Xh.d.h.j.s.s.g.&X&Xv.s.g.j.j.g.j.j.*X&Xj.&X;X;X&Xj.*Xj.g.s.s.j.j.j.*X=XeXz.O.F.O.x.x.g.j.h.d.j.v.h.y n z z z l h h h z z l z Z Z Z Z z z z z Z z c q > %.&.Y Y a p u u u p p u p p p u a u 0 0 w w w w p p r P U p p Y Y U p r r P r P P r r q e L e e q L K n I I n M b b c c b b c j z z z z z z z z h h f f f h h h f h g n 6 q a {.-Xu.r.h.r.}.e.{.e.}.r.q.q.e.3.5.5.e.e.).).%X).-Xr.).}.}.).r.}.}.).}.).).).%X-X<X;X;X;X%Xh.h.h.-X,X,X-X-X-X-X}.}.-X-X-X-X%X}.-X&Xj.j.*X8X8XtXc.l.*X*Xd.",
"*Xj.x.D.eX*X&X3X3X=X&X&X;X*X&Xj.j.f.a.h.j.*Xg.j.j.3X*X*X*X*X&X&X3X3X3X3X3X;X&X;X;X;X3X*X*X*X&Xj.*X*Xj.j.=XeXrXF.F.c.x.x.x.j.j.j.3X*Xh.i b A z z l h l l z Z A A A A Z Z Z z z z z z c q 0 y $.y y y t u u p u u a a t t u p U r r P P w w w U U p p U U U U P r q q q q e L e L K K K n n M m j j b b m z x z z z z m m Z A A A A A z z h h h f f f f f g 5 P p J._.`.}.-X,X-X%Xr.r.q.3.5.e.e.e.e.e.3.5.5.e.e.}.-Xh.h.d.h.%X-X,X}.}.-X}.}.}.}.}.}.).r.h.%X%X%X%X&Xh.%X}.}.).}.-X-X-X).).).}.-X-X;X&X%Xh.h.h.h.&X*X4X=Xz.o.v.3X-X",
"s.s.x.c.c.b.*X3X3X*Xj.j.&X&Xj.j.j.g.g.j.j.v.j.j.j.v.*X=X*X&X;X;Xj.j.g.j.j.&X&X&X;X*X3X*X*X*X*X*X4X*Xj.g.b.=XD.F.@.c.b.b.v.&X&X&X&Xj.0.y m D z l l l l l z Z A A A C Z z z Z Z z Z m n q q U t > > u u w w u u u 0 t w p p P w p p p P p U Y U U U r P e q q q q q q q 6 n c c b b b b g j j f h f h j z z z N Z A A Z A A A N z z h h f f h h h z b n U J.].XX}.;XM.k.M.-X-X}.e.r.e.e.e.{.e.e.q.e.e.e.e.e.q.0.r.h.h.r.d.h.%X-X,X).).}.}.}.}.}.).-X}.).h.h.%Xh.-X%Xh.).-X}.}.-X-X}.).}.}.}.}.}.-X&X&X,X-X&Xh.h.h.f.s.o. .o.&X;X%X",
"a.a.s.o.o.=X*X*X&Xj.&X;X&X&X&X=X*X*X&X&X*X=X*Xj.j.j.*X*Xj.j.j.j.j.;X;X&X;X;X&X3X3X3X3X3X*Xj.&X*X*X=X*Xj.b.z.z.O.+.z.=X=X=X3X;Xj.h.d.q.i m Z z l h l l l z z Z A A Z z C z z z z z z b 6 q r p p p r U r w w r r r w u u u u u t u Y U U U U U r q q q q L e q q n n b b g f f 2 f x x h h h h l z z z z z z z N A A z z z h h h f f h g g c I U Y.T.`.}.-X<X;X;X3Xj.&X&Xh.r.r.0.0.r.1.3.e.e.).h.r.).}.r.r.0.e.0.r.r.r.d.f.d.).}.}.}.).).}.}.,X,X-Xh.%X&Xh.h.h.h.h.%X%X%X-X-X-Xh.-X-X).}.}.-X-X-X;X<X,X,X;X;Xh.0.8.j.x.X.| g.j.r.",
"d.a.j.x.c.=X*X=X*Xj.h.h.h.h.j.j.&Xj.j.;X3X*X*X&X;X*X*Xv.j.s.h.&X&X&X;X;X3X3X3X3X3X3X3X&X&Xj.*X3X3X3X*X*X4XeXS.O.+.F.b.b.*X&Xj.d.d.h.e.$.M z l l l z l l z z z Z z z z z z z z z l z c q q r w w w r w r w q w 9 9 0 : t t u t t u u 0 q q q q q q q q q n n b b m j f f f d f f h h z z A A Z A A z z z z z N N z z z l j x g g I E Q U.Q.T.^.e.e.-X;X;X;X;Xj.*X*X&Xg.h.d.h.-Xh.r.7.7.1.e.e.e.r.h.h.h.r.r.).).e.7.0.r.r.d.h.).-X}.}.}.}.}.}.-X-X-Xh.f.f.h.&Xd.h.h.-X-X-X,X-X).r.).}.-X}.}.}.-X-X-X-X).r.r.f.f.0.d.v.x.s.a.d.h.0.",
"8.r.j.x.z.c.4X4X*X3X&Xh.h.-X&Xj.j.j.g.j.&X*X*X&X*X*Xj.=Xj.h.h.h.j.;X;X;X3X*X3X;X;X&X&Xj.j.&X*X=X=X*X*X*X4XeXD.O.+.O.l.l.g.j.h.r.r.%X}.*.M z z z z z z z z z Z Z z z z A A z z Z A Z b e r r w w r r w r r r w w u u 0 u u u w p w w q 4 q 6 6 6 K K n c g f f h f f f f h z Z Z Z N A A A A A A z z z z z A Z z h j j M E I.!.Q.OX+XXX1X,X-X-X&Xj.;X;X&X;X;X;X3X3Xj.j.&X%Xj.h.f.a.8.7.q.e.r.r.r.r.r.r.r.r.).r.e.r.r.0.r.r.r.-X}.{. X}.,X,X,X<X<X<X<X;X&X;X&X&Xh.h.;X-X,X-X}.).r.e.}.).).).).r.r.r.%X%X%X%X&Xh.%X;Xv.x.v.d.-X%Xr.",
"0.0.j.x.c.eX=X=X*X*X&X&X&X;X;X;X&X*Xj.j.&Xv.s.d.h.j.*X=X&X&X-Xh.h.j.&X;X3X3X&Xj.j.;X*Xv.j.j.v.v.=X*X*X&X=Xb.eXF.+.O.x.x.x.j.h.r.q.r.e.*.M Z z z z Z Z z C z z z z Z Z z z z Z A A Z b q w r r w U r r r P U U r r r w r r q q L L I K n 6 n 5 n b b j f h h f f l h z z Z Z z z N z z z z z A Z z Z Z N A m m n P Y E.OX].+X1X,X-X,X;X;X;X;X;X3X=X3X3X;X;X;X;X;X%X-X-X;X;X;Xh.h.h.h.h.-Xh.%Xd.a.r.h.d.h.%X).r.r.-X%Xh.h.h.-X<X-X-X-X,X<X;X<X%X-X%X;X&X;X;X;Xh.f.&X-X-X,X-X}.).-X).}.}.).).).-X-Xh.%X&X&X;X&Xh.%X;Xb.x.v.h.-Xh.0.",
"r.r.g.x.x.=X=X=X=X&Xh.h.%Xj.h.%Xh.j.j.j.h.h.h.r.h.;X7X*X3X&X%X-X;X;X;X;X;X&Xh.&X3X3X*Xj.&X&X&X3X4X*X*X=X=X4XrXS.+.F.b.x.v.&Xr.e.e.0.e.>.R Z z z z z C z z z C Z Z A Z z z h z Z Z z b q q e r r P P L e q q q q q K K K L L I M V b b 3 3 c j z x h l z z z z z z z l z z z z l Z N z A A A N z z m m E Q T.'.].|.}.,X,X-X-XM.j.;X;X3X3X3X;X&X;X3X3X;X;X&X&X&X%X).-X-X-X;X-X-X,X}.-X,X,Xh.j.j.h.&X;Xh.h.;Xh.}.}.,X-X-X%X-X-X-X%X-X-X-X;X&Xh.%X-X-X-X%X&X;X-X;X;X;X-X}.}.}. X).}.}.}.}.).e.).-X-X-X%X;X;X%Xh.a.8.8.s.s.v.*X%X0.r.",
"h.-X&Xj.g.=X=X3X4X3X;X-X-X-X-X-X-X;X;X;X-X%X&X%X&X*X*X4X8X;X;X<X;X3X;X&X&X;X&X;X&X&Xj.j.&Xh.&X*X*Xv.b.=X=XeXeX@.+.O.x.b.v.h.r.e.e.e.e.$.n z z z z z z z z z z Z Z Z Z Z A z z C z z m I 6 K n n n n v c n b n n n b c b M M b g x f f f h j z N z l l z z z z z z z z z Z Z Z z Z C m b m M P H.U.T.R.`. X,Xm.m.m.-X;X;XM.k.k.j.&Xj.j.j.*X&X;X;X;X;X;X;X;X&X&X%X%X-X;X;X;X-X,X}. X X|.{.y.r.j.;X;Xh.-X-X%X0.r.}.}.%X%X%X-X}.-X-X,X,X-X7X&X-X}.}.).-X-X-X%Xr.-X%Xj.%Xr.e.e.(.).e.}.}.).(.}.r.).%X-X-Xh.d.f.h.j.a.a...X.s.a.d.r.e.",
"&Xh.j.j.g.z.=X*X*X&Xj.%X%Xh.h.%X&Xj.j.&X%X&Xj.h.h.&X&Xv.v.j.h.h.&X;X;X&X&Xh.h.h.h.h.&X&X&X&X*X=X*X=X=Xb.b.b.c.O. .O.x.g.s.r.0.e.e.e.3.&.n z z l l z C l l l l z A Z N A Z C z z z z z V M m b g c c c c g f g m b g 2 j j x g j j z z z z Z z z h z z z z Z Z z z Z D D D m m m M I ! H.Y $._.1X,X,X:X>X>X>X>X-Xm.;X;X;Xk.j.3X*X*Xv.*X*X3X;X;X;X;Xh.;X3Xj.j.&Xj.j.j.j.&X;X;X-Xe.}.{.{.|.{.}.h.&X%X%X-X0.0.7.w.0.r.-X%X).).).%X;X<X<X<X;X;X<X,X-X-X;X;X;X&X%X;X;X&Xr.}.}.-X).e.e.e.e.).).(.}.-Xh.h.j.h.d.h.;X3X;X&Xv.v.g.a.r.7.1.",
"j.g.g.j.=Xx.v.*Xv.*X&X%Xh.h.%X%Xh.h.s.h.h.j.j.j.h.&X&Xj.x.s.a.h.j.h.h.d.h.h.h.;X;X;X;X;X3X3X=X=X=Xb.x.x.z.b.c. . .@.c.v.f.r.r.q.q.e./.a M Z z z z z l f z z z z z z z A Z z l z z z z z z z z z z m m z z h j j h f f h z z z Z z z A A Z z z z z A Z A A D D D D S S R E U U I ! T.].oXoX:X>X5X5X5XZ.B.N.M.M.M.&X3X;Xj.*X&X;X&Xj.j.&X&X&X&X;X;Xj.;X;X*X*X*X*X&X;X3X;X;X;X&Xh.%Xr.w.e.).%X;X&X;X-Xr.r.w.r.r.h.h.h.%Xh.h.%X;X3X3X3X3Xj.j.;X,X-X%X-X%X%X%X%Xh.h.r.h.-X,X,X-X}.-X-X).).}.}.e.).r.h.-Xj.j.j.;Xj.&X&Xj.v.*Xb.j.q.1.1.",
"&Xj.g.j.=Xz.*X*X&Xj.h.h.).-X-X}.).r.h.j.h.j.j.j.j.3Xj.v.=Xj.s.j.j.&X;X;X;X;X;X;X3X3X7X4X4X4X=X=X=X=X=X4X=Xb.=XS.+.@.b.=X3X%Xh.0.e.}.`.$.b N z z z A Z z z z z z l z z z z f d f z Z A Z z l z z Z z z z z z l h l l f f l z z A Z Z A A z z z z A D B m V M R I T Y H.R..XoXoX_.t.:X>X5X5X5XZ.B.C.C.M.M.m.m.M.j.g.g.j.&X&X&X-X%Xh.;X;X&X;X;Xj.h.&X;X;X;X;X;X;X;X;X;X;X<X;X;X;X;Xh.d.e.q.r.%X;Xh.r.e.e.).-X-Xr.h.%X%X%X%X%X%Xj.g.g.j.g.f.r.r.e.e.r.).-X).e.r.w.r.r.).e.).-X,X,X}.}.}.}.}.}.-X-X,X-X;X&Xj.h.j.j.&X*X*X=X*X&Xq.3.3.",
"&X&Xh.h.=Xo.x.&X3X;X;X-X}.-X-X).e.-X;X;X3X*X;X%Xj.j.*Xj.g.g.j.;X%X%X;X;X;X;X3X3X7X8X8X4X4X=Xb.=X=X4X=X=Xb.b.=XS.S.F.c.=Xj.r.0.p.7.{.`.J.M z z z z A A A Z Z A D F D D A z f f f z A A z z z z Z z z z z l j h h l l l h l l l z A A D D S D A z m M I Y J.R.[.oXi.:X>XdXdXG.Z.Z.Z.Z.Z.Z.5X6X5XM.k.g.h.k.j.h.h.d.a.h.h.h.%X%X;X;X&X&X*Xj.&Xj.j.h.;X;X;X;X3X;X&X&X&X;X;X;X;X;X;X;Xh.%X-X).}.-Xh.h.r.).{.}.}.-X).}.-X-X-X,X,X<Xj.j.j.j.&X;X%X}.}.-X-X%X%Xh.h.%Xr.r.e.).-X-X-X}.}.}.}.}.}.}.}.,X,X}.-X%X&X;X%X;X&Xj.s.g.&Xj.h.e.3.1.",
"h.j.h.h.=Xo.l.v.j.h.h.h.h.h.%Xh.&X;X;X3X*Xj.g.j.&X*X*X*X*X*X&X%Xh.h.h.j.;X3X3X3X4X4X*X=X=X4X4X=X=X=Xb.g.g.x.b.z.S.S.z.v.s.0.8.7.0.e.{.T.M z z z Z A A Z A A A G G F F D A z z Z A A N z z z z z l z l l l h z z z z N z Z A A A D A D A M n I Y T.`.XXsX>XdXdXZ.A.Z.Z.Z.dX5XZ.A.A.C.C.C.5X3Xv.s.s.f.g.h.h.h.j.d.h.;Xh.-X-X;X;X&X=Xv.j.j.h.h.%X-X%X;X;X;X-X%X%X&X&Xj.j.h.;X;X;X;X<X%X-X}.}.}.}.).).,X}.}.}.-X-X-X,X;X;X;X;X;X*X4X3X3X;X%X%X).).r.r.).%X%X-X).).}.}.}.).).e.}.).e.e.(.).}.).}.}.}.-X%X%X%X;X3X*X&Xs.s.s.h.r.2.e.e.",
"d.j.h.h.=Xc.l.*X&Xj.j.j.j.j.j.*X*X4X*X*X*X*X*Xj.j.j.&X*X=X=X*X&X;X;X;X;X*Xv.*X*Xv.v.=X=X=X*X=X=X=Xg.s.f.g.b.b.z.S.S.b.v.*Xh.0.7.r.}.{.P.5 z z z z Z Z z Z Z Z Z Z A Z z z l z z z z z l z z z l l l l l l z B A A S G G G D j b c 6 q Y T.`.oX:X>XB.5XZ.dXdX5XZ.Z.Z.Z.Z.Z.A.n.v.v.C.v.j.j.j.f.s.s.j.&X&Xj.h.h.h.h.-X%XM.h.h.j.&X*X*X;X-X-Xh.h.%X%Xh.-X%X).e.e.%X%Xh.%X%Xh.&Xj.h.;X&Xh.-X,X|.{.}.).).,X,X-X%X-X}.-X&X&X;X3X3X*X*X3X3X&X%X).}.).).).e.).).%Xr.).).r.}.-X-X).(.}.}.).}.}.}.}.}.}.%X%X%Xh.h.;X;X*Xj.s.s.s.h.5.%.5.e.",
"g.j.h.j.b.b.g.*X=X*X&X3X=X3X3X*X*X*X*X*X*X*Xv.j.j.&X*X*X=X*X3X;X3X;X;X3X*Xv.b.*X4X4X=Xb.c.b.*X*Xj.s.s.j.v.x.z.S.S.D.b.v.=Xj.8.7.q.r.e.>.% f l l h l z l l l z h h z z f 1     f f f f l h h h z z j z z z Z D D m m b n I P Y J._.{.:X>X>XB.5XdXdXdX5X5X5XZ.Z.C.V.B.k.j.n.v.j.j.j.&X&Xj.j.j.s.f.f.h.g.h.h.h.%X-X;Xj.j.j.h.;X;Xj.&X-X%X-X).).}.}.}.}.{.{.5.4.4.4.{.{.}.).e.h.d.r.h.j.M.;X-X).{.{.(.-X%X%Xh.0.0.e.}.%X;X;X-X;X&X;X;X%X;X-X-X}.}. X}.-X}.-Xr.%X-X%X).e.).).e.e.e.e.}.}.}.}.).).%Xr.h.-X;Xj.&X&X*X*Xs.s.j.d.,.$.3.7.",
"j.j.h.*Xb.g.s.v.=X*X3X*X*X=X*X*X*X*Xj.j.j.v.v.&X;X3X*X&X*X*X*X*Xj.&X;X;X3X8X8X4X4X=X=X=X=Xv.v.b.b.*X3Xj.*X=Xz.z.z.D.=Xv.=Xg.d.h.-Xh.e.;.6 h l l l l l h z Z Z z z z z z l f f     d f f h z l z l j z z j m M I ! U.W.'.oXoX:X>X>XB.dXdXZ.Z.Z.Z.B.Z.Z.5X5X5XC.j.k.d.f.g.j.f.j.v.&X&X&X3X3X&Xj.&Xh.h.h.h.g.h.h.h.;X&Xj.j.*Xj.&X&X-X-X}.).(.4.4.`.`.`.{.`.4.`.`.`.`.`.`.e.{.}.e.e.).;Xj.j.h.%Xe.5.5.e.).%Xj.h.0.e.e.e.).-X-X;X;X-X%Xr.-X-X-X}. X X X}.,X}.,X,X-X%X%X%X%X}.}.).).(.(.}.}.).).}.-X-X;X;X&X&X&X&X*X=Xj.s.j.r.L.u 4.0.",
"g.g.d.b.z.j.&X*X*Xj.j.j.j.*X*X&X&X&X*Xj.&X*Xv.j.*X*X3X3X3X3X*X*X&X;X3X7X8X8X8X*X*X4X*X=X*X4X4X4X4X3X3X*X=Xb.z.S.z.D.=X*X=Xj.d.h.,X3X<X`.P A z z z z f f Z A A A A A D A A A A h f h l z z l h h l m R W U.L.P.`. X}.-X>X5XB.B.B.G.G.dXZ.B.Z.Z.C.C.B.M.M.5XM.j.g.j.h.j.j.g.v.*X3X3X3X;X%X%Xh.-X-Xh.h.h.s.a.h.&X&Xj.j.&X*Xj.j.j.h.r.r.-X}.{.`.`.{.{.^.`.4.R.R.R.T.L.T.R.].`.{.{.^.4.0.d.h.;X-X}.{./.{.(.r.&X&X-X).e.).-Xr.%X&X%X).}.}.}.-X-X,X,X,X-X-X-X,X1X,X-X-X%X-X%X}.}.}.}.}.}.).}.-X-X%X%Xj.&X&X&Xj.&X*X*Xj.s.f.d.r.>.w L.e.",
"f.h.0.v.eXx.j.g.j.j.j.j.f.h.&X&Xj.j.=X*X*X*X*Xj.j.&X*X*X=X*X*X&X&X&X&Xj.*Xb.s.g.&Xj.&X*Xv.*X=X=Xv.j.*X*X*Xb.z.c.z.S.c.v.j.f.r.r.-X3X&X{.Y A A z l h l l z A D D A A A A A A A z h f f f d f l h z R Q ~.{.0.r.h.-X-X-X;X>X>X>X>XdXdXB.B.Z.5X5XM.j.j.&X&X&X&Xj.j.j.&X3X*Xj.=X3X;X-Xr.e.e.e.-X%Xr.d.h.j.f.g.&X&Xj.*X3X*X&Xj.&X-X%Xr.r.-X-Xe.e.`.].R.Y ! U U u u p p U w Y U.T.'.[.].{.{.-Xh.%Xr.}. X}.e.e.j.*X&Xe.e.}.-X-X%X*X3X-X}.{.}.-X%X-X-X;X;X;X<X<X;X;X-X-X-X-X-X).).}.(.(.}.}.).-X-X%X&Xh.g.j.g.s.s.s.g.s.s.8.8.e.%.q &.e.",
"f.8.6.1.b.b.b.x.j.j.h.f.h.h.j.g.f.j.*Xv.j.v.v.j.&X;X3X=X=X=Xj.g.&Xj.h.j.j.j.j.s.j.&X*X*Xv.v.v.*X*X*Xv.g.b.v.z.z.l.S.eX=Xj.&X-Xr.0.d.8.q.H.A A z l h l l z z z Z A A Z Z A Z z l h f f f h l l z m 5 q H.].%Xh.h.h.m.N.N.M.;X;X;X<X;XM.M.C.5Xh.;X&X&X*X*X*X8X3X&Xj.&X&Xh.f.d.r.r.). X}.%X%X;X&Xh.d.j.j.s.j.;X&X3X3X&Xj.&X%X;X-X-X-X-Xh.}.q.e.`.R.W I L q q q w r r r r P P r u Y U.[.`.{.}.e.r.%X-X}.}.-X&Xb.j.r.}.}.r.h.&X=Xj.h.r.}.}.%Xh.h.j.j.j.;X;X&Xj.&X&X%X-X-X}.}.}.}.}.}.}.}.,X-X-X%X%X&X;X&X&Xj.j.j.j.v.g.f.d.4.> q : <.",
"a.q.%._ f.=Xx.*X*Xj.j.h.h.&Xj.s.j.j.&X&Xj.*X=X*X&X*X*Xj.v.*X*X*X;X;X;Xj.j.j.g.j.*X3X*X=X=X*X=X=Xb.=X=Xv.x.x.x.l.x.S.eXg.j.j.h.r.e.r.d.r.#.M A l h l l h f z z z z Z z z z Z Z l l l h h z z Z A b 6 q r L.}.r.r.%Xh.j.h.d.h.h.h.h.;X;X;Xj.g.h.j.-Xh.h.-X&Xh.h.r.h.}.e.e.e.}.}.}.-X-X;X;X;Xj.j.j.&X&X*Xs.j.;X3X;X;X;X;X;X;X;X;X;X%Xh.).}.5.4./.J.P K q r P P U P r r P r r r q e r u T.R.4.3.e.r.w.r.-X;Xg.x.h.-X}.}.r.%X&Xj.*Xh.h.r.-X-X&X;X;X*X3X;Xj.j.h.h.r.).-X}.}.,X}.}.-X,X,X}.-X<X<X-X;X&X;X3X3X3X*X3X*X=X*Xj.e.>.0 q w $.",
"h.3.y 0 3.b.s.x.=X&Xj.h.h.&X&X&Xj.;X*X&Xj.s.s.x.g.j.*X3X&Xj.&X&Xj.h.&Xj.j.j.j.j.=X*X*X=X3X3X*X3X=X=X=X*Xv.b.c.z.c.S.rXb.j.&Xh.r.r.,X;X,X:.v Z l h z z l z z Z Z A A A Z z z C z z z z Z A z Z z 5 8 4 w %.e.0.9.r.&Xh.d.h.j.j.j.h.&X;Xj.g.j.j.h.&X&X;X<X<X;X%X-X-X}.).-X-X<X<X<X7X7X3X*Xj.s.j.3X&X*Xg.j.*X7X3X;X3X;X;X3Xj.&X;X;X-Xr.).e.4./.P.a r r r r P P P P P I I P r r r r r q : i ,.,.`.).h.&X7X*Xx.b.&X-X-X,X-X-X-X;X3X&X).).}.%X&X&Xj.j.&Xh.r.r.r.-X-X%Xh.-X).).}.}.}.}.}.}.%X%X&X&X&X&X&Xj.g.j.j.*X*X=Xj.d.6.$.0 q r p ",
"h.2.> ; ) X.x.s.x.j.j.&Xh.h.h.&X&X;Xj.f.f.&Xs.l.v.=X=Xj.j.h.j.j.3X3X&Xj.s.j.j.=X3X*Xv.*X*X*X*X=X4X=X*X=Xj.=Xx.z.b.b.S.b.s.h.h.m.).-X-X-X-.% Z l z f f h l z Z Z Z z z A A z z A Z Z C z A A A m 5 5 q 0 *./.}.q.r.h.h.h.j.j.&Xj.h.j.&Xv.*X3X;X;X;X&X;X;X;X;X;X&X%X%X&X;X&X3X3X3X7X3X3Xj.s.j.*X*X&Xf.s.g.*X&X;X&X&X&X;Xj.j.&X-X-Xr.).}.{.`.`.*.w q r P r P P r r r q q q r q q q q q r r $._.`.}.}.%Xj.b.x.b.h.r.r.-X-X-X%X&X3X;X-X}.-X<X&X%X&X;X;X%X-X,X;X&X&X*X*X&Xh.r.).).).e.}.-Xh.%Xh.%Xj.j.j.f.s.j.j.j.*X*Xa.0.-.y ; 9 q r ",
"h.:.0 $ - s.b.b.b.j.h.h.d.h.j.h.h.%X&Xj.j.j.j.v.=X*X=Xg.j.j.&X&Xg.j.j.j.j.&X*X&X&Xj.j.*X*X*X=X=X=X=X=X=X*X=Xx.z.z.b.S.b.f.g.j.%X).u.-X&X2.+ z z Z z l l l z z Z z z z C C l l z z z z z A A A b 5 n n q u *.|.r.d.h.h.j.j.j.g.g.g.h.j.*X*X&X;Xj.h.j.&X%Xh.h.&X3X3X*X*X*X*X*X&Xj.j.g.j.s.a.s.s.s.s.s.X.g.s.j.j.j.&X*Xj.h.h.h.&X-X}.).{.{.`.*.: 9 q r q q q q q q q q q q q r r r q q r q u T.`.e.e.e.j.v.b.x.j.r.e.).-X%X%X&X8X8X7X<X,X;X;X3X3X3X3X7X7X<X;X&Xj.s.*Xj.;X<X-Xr.).}.}.r.%X%Xh.h.j.j.j.g.g.v.j.j.j.s.f.r.;.t $ 4 4 q ",
"q.;.q 6 - 8.=X8XtX=Xj.h.h.h.&X&X&X&Xj.h.M.&X*Xj.=X*X=Xb.j.&X*Xv.g.*Xj.j.*X*X*Xj.&X&X&X*X&X*X=X=X=X=X=Xv.=X=Xb.c.c.S.D.eXj.3Xj.h.e.(.-Xh.).O f z z z l l l l z Z z A Z z z z z z A A Z Z Z z z c 5 7 n K r u R.,X&X%X&X;X;Xj.&X&Xj.j.j.*X3X*X*Xj.h.h.j.h.h.h.j.j.j.g.h.j.v.v.*X*X&Xj.s.s.s.s.s.g.g.s.s.g.j.&X;X3X3X*Xs.h.,X;Xj.d.r.0.).{.%.: q q q r q q r r q q r r r q q r r r r P P r r t L.{.{.e.j.s.=Xv.*X;X-X-Xh.%X-X&X*X3X7X;X<X;X&X&X*X*X&X*X&X;X;X-X%X%X%X%X%X%X-Xh.0.r.r.r.h.h.j.j.s.g.g.s.x.=X*Xh.j.f.h.e.%.a q q 4 r ",
";.> q 6 > { =Xz.D.=X*Xj.&X;X;X&Xj.j.&X&X&X3X3X*X=X*X*X=X=X8X4X=X*X=X3X=Xb.*X=X*X3X;X&X&X&X3X=X=X=X=X=X=Xv.=Xb.c.c.z.z.c.v.j.j.h.r.).e.h.-X- # f z z l l h l z z z z z Z Z Z Z z z z z z Z z A m 5 4 4 4 q 9 t {.;X%Xh.j.;X<Xh.&Xj.j.*X*X*X3X3X;Xj.&X;X&X;X;X;X3X&X&X;X7X3X*X*Xj.j.j.j.&Xg.s.g.g.s.v.j.j.j.&X3X;Xj.a.w.%X;X&Xf.h.h.-X(.;.: q q r q r P q q w q r q q q q q q r r r r r q q q t ^.}.e.8.a...s.j.j.&Xh.j.h.&Xj.g.j.s.h.d.d.h.h.j.j.%X;X%X-X}.).,X-X}.}. X,X-X;X-X-Xr.%Xh.h.h.h.s.v.*Xv.b.=X=Xj.&Xd.h.5.$.0 ; 9 q q ",
"$.q 4 4 0 ' j.eXc.=X*X*Xj.&X;X;X&X&X&X*X3X3X&X*X*X=X=X=X8Xb.s.j.3X4X=X=X=X=X*X&X&Xj.j.&X;X*X=X=X=Xb.b.*X*Xb.z.z.z.o.o.o.b.j.;Xm.r.e.e.h.&X) & f z z z h h h l l Z z l z l f f l z z z z z l z j 5 6 6 4 9 q : _ h.h.h.h.h.h.h.j.&X*X3X&X&X&Xj.&X;X;X;X&X;X;X&Xv.g.v.*X*Xj.j.&X*X&X;X&Xj.j.&X&Xj.g.s.f.f.g.j.h.h.d.h.-X;X&Xj.h.d.%X{.>.; q q q q r P P q q q q r r r q q q r r r r r r q q q ; _ q.q.d.0.7.h.j.j.j.h.j.&X&Xj.j.&Xf.h.h.&Xj.h.h.h.h.h.h.-X).).}.-X).}.}.}.}.,X<X,X-X-Xr.h.h.j.j.j.s.s.s.s.g.s.&Xh.%X:.&.r $ ; q q ",
"i 9 8 4 9 , h.eXc.b.j.;Xj.j.&X;X&X&X&X*X&Xj.j.j.j.*X=X=Xv.x.j.&X3X*X*X*Xb.*X*X&Xj.j.j.j.j.*X=X=X=X=X=X=X=Xx.l.z.z.o.| X.c.g.;X-X-X}.{.h.h.1.O j z z z z h f l z A A A Z z z z z z z Z A A Z Z z c 5 6 6 6 q q t ^.-Xh.h.h.j.&Xj.j.j.3X;X&X&X&Xj.j.h.;X;X;X;Xj.x.v.=X=X3X7X7X7X7X3Xj.j.j.j.h.h.j.f.f.f.h.j.j.&Xh.h.%X;X;X&X&Xd.%X(.L.; q q q q q r q q P r q q r r r r P P r r w q q w r q r q i `.e.j.d.e.}.-X%X&X;X3X;X&Xj.&X;X<X-X-X;X;X3X3Xj.&Xd.r.r.r.r.r.7.q.e.e.e.e.h.&Xh.%Xh.d.h.%X&Xh.j.f.s.j.v.a.f.j.%Xe.<.i w q q q q ",
"y 9 6 6 6 : 3.=Xc.x.x.&X3X3X;X;X;X&X*Xj.j.s.j.j.v.v.v.b.v.*X*X*X*X&Xj.b.v.v.j.j.j.&X&Xj.*X=X=X=X=X=X=X*Xx.s.l.z.z.l...a.x.v.j.j.-X}.{.e.d.h.] 4 A z z z h h l h z A A A Z C z z Z A A D A A A z g 6 6 6 K q q q > ^.-Xd.f.j.;X;Xh.h.j.&X;X;X3X3X;X;X&X;X3X3Xv.x.v.=X*X=X3X3X3X3X*Xf.h.%Xh.h.%Xd.d.h.j.j.v.&X-Xr.-X&Xj.g.j.d.e.{.#.O % r r r q r r q P P P P P r P r r q r q q r r r r r q q q u R.}.j.h.,X}.-Xh.h.%X&X;X3X3X3X3X;X%X-X;X;X;Xj.h.h.h.r.e.e.}.}.e.{.(.e.0.w.8.a.a.f.j.h.h.h.h.g.j.f.s.j.v.f.h.h.r.q.#.0 r q q q q ",
"> q 6 4 5 ; ' =Xb.b.g.j.&Xj.j.&X*X&Xh.h.h.&Xj.j.*X=X=X=X=X*X3X=X*Xv.&X*X=Xv.j.j.&X&X;X3X3X=X*Xv.*X*X=X=X*Xb.z.z.z.l...8.f.j.s.j.h.).e.e.r.j.8._ V A C z l l f f l z z A A A A z z Z z z z z z z g 5 6 6 6 6 4 q w y 5.h.j.j.h.h.h.j.&X&X&X;X;X&X*X3X3X3X3X3X=Xx.*X=Xv.j.&Xj.j.&X&Xh.h.).-X-X%Xh.h.j.s.j.&Xh.%X-X&X;Xh.&Xh.r.{.<.o $ P r r P P P e e r r q q q r w q q q q q r P P r r P P P q w *.{.h.r.e.e.r.h.h.h.h.h.h.&X7X7X;X;X;X%Xh.j.f.&X;X%X).).e.}.e.).}.}.).).).8.0.h.j.&Xj.j.&Xj.;Xj.j.*Xj.j.h.h.f.r.3.%.w q q q q q ",
": q 6 4 4 ; ` x.c.=Xv.j.j.f.f.g.g.h.d.h.h.&Xj.j.*X=X=X=X*Xj.*X=X=Xg.j.j.v.*X*Xv.j.j.j.*X3X3Xj.*Xv.*Xv.*X=Xb.x.c.z.x.s.a.f.j.h.j.%Xr.).{.}.;Xh.' v z z l l h f   f z Z Z Z z z l z Z z l z z z z j 5 4 4 6 6 L r r w i `.h.f.j.h.j.j.j.;X3X;X&Xj.*X*Xj.*X&X*Xv.x.b.=Xg.g.j.j.j.j.h.h.-X-X%X%X%Xj.g.j.g.g.h.-X;X&X&X;X3Xj.r.{.>.= w w q q w q q q q q q q q q r q q r r q r r r q r r q q q w r Y T.{.r.0.e.}.%X%X;X;X;X;X3X*X&X&X&X;X;X;X;Xj.j.;X&X;X%X).}.}.).e.e.e.e.e.r.r.h.-X%Xd.f.h.h.h.h.d.j.*X*Xj.f.h.h.r.-.%.w q 4 q r q ",
"t 4 6 4 4 q _ x.z.=X*Xj.j.f.j.j.j.h.h.h.h.j.&Xj.v.v.*X*X*X*Xv.*Xb.*X*Xj.*X=X4X3X&X&X*X3X3X&X*X*X*X*X*X=X=Xb.X.l.x.b.g.a.r.m.%Xh.h.r.h.e.{.h.d.e.: z k l l f f f f z Z z z z z z z A A A Z A A A D M 6 q 6 q e q r q P i 5.d.m.M.h.d.h.j.*X*X*X*X3X*X&X&X&X&Xj.g.v.v.s.f.j.j.;Xh.h.h.;X;X3X;X&Xs.g.g.f.f.&X;X&Xj.g.j.g.h./.%.t p r q w q ; % 4 $ q q r q q P r q r P P P P r q r r q q r w w Y Y.`.-Xh.r.).).e.%X-Xh.%X3X3X3Xv.*X&X3X&X&X3X3X3X&Xh.%X}.}.,X,X}.).).}.}.r.h.h.u.%Xh.d.a.h.h.h.8.8.f.j.g.g.h.j.;Xe.;.i w q q 9 q q ",
"w 5 5 4 $ 6 y &Xc.c.=Xj.&Xj.h.h.;X;X%Xh.;X3X&Xj.j.s.j.=X=X=X=Xj.v.b.*X3X3X3X3X3X;X;X3X3X&Xj.j.j.j.*X=Xv.x.x.s.l.v.*Xg.a.0.r.;Xj.h.d.h.0.q.0.h.;X#.b C k h f f h f f z z z z z z z z z A A A A A A m 5 q 6 q q q r r : u $./.%Xh.h.h.j.j.*X*X*X=X*X*X3X&Xj.j.j.&Xj.j.j.j.j.j.;X&X;X;X;X*X*Xj.j.j.g.j.j.j.&Xj.g.h.h.h.r.^.*.u r r q r q 6 q 6 q q r I P r P P r q r r r r e q q r r r q r 9 Y H.J.{.h.r.e.).e.(.e.}.h.h.&X7X8X3X3X3X&Xh.j.j.j.*X;X-Xe.e.(.).r.%X%X).}.).r.d.r.0.r.h.j.h.h.h.a.a.[ a.j.j.h.h.j.h.5.%.i r e q q q r ",
"9 5 b 5 q 4 : e.eXS.=X*X&X&Xh.h.h.h.%X-X&Xj.j.&Xh.j.&X*Xb.=Xv.v.v.=Xx.j.j.*X*Xj.j.&X*X&Xj.j.j.*X&Xj.j.=X=Xb.x.b.=Xj.f.8.0.r.r.r.r.d.r.h.q.3.7.d.5.K A z l h f f f f l Z z z z z z z z z Z A A z z m n 6 6 q q q q r w 9 T a 4.-X&X&X&X3X3X3X4X3X3X3X&X&X3X3X7X3X3X3X&X&X&X;X;X;X;X3X&Xj.&X&Xj.j.j.j.j.&X3Xj.a.r.}.{.`.J.Y P e r P r q e e q q e r q P I I P P r q q q q q P P r q q 9 q w Y.&.T.u.j.m.r.}.).5.3.e.-X;X3X*Xv.=X*X*X*X;X;X;X&X*X&X%Xe.}.e.q.e.-X-X,X}.}.r.0.7.r.d.h.;X%X%Xh.[ ....a.a.a.h.h.h.r.-.i 0 q q q q q q ",
"q b m v 6 6 9 -.=Xc.z.b.s.g.h.d.h.h.h.r.h.h.j.j.j.j.j.&X=X*X=X*Xj.j.j.s.j.j.v.*X&X*Xj.g.j.j.j.j.j.v.v.b.*Xv.b.l.b.v.f.a.8.0.0.0.7.r.h.h.q.{.e.r.}.u m A z l l h f h h z Z z z A Z z z z z A A D D A m K q q q q e q r q q q u >.}.7X3X3X3X3X3X*X*X*X*X*X3X=X*X*X*X8X8X7X3X&X*X*X3X3X&X;X;X;X&X;X;Xj.j.j.h.0.r.}.}.^.T.Y.U P P P e q q q q q e e q q q 6 K L P P P P e e q r r r P r r q Y Y.H.R.r.h.r.r.e.}.e.5.{.}.;X3X*X3X*X*X*X=X=X8X3X3X&X&X-X).).).e.).).e.).}.-X%Xd.r.h.h.%X%Xh.;X;Xd.f.s.j.j.f.a.[ 8.q.=.t q q q q 4 q q ",
"6 c m c 8 4 8 - s.b.z.x.j.g.f.h.j.h.d.h.j.j.h.j.j.s.j.&X3X4X*Xj.j.3X3X&X*X*X=X*X*X*Xj.*Xj.&X*Xj.j.j.v.j.j.*Xx.z.c.b.a.a.8.0.}.-Xr.-X,X}.{.{.{.}.-X,.n C z z z h f h f f z z z z z z z z z z z Z z z z 5 4 4 4 q q q q q q ; r r y 5.;X;Xf.j.3X*X*X3X*Xv.=X*X*X3X*X=X=X=X*X*Xv.*X&Xj.&X;X;Xj.j.j.j.j.j.h.r.}.,X<X`.&.a : : r w q r P P q q q q q e q K b b b b 5 q L P q q q q q ; 9 q w Y H.T.4.h.0.0.e.e.e.5.5.e.}.;X&X*X*X3X;Xh.j.v.x.g.*Xj.h.r.).e.e.}.e.r.).).).e.r.8.d.h.;X%X%Xh.h.h.r.&X&X*Xj.&Xj.f.d.1._ 0 q 4 $ q 4 q q ",
"5 g j b 4 4 4 * 7.c.c.b.g.g.j.h.h.h.h.&Xj.h.d.d.h.&Xj.v.=X=X=X*Xj.&Xj.j.j.&X&X*X*Xj.j.&X3X;X&Xj.j.v.*X*X*X=Xx.z.o.x.g.8.0.r.r.h.%X-Xh.-X).e.{.}.N.}.U j z z h l h h h f h z Z Z Z Z A A Z z C C z z z 5 q q q q q 6 q 4 9 r r r r t =.-X;Xh.s.j.*X3X3X*Xj.j.&X*X*Xv.j.j.*X*Xv.j.&X3X&X&X&Xh.j.j.j.j.h.d.h.;X-X4.$.y = * r q q q q P r q q P q e e q n m Z l f x b 5 K I I P r r q q q u &.Y.T.y.r.r.-Xe.(.}.(. X}.-X;X&X*X=X*X&Xh.j.j.j.v.v.g.d.r.).).e.e.).}.}.}.(.).r.8.d.h.h.&X&X&X-X-Xr.&X&X&Xj.&Xv.&X%X2.> w q 4 q q 6 6 4 ",
"n m z b 6 q q q ` b.D.b.j.*X&Xh.-X;X;X&Xh.d.h.%Xj.&X*Xv.=X=X4X*X*X&X3X3X3Xj.*X3X*Xj.&X&X*X&Xj.j.&X*X*X*X=Xv.x.x.l.x.g.r.r.r.h.j.f.d.h.-X}.}.}.e.-X<XR.M z z h f h f f h f h z z z z z z A Z z z Z C z g n e e q e 6 6 4 q q q q w w w i _.1X<Xh.h.h.h.h.;X3X7X&X*X*Xj.j.j.j.g.j.;X;X3X&Xh.;X;X&Xh.h.j.&Xj.(.;.- - t t r q q q e q q q e P q q q q 6 5 x f f f l l h g 3 6 q P q q P P H.J.U._.:Xh.%X).7.e.{.e.}.-X;X&Xj.&X&X&X&X;X&Xh.j.g.s.&Xr.).).e.e.e.e.(.e.e.}.}.h.h.h.h.h.f.h.j.%X%X&X3X3X3X*X&Xj.j.r.>.> $ $ $ q % # 5 $ ",
"n m z j 6 4 ; 4 - g.D.=X*X=Xj.h.h.h.h.d.d.h.h.j.;X3X*Xv.*X=X=X*X*X*X*X*X&X*X3X*X*Xj.&X&Xj.f.f.j.&X&X*X*Xx.x.x.b.=Xx.g.r.d.f.j.h.a.0.r.r.e.r.7.3.r.m.{.u c b j f h h f h h l z z C z z z z z z z z z z j c q 4 $ q q 6 q q q q q q q q r : i ].,Xh.h.).e.w.h.&X*X=X3X*X3X3Xb.v.7X7X7X3X&Xj.j.3X3X7X9X-X6.` : ; q U U q e q q r q q q q e q q q q 4 % g f f h h l f f h h g c K q q 9 u T.W.R.}.d.r.r.r.e.}.e.e.-X-X&Xj.&X&Xd.r.-Xh.h.j.*Xg.v.j.r.}.(.e.e.).e.e.e.e.(.).h.f.h.&Xh.%Xj.j.d.h.&X*X*Xj.j.s.j.f.3.#.: $ $ 9 q 5 2 # $ ",
"n j f m 5 6 $ 8 - h.eX=Xv.*X&Xj.h.h.h.h.&Xj.j.;X&X&Xj.*X*Xv.v.&Xv.v.v.v.*X*Xv.*X*Xj.j.&X&X&X*X&X3X3X=X=X*Xb.=X*Xv.j.d.r.&Xs.j.j.h.h.r.0.0.q.e.3.7.u.}._.H.5 b j h h h h l f l z Z z Z Z z z Z z Z Z Z z x 5 4 q 4 q q q q q q q q q r w q ; : J.+XqXwX,Xr.e.%X%X&X;X3X4X*Xx.*X4X4X3X*X*X3X7X9X2X|.=.< O + $ q r q ; q r r q 9 q 4 4 q q q q q 4 5 b x h h f f f f f f f h z g c c 6 p ,.5.u.V.r.0.r.r.r.u.).-X-X%X&X3X;X;X-X-X).).;X7X=Xv.&Xj.%X).).).e.}.).r.e.e.).).r.d.j.&X%Xh.h.h.h.j.j.j.j.s.s.j.f.8.6.- ; 4 q q 9 c z c e ",
"g g f z b 6 q q ; ' 4X=X*X=X*X&X;X&Xj.j.&X*X&Xj.&X&X&Xj.j.*X*X*X*X=X*X*X3X*X*X*X&X&X*X3X3X3X8X3Xj.=X=X=X4X=X=X*Xj.h.d.%Xj.g.j.j.3X3X;Xh.r.r.}.{.{.}.}.{.`.U b M z h l l f f d l Z Z Z A A Z z z A A Z Z z 3 e e q 4 q q q e q q q r r w w r w : * , [.+XgX9XwX9X9X<X;X3X&X&X=X3X7X;X,XXX].].P., < O $ 4 q q q 9 q q r r q $ 9 q q q q q q q q 5 g f f f f h h f f h f 1 f h h z m E J.:X6XZ.d.r.r.-Xr.h.r.e.-Xh.h.j.&Xh.%X;X%X-X;X&X3Xv.*X&X%X%Xh.).-X-X%X%Xr.).}.).%Xh.h.h.%Xh.h.&X;X&X&X&Xj.j.*X*X=Xj.r.,.: q q q q q 5 l c q ",
"g f f h g 5 6 6 q - %XeX=X=X=Xv.v.g.s.j.*X&Xj.h.;X;X&X*X*X*X*X*Xj.&X*Xv.*Xg.j.&X&X*X=X=X=X=Xv.*X*X=Xb.*X=X=X*Xj.h.h.h.%Xh.d.j.*X*Xj.f.d.h.h.}.}.{.e.u.}.{.$.n B j h h h h f f h z Z Z Z A Z z z z Z Z D A j n e q q q q e q e q q e P w r P r q q : + = > *.'.'.[.+XqXqX+X+X+X'.T.H.y : < + = = $ 9 % q e q q r r r q q q q q q e e r q r q 6 c g d f f h h h f d   f f f f f z m U.{.Z.Z.B.m.u.-Xh.h.d.0.r.h.&Xj.&Xh.r.r.r.r.-Xh.j.j.g.j.h.%X%Xh.).%X%X&X%Xh.-X-Xr.h.h.&X&Xh.h.h.h.%Xh.h.j.j.j.&X=X*Xh.(.=.u P q q q L ~ A b 6 ",
"j f f f g 5 6 6 q = 6.b.c.x.x.v.v.j.*X*X&Xh.h.&X*X&X&X&X*X*X=X=X*X*X*Xv.=X*X*X*X=X=X4X=Xv.v.v.*X*X*Xx.v.b.b.*Xf.j.j.&X&Xh.;Xj.g.v.j.j.j.j.;X-Xe.e.e.}.-X}.`.Y b m g h h h h h h h h z z z l l z z z l z Z Z j 5 q q q q q 6 q 6 q q q w w w r r r w r ; + O O o o O O O O + O O o O + ; ; ; 9 9 9 9 q P r r r r r r r q q e e q q P q r q q n c j h l l h f f f f f f f d d h z R `.M.A.B.r.q.%X&Xj.j.h.r.r.d.d.a.d.r.r.%X).).}.).%X&X*Xj.d.%X%X%X).%X%X;X&X%X%X%X%X&X%X&X&X;Xh.h.h.h.h.j.j.h.g.j.*Xg.r.4.> : 9 q 9 q n m z g % ",
"x f     2 5 6 q 9 ; ) j.b.4X=X*X=X3X&X&Xh.h.&X*X&X&X&X&X*X=X*X3X*X*Xv.*X=X=X4X4X4X=Xx.x.v.b.*X*X&Xv.*X*Xb.v.j.h.j.*Xs.d.h.j.s.g.j.*X*Xx.s.d.r.q.e.`.{.,X-X}._.K m A k h h l l f h l z z z l z z Z Z z z z z z b q q q q $ 4 4 q q q r r w r q r P P r q ; 9 ; $ 4 q ; $ q q $ $ $ q r q 9 9 q q q q r P P r P P r r q q q q e P r q r r r K b x h h h h f f f h h f f f f f z m U.u.C.B.0.q.r.&X*X&X&Xh.h.;Xh.e.}.).e.e.).h.).e.r.h.j.j.f.d.r.0.r.).%Xr.r.h.h.%X%X;X;X;X&X&Xh.h.h.h.&X;X*X*X&Xg.f.j.f.r.<.9 q 9 9 q q 5 f f f % ",
"f f f f f c 6 q q q = e.b.v.b.v.*Xv.&Xj.&Xj.j.j.j.h.h.g.s.j.*X*X*X=X*X=X=X=X4X=X=Xb.=X=X=X=X*X*X*X*X3X=X=X=Xj.&X&Xj.j.&Xj.h.g.j.=X*Xg.s.f.a.d.r.e.4.4.}.:Xu.{.&.g z x f h l z l h h l z z z z z C z z z z z Z m 5 q q 4 4 4 4 6 4 q q r r r r r w q q q r q q r q q q q q q $ 9 q q q q q e q q e P q q q r q q q q q e e L e q q q q P I c f l l l h f f h f f f       f l A W ].M.M.0.7.e.%Xh.j.*Xj.h.h.-X0.e.}.}.}.}.-X;X;X;X;Xj.j.v.&Xh.r.r.}.}.%Xr.r.h.h.h.%Xh.%X&Xj.h.h.h.h.h.h.&X*X*X*X*Xj.s.w.3.y 4 9 q q e q c h d 2 # ",
"2 1 f f f g 6 q 6 6 * ` 3Xb.b.*X*X=X*Xj.j.h.h.h.h.d.d.h.j.*X=X4X=X*X=X=X4X=X=Xb.*X=X=X=X*X=X3X*X3X3X*X*X*Xj.h.j.j.3X3X*X&Xd.h.*Xj.j.j.j.a.a.h.;X,X{.5.e.:X}.e._.q h z h l l l l l h h z N z z z C Z Z Z z z z z g 5 q q q q 6 4 4 q r r r P r r r r r q q q r Q q w q q 9 9 ; q q q q e q e r 9 q r r q q 9 q q q e q q e r e r P r L I c g h l f h h h h h h f d f f f l C ~ OX;XM.h.q.3.%X;Xh.h.&Xh.d.h.h.r.-X}.e.{.).-X;X8X8X=X3X*Xj.;X&X-X-X-X,Xh.h.).).h.r.h.%Xh.h.j.j.j.;X;X;X3X7X3X=X3X*X*Xj.).4.0 q q e q q 5 g d   1 3 ",
"2     d f b n q q 6 ; = (.=X*X*X*X*X&Xj.f.d.h.g.j.h.h.j.*X*Xv.b.b.=X*X=X=X=X=X=X=Xj.j.v.*X=X*X&X&X&X&Xj.h.r.r.j.3X3Xj.g.h.h.j.j.j.j.&Xj.h.h.j.j.j.-X}.u.}.}.}.{.Y.b z z l l h h h f h l h f l z z z z z z Z A z j 3 5 e e e e q 6 q r r q q r q q P r w w w r ^ q w r q r r q q P P P e r r r q q q q q q q r r q q q q r r r q r L n g 2 f f h h h h f f h h h h h h h z S !.u.M.h.r.r.}.-X&X;X;Xj.h.h.&X%X-X-X-X}.}.-X-X%X&Xx.v.=Xj.%X%X-X-X}.-Xh.h.-Xr.r.).r.h.h.h.j.h.h.&X;X;X7X7X8X3X&Xj.g.x.f.e.%.: 4 4 4 9 4 3         2 ",
"    f d f g 5 4 q q $ * _ &Xb.=X3X=X*Xj.g.h.d.h.h.d.h.&X&Xj.v.=X=Xb.=X4X=X=X=X*Xg.*X3X*X=X=Xj.j.&X3X;X%X%Xr.-X&X*Xv.s.j.&X&Xh.d.h.&Xj.j.h.h.h.h.f.h.h.}.}.}.}.y.`.U m C z l l h h l z z l h h l z z z z z Z z z z z g 6 q q q q q 4 q q r r r r r q q q w r P ^ r r r r P r q q r r e q e P P P P e q q q q q r r r r q q q r r q % 3 h f h l k h h f d f f f f f h h f j !.|.>XM.d.q.r.r.j.&X3X3Xj.h.&X;Xh.h.;X;X-X,X-Xh.%X&X*X=Xj.j.h.%X}.}.).h.&X;X%X).).%Xh.d.h.h.%X;X;X;X;X;X&X&X*Xj.j.s.g.g.w.3.#.; $ $ $ $ # @ 1 1 f h j ",
"2 2     f f 5 6 6 4 4 ; = (.&Xx.b.X.s.s.a.h.h.d.d.h.h.h.&X*X*X4X=X4X=Xv.j.j.v.j.*X3X3X3X*Xg.s.h.m.;Xh.r.r.%X%Xj.j.j.*X*Xh.h.h.h.h.h.g.j.j.&Xj.h.h.d.h.h.r.e.m.u.}.,.q b j f f f h k l l l l l h f l z l z z z z Z Z z 5 6 6 q e e e K r r P r r P r q r q q P ^ q P P r e q q r q q q e e e r P q q q r P P P e e r w r r I L # # g f f l h h l l l h f h f d @ f f h x I [.-X;Xd.r.e.-Xm.h.j.j.j.a.d.j.&Xh.0.r.h.j.%X&X;X%Xj.*Xj.&Xj.%X).).).).-X-X%X%X%X%X%X;X&Xh.%X%Xh.;Xh.w.f.f.f.s.s.j.g.*Xg.w.' = $ 4 4 4 4 # f f   f h z ",
"f f f f 1 h b 6 4 4 6 9 + =.&Xg.v.X.s.g.d.0.0.h.h.%Xh.j.j.3X*X=Xb.=X=X*Xj.j.h.j.&X&X&Xh.d.f.d.h.;Xh.j.;X;X&Xj.d.d.f.j.j.h.j.j.j.r.d.j.j.j.h.h.d.w.d.h.&X%X-X-X>Xm.}.,.w j l h h l h f f f f f f f f l z Z Z z z z z z b 5 6 q q q q 4 6 q q q r q q q q q q r I $ q q q q q 9 q q q q q q q q q r q q q r P P r w r r T I n 3 h l h f h z h h f f h h h f f f f h h z R E.}.m.h.).r.r.d.h.h.j.j.g.h.;X&X*X%Xh.h.h.h.h.f.d.h.j.j.&X;X%X-X,X,X-X-X,X,X-X<X-X-X;X;X;X%X-Xh.h.j.f.f.j.j.j.g.g.v.v.v.h.q.=.+ 4 q q 4 7 g 1 f f f f f ",
"2 d h f f h g 5 4 q q 9 + ) j.j.j.b.j.j.h.h.m.h.&Xj.j.j.j.*X*X*Xv.j.v.j.h.h.d.d.h.h.d.r.0.r.h.;Xh.h.j.&X;X;Xh.m.%Xh.d.j.&Xj.j.j.d.d.h.h.h.d.d.d.h.r.h.&Xj.;Xh.M.N.-X,XR.R C z h l l k h f f h h l h h z z z z z l z z m c 6 6 4 4 q 4 4 4 q q q q q q q q q r q q q q q r r q e r q q q q q q r q q q q q q r q P T I v 3 h k h h f f   .   f f l l l h f h z z l l R E.{.-Xu.e.e.r.r.h.d.f.j.j.h.h.;Xj.j.j.;Xh.h.h.r.h.&Xj.f.j.h.r.}.}.).}.2X,X}.-X,X,X,X;X-X-X-X;Xh.g.g.h.g.&X*X*X*X;X3X=X=Xx.h.3.%.q 6 $ $ % # @ 1 f f f f l ",
"@   f f d f x v 4 q q 4 ; - w.*Xv.b.*X&Xh.h.h.h.&Xj.h.g.g.j.j.s.f.j.j.j.h.r.r.0.w.r.0.e.,X-Xh.&Xj.&X&Xh.h.<X-X-Xh.h.d.h.h.j.j.j.&Xh.d.h.&Xh.d.h.h.h.h.j.j.f.h.h.M.m.-X{.H.b z z h h k h h h h l l l l l z z z z z A z z z c 5 6 q q q q 6 4 $ 4 q q e P r q q q q q e P P P r P r r r r q q q q r r r q r P P I I K 5 z z z h h h f f h f f f h h h h f f f l z h m U.y.m.u.r.r.h.f.a.h.h.f.h.h.r.;X&Xj.h.j.&X&Xh.h.h.%X-X;Xh.h.w.0.0.0.0.r.r.r.}.}.r.r.%Xh.h.r.r.d.a.s.s.j.j.j.v.j.g.f.s.*Xg.f.0.3.&.r q 4 ; 6 3   d f f d f z ",
"f         1 x c q q 4 6 q + -.*Xv.x.v.j.j.j.h.h.j.h.h.h.j.j.j.j.j.j.j.j.h.h.%Xh.r.r.%X-X).r.&Xj.;Xh.j.%X&Xh.r.r.h.h.;Xj.h.j.j.h.%Xh.).%X&Xj.j.h.h.h.j.g.f.d.8.a.h.M.m.e.5.i g z x f h h h h h h h h l z l l l z z Z z z z h j 5 6 6 6 6 q e q 6 q q e e q q q e q q q r q q r q q q q q q q q q r r r e P r q % # g z z l f f h f h h f h h f h f f f h l l h h b Y.`.i.m.-X-X;X%Xh.h.h.h.h.%X%X%X;X&Xh.-Xh.h.%X-Xr.r.%X%Xj.j.d.r.e.e.0.r.d.0.w.7.7.w.f.f.8.8.8.8.a.s.j.j.*X*X&X*Xj.s.g.g.j.a.w.q.-.> q 4 4 q 6 g f 1 f h d d f ",
"f             3 5 9 $ 4 6 $ - &Xg.x.=Xv.*Xj.j.h.h.j.h.%Xh.j.j.j.j.h.h.h.j.&Xh.h.%X-X-Xh.r.r.h.j.j.j.h.h.h.h.h.h.%X;Xh.;X&X3X&Xh.h.r.e.r.h.&Xj.j.%Xh.h.a.a.8.8.d.f.g.3X>X}.,.0 5 j j h h h k z h f f f f f f h z z z C z C Z z j c 5 6 6 6 4 4 q q q 4 8 4 4 4 4 q q q r q q r q q q 9 $ q q q q q 4 % 6 5 b j j z z z f f f l f f f d f f h l l h h h l l l h g I.].u.N.N.h.h.%Xh.h.*X3X;X;X;X&Xh.8.h.&X&Xh.%X%X).-X).e.h.h.h.r.}.e.e.).}.h.r.r.).}.r.r.h.h.a.8.h.j.j.j.j.*X*X*X3X&X3X3X*Xj.8.e.(.,.: 9 4 4 q n 3       f d d f ",
"f f   1       b 5 4 $ 4 6 $ = e.*Xv.v.*Xj.&Xh.h.d.h.j.h.h.j.j.j.g.h.h.j.3X3Xj.d.r.r.r.h.h.).&Xj.h.h.h.h.h.;X;X%X%X%X%Xh.j.&X*Xj.h.r.r.h.h.a.r.h.h.f.f.a.8.d.a.h.g.h.j.3X-X{.`.&.c z z l l z l h h h h h h f h h l l z Z Z Z z z z m b 5 6 q q q q q q q q q 6 4 4 8 4 4 4 9 4 6 q q q q 6 8 4 6 6 5 c b b z Z l h h h f h l h h h f f h f h h f f h h h h z j T [.oXN.N.m.d.r.w.h.&X*X;X;X%Xh.j.f.h.h.h.h.h.;X-X%X%X-X%X%Xh.r.e.(.(.e.e.}.-X-X-X).).}.-Xh.h.h.h.h.j.*Xj.&X*Xv.*X&Xj.&X*X*Xf.r.q.4.#.q q q q 4 6 2 f f f f f l z ",
"h f f f   1 f j c 4 9 q 6 6 $ ;.3Xv.s.x.v.j.h.h.h.j.j.h.h.j.j.j.j.j.j.j.&Xj.h.r.0.7.7.r.r.r.h.d.8.h.f.f.f.f.r.d.-X-Xr.r.h.h.j.j.h.j.;Xj.j.h.h.j.*Xj.h.f.h.8.a.g.j.s.d.d.m.u.{.{.*.n j z h h f h z l h k h h h h h h h z z l z Z Z Z Z z b n q 4 4 4 q q q q e 6 7 5 5 6 6 4 6 6 6 q e K 7 6 6 6 c b j z z l l l f f f h l h h l h h h h h h f f f h h h h g U `.:X,X-Xm.0.d.h.&X3X3Xj.j.h.d.h.j.&Xh.h.&X&X&X;X;X&X&X;X;Xh.r.r.e.(.(.e.e.e.q.0.r.r.r.).-X-X;X&X;X;X&X&X&X&X&X*Xj.j.j.g.j.v.f.-Xq.<.= 4 q q q 6 # 2 f f f d f h l ",
"f f f f f 1 f h g 5 4 q 6 % 4 > -X=Xv.g.v.j.j.h.h.%Xh.h.h.h.j.&X&X&Xj.h.&Xh.f.r.r.r.0.r.h.d.d.r.r.d.h.d.h.h.h.h.h.h.r.-X%Xr.h.j.;X;X;X&X3X3X&X&X*Xh.h.h.f.f.j.j.g.s.h.r.r.-X}.{.{.>.U c l h h z z l l l z l l h h h f h z z z C A Z Z z z x 3 5 6 q 6 q q q e K q q q e q L L L L P P L n g g g f h l l h l k f f f h h h h l l f f f f h h k h k k l h x U `.}.}.u.m.h.;Xh.j.*X3X;X3Xj.h.h.;Xj.h.j.&X&X;Xh.h.j.&X&X;X&X%X-X}.}.{.}.}.{.{.}.}.).}.}.-X-X-X;X;Xj.j.j.g.j.j.g.s.g.j.&X3X*Xs.h.e.5.#.9 q 4 q q n j 2 d d f f f f h ",
"f f f         f 2 5 9 q 4 6 q ; -.3X*X*X*X*Xj.h.h.h.h.h.h.h.j.j.j.j.&X&Xh.f.8.8.h.h.r.r.-Xh.h.m.h.d.h.r.r.h.d.0.0.r.%X-Xr.r.r.h.j.h.j.;X&Xj.&X&Xh.h.r.0.w.j.*X*X*Xg.f.d.;X-X,X}..X|.].K.b z z l k l l f l l h h h h f h h f d l z z l z z h l z b c c n n n K I K L I L L K c c n n c g j l l f f f h z l z z l h h l f f h h f h h k k l k h l l z z b U ].:X-X-X,X-X7X;Xh.j.j.j.j.&Xh.h.d.j.*X*X;X;X%X%X;Xj.j.h.;X&X&X-X).e.}.}.}.}.{.e.e.e.e.{.}.-Xh.d.d.j.j.s.s.j.j.j.j.s.s.h.j.&X*Xj.r.e.4.t q q 4 $ 4 6 3 2 1   f f f f h ",
"d f   .   .     x 5 4 4 4 4 4 $ - h.v.v.b.=X&X&Xj.h.j.h.h.d.h.j.j.j.j.h.d.f.a.f.g.d.h.%Xr.h.j.h.r.r.r.r.%Xh.r.0.w.r.r.r.0.e.e.h.j.j.j.s.g.j.j.h.d.h.r.r.r.f.j.j.j.h.j.j.h.d.r.}.{.{.{.^.J.q j l h l z h f f h z z h h f f f f f f h l z z z C Z z z z z h g 2 2 x x g m j j z z N A z l z z z l l f f f l h l f f f h h f d f f h h f f f f d f h h c H.|.i.u.:X>X-Xh.h.f.h.h.h.s.&Xj.h.%Xh.j.g.*X3X;X%Xh.&X3Xj.h.h.h.h.).).).e.).).e.(.e.}.}.}.e.e.r.r.d.d.j.v.j.*X*X&Xj.j.&X;X;X&X*Xj.f.q.5.%.0 q 9 q $ % 5 @           d l l ",
"f h f       1 h z b 4 4 4 4 5 6 ; 3.b.g.j.*X*Xj.&Xh.j.h.h.h.h.j.j.j.s.h.8.d.f.j.h.h.h.d.r.h.h.r.0.0.0.0.%Xh.r.-X}.).e.r.-Xh.h.h.d.h.j.g.s.j.j.f.r.r.r.r.8.f.j.h.r.r.h.j.j.s.r.r.}.}.{.{.|.T.q j z h h f f h z z z f f f f h h h f f h z z Z Z Z z z z z f f h l z z z z z z z Z z z z k h h l z z d f f f f f f f f f h h h h h h h f h f f f h h g I.oXi.9.u.N.m.h.d.f.h.j.&X&X&X&Xh.h.h.j.&Xj.j.j.&X&X&Xh.f.&Xh.d.r.).e.(.}.}.}.}.}.}.,X}.e.).e.e.).}.h.h.&Xj.j.j.j.&X;Xj.j.&X&X*Xv.f.8.e.3., q q q 4 6 5 2 2     d f   d z z ",
"h l h   f 1 1 l z M 6 q q q 6 7 q _ ;X4X&Xv.=Xj.j.j.j.h.h.%X&Xh.h.h.f.f.s.h.j.h.j.j.j.h.h.r.r.r.h.%Xh.h.r.8.d.r.e.e.q.r.h.;X&X;X-Xh.j.j.*Xj.g.j.d.r.r.d.a.a.h.h.r.r.h.h.s.s.f.h.u.-Xu.y.{.{.L.Y I c f h h f f h h h k h h f f h f f f l z z z z h h l f f     h z z z z l z z z f h h d       f f f d 1 d f f h f h h h l z z z z z z l h h h z z W '.u.N.5XB.M.j.h.j.h.&X&Xj.h.h.r.0.w.d.g.j.*X3X;X&Xj.j.&X&Xj.&X-X).(.{.{.(.}.{.}.}.}.-X).e.q.r.r.q.r.h.h.j.j.g.j.j.j.s.j.&Xj.*X*Xv.h.r.e.:.t q q q 4 5 g f f f d f f 1 f l z ",
"  f d         f k g 5 q q q 4 5 6 ; 3.4Xj.j.=Xv.j.j.j.&Xh.h.d.h.r.r.r.h.j.j.j.&Xj.j.&Xj.d.-X-X;X;X&Xh.d.0.8.d.h.r.e.e.0.d.&X;X&X;X-Xh.j.j.g.j.&X&Xj.h.h.h.h.r.r.h.h.d.d.j.j.j.j.h.r.y.t.`.{.`.`.T.Y I g h f h f f z l l h f f   d f f f 1 f f h l z z l h f d l z C z z l f f f f h f         f f f f f f h f h h l z l z z l l z h 2 f f f f m !.OXoXaX5XM.M.;X*Xj.h.d.h.h.h.f.w.0.e.e.r.h.j.v.*X;X;X-X&X;X&X%X-X}.}. X{.}.{.(.(.}.e.e.r.r.e.r.}.-X%Xh.;X;X&X&X&Xj.&X*Xj.&X*X*X*X=Xj.0.(.4.$.w e e q 6 5 2 d f h h f d d f z z ",
"d h f   .     1 f f 5 6 4 q 4 6 8 $ ) =X*Xh.*X=X*X3X*X&X&Xh.d.r.r.r.d.d.h.g.j.*X*Xj.s.g.h.-Xh.&X;X;Xh.r.).r.r.h.r.0.q.e.%Xd.h.j.h.h.h.j.j.j.;X&X;X&X&Xh.%Xh.d.%Xh.d.d.h.;X3X3X*X&Xj.-Xy.{.{.t.5.4.].T.U 6 g k l l z z z l h f f f h h h f f h h l z l l f d d f h h h f h h     f f d   f     f h l l l l l h h f h l l l l l h f f f f h x c Q `.:XdX>Xm.-X-Xh.g.x.j.j.j.;X&X;X%Xe.e.{.e.h.&X*X&X;X-X;X;X&X&X-X}.(.e.{.{.e.(.(.}.e.e.).}.}.}.}.-X-X%X&Xj.&X&X&X&X&Xj.&X&X*X&X*X*Xv.f.0.e.<.0 6 q q 4 6 3 @   f 1 d f f d f l z ",
"f h           f l h 3 5 4 q q 6 6 4 : 6.,Xr.d.*X=X*X3X3X*X*Xj.%Xh.d.f.h.j.j.*Xv.v.g.j.;X;Xh.h.j.h.&Xh.).e.e.r.r.h.r.r.}.}.h.h.j.h.h.;X&X;Xj.h.-Xj.j.&Xh.h.j.j.j.a.h.&Xj.h.j.&Xj.j.3X3X-X}.}.:X}.}. X`._.W.! n x f l z h f f h h h h h h h h h h h f f 1   f h h h h h f f h f f f f f h l h f f f h l h h l l l l l l h h h h h f f h h z R !.XX>XB.N.-X-X}.h.g.g.*Xj.;X;X;X&X%X-X}.).e.).r.h.h.h.h.h.&X&Xh.%Xr.).(.e.e.(.}.(.e.}.}.}.}.}.-X-X%X-Xh.h.j.&Xj.&X&X3X3X*X*X*X3X3X*Xj.g.r.).5.- q 6 q 9 4 5 g 2 f f     f d d h z z ",
"d h f       2 f k z g 5 q 9 9 6 6 6 q : =.2.7.f.b.*X=X*Xv.*Xj.d.r.r.h.j.j.j.j.*Xv.g.j.j.j.h.h.h.h.a.8.w.7.7.).r.w.d.h.r.e.r.a.f.j.j.h.j.&Xj.h.h.h.j.j.h.-X;X&X;Xj.&X&Xj.j.&Xj.j.j.j.j.j.h.h.m.-X}.y.oXoX X|.R.u 5 2 h k f d f h h h h h f f h h h f h d   h h l h h f f h f h l l l h h h h f f h l l h z l l l l l l h l l l h f f h h m !.+X>X-Xu.-Xr.0.0.&X3X*X&X*X3X3X&Xj.d.h.).e.r.).r.h.h.h.h.j.j.&X%Xr.e.e.}.).e.).}.}.}.e.}.,X}.).h.;X&Xh.j.j.j.j.3X;X;X;X;X*X3X&X3X7X*Xj.0.e.e.;.; 4 4 q 6 6 5 f f f d d d 1   d l l l ",
"  h h f       d f h g 5 6 q q 6 5 6 q q : <.e.d.j.b.v.=X*X*X&Xh.r.h.j.h.d.h.j.j.s.s.v.g.j.g.j.h.h.r.0.0.8.r.r.r.r.h.h.r.r.7.w.a.g.*Xj.j.h.h.h.f.g.j.j.j.f.0.r.r.&Xj.f.j.*X&Xj.j.j.g.f.a.h.g.j.h.m.u.m.N.N.N.N.oXR.P g z z l l l l l l l k h h h h f f f h h f h h h f f h f h h f f f f h l h f h h h f f l l l l l l z l l h h z l j R Y.{.M.N.-X:X}.e.-Xh.&X=Xj.&X*X3Xj.g.f.d.r.r.r.h.h.h.h.h.h.;X&X&X&X-X-X}.}.}.).}.).(.e.e.e.).-X,X-X<X;X;X;Xj.j.j.j.&X&X&Xj.j.&X*X*X*Xj.=Xg.r.e.4.t 4 q q 4 6 5 m f f f d f f d   f f l l ",
"f h h f       f   f h 5 6 4 4 4 6 6 4 6 ; , 4.e.h.v.*Xv.j.j.g.j.h.h.h.d.r.h.f.f.f.f.v.*Xj.j.j.&Xh.r.q.0.h.d.r.r.r.r.h.h.d.d.h.f.j.=Xv.h.d.f.h.j.*Xj.g.f.h.f.8.8.h.f.h.*X=Xj.*X=Xj.g.j.g.h.h.f.d.h.m.;X5XdX>XN.>XsX.XT.q g h l h l h l l h h h h h   1 f h h f f h h f f h f f f f d f f f f f d d f k f f h k h h k l z l h f f g I U.[.y.N.>X,X,X).q.r.;X&Xj.v.j.j.&X*Xj.j.j.&Xj.;X&X&Xh.d.h.&X;X3X*X&Xh.h.r.}.}.e.).r.).e.e.}.}.r.%X-X-X;X;Xh.j.&X&X&Xj.g.j.j.j.j.;Xv.=X=X=Xg.h.%X{.#.; 4 e q 4 5 m S f f f f f f d f f l z z ",
"h f f h     1 f f f h g 6 4 $ 4 6 4 5 6 6 * _ 5.h.&X*X*X*X&X&Xj.h.g.d.d.h.h.a.a.f.f.j.=Xv.g.*X&Xh.r.r.r.r.r.d.d.r.h.h.f.h.h.f.h.g.s.g.j.f.h.g.s.j.j.;Xj.h.h.&X;Xh.f.g.v.j.j.*X&Xj.j.&Xj.j.h.a.d.d.h.h.M.B.dX>XN.N.>X:X`.a 5 f h h h h l z z z k h f d 1 f f f h h h h k h f f f f h h f f f f f f f h f f f h f f f f h f 2 g I Y.].}.:X>XM.m.u.e.}.h.j.*X*X*X*X3Xj.h.j.j.j.h.h.h.j.;Xj.h.h.%X&X*Xj.&X%X-Xh.%Xr.e.}.e.).r.r.r.r.r.h.r.%X-X-X%Xj.j.j.s.j.j.j.&X&X&X&Xj.v.v.*X=X&X<X}.;.0 q 6 K q 6 n B z d f f f   d f h h z z l ",
"l l l z f     1 f f h f c q 9 4 4 6 8 4 9 $ = -.}.h.v.=X3X7X3X3X;Xh.h.d.d.a.8.d.a.g.j.v.v.j.h.h.f.w.r.0.r.r.a.d.h.f.a.[ f.f.a.g.f.a.f.s.g.g.s.g.j.j.h.j.j.-Xh.g.g.g.g.f.g.v.s.h.h.&Xh.j.j.h.a.a.d.j.g.k.k.M.B.dXN.N.N.N.XX'.! K c x h l z z z l l h f 1   f f h h f h h f f f h h l h h h h f h l h h f   1 2 f f f c v K U U._.oX:X:X>XM.m.m.-X-X;X7X4Xv.j.j.x.v.&Xf.f.j.j.h.h.h.h.f.h.h.&X;X;Xj.a.j.d.r.}.-X-X).e.}.}.}.-X).r.h.h.h.h.h.d.j.&Xj.j.s.s.j.j.j.j.&X&X&X*X=X*Xg.f.0.:.= 9 4 6 q 6 5 3 j f d f d f f     1 f l l l ",
"z l z z f     1 f f h h g q q 4 4 6 6 4 4 % q , 4.-Xf.x.x.j.*X&Xh.f.a.d.8.8.8.d.h.j.j.g.x.j.h.8.8.8.r.r.h.d.a.s.g.f.a.f.s.s.&Xs.a.r.r.f.j.j.g.x.v.s.a.s.j.h.f.f.j.g.s.j.v.x.g.h.j.g.f.f.f.h.h.f.h.&X&Xj.j.h.M.M.5XdXN.N.-X,X1X].T.p K b h k k k z z z k f z z z l h h h f f f f f f d f h h f f f h z x g f j j b I I.Q.[.4.{.:XaXaX:X-Xu.}.,X<X;X3X3Xv.f.f.a.s.s.g.*Xv.&Xh.d.d.h.m.r.r.h.h.j.j.s.g.d.d.r.).).r.}.}.).}.}.}.-X-X%X-Xh.d.d.h.j.&Xj.g.s.g.j.j.f.j.&X&X*Xv.b.v.v.h.e.#.9 4 6 4 8 5 3 g z 1 f h f f d f d f l f f f ",
"l k l h f     1 f   d f 2 5 6 q 4 4 6 6 8 8 6 $ - -Xj.s.g.x.g.f.a.a.f.h.d.0.r.d.h.j.g.g.g.j.g.a.8.8.d.h.h.d.d.f.g.j.j.j.j.j.j.j.f.r.r.h.j.g.j.g.g.s.s.g.j.j.s.g.g.v.j.*X=X*X*X3Xj.j.j.h.d.h.h.h.h.d.h.h.d.d.h.M.M.Z.fXdX-Xu.N.:X:XoX].J.P n c x z l l f l z z z z z z l h h f d d d d f h h f   f h j j b 3 n T Y.W.{.oXN.N.:X>X:Xm.u.{. X-X&Xj.j.g.g.f.s.f.a.g.x.=X4X3Xj.%Xh.h.h.-X-Xh.h.&X&Xg.j.h.m.u.}.-Xe.}.}.).}.r.r.).r.r.r.h.h.h.j.j.&Xg.j.j.j.j.j.j.j.j.j.*X=X=Xb.g.&X).:.; 4 4 6 q 6 v g h f d f h f d f f h f l z z z ",
"z z l l h     d 1     f f 3 6 q 4 8 6 6 4 6 4 6 = ' ,Xj.v.v.v.g.g.h.h.h.d.0.r.h.j.h.g.g.s.s.g.j.a.a.j.j.h.h.d.f.j.j.j.j.j.3Xj.j.h.d.d.h.h.f.f.f...a.g.v.j.j.j.j.x.v.=X*X*Xj.;X*Xj.&X&Xh.0.r.h.h.h.d.a.8.a.a.h.g.;X5XZ.Z.fX5XN.i.i.N.:X:XXX`.T.Y.E n c 3 g x h f h h h f f f h l h f f h h g f f 2 3 c n P H.R.|.oX}.i.>XdX>Xm.r.-Xm.}.e.}.h.f.f.s.g.s.j.*X*X3Xj.b.*Xv.j.a.d.d.w.r.h.;X;X&X*X3Xj.h.-Xr.).-X-X}.}.}.}.h.r.h.%X-X).%Xh.h.j.;X;Xh.j.&X&X&Xj.j.j.j.j.*X=Xb.=Xg.*X%X:.> 4 4 6 6 6 6 5 g h f f f f f f f h f f z z z z ",
"l z l l f           d f h g 5 q q 6 6 6 4 q 4 6 4 = -.<X*X*X*X=X;Xj.h.d.r.).}.-Xh.f.a.d.a.s...s.h.f.j.v.f.a.a.h.j.j.j.j.*Xj.g.s.f.j.f.f.f.f.a.f.f.a.g.j.j.h.f.s.j.v.=X*Xj.j.;Xj.*Xj.f.0.0.r.h.d.d.a.8.8.a.h.j.j.j.*XC.C.C.6X5X>X>X:Xi.:X:X:X:X:X|._.P.>.L.H.&.Y Y U P 6 c c c g g c c b b n n K U J.T.`.}.m.N.N.m.u.N.N.N.N.m.m.u.r.r.%X;X;Xj.j.&X*X*X*X*X*X*Xj.g.g.s.a.a.8.0.r.h.h.j.*X*X4Xg.g.-Xr.r.r.).}.}.}.}.}.h.h.%X-Xr.r.r.r.d.j.;X&Xj.&Xj.j.&X&X&X*X&Xj.v.b.*Xx.*X%X2.- $ 6 4 6 6 6 5 5 f l d h l f 1 1 f f f f h z z z ",
"l l h h f 1             f 2 c 5 q 4 5 8 4 4 q q 6 ; - 5.&Xj.j.j.j.h.d.d.h.r.r.r.w.8.r.8.a.......s.j.s.s.f.a.a.f.h.j.j.j.v.s.s.f.s.s.f.f.f.a.8.a.a.a.f.g.j.f.s.x.v.v.*Xb.v.j.j.g.g.f.f.d.%Xh.h.h.a.d.a.f.a.f.f.g.j.=Xv.g.M.M.m.M.5XdXaXdXaX>X>XN.N.N.N.N.i.u.y.y.}.}.`.`.R.R.R.R.W.R.R.R.R.'.[.oXoX>XB.N.B.>XN.u.u.m.N.N.N.;XM.;XM.h.;X&X*X3X3X;X3X3X3X=Xs.g.j.j.j.v.*X*X*Xj.j.j.j.h.j.j.=Xv.f.d.%X-Xh.r.).e.e.r.e.r.r.%X-Xh.%X%Xh.h.h.h.h.h.h.j.j.j.j.j.&X&Xv.v.x.v.j.j.j.q.- ; $ 4 q q 6 6 5 3 h f f l f f d f f f h h f f f l ",
"z l h h l h   1       1 f f g 5 q % % 4 q q q % % 4 * ' j.f.s.v.j.h.d.h.%Xr.r.r.0.w.7.0.a.a.f.s.l.b.g.f.f.a.a.a.h.g.j.j.v.j.g.g.s.a.f.g.s.a.8.a.d.h.g.f.f.s.g.b.=X=Xg.b.=Xg.j.s.f.j.j.h.j.g.j.j.r.d.d.8.a.a.h.f.f.v.s.g.j.g.8.h.M.B.dXdXZ.Z.B.N.>XdXaXaXdXZ.B.>X5X>XN.N.i.u.}.{.y.y.oXoX:X:X:X>XdX>XZ.>XN.i.}.u.-X>X>X<X;X3X3X3X*X3X3X3X*X*X;X;Xj.*Xj.s.a.s.g.j.*X*X*Xj.g.j.*X4X4X0X8X4Xv.j.j.%X}.h.%X}.).).e.e.r.r.e.}.-X-X%X%X%Xj.&Xj.s.j.j.j.j.s.f.f.j.v.v.b.x.*Xj.&X%X<.: q q q q e 7 6 3 f f     h f f f f f f f f z z z l ",
"z z z z l f 1 d       d f f 2 5 4 q q q q q q q 6 6 ; _ r.*Xh.j.*Xj.j.&X%Xh.r.8.0.8.0.r.w.a.f.g.x.x.v.j.h.8.d.h.j.j.j.*Xg.j.j.j.j.a.a.f.a.a.j.h.a.f.a.[ f.f.j.v.*Xx.g.b.g.j.*Xj.s.d.0.h.j.j.g.f.h.r.d.f.a.a.j.h.j.b.f.j.g.f.d.h.h.h.k.M.5XfXdXdXdXB.>X>XB.V.V.B.V.N.G.dXdXaXaX:XN.>XaXaXaXB.B.B.B.N.B.:Xm.}.}.-Xm.N.>X<X3X*X*Xs.j.&X;X;Xj.s.f.a.a.s.s.s.s.j.f.f.f.g.g.j.j.=X4X=X4X8X=X*Xj.h.h.h.r.r.r.r.).r.-X}.).e.e.e.r.).<X;Xj.j.j.j.g.f.&X&Xj.j.j.j.g.v.v.x.=Xj.v.h.:.: q q q q 6 6 q 6 g h f h h f f f   d   1 f z z z z h ",
"z z z z z z f   f f f   d f   3 6 q q q q q q q 4 q q : #.5.-Xj.j.j.&X&Xj.h.d.0.8.a.d.r.r.h.f.g.v.v.x.v.j.d.h.j.j.&Xj.&Xj.j.j.j.g.j.a.a.f.f.f.8.8.f...8.d.j.j.j.v.x.v.g.j.j.g.j.j.d.r.d.h.d.h.h.h.d.h.h.8.8.j.j.3Xj.f.g.s.a.0.d.d.h.f.g.g.g.j.Z.Z.5XdXdXG.Z.Z.Z.G.B.5XZ.Z.Z.G.G.G.dX>XdX5XB.N.N.m.N.N.u.m.m.u.r.m.m.h.h.a.g.f.a.j.j.f.h.f.s.s.s.s.j.j.j.*Xj.f.a.j.*Xj.*X=X4Xb.eXb.l.x.g.j.h.h.h.h.e.}.r.).-X).}.}.).).e.-X%Xh.;X&X&X&X&X3X&Xj.*Xj.&X*X&Xj.b.*X=Xv.v.&X/.> q q q q 6 6 6 q 5 f d d f f f         d f f l z z z l ",
"z z z z z l d   d d d d   f f 3 5 9 q q q ; 9 q 4 q q 6 ; , ,.%Xh.j.*X&Xj.j.&Xh.r.a.8.0.r.d.a.s.g.v.x.g.s.j.j.j.j.j.j.j.j.j.j.g.g.j.j.f.8.f.j.g.f.f.a.8.8.f.s.s.j.j.j.s.j.s.s.f.h.h.h.h.r.0.r.r.h.d.h.r.0.r.h.h.h.8.d.f.f.d.r.r.r.r.d.d.h.g.a.d.h.M.Z.5X5XfXZ.Z.B.B.B.Z.Z.Z.Z.Z.Z.B.B.B.N.m.N.N.m.M.h.r.r.h.d.0.d.h.8...f.f.s.j.j.j.g.g.j.v.v.v.j.*X*X*Xj.j.j.j.&X*X&X*X4X=X=Xx.tXz.g.f.d.h.%X-X-X).}.-X%X).}.).).}.}.}.%Xd.h.&X&Xj.&Xj.&X&Xj.j.j.j.*X*Xv.x.*Xv.&X&X}., ; q 4 4 6 8 8 6 6 3       f 1 1       d f f h z z z z z ",
"l h h l f f f d   d f 1   f f 2 5 q q q q 9 ; q q 4 9 4 % * - ,.h.g.g.j.j.&X&Xh.d.d.8.d.d.d.h.a.f.s.x.g.s.j.j.h.j.&Xj.h.j.j.j.s.g.s.j.j.f.a.a.s.g.f.8.h.h.....a.f.&Xj.s.s.s.s.a.f.h.h.h.h.r.r.h.j.h.f.r.d.%Xd.0.d.0.r.r.h.h.e.e.q.e.0.0.0.0.r.h.%Xh.h.d.0.r.d.d.m.m.B.Z.B.M.B.Z.B.M.m.h.r.r.m.h.j.j.&X%Xr.r.h.h.h.h.g.s.j.j.g.j.&X;Xj.j.&Xj.v.*X&X&X*X*Xv.v.3X3X3Xj.*X4Xb.=XtXb.o.x.f.r.r.%Xe.).).-Xr.r.-X-X}.-X-X}.}.).%X-X&X&X3X*Xj.j.j.&Xj.j.v.j.j.*X*X*Xj.h.&X%X=.; q q q 6 5 6 7 5 5 x f f f h f f f f f d f h l z l l z z ",
"l h f h l l l f   d f f 1 d f f 3 q r r q q 9 q q q q q 4 % * _ (.&Xv.s.j.*X;Xh.d.d.r.d.r.).h.d.f.s.s.g.g.v.s.&Xj.j.h.d.h.h.j.g.v.g.j.j.s.s.s.a.s.a.f.f.g.s.s.X.s.g.f.j.v.j.s.f.j.d.r.d.r.r.h.j.&Xj.&Xj.j.j.&Xj.&X-X).-X-Xh.r.e.e.1.3.7.q.q.e.e.r.r.d.h.r.r.r.q.0.r.h.M.r.h.;X3Xj.h.d.h.j.;X&Xh.f.a.h.h.w.d.h.d.r.8.f.j.&Xj.s.g.h.;Xh.f.j.&X&Xj.h.j.j.*Xv.j.j.&X*Xj.b.=Xc.o.b.yX=Xs.h.r.}.).}.q.e.r.%X%X}.}.-X).%X-Xr.%X-Xh.&Xj.&X3X*X*X3Xj.j.j.g.v.v.*X=Xv.s.;Xh.:.* q e e e 6 5 7 6 v c f f f l h f d f d 1 d d f l z l k l z ",
"Z z l l z z h d     f f     f d @ 5 q r q q q $ 4 4 9 9 9 4 4 : ' e.j.v.*Xj.&Xj.d.r.d.d.r.r.0.w.f.....s.s.s.v.*Xj.f.f.f.f.j.j.j.j.v.v.s.s.j.s.j.g.g.s.s.a.s.x.v.v.s.s.j.v.*Xg.j.j.h.h.d.0.r.h.h.h.&X;Xh.j.h.&X&X&X-X0.r.r.r.0.e.e.e.e.e.r.e.q.r.r.r.h.h.h.r.0.e.r.h.-X-Xe.-X-Xh.d.h.h.;X&Xg.d.r.r.r.w.h.h.h.j.h.h.r.0.d.&X;X;X;Xj.;X;Xh.j.&X&Xf.s.g.s.s.s.j.s.s.v.=X4XeXeXrXX.l.x.h.-X}.e.e.e.r.r.h.h.h.0.r.%X-X-Xr.h.h.h.%X&Xj.j.j.*Xj.s.g.g.j.s.s.v.v.=Xg.j.j.q.- ; 4 4 q 6 7 e 6 7 n g f   f h h f d d d f d f h z z k l f h ",
"z z l l l l h f             d d @ 5 % ; 9 q q 9 $ 4 q w q q 6 4 = _ q.j.j.g.j.g.h.d.d.d.w.d.0.8...a...X.f.f.s.*Xj.s.f.f.h.j.j.j.g.*Xv.v.j.j.s.j.g.s.s.s.a.s.g.*Xb.g.j.j.v.*Xs.j.j.h.&Xh.a.h.h.-Xh.h.d.h.h.f.j.j.j.h.7.e.r.0.r.r.q.e.{.}.e.q.e.r.r.-X-Xj.r.r.r.q.d.0.0.q.3.e.h.j.f.h.j.j.h.h.h.d.d.h.h.&X&X;X;X;X%Xh.r.0.h.h.&Xh.h.h.M.h.h.h.h.f.f.s.s.s.g.g.j.b.=X=X=XeXz.c.z.| f.r.r.e.e.e.{.).}.).%Xh.h.r.r.r.r.h.&X;X;Xh.&X&Xh.j.j.j.j.*X*Xv.v.j.=X4Xv.3X&X%X;.0 e e q 4 6 6 q e n c f f   d d d   d     d f f z z z l z l h ",
"f h l l l l l h f     1 f f f h h 3 6 4 9 q q q q q q r q q 4 4 $ = -.f.j.j.j.j.j.&Xh.r.a.a.h.0.8.a.a.a.f.j.j.g.s.s.f.d.j.j.s.j.j.*Xg.v.x.v.v.g.g.g.j.g.s.g.g.g.g.s.j.s.g.g.f.g.h.h.h.d.f.h.d.r.r.0.h.&Xf.j.j.s.s.h.r.h.r.m.r.e.e.(.(.q.q.q.r.r.r.0.h.j.d.h.r.q.0.0.q.e.5.e.%X3Xh.h.j.j.j.&X&X&X3X3X;X;X;X;X;Xh.r.r.0.8.a.f.h.h.h.h.j.d.h.h.f.g.f.j.g.j.j.j.*X=Xz.D.z.c.z.o.s.j.h.r.e.e.e.e.(.{.).}.r.h.h.h.r.r.d.h.&Xj.j.&X&X&Xj.j.v.*X*X*X*Xj.v.s.=Xg.j.j.-X;.0 e P P P L 7 7 4 6 v g h f d f f 1 d d f f f s f l l h f h h l ",
"l z z z z z z z l f f f h f 1 f f   5 q 9 4 $ $ $ $ q 4 4 $ 9 $ 4 % > (.&X*Xj.j.*X&Xh.h.d.a.w.0.0.8.8.f.f.j.v.s.s.j.j.j.j.j.j.j.j.s.s.v.v.=Xv.g.x.=Xj.s.j.j.g.s.a.f.j.g.s.a.s.g.j.h.a.a.f.h.f.d.d.r.h.f.f.h.j.s.f.g.d.d.0.r.r.0.q.e.e.r.0.0.0.r.r.0.r.f.f.d.r.q.q.r.e.e.e.e.%X;X;Xj.3X3X;X*X;X<X;X;X-Xd.h.h.d.8.0.0.r.f.h.j.&Xj.g.g.j.h.d.h.s.j.j.&X;X3X*X3X3Xb.z.D.c.b.X.s.h.h.}.}.}.(.e.).e.e.e.e.r.r.h.h.%Xr.h.&Xj.&Xj.j.&X;X&Xj.*X*Xj.s.s.s.g.v.v.v.v.h.2.: q q q q q 4 5 6 4 5 #   f d d f d     1 d 1 f f l h h l z z z Z ",
"z z z l l z z l l h f f d d   f f   3 4 4 4 $ $ $ $ $ $ 4 9 q q 6 6 4 , e.*Xj.j.j.j.h.h.h.h.f.8.w.0.r.r.d.f.s.s.j.j.j.j.j.j.j.j.s.g.j.j.j.g.s.x.v.g.j.s.s.f.g.s.f.h.j.x.s.s.v.*Xg.s.f.d.j.j.j.&Xh.d.j.j.j.h.j.h.h.h.h.d.0.0.0.0.q.q.e.h.h.r.r.d.h.h.&Xj.j.h.r.q.e.e.0.e.u.e.;X3X;Xj.3X;Xj.k.d.0.0.0.0.8.a.[ 8.8.0.0.h.h.&Xj.j.j.j.h.d.r.r.h.h.j.j.j.j.v.=Xb.=XtXtXb.z.x.j.h.h.r.).e.e.e.r.).).e.e.e.e.).-X}.r.h.%X;X;X&X3X&Xh.j.j.j.j.j.v.v.v.v.b.b.*Xv.j.5.- q q q q $ % 6 6 4 q n g       f d     1 d   f f f l z z z l h h l ",
"z l h h l h f f f f       1 f f f   g 5 q q 9 $ q q 9 q q r r q q 6 4 ; _ ,X7X3X*Xj.j.&Xh.%Xh.a.8.8.r.r.f.j.s.s.j.j.g.s.j.j.j.j.j.*Xx.x.g.s.g.x.x.s.s.s.s.a.g.j.g.j.g.j.j.v.v.v.j.j.s.f.a.d.h.&Xf.g.&Xj.j.f.j.h.h.d.h.h.h.h.d.d.h.h.h.j.j.h.d.h.h.h.h.j.j.h.%Xr.1.7.7.0.e.0.d.j.j.h.h.d.a.a.a.8.8.8.a.h.s.a.f.h.a.a.h.j.j.j.j.g.h.h.f.d.h.h.h.s.j.j.g.x.=XtX=XtXb.l.s.g.M.h.r.0.q.e.q.e.e.r.).}.}.).q.).).-X%X-Xh.j.;X&Xj.j.&X&Xj.3Xj.g.*Xb.v.*Xb.j.*Xj.r._ q q q r q q n n e L K g f d d f f d     1 1 f f d f k l l h h f h l ",
"l l l h l l h h h f     d   f h h 1 f c q q q 9 9 q q q q q q 9 q 8 6 6 $ _ e.3X*Xj.*Xj.h.h.d.d.8.8.d.a.f.f.a.s.b.v.g.x.b.*Xj.j.v.v.v.=Xg.j.=X=Xg.=Xx.x.s.8.j.j.j.g.x.j.j.=X*Xj.3X3Xv.g.f.d.h.&Xh.j.j.f.f.s.g.j.h.h.j.h.;Xj.f.h.v.j.s.j.j.j.h.g.h.h.r.d.h.d.7.7.q.7.0.7.0.8.8.g.s.a.a.f.g.j.j.*Xh.a.h.j.j.s.h.&Xj.j.j.j.j.j.&Xj.h.f.d.d.h.h.j.g.v.x.*X=XeX=Xz.z.o...f.h.h.r.r.).).e.}.).}.}.}.}.}.e.e.e.).r.h.h.j.h.j.j.s.s.j.&Xj.j.j.x.b.x.=X=X*X=Xv.&X` q q q q q q 6 7 K e K c 2   f d f d   d f f d 1   d h l l l l l l l l ",
"z z z z l l z z l h f f f f f         g 5 q q 9 9 q q 4 q 4 9 q r 6 5 6 4 = ] w.=X*X*X*X&X&Xh.w.8.h.h.f.d.a.g.b.x.x.g.x.g.g.j.j.j.j.j.f.s.*X=Xx.x.b.v.v.s.a.g.f.f...s.g.s.v.s.j.3Xj.=Xv.j.j.h.j.h.j.g.f.g.s.j.j.j.&X&Xg.j.s.s.j.b.g.j.&Xj.h.h.d.r.0.d.a.8.0.7.7.r.h.j.r.r.a.j.v.j.f.j.v.&Xj.j.*Xj.h.f.j.j.s.j.j.;X;Xj.j.j.j.j.j.j.f.h.h.h.j.;Xg.j.v.v.x.| l.X.s.g.h.}.}.r.}.}.}.}.).).).e.).).r.e.}.).).).r.f.j.j.j.j.j.g.s.s.j.s.s.v.b.b.*X*X*X4Xv.3X:.r K q q q q 6 6 6 4 6 5 2 d     f f       f f f f l z l h l l z z l l l ",
"l l l l l z z z z l h f 1 1 1         @ 5 6 $ $ q 9 q q 9 q q q q q 4 6 8 : , -.h.*X=X*X&X;Xj.h.h.h.h.r.8.j.4X=Xv.s.g.v.s.h.h.h.h.h.d.8.f.*Xv.g.b.v.b.x.s.f.s.f.f.a.a.a.g.g.f.h.j.x.v.x.s.j.j.*Xj.s.j.j.*X=X&X;X;Xj.j.h.j.j.v.v.b.j.g.d.0.q.7.q.0.0.d.f.h.h.0.0.r.r.h.r.h.j.&Xj.j.&X*X*X*Xj.s.s.s.j.f.g.j.g.j.&Xj.g.g.j.j.h.j.f.h.j.g.g.s.j.j.s.s.j.s.s.f.s.h.d.d.r.e.e.e.e.e.e.e.).e.).}.}.e.r.r.r.).e.0.r.h.h.j.&X*X*X*Xj.s.g.j.*X*X*Xj.j.j.*Xv.&X:.t q q r e e q 6 6 6 6 5 3 d   1 f f f d           f h z k h h l l l l z z ",
"l l l h l l f h h f f d     d 1   1 f f 3 5 q q q q q q q q q q q r q 6 4 4 w i ` r.3X=X*X3X;X;Xh.r.r.r.h.*X4Xb.v.*Xj.s.s.h.r.h.%X-Xr.r.j.j.v.*X=X*Xx.s.x.v.v.g.a.a.s.s.j...f.j.s.g.x.g.l.v.v.v.j.*X=X=X3X*Xj.h.8.8.8.8.0.0.a.h.g.f.d.0.7.q.q.0.r.%Xh.d.j.j.h.d.0.{ 8.d.j.*Xj.j.v.j.*Xv.g.d.f.s.j.j.h.f.*Xv.j.f.f.h.j.j.&Xj.s.f.g.g.g.j.g.j.j.s.s.&Xh.h.r.d.h.d.r.0.q.0.e.(.e.r.).r.).r.).e.r.0.h.).}.-X%Xh.h.h.h.j.&X&X;X&X*X*X*X4X=Xb.*Xg.j.j.*X4.0 q q q e q 6 6 5 6 6 6 c f       d d 1   d d f f f h f l h l h h l l f l l ",
"z z z z l z z z z z z h           1 d f g n L r r 9 q q q q q q q q q q 4 $ 4 0 , ` r.*Xx.g.j.j.8.8.7.r.&X=Xv.g.*Xj.g.g.v.j.h.-X-X%Xr.h.&Xj.j.&X*Xj.g.g.x.*Xg.g.a.a.a.f.s.a.h.h.f.s.g.g.v.=Xv.v.g.*X*X*Xj.s.f.a.a.8.8.8.8.8.8.a.a.a.d.r.r.r.r.h.r.%Xh.h.j.j.j.&Xg.f.j.j.&Xg.s.g.g.s.&X*Xj.d.j.j.j.s.j.f.g.j.g.g.j.j.j.j.j.g.s.&X*X*Xx.b.v.g.f.j.j.f.a.8.r.r.h.h.).}.(.).e.r.r.r.r.r.h.r.e.r.r.r.).}.}.-X%Xh.h.&Xh.j.j.j.&X3X3X*X=Xx.g.*Xj.g.s.j.(.> 4 q q q e q q 6 6 6 n v 2   f f f f h f d f f h h k l k l l z l h l z l l k ",
"l l l z l f z l l z z h d     d d f f f h b 6 9 9 9 9 q q q q 9 9 9 q q $ 4 4 ; y #.' h.g.g.g.j.f.8.8.j.=X=Xv.*X=Xg.=X4X=X*X3X&Xh.h.h.h.h.h.&Xj.j.f.f.s.*Xb.s.f.s.s.s.g.a.a.8.d.h.h.s.j.v.b.v.j.g.v.j.s.f.a.a.s.g.j.h.h.h.j.g.h.f.d.r.0.r.h.h.d.r.h.h.d.h.j.j.j.g.j.j.j.&Xj.&X*Xj.j.*X3X;Xh.j.j.s.s.j.j.f.g.j.j.g.f.f.j.j.s.j.*Xv.v.x.x.g.s.h.d.h.h.h.8.r.0.r.r.e.e.q.q.0.0.r.r.r.d.h.r.r.r.).).}.}.}.}.-X-X%Xh.h.j.j.j.g.&X*X3X=Xg.=X*Xj.*X&Xr.y 7 e q L L q q q 6 n 7 7 g f d f f f f f f d f f f h l z l l z z z z l z l z z ",
"z l l z z z z z z l l h f     d   1 1   d @ 5 $ 9 9 $ 9 q $ q 4 9 q q q q 4 4 4 ; > -.1.j.=X*Xv.v.j.j.=X=Xj.v.*Xj.v.=X=X4X=Xv.j.h.r.r.h.h.d.h.h.f.f.f.s.j.x.f.a.a.a.s.s.a.8.r.h.h.;X&Xj.g.x.x.j.s.g.s.f.s.s.j.*X&Xj.j.h.h.j.*Xv.h.d.d.r.h.h.;Xd.h.&Xj.h.h.j.&Xj.j.h.d.j.3X*X&X3X*X=X*X=X*Xj.*Xb.v.j.v.&Xj.j.j.&X&Xj.j.j.v.g.v.=Xj.j.s.s.&Xj.h.r.d.d.h.w.r.0.7.7.7.0.0.7.0.e.r.d.d.d.r.r.).).}.}.,X-X-Xr.h.-Xh.f.h.h.f.g.j.j.3X=Xv.3X3X3X3X3X).#.6 6 q q L L q q 4 6 v 5 5 2 f f h h z k l k k h f h k z z l z z l l l k k k f h ",
"A Z z z z z l k f h l l l f               @ 3 K q q q q q w q q q q q 9 q q 4 4 4 : &.;.6.3X=Xv.v.x.g.v.v.g.j.x.g.v.b.4Xb.=Xb.v.j.f.h.h.h.h.d.h.f.s.f.j.&Xs.s.g.s.a...f.f.r.-X%Xh.h.r.8.a.s.s.s.X.x.v.g.j.j.*X*Xj.j.j.g.j.v.=X=Xj.j.j.&Xh.d.h.h.j.&X&X&X;X*X*Xj.j.h.h.&X*X*X*X3X=Xv.=X=X=X=X=Xv.=X4X3X*Xg.s.s.g.j.j.j.g.v.*X=X*Xj.j.j.j.h.d.h.h.r.d.h.r.r.0.0.0.q.0.r.r.r.r.r.r.h.r.}.}.}.}.}.,X-X-X%X;X%X&Xh.h.a.h.h.a.j.*Xg.g.*Xj.&X&Xj.e.- 4 q q 9 q q q 4 4 6 6 6 5 2     1 d f h h f h f k h f k l l l l l h f f h f f f h ",
"h f l f h l z z h f z z l h d 1   d f       2 5 q q q q q q q q q q w : q q q q q q ; > %.1.j.b.g.g.j.*Xv.v.b.b.b.=X=Xb.c.b.b.b.b.*X&Xf.s.s.f.h.f.s.j.*Xj.s.b.j.f.a.a.8.7.r.h.r.0.9.0.r.d.h.j.g.s.v.*X*X*Xg.s.s.s.s.j.j.=X=Xb.*Xj.j.v.j.f.g.j.j.*Xj.j.*X3X3Xj.g.g.&X*X=X=Xx.g.*Xx.*X=X=X=Xv.x.x.x.x.x.x.s.s.l.g.g.s.j.v.v.*Xj.j.h.&Xj.d.h.h.r.r.0.d.r.).r.0.e.e.e.r.r.r.r.).}.}.}.}.}.,X,X-X}.).%Xh.&X;X;X&X&X&Xj.h.j.j.j.=Xg.g.v.j.*Xj.e.- $ 6 4 9 q r q q q 6 5 6 6 3 2 f f 1 f f f f f h h l l l z z z l l l z z z h z z z z ",
"f f f l l l z l l l l l l l f d   d f f f f f 2 5 q 6 6 4 q q q q q ; 9 w q q q q 6 4 ; t #.' h.j.s.j.v.b.=X*X=X=Xb.b.x.b.x.b.b.=Xb.x.g.v.j.s.s.f.f.j.j.g.g.x.s.g.j.j.7.7.h.0.0.r.r.r.%Xh.j.j.j.&X*X&X*X3Xj.g.s.a.h.&Xg.g.s.g.g.s.s.g.s.s.j.j.j.*Xs.s.s.j.*Xg.x.x.v.v.v.b.z.b.b.x.x.b.v.v.x.l.X.x.x.v.x.s.s.x.x.g.g.g.g.g.g.s.g.&Xj.h.h.h.r.r.q.e.h.r.-Xh.r.r.).).e.r.).).(.{.|.,X-X-X%X%Xh.r.0.d.%Xh.&Xj.j.h.j.j.h.h.&X*Xg.j.j.j.*X*X-X_ ; K P e L q P L L L e K L n g d d f f f f d   1 1 1 f l z z z z z z z z l z z l l l l ",
"z Z Z Z l l z z z z l l l l l d f f f f f f 1   3 5 6 $ $ $ 9 q q q q ; q w q q 4 4 $ 4 ; : , 3.f.v.g.g.v.=X=X=Xx.b.x.*X=Xv.=X=Xb.*X*Xv.j.*Xv.s.h.j.j.j.j.x.l.s.g.*Xj.h.%Xh.h.r.-X).%X-Xj.*X&X*X&X&X;X;X;Xd.d.h.j.h.h.h.&Xj.j.j.f.a.f.s.g.j.j.s.s.s.j.j.v.j.v.*Xb.g.s.s.x.z.x.b.x.g.v.=Xb.v.b.v.b.x.x.x.x.g.v.v.j.j.j.g.g.s.f.h.a.a.d.0.0.w.0.q.0.d.h.h.h.h.).e.e.e.e.(.(.e.e.0.w.8.8.8.w.d.r.d.w.h.h.j.h.h.h.h.f.a.a.s.s...f.g.g.f.r.) 9 K I P L e q q q e K n 6 K n g d d f h f f f s l l f f h f f k k l z l f f f f d f h h ",
"z z z z z z z N N z z z z l l f   d d f f f 1   @ 5 $ $ 4 $ 9 q q q q q q q q q r q 4 $ $ 4 q $.e.h.3X*Xj.j.*Xx.v.*X*X=X*X*X=Xv.b.=X4X3X*Xv.s.j.j.*X&Xj.j.v.b.=Xb.x.g.g.&X3X;X<X<X-X1X,Xh.&Xj.&X&X&X&Xr.0.0.q.0.r.r.q.0.r.r.r.h.r.8.8.r.h.j.j.j.j.j.j.j.=X*Xj.j.g.f.a.s.s.s.j.j.x.g.x.x.x.v.v.g.g.g.g.g.s.s.j.j.j.j.g.g.h.h.d.d.8.0.r.w.7.w.0.0.r.8.8.f.a.8.r.w.7.7.q.e.9.7.r.8.8.d.r.d.8.h.&Xh.h.h.h.j.&Xj.j.h.j.j.j.g.v.s.h.j.s.e.) * 4 6 q q q q q q q 4 6 6 6 n 3 f f f h f h f d h l l z l l l l l f f f f z l h h f h h h ",
"z l l z z l l z l h h h h h f f                   2 5 4 q q q q q q q q r r q q w r q q 6 q q q i 4.h.*X3Xj.j.b.=X*X*Xj.g.v.v.x.v.*Xb.b.=Xb.j.*X=X8X3X3X*X=X=X=Xv.*Xv.g.s.a.s.*X*X&X%Xq.7.r.r.w.a.f.h.0.7.0.q.q.7.1.1.1.7.0.9.7.7.0.r.h.h.h.j.j.j.j.h.h.h.a.a.8.0.0.7.r.8.a.h.j.v.v.j.s.g.j.j.h.h.j.f.f.f.f.h.g.s.h.h.h.r.d.r.d.r.r.r.e.q.r.h.r.r.r.8.8.d.8.w.r.0.0.9.7.w.r.r.r.r.0.0.r.0.r.h.h.d.h.%X&X;X3Xj.&Xj.*Xj.*Xg.f.;X&X%X` : q q q q q q q q q q 6 4 6 5 5 2   f h l f f f f z h l z z z l z z l z l l z z z l z l h f ",
"l l l k l k h f f h h k k h h h 1             d 1   3 n e q q q q e q q q q q q 9 9 9 q 4 6 q q 6 : ;.h.g.v.v.x.x.x.g.s.j.v.x.v.*X=Xx.b.b.=X=X4X4X4Xb.=X*Xb.=X=Xx.s.s.X.X.s.s.X.X.| { 8.8.8.7.7.p.7.8.r.d.d.r.e.q.e.e.e.q.r.0.0.7.9.0.0.0.0.r.0.0.0.r.0.r.0.0.r.7.0.0.d.h.j.j.j.x.v.j.g.g.h.d.r.d.h.h.h.d.d.h.h.d.h.h.h.0.r.h.h.r.r.r.}.r.h.%Xr.q.e.e.e.r.}.%Xr.0.q.q.0.r.e.e.e.r.q.0.r.r.d.h.&X;X&X;X;X;X3X*X3X3X*X7X&Xf.;X;X}.=.: q L L L L e 6 q q 6 6 q 6 n c #   f f f f f f f l l l l l l z l l C Z z z z z l z l f l h f ",
"k k h h h l l h h l h l l l l k f         d d d   2 f g 5 4 $ $ $ 9 9 $ 9 9 ; q q 9 ; $ % 8 4 4 4 q : ;.-X=X*Xv.s.s.x.=X4X=Xb.*X*X=X*X=Xb.=X=X=XtXb.b.=Xb.v.v.x.l.l.X.X.X.l.g.s.x.l.l.j.f.g.h.r.9.0.r.d.h.h.r.u.r.e.e.e.e.r.0.0.r.7.q.7.7.9.0.q.0.r.r.r.h.h.d.h.0.r.r.h.h.j.j.*Xv.=X3X&Xj.h.r.0.r.h.d.h.h.r.}.r.r.h.r.e.q.0.r.0.}.}.-Xh.h.j.;X).}.{.{.{.}. Xe.h.r.r.}.{.{.(.{.}.).e.r.%X-X;X;X;X;X&X;X;X&X3X3X*X*X3X&Xh.;X;X}.#.w e e q e L e e e q e q q 6 6 5 3 @ f f f f d d f f l f z l h f h z h l z z z z z z l k l h h l ",
"l l l l l z l l l l l z z z z z l f     f f f f d f 1   3 4 9 $ 4 $ q 9 $ q r q q q q q q q q q q q q * #.,X3X4X3X*Xx.b.=X=X=X=X=Xv.b.b.b.z.b.z.b.c.eXb.b.=Xx.x.x.x.s.x.s.x.x.x.x.g.v.*Xv.g.j.j.d.h.h.h.h.-Xr.e.r.0.r.r.r.r.q.r.-X0.0.r.h.d.d.r.r.r.r.r.h.h.r.0.q.e.q.h.d.j.;X3Xj.j.h.r.d.h.r.e.e.r.r.d.r.e.e.r.q.e.e.(.e.e.}.e.).r.r.r.h.f.%X-Xr.e.e.{.XX1Xr.h.h.e.e.e.}.}.e.e.{.e.r.%X;X;X;X7X;X;X;X3X&X*X&X3X7Xj.f.&Xh.).%.9 q q q e q L e q q 6 q e 6 6 n 5 f f f d d 1 f f f d f f h z z l k l l h h l h h z z z z A z l z ",
"z z z z z l z z z z z z z z z z z z d 1 f f d 1 d   1 1 j n 6 6 q e q q 9 q q q r r q q r P q q q 4 q q + - (.;X3X=Xv.s.l.=XyX4X=Xb.c.b.b.c.c.c.l.z.z.b.tXtX=X*Xv.*X*X3X*X=X=X=Xv.g.j.j.j.&Xj.x.j.g.j.&Xh.-X0.q.0.0.8.8.r.0.0.r.r.q.r.h.h.j.h.r.0.r.r.0.h.h.r.q.0.r.r.%Xh.;Xj.j.g.h.d.d.r.).).e.e.r.r.r.r.q.q.q.7.e.e.e.e.e.e.0.r.0.r.r.d.h.f.d.h.r.q.0.r.h.h.h.h.r.0.r.e.e.e.7.e.e.r.r.&X;X&X;X7X3X3X*X*Xj.*X3X*Xf.;Xh.}.<.* q q q P e q e e q 4 4 6 6 6 5 c g f f f h f f f k l l l l h l z C C z z z z l l l l l z z l h h l ",
"z z l l z z z z C C z l h l z z z l f             2 f f f 3 5 e q q q q q q q q q q q q q q q 4 4 4 4 4 4 ; = =.5.%X*Xv.v.x.b.tXtX=X=X8X=X=Xb.=Xb.=Xc.c.x.z.=Xb.v.*X=Xb.b.=X*X=Xb.=X=Xv.s.s.s.x.g.f.j.;Xh.h.0.0.h.h.h.h.d.h.r.e.r.0.d.a.h.h.h.h.e.).).e.h.d.).r.h.h.h.j.g.3X3X&Xd.r.}.e.e.e.q.1.q.0.0.d.r.q.e.e.q.e.e.{.e.q.q.7.r.r.0.d.h.g.d.f.g.h.a.a.8.0.h.f.h.h.q.e.3.e.q.q.q.r.-X-X&X;X&Xj.;X3X*X&X&X*X3X*X&X3Xh.(.%.: q q q e P P L e q q q 6 6 5 5 5 # 2 1 1 f h h h f l Z z l l l l l l f h h l l f d d d d f l k f l z ",
"z z l h h h h l z l l h f f l l h h h f         1 d   f 2 f g 5 6 L q q q q 4 9 9 q q 9 9 9 q q 4 4 $ $ $ q q $ = $.{.9X8X4Xs.X.b.yXyX4X4X=X=Xb.=X=Xz.c.c.z.z.c.=X=X=Xl.z.x.x.x.x.b.v.j.s.g.v.j.j.j.h.h.f.s.h.h.h.j.&Xh.r.d.r.r.r.0.d.a.a.a.d.r.r.e.).e.%Xh.-Xr.%Xh.h.j.j.*Xv.g.f.0.e.q.q.0.q.1.q.r.r.d.d.0.0.r.0.e.r.r.0.q.q.9.r.r.0.d.h.j.h.f.f.s.s.j.f.d.h.f.f.h.0.e.e.e.).}.}.).%Xh.&X&X*Xs.s.*Xg.s.j.j.a.8.h.r.3.#.; % 4 q q q q q 4 6 4 q L K 6 5 n c 2 2     d   f h h z z z z z z z l f f f f f f f f f f f f f f f f h ",
"l l z z l h l h h l l l l h h l h h l l d d f f f f d f f 2 f 3 5 % + q 9 q q q q q q q q q q q e q q q q q q q 9 $ : ,.-Xg.4Xv.X.x.4XyX=Xb.b.c.=Xz.b.b.x.l.x.z.b.=X=Xx.b.x.v.b.b.v.j.j.j.j.j.*X3X&Xh.h.j.h.h.f.s.s.j.f.8.j.%Xr.r.8.8.8.0.r.0.0.e.q.0.0.r.r.%Xr.h.d.h.j.v.x.g.s.h.0.r.7.7.r.q.e.q.r.d.a.d.8.8.f.r.7.0.r.r.0.r.8.r.r.r.h.h.h.j.h.h.j.j.j.%X-Xh.&X&X;X-X}.e.).}.,X}.-X&Xj.j.j.*X*X*Xg.j.*Xj.w.h.h.r.5., ; 4 4 q q q q q q 4 6 q e q 6 7 7 b g f f f f f 1 f h z A Z z z z z l h h h h h l k l z z z l h f f f h f ",
"l z z z z z z z z l l l l f h h h h f f f   f f f f d f f   2 2 # 5 $ 9 9 q q q q r q q r q q q q q q q $ $ 4 4 $ $ + + - w.=X*X*XX.s.c.b.=XD.c.=X=Xb.b.b.b.c.z.z.c.l.z.x.b.j.j.*Xv.j.g.s.j.j.&X&Xg.h.h.-Xr.h.j.s.f.a.a.f.j.j.h.h.a.8.h.d.h.d.r.q.q.0.0.r.r.h.h.j.j.g.v.x.v.v.j.d.8.r.q.7.e.).e.0.d.d.d.d.r.w.f.d.0.e.r.).e.).h.h.%Xr.-X;X;X;X%X;X;Xj.d.h.r.h.%X-X-X-X).}.}.).-X;X&Xj.&X&X3X3X3X*Xj.3X&Xh.<X<X-X5., 9 6 q L L e e P r q e 7 7 6 6 6 5 5 2 f 1 d f l f h l z Z z z z z l h l z l z z z z z z z z z l l l h k f h ",
"z z l l l h h l z h f f h l l l z z z l l f           f   1   f f c n q q q q 9 9 q q q 9 q q q ; $ q ; $ % 6 6 6 4 4 $ ; ` 3.&X=X3Xv.X.X.b.b.b.=X=XD.b.b.=Xb.z.z.l.l.x.x.b.v.j.j.s.g.g.j.j.j.&Xj.f.f.h.h.h.j.*Xg.g.g.s.s.j.j.j.j.j.s.j.&X&Xj.j.h.r.-Xr.d.h.j.j.*Xv.g.v.v.j.j.g.h.r.r.}.e.e.}.e.q.%Xh.d.h.h.h.h.h.e.).%X%X-X).h.h.-X%Xh.h.h.&Xh.j.j.h.a.d.r.w.d.h.%X-X-Xr.%X-X;X&X&X&X;X;X;X&X;X*X&X;X;X<X;X-X^.> 4 n K L P e e q q e L n n 7 e 6 7 5 3 @   d 1   d f h l z l f l h f f f f f l l h z z z z z z l l l k l l l k ",
"l l l l l l h l z z l l l z l h h h l l z l f   1     f f   f d 2 3 5 6 4 q q ; ; $ $ $ 4 9 q q q q q q $ $ 4 6 6 6 4 4 q ; < ) %X8X8X4X*Xa.s.=Xz.l.c.D.eXb.x.b.z.l.x.x.b.b.*Xv.j.g.g.j.*X*Xj.j.j.s.f.h.d.&X&X=X*Xv.v.g.j.3X=X*X=X=X*X*X*X*X*X*Xj.%X-Xh.;X3X*X=X*X*X3X3X*X=X&Xj.;Xh.r.).0.8.w.0.0.h.d.h.f.h.d.f.j.h.r.h.h.h.0.0.r.d.h.h.h.d.h.h.h.j.j.h.h.h.h.h.&Xj.h.;Xh.;X3Xj.&X&X&X&Xj.j.&Xj.j.f.h.;X-X}.,.> q 7 e P P P I P e e q 6 7 5 6 e K K c x h f f h d f f h z l l z z z z l l h f h f d f h f f l l l z z l l z z l ",
"z z l l l l z l h l z l l l z z z l l h h f     1                   3 5 6 4 q q q q q q q q q q q q q q q q 4 4 4 6 4 $ $ $ 9 w , 2.2X0X8X3Xg.s.v.b.l.o.c.z.D.=Xx.x.x.b.b.b.*Xb.v.j.j.*X*Xv.&X;X;Xd.h.h.j.*X3X*X=X3Xv.s.v.b.v.v.x.x.x.j.v.j.*Xj.3Xj.h.h.j.3Xv.v.x.x.*Xj.j.*X*X;X;Xd.r.r.0.8.h.r.r.8.d.h.j.j.a.a.j.j.a.f.a.8.8.8.8.f.f.j.j.j.j.j.j.j.j.j.h.h.h.j.&X&X*X&X&X;X&X&X;X&X&X&X&Xj.j.&X&X&X%X).|.#.* 4 6 5 4 $ $ 4 q 9 q q 8 8 8 6 6 6 7 c 2 f   1 f f d h l z z z z Z z z z Z z z h l l l l f f d d f f l l l l f l l ",
"h h z z l z z l l z Z z z z Z z z z h h h l f     d     2 d     1 2 f g 5 6 4 q q 9 q q q q q q q q q r q q q q q q 6 % % 9 w r P ; - 3.3X8X8X=Xg.s.s.x.l.z.S.z.b.b.b.=Xb.b.b.v.v.j.*Xj.j.g.&Xj.d.8.h.f.j.=X*Xv.x.b.g.g.g.x.x.v.x.x.g.g.s.g.j.j.j.g.s.f.f.s.s.s.s.x.x.g.g.g.g.j.j.h.d.r.0.0.%X%Xr.8.d.h.f.s.a.f.g.j.s.h.d.h.h.h.h.j.g.j.j.*X&Xj.j.j.&X&Xj.g.h.h.&X;X3X&X3X&X;X;X%X<X;X&X&X&X;X7X3X-X,X|.y $ 4 5 5 q q q q q q q q 6 5 5 6 e q 5 5 @   d f f d d f f l z z l z z l l l l h h h f f h h h l l l f f f h l l f f f ",
"l z z z z l z z z z z l h l h f d d f h l h l z f d 1     d f f 1   f   @ 5 6 6 q q 6 q q q r q q q q q q q q q q 4 + % % q 9 q q q : = ) e.7X8X3X3X3Xj.g.=Xb.x.x.x.c.b.b.b.v.x.x.v.v.v.v.*Xv...a.g.j.g.v.x.v.v.b.b.g.g.j.x.v.*X=Xj.g.j.s.s.j.v.v.v.j.a.a.a.X.s.x.l.l.l.x.x.s.s.s.g.d.r.0.r.h.d.r.r.d.j.h.f.j.h.h.h.&X%Xh.h.&Xj.g.j.j.j.&X*Xj.j.*Xv.j.j.j.j.j.j.j.&X3X3X&X;X;X<X;X<X;X&X;X;X;X&X%X|.P.> ; q 6 6 e r r e e P r r q 5 v 7 e e 6 b f     f f f 1 f f l z z z z Z z z z z h h h l l h h l l l l l z l h l f f f f f ",
"z l h h l l f f f   d f f f f f f h h l l h z l z f 1     f f f   f f     g n n q q q q q q q q q r r q 9 q q q q q 4 4 4 $ ; q 9 q q q 9 - ' h.4X0XuX8X;Xj.g.v.v.g.s.s.x.v.v.x.v.b.v.b.b.b.b.x.v.=X*Xb.=Xx.b.g.v.b.j.g.j.v.v.*X*Xj.s.s.s.j.g.x.x.x.g.a.h.f.f.g.x.s.l.x.x.x.s.s.j.j.h.r.r.d.h.g.d.h.d.d.h.h.h.h.%Xh.h.j.h.j.j.h.s.j.&Xj.j.3X*Xj.j.*X*X&Xj.j.&X;X;X7Xj.j.;X;X;X<X;X%X;X&Xj.h.h.,X].#.* 9 6 6 6 K L q q q e L P e 6 7 7 q e 6 5 g 2 f d 1 f f f f l z Z C z z Z Z N z z z z z z l f l z l f f l z z z h h f f l l ",
"l f f h k h h h f f h z z l l l l z z z l l l l l f 1 f f f f f 1 f f   1 2 g n n 4 4 q q q q q q q q q 9 9 q q 9 q 9 q q $ ; 9 q r r w r q 9 , 6.j.v.8X0X&Xj.j.s.f.s.x.b.x.x.g.v.*Xb.v.x.b.x.x.=X=X=Xb.x.x.b.v.b.v.j.g.j.b.x.*X*Xg.s.v.j.j.j.g.x.x.g.a.d.d.g.g.g.x.x.x.v.v.s.j.&Xh.%X-Xh.h.j.j.h.h.h.h.;X;X-Xh.h.h.s.j.s.g.g.h.h.j.j.s.j.*X*Xj.j.j.j.s.j.j.&X7X<X&Xj.&X&X%Xf.%X;Xh.&Xj.d.%X|.,.> ; 4 5 5 6 K L L e e L L L e 7 n n L e 7 n 3 f f h f f f f f k z z z C z z z z z Z C l l l l f f h h f f h f l z z l l h h h f ",
"f h l z l l h l z z z z z z z z z z z l h l l z l l f f f f       1 f d d f f g v q q q q q 4 4 q 9 q q 9 $ $ q 9 9 q ; 9 9 q q q q q 9 9 q q 4 * ) ' a.=XuX8X*Xf.[ a.s.g.j.s.s.g.v.v.v.b.x.x.l.x.x.x.x.z.x.x.v.b.v.v.j.v.=Xx.x.=Xv.v.*Xv.*X*X*X=X*Xj.h.h.d.h.s.g.g.v.j.*X*Xj.j.&Xh.;X%Xr.d.d.h.h.-X-Xh.h.h.h.h.f.f.j.&Xg.s.f.f.f.s.j.s.g.j.g.s.s.s.s.g.g.j.j.&Xj.h.j.j.j.h.j.;X&Xj.j.;X,X,.#.t q q 6 5 5 n e L e L e e K 6 6 n n v K 6 5 b B z f f h h f f f l z z z l z z h l h l z l l h l f h l f f f f f f h l l h f f h f ",
"l z z z z z z z z z z f h l l z z z l l l l z l l l f   d f f f f         d f d 2 n K 4 q q 9 4 q q 4 q q 9 q $ 9 q q q q q r q q q q q 9 : ; 4 q ; ; , ] [ 7X8X=Xj.f.f.f.f.f.f.j.j.*X*X*Xx.x.l.v.=Xb.v.z.b.b.=Xv.v.*Xv.b.=Xb.b.b.b.v.b.x.v.v.j.v.j.j.j.d.h.j.v.x.g.v.v.x.j.j.g.j.s.g.f.a.8.8.d.r.h.r.f.f.f.g.s.s.s.j.j.j.s.s.f.s.j.j.g.j.s.g.g.s.g.x.g.s.j.s.f.g.h.h.h.h.;X&X&X%X-X,X/.%.: q q q 6 6 6 5 6 q 4 q q 4 q 6 6 5 % % 6 6 5 3 f f     f f f f f k k h l l l l l h f f h h h l l l f h h f k h f f h f f f f f h d f ",
"z Z z l l l z z z l f f l l h h h h l z z z z l l l f     f f h f   1       1 d f x M K q q q q q q 6 q q q q q q q q q q 9 q r 9 q q q q q 9 9 q q q q q > ) 3.3X8X4X&Xh.f.h.%X%Xh.&X*Xv.x.g.g.=X4Xx.v.x.*Xb.b.x.b.v.x.b.=X=Xx.x.x.s.x.x.x.v.v.v.v.v.s.f.h.&Xv.s.g.x.x.x.x.s.s.s.s.s.f.f.f.a.f.a.f.a.a.s.s.j.j.g.s.j.s.s.g.j.s.f.j.j.s.j.g.j.*Xv.j.*X3X&Xj.j.j.j.;X&X;X<X7X<X;X X`.>.y q q 6 5 5 n 6 q 4 q q 9 4 4 q q 6 5 5 5 6 n R m f z A j z l z l z z l l z z z l f l z l z z z l l l l f f f f l k h h l f f h f h f h l ",
"l h f f l l z l l l l l l l l l h z Z Z z l h l z z z h f 1   f f 1 1     d f d d f 2 c I L L q q 6 6 q q q q q q 9 $ q q q q q q q q q q q q r q q q r q I R q #.(.;X3X7X3X&X%X;X%Xd.h.j.g.j.*X4X=Xv.b.x.g.g.x.x.b.x.v.x.b.b.x.x.x.v.x.x.v.v.v.x.b.x.f.f.s.j.x.s.g.x.x.x.l.s.g.g.s.a.a.s.s.a.f.a.f.a.a.s.s.g.j.s.g.s.f.j.j.g.g.f.s.j.s.j.j.&X&X&Xj.j.&X;X&X3X7X;X;X&X;X;X%X%X5.%.u r 4 6 6 6 6 6 q 4 q q q L q q q q 6 5 5 5 7 M R S m z h l l h l f h z Z z z z z z z z z z l z z z l l f f h h l z z z z z h f   f h l z l h ",
"h f f l l z z l l l l l l l z l l l f f f f l z C Z z h         f           d f f f f f g n n K K n n K q q q q q q q q q q q q q q r P P q q q q P r q q r I I 6 w %.).&X*X;X;X;X&Xh.h.%Xh.f.g.=Xv.g.v.*Xs.f.x.x.b.s.x.x.x.x.x.v.=X=Xx.x.v.v.v.b.b.s.g.j.j.s.v.x.x.x.x.x.x.s.f.s.j.g.s.s.s.f.s.f.s.s.s.v.g.g.v.s.j.j.s.f.s.j.j.f.s.j.g.j.j.j.f.j.h.j.j.&X;X&Xj.h.h.h.h.e.-.=.t w e 6 6 q 4 6 6 4 4 4 q q L q L L q 6 5 5 5 5 5 b j f 1   d d 1 d   d f f d f f h h z z l f f h h f h l z l h l l l h h l l f f h f f f f h h f ",
"l l l l l h f f h h l l f f f l h f d f l z l h h f f f   .               d d f f d f h @ # n I n n 5 6 q q q q q q q q r r q q q e q q r I r q q q r q q q r r q q q : =.2.r.&X3X&Xg.j.h.h.h.f.| a.s.s.s.s.s.x.s.s.s.s.x.g.s.x.=Xb.b.x.b.b.b.b.=X=Xg.s.h.h.h.j.v.v.x.v.j.g.g.f.s.s.j.f.g.j.s.s.s.s.j.g.j.j.v.j.s.v.j.f.s.s.s.h.a.f.h.h.j.h.h.d.d.h.d.a.f.a.8.8.d.e.5.2.%.a q q q q 6 6 e q q q q q q q e q 4 4 6 6 6 5 5 5 c c @ 1   1 d f f       f f   d f h f f l h f f f l f f h l l h l f f f f f f f l l l h h h h h h h ",
"z l l h f h f d f f f f h f f h h f f h l f f f 1   f f f               d f f f   1   d f . . b c 5 q q 6 4 4 4 q q e q q q 9 q q q 4 ; $ $ q r r q $ ; q q q 9 9 q q q 9 * , 2.r.j.=X*Xj.f.h.h.f.a.a.s.j.s.f.s.s.s.g.j.v.s.j.j.g.s.x.x.v.x.x.b.b.g.h.h.h.d.j.j.j.*X*X*Xj.j.j.s.s.a.s.s.s.s.g.g.s.j.g.s.j.x.g.g.s.s.s.a.g.f.a.8.0.r.r.r.h.d.r.r.d.h.h.d.d.0.e./.4.>.i 0 w e q L q 6 q q L L L q q q q q q q q 4 6 6 5 5 5 5 3 f f h h l l h h f f h l z l z z z z z z z z l z z z z l l k h h f f h l h h h l z z z l f h l l f ",
"h h h h f f l h f f h l l l f l l z l l l l l l l z l l h f f       d f f f f f   d d         . g n K n 5 6 4 4 4 6 q q $ $ 9 q 9 q q $ $ $ $ ; q q 9 9 9 9 9 q r q q q q q q * , ^.{.%X3X3X;X&X;X;Xj.h.d.f.h.f.a.a.d.j.j.s.j.j.h.j.s.x.s.l.l.o.s.s.a.h.h.f.g.*X*X*X*X*Xs.s.s.s.s.f.g.g.s.s.x.x.g.g.g.s.g.v.g.j.f.f.f.a.a.8.0.7.7.q.0.q.r.h.h.d.r.8.r.w.7.`.P.i u r q K q e q q q L P L L L L e e q q 4 q q 6 6 6 5 5 5 g 2 f f h z l z z l f h l l l l l l z z z z z h f h l z l l l l l h h k l h h f f f d d h z l h l h h l ",
"f h h h l l l h l z l h h l z z l z z z l z h l l l l f l l f         1 1 d d d d 1             @ g V n n 7 q q 6 6 % $ $ q q 4 $ 9 q q q 4 $ $ $ q q q q q q 9 9 q q q q q q q q ; = _ 5.%X&X3X7X3X3X;X-Xh.r.r.0.0.0.d.j.j.j.h.h.j.a.s.s.s.l.g.g.h.a.s.g.f.g.j.j.j.j.j.s.s.s.f.s.s.j.j.s.s.v.g.g.j.j.j.s.*Xj.h.a.f.r.r.0.0.7.7.7.q.0.0.r.r.7.0.0.e.{.4.;.i w q q q q q q q q q q q e L L K q q q e e q 6 5 5 v 5 5 5 3 f 2 l z h l l z z l l l l z z l z z z z Z z N l l l l f f f l l z l l l l l l l k k k f f f l l h l h h ",
"z l h h l h l h h l h f f f h h f f h k f f f h f f f f f f f                   d   1           f   # c n 6 6 4 4 4 % 6 q 4 q 9 4 9 q q q q q q q q q q r q 9 q q q q q q q q q q 4 q q : i %.:.5.).%X&Xh.%X}.}.}.).r.h.d.h.r.8.f.g.f.g.j.s.s.g.d.f.a.f.j.f.h.g.v.s.s.j.g.g.g.g.g.s.j.j.g.g.v.v.j.j.g.j.j.j.d.w.0.0.0.0.0.7.7.7.q.r.r.r.).).)./.,.J.a 0 9 q e e e L q q q q L L L e q 4 q q q q q e q 7 5 5 5 n c 5 g 2 1 f f h z l l l l l z z l l h l z z z z z z z l l f f f f f d h h f l z l z z z z z z z z l f h h l z z ",
"z z z l l h l h f h h h f d f f f h h h f f f f h f f f f 2 f f                   1 d       f f f f   X c R n q q 6 q K 6 4 q q q q 4 q q q e q q q q q 9 w r q q q q q q q q q q q 6 q 9 4 q 0 : > ` :.,.>.>.>._.{.{.}.r.r.e.d.j.g.f.h.g.f.s.a.a.a.s.g.j.s.s.s.v.j.j.j.s.s.s.s.f.f.f.g.s.g.v.v.j.*X&Xj.j.d.0.7.q.r.r.0.0.0.q.q.0.e.e.(./.^.>.i w P e q q q e q q q L P P L K K e q 6 4 q q e q q 6 5 5 5 5 5 c g g f 2 d f f l l l l h l l l z z z z z l z z z z z z l z z l h h h f f f l l h h l l l l h h l z l f f f f l f ",
"z z k f h z l f h l l l h h h h f h h h f f f h h l f 1   f f f f h h f               d 1 d 1 f f f f h h 2 M R n I n 6 6 6 6 4 q q q 4 q 4 4 4 4 9 9 q q q q q q q q 9 9 q q q q q q q q 4 9 q q $ ; : ; + ; : : i J.>.,.5.).-X&Xs.f.s.a.a.s.a.a.a.s.g.g.g.g.s.g.s.s.s.s.s.s.a.f.j.j.h.f.j.j.j.*Xj.d.0.9.q.e.5.5.4.2.2.:.,.>.,.;.%.$.i t w q q q q r P e e q q e q q q q q q 6 % % $ % 4 6 6 K K n 5 5 5 c 5 g f f f f d f h z l h l z Z z z z l z Z z l h l z l l z z z z z z z z z l h l l h h f f f h h h h f d d f d d f d ",
"z l l h l l l z z l h f l l l l l l z z l l f h h f f h h d f h h l z h h f     d d 1 1 d d         1 d d 1 . g V M v K 6 6 6 6 q q q 4 4 4 4 4 q q q q 4 q q 4 $ ; q q q 9 9 q q q q q e e q q q $ 4 q q q 9 q 9 ; * : > #.^.5.q.h.j.h.a.a.a.a.a.a.a.s.s.a.g.g.g.g.s.j.j.j.j.j.&X3X;X;X;X-X-X).e.5.4.,.L.*.H.&.u u p Y u t u : w w q q q q q q L r r q q e e e e q q q q 4 6 4 % $ $ q q 7 6 7 v b 5 5 c b c g f d f f f f f l l l z C A Z Z z z A Z z z z z Z Z z Z z N z z z z z l l z l h h l l h h h f h h h h h f f f f 1 ",
"f h l l l h h l l h f d d f h h h h h l z z h h l f f f f f h l l h h f h l f   d d                         d . X g M K 6 q 4 5 6 4 4 4 q q e q q q q q q 4 9 q q q 9 q q q q q e q 9 ; q e q q 4 4 9 q q 9 q q q q q q 9 ; : , #.;.4.,.,.2.2.3.q.7.w.r.r.r.).r.e.).}.{.(.5./././.4.,.:.<.=._ $.&.u u T E L q q q q q q q q q r r q q q q q q q q q q q q q e e q q q 4 q q q q q 4 % 6 6 6 5 5 5 c v c 5 g x f f       f f f f h z l h l z A Z z A A Z Z N z z Z Z l l z z z z z l l l z z l h l l l l z l h l l l k f f h h h ",
"f f l l h l h d f h h l l h h h f h f f f f f h f f f d   d f f f f f h h h h                     1 d             . # 5 8 4 4 5 6 % 6 e q 4 4 4 q 4 4 6 q q q 9 q q q q q q q q 9 q q q q q q q q q e q q e q q q q q 4 6 q 9 $ : ; ; : 0 0 > $.*.*.*.*.*.&.&.$.i i i a i y i a u u w 0 w q ; q q q q q q q q r q r w q q q q q q q q q q q q q q q q q q q 6 e L q q q q q e 4 q % + 5 6 v c 5 5 c c g x h h f d   f f d f f h h z A Z Z Z z z l z Z z z Z Z z z l l l z Z A z l l l l l l z l h h l l h f f h l k f l l h f k ",
"f f f f f h h f h h h h k h h f f h h f f f f f     1 1 f f f h f h l l l l f f       d       d d       d f f s       # 6 6 6 v q q 6 6 4 % $ 9 q 4 6 6 q 4 4 4 q q q q q q q q 9 $ 9 q q r r r q q q q q q q q q q q 6 q 4 % % 4 % % $ $ 9 9 q 9 9 : ; 9 q q w q 9 9 9 ; ; q q q q q q q r q r r r q q q q q 9 9 q q q q q q q q r e q q q q q q 6 4 4 q q q 6 q q q q q q 6 6 5 % 8 7 v c 5 5 c g @ f k l l l h f h h   d h z z Z A F F D Z l l l h z z Z Z C z l z l z z z z l z z z h h l z z l h h h f f h h h h l k h f f "
};
