/* XPM */
static char *ccfaf5bf37b040e88b3ff95a34e366b7[] = {
/* columns rows colors chars-per-pixel */
"512 512 256 2 ",
"   c #030101",
".  c #0B0403",
"X  c #0E0905",
"o  c #0E0B08",
"O  c #070708",
"+  c #120504",
"@  c #190604",
"#  c #130B06",
"$  c #1A0B06",
"%  c #140E09",
"&  c #1C0C09",
"*  c #140708",
"=  c #1B1106",
"-  c #16110B",
";  c #1B130C",
":  c #1E180F",
">  c #161007",
",  c #161411",
"<  c #1C1611",
"1  c #1E1912",
"2  c #1E1B19",
"3  c #120F0F",
"4  c #220C06",
"5  c #220E0A",
"6  c #290D08",
"7  c #221406",
"8  c #23130D",
"9  c #2B140D",
"0  c #22190E",
"q  c #2A1C0E",
"w  c #2B1806",
"e  c #32150E",
"r  c #33190E",
"t  c #3A190D",
"y  c #231511",
"u  c #2C1611",
"i  c #231B13",
"p  c #2B1D13",
"a  c #241E19",
"s  c #2A1E19",
"d  c #321611",
"f  c #341B13",
"g  c #3A1D14",
"h  c #3B1E19",
"j  c #351D18",
"k  c #300F07",
"l  c #262016",
"z  c #2C2115",
"x  c #26211B",
"c  c #2C231A",
"v  c #2E281D",
"b  c #322415",
"n  c #3C2116",
"m  c #33261A",
"M  c #3C231A",
"N  c #35291C",
"B  c #3A2C1D",
"V  c #382916",
"C  c #3D311E",
"Z  c #36301F",
"A  c #33210D",
"S  c #2C2621",
"D  c #2D2923",
"F  c #292623",
"G  c #342B22",
"H  c #3B2E21",
"J  c #362B26",
"K  c #3D3123",
"L  c #3C332A",
"P  c #37322A",
"I  c #3C3732",
"U  c #411E14",
"Y  c #421F19",
"T  c #431B0D",
"R  c #432315",
"E  c #4B2515",
"W  c #43241A",
"Q  c #4A261B",
"!  c #442B1C",
"~  c #4B2A1D",
"^  c #4A2A16",
"/  c #522D1C",
"(  c #552B18",
")  c #43311E",
"_  c #4B331E",
"`  c #54311E",
"'  c #5A331E",
"]  c #5C371C",
"[  c #49240E",
"{  c #62361D",
"}  c #432D22",
"|  c #4C2D21",
" . c #452923",
".. c #522E22",
"X. c #5B2D21",
"o. c #433424",
"O. c #4A3524",
"+. c #453826",
"@. c #4B3A26",
"#. c #433629",
"$. c #4A362A",
"%. c #46392B",
"&. c #4A3C2C",
"*. c #543223",
"=. c #5A3524",
"-. c #523C26",
";. c #5C3925",
":. c #543529",
">. c #5B3629",
",. c #523D2B",
"<. c #5C3B2B",
"1. c #453C32",
"2. c #4B3E31",
"3. c #453C36",
"4. c #553E31",
"5. c #633B25",
"6. c #633D2B",
"7. c #673B27",
"8. c #653E30",
"9. c #4E402E",
"0. c #4B4129",
"q. c #54422D",
"w. c #5A442D",
"e. c #5A462C",
"r. c #4E4133",
"t. c #4D433A",
"y. c #474239",
"u. c #534434",
"i. c #5B4533",
"p. c #564935",
"a. c #5C4A34",
"s. c #534639",
"d. c #56493B",
"f. c #5B4C3B",
"g. c #5A4639",
"h. c #5E513D",
"j. c #5E5136",
"k. c #64422D",
"l. c #6B432C",
"z. c #68462B",
"x. c #72452C",
"c. c #744A2D",
"v. c #784A2C",
"b. c #644432",
"n. c #6B4532",
"m. c #634B34",
"M. c #6C4B34",
"N. c #634D3A",
"B. c #6B4D3A",
"V. c #654638",
"C. c #734C33",
"Z. c #7A4D33",
"A. c #734D3A",
"S. c #744734",
"D. c #64523C",
"F. c #6B533C",
"G. c #695439",
"H. c #7C5235",
"J. c #73533C",
"K. c #7B543B",
"L. c #7C5A3D",
"P. c #745639",
"I. c #7C512E",
"U. c #79623E",
"Y. c #5B4E41",
"T. c #544B43",
"R. c #5E5143",
"E. c #5C534A",
"W. c #4F4A45",
"Q. c #624E41",
"!. c #645443",
"~. c #6B5542",
"^. c #6C5A44",
"/. c #635649",
"(. c #65594B",
"). c #6C5C4B",
"_. c #675846",
"`. c #725642",
"'. c #735B44",
"]. c #7B5C43",
"[. c #735D4A",
"{. c #7A5B47",
"}. c #6A5D51",
"|. c #725E51",
" X c #6E614B",
".X c #74624C",
"XX c #7B634C",
"oX c #796347",
"OX c #6D6254",
"+X c #746453",
"@X c #7B6552",
"#X c #7C6A54",
"$X c #7C6C5B",
"%X c #756859",
"&X c #7E715B",
"*X c #7C6F63",
"=X c #845B3C",
"-X c #8A5D3C",
";X c #835737",
":X c #865433",
">X c #89623D",
",X c #93643D",
"<X c #835D42",
"1X c #885D43",
"2X c #915F41",
"3X c #846344",
"4X c #8B6343",
"5X c #83644B",
"6X c #846A4D",
"7X c #8C6B4C",
"8X c #8A6748",
"9X c #946B44",
"0X c #936C4B",
"qX c #966945",
"wX c #99734B",
"eX c #836B54",
"rX c #8B6C53",
"tX c #836D5A",
"yX c #856955",
"uX c #936E52",
"iX c #84725C",
"pX c #8B735C",
"aX c #8B7356",
"sX c #947353",
"dX c #987858",
"fX c #8C724B",
"gX c #A4764B",
"hX c #A47C57",
"jX c #AC784F",
"kX c #847463",
"lX c #8B7562",
"zX c #8A7A67",
"xX c #937C64",
"cX c #977C66",
"vX c #8C7B6E",
"bX c #A27D61",
"nX c #9C825C",
"mX c #A9835B",
"MX c #B38659",
"NX c #AC8552",
"BX c #998269",
"VX c #9A8774",
"CX c #908472",
"ZX c #A88766",
"AX c #B48C65",
"SX c #B9946A",
"DX c #A48B74",
"FX c #B89875",
"GX c #AA9276",
"HX c #C59B70",
"JX c #CCA578",
"KX c #AC9884",
"LX c #B19F8B",
"PX c #D1AD86",
"IX c #D1B89B",
"UX c #D3C4A7",
/* pixels */
"`.XXq.o.o.#.,.a.N.i.[.iX.X,.w.,.B B o.+.+.@.q.q.4.!._.m.).%X).!.!.i.+.i.N.D.~.~.D._.f.).f.2.O.,.w.,.i.m.m.~.F.m.~.F.~.N.F.D.m.w.&.D.a.m.&.e.m.q.w.a.D.N.G.m.a.^.!.o.#.K d.}.zXiXj.w.,.B OXvXtX).i.u.,.u.D.i.f.D.m.F.m.^.m.a._.'.[.N.q.q.w.G.m.w.m.m.F.~.,.4.kX~.-.,.,.) +.@.i.q.i.F.'.O.N.w.O.,.m.o.! ,.-.i..X@X!.,.m.m.q.a.N B o.a.p.O.4.w.i.i.i.w.-.w.{.^.o.m ,.!.u.c R.a.w.w.w.+.&.&.w.F.5XrX{.p.w.[.#XN.~.5X'.i.eXpX`.O.@.N o.xXtXa.N.~.a.a.V.u.,.,.O.J &.yX@X$.B $.K o.i.j.e.@.q.a.@.-.@.D.2.v p +.i.&.N.f.,.N +.@.~.oXG.m.'.5Xw.o.o.%.q.e.i.@.).tX[.@.w.,.B B O.O.-.@.&.q.i.w.q.w.,.K K %.q.i.i.i.a.a.m.i.&.q.q.f.p.4.,.i.e.,.e.k.e.m.M.w.a.a.N.m.D.m.i.q.&.D.i.w.-.e.w.q.q.i.m.m.D.m.G..X[.q.a.u.^.m.^.G.w.m.m.q.,.m.m.e.w.q.@.w.q.@.q.-.w.e.e.m.z.w.e.m.m.w.-.w.m.B.F.k.i.~.^.`.,.,.lX~.-.<.-.B +.@.w.q.a.F.'.o.N.i.@.,.m.o.! ,.-.u.XX#X!.q.m.f.q.a.N B +.a.i.@.&.q.N.w.w.w.,.w.{.'.o.N &.f.$.z f.a.i.w.w.#.&.&.e.N.5XyX{.f.q..X'.i.N.5X[.m.eXpX'.u.p.K #.lXeXD.!.).!.!.Q.d.2.s.#.S #.~.).#.H %.K K u.f.w.&.j.!.@.q.@.D.2.c z O.a.&.!.N.q.B +.@.~.iX^.D.",
"5X[.$.$.d.r.f.w.q.u.iXeX^.i.,.,.@.N B o.o.o.q.&.^.[.N.D.).+X).f.i.w.a._.D.F.N.N.i.u.D.).f.,.@.,.,.) w.m.m.F.m.i.w.m.i.N.a.D.m.w.0.F.m.m.N.w.a.q.q.w.m.m.a.i.a.f.&.B &.}.zX%X.Xq.o.p._.+X*XzX+X+X}.+X_.&.@.) 9.i.a.m.G.m.w.m.F.'.G.G.~.!.N.~.~.i.m.`.{.N.O.4.kXQ.-.-.q.) o.q.i.-.G.'.F.b O.-._ ,.i.-.+X+XtX[.F.`.! @.G.N.i.i.^.N.%.B o.q.o.@.q.i.-.m.N.m.N.J.,.b $.,.u.#.L a.e.M.a.u.u.i.D.`.F.F.XX@XF.i.D.a.N.B.~.M.pXeXw.+.o.-.F.BXXXa.[..X,.i.^.i.} ,.B m 2.i.i.@.+.o.K @.i.i.&.) @.w.e.m.m.[.%.v H ,.D.!.D.,.s.B @.,.N.'.m.a.5X{.$.@.$.o.,.,.&.2.$X@X~.i.@.-.@.B ) o.o.$.9.w.m.w.,.i.w.R.+Xf.i.a.q.q.a.q.&.u.$.+.a.D.f.&.,.,.,.) e.b.m.m.i.w.,.w.w.m.a.a.e.q.o.i.q.D.F.a.a.w.i.u.D.m.m.m.D.D.m.) u.u.D.,.w.,.q.G.G.q.-.@.m.m.@.q.,.q.,.O.w.q.w.m.m.m.e.e.w.k.e.e.e.q.q.M.B.w.m.{.{.N.+.,.lX~.,.-.q.! ) q.i.,.G.'.F.b O.,.O.,.i.-.|.+XtX[.F.`.) @.F.N.i.i.'.N.2.N +.q.O.$.w.i.@.a.B.i.N.D.i.H &.,.i.o.L a.a.M.a.r.u.i.F.'.~.{.@XyX^.m.f.N._.'.'.N.pXrXm.@.&.q.D.zX@XN.).@Xg.u.Q.&.H g.L J 2.%.u.o.o.H K +.2.&.&.B @.w.i.D.m.[.%.x H q.N.D.!.&.2.N o.,.).iXF.a.",
".XN.K r.f.N._.u.N .XXX~.m.-.m.,.@.$.+.#.+.&.&.!.^.F.N.D._.D.p.p.w.i.!.F.m.m.m.m.i.q.D._.N.&.i.,.,.,.p.N.i.m.N.m.m.m.i.m.D.F.m.e.@.N.a.m.i.m.q.i.q.@.u.w.q.0.i.D.i.#.OXOX%XE.q.%.+.o.).%X+X.XD.p.!.).f.4.u.u.f.a.a.a.e.m.w.i.m.D.D.D.i._.~.G.m.w.~.XX'.N.b ,.tX~.O.O.m.@.o.q.i.,.m.G.m.w.V _ i.xXeX[..XeX'.w.w.m.} ! '.~.F.q.w.i.p.D.f.o.! $.q.w.@.m.F.N.q.m.w.B #.o.u.f.T.q.! <.q.&.,.m.'.~.i.w.B.{.[.^.g.%.o.,.'.{.rXpX,.o.H w.pXpX.XN.,.oXi.u.N.,.o.$.N J 4.o.q.i.,.B o.O.i.,.q.@.) a.'.a.m.N.@.m m +.a.w.a.+.u.@.q.,.~.XXD.f.'.p.B C +.@.q.&.B [.[.N.a.@.i.q.,.@.$.&.@.&.,.@.&.i.w.w.w.h.).~.a.a.i.i.a.i.u.p.i.&.N.N.q.o.i.q.,.O.a.a.w.m.m.i.w.e.i.m.m.m.w.@.+.i.a.G.G.D.f.m.a.w.a.a.f.G.G.D.F.N K #.u.r.q.&.,.a.G.w.-.w.m.m.@.q.-.,.,.@.q.w.e.e.m.m.a.e.e.e.e.w._ w.w.e.e.,.F.eXXXF.f &.iX'.@.@.m.-.o.q.i.,.m.F.B.e.V _ p.cXtX[.XXtX'.e.e.B.o.} {.`.~.&.i.i.f.^.f.$.! $.w.w.-.m.~.m.w.N.D.+.o.} p.f.f.u.) w.w.&.,.D.{.'.m.i.`.5X#X[.N.%.$.4.[.yXlXlXq.+.o.i.pXzXtX!.u.+Xf.u.g.#.2.s.#.t.(.Y.Y.4.2.H K o.r.9.$.+.o.a._.w.m.a.@.N v o.a.i.u.o.u.+.&.h.+XtX~.a.",
"[.@.m o.u.p.N.,.H D.a.D.w.q.w.w.,.,.%.u.u.f.D.).[.p.i.N.f.u.a.!.D.i.a.e.-.w.N.a.u.p.i.w.i.,.D.f.)..X^.N.w.@.w.b.k.e.w.q.a.i.a.G.@.F.m.w.e.w.m.&.+.&.9.f.+X+X+X+X^.F.).(.t.2.%.J K a.&X@X!.w.p.$.B @.&.+.q.f.f.i.w.,.q.,.w.i.m.D.D.i.q.f.w.q.i.i.N.[.XXp.b u._.~.,.i.i.i.,.@.i.q.e.e.m.m.$.).oX5XF.w.w.G.m.q.w.m.) @.`.J.m.i.-.,.o.o.D.&.$.@.-.-.O.m.{.G.@.N.-.H B B ,.|.#XK H i.@.,.a.'.XXB.@.+.V.yXXX~.u.&.+.H F.`.cXcX,.o.o.`.5X'.m.m.m.~.a.&.u.V.4.p m o.s.H O.B.N.} o.q.u.$.&.,.q.D.'.e.a.a.u.H B K &.q.w.+.q.i.,.w.XXpX^.f.[.@.m o.$.@.q.+.H D.m.N.,.@.q.,.@.,.@.%.&.&.,.,.u.q.a.m.-.O.a.N.e.i.i.&.-.@.i.i.9.i.a.w.,.-.N.q.u.i.p.p.q.@.,.i.w.q.w.i.N.i.N.^.r.).^.D.m.a.m.w.e.a.D.w.a.G.N.G.B.q.@.%.G s.&.K q.w.G.m.w.-.F.e.@.q.q.,.w.q.-.-.w.,.w.w.m.q.e.e.w.-.O.w.,.-.w.e.N.XX5X!.V d.|.'.w.i.m.e.-.@.w.q.w.w.m.B.@.).XX5XF.e.w.F.G.q.q.m.) @.'.`.B.i.$.,.H @.F.q.+.$.@.&.@.N.[.F.@.).f.o.N N ,.|.#Xo.o.i.&.q.G.'.5XF.@.+.b.uXyX~.i.@.o.H ~.'.BXcXq.o.+.'.5X.X~.F.a._.a.#.4.).}.3.1.Y.%Xs.@.g.u.G K %.%.o.#.@.%.f.f.w.a.i.i.H H K &.w.w.o.9.u._.~.iXlX[.i.",
"f.%.N +.2.a.i.@.N q.&.N.q.m.,.@.q.i.q.$.$.u.f.N.a.i.f.f.p.r.i.D.F.i.u.i.f.N.a.e.a.a.,.@.@.q.D.D.F.F..X!.q.B &.i.w.w.w.e.a.e.a.D.i.D.w.w.w.,.w.,.&.i.OX$X@X@X).#X'.N.s.&.T.t.%.x o.f.).~.N.w.i.@.o.i.+.#.i.p.f.,.@.-.@.O.r.a.a.m.w.&.O.m.,.q.,.e.i.^.XX,.f.f._.~.i.i.w.i.q.$.q.q.i.w.a.i.f.D.m.F.F.m.a.G.m.q.q.q.O.,.F.'.V.b.i.-.K u.'.o.B o.@.O.-.V.'.N.@.a.&.K m B o.CX_.+.&.a.q.<.D.{.~.w.@.@.V.yXyX^.^.i.H o.D.D.cXcXq.o.q.G.q.N.N.D.XX.X@.K &.N.O.G N } 1.B q.N.N.+.&.$.K i.,.@.w.a.e.e.D.~.N.g.#.K o.+.q.$.+.G.,.a.tXrXD.q.f.%.H %.@.&.,.+.N ,.,.a.a.i.o.@.m.a.-.O.+.@.$.o.%.i.f.a.$.&.i.i.e.&.&.u.q.q.q.&.&.q.q.&.,.q.i.q.,.u.D.f.f.%.i.i.N.~.D.a.m.a.m.D.p._.!.D.w.w.e.w.q.w.a.i.a.e.q.m.m.q.o.#.R.Y.9.L i.a.G.a.q.e.F.m.q.i.,.@.-.@.@.,.@.-.@.$.+.@.-.w.w.$.+.a.,.q.,.i.m.~.{.-.m.Q.).^.w.w.q.e.q.@.q.e.a.i.a.i.N.F.m.F.F.m.e.G.m.-.q.@.O.-.J.{.V.i.,.@.H ,.~.O.N K $.&.@.p.{.F.-.m.i.C b V } VX[.+.&.f.q.e.'.{.{.,.O.O.V.yXpX'.^.q.B o.~.F.cXBXq.o.q.F.i.N.N.D..X[.+.G d.|.g.2.%.2.t.H q.i.u.H #.K N &.$.#.&.a.a.i.!._.).Q.r.o.#.&.w.$.+.D.f.^.lXpXD.w.",
"i.o.+.O.f.u.q.-.%.&.u.N.q.a.,.$.i.@.o.+.&.d.&.O.q.i.!..Xf.&.&.a.a.i.i.a.N.m.q.e.a.a.q.+.u.a.F.a.b.G.m.i.0.N 4.&.@.,.,.@.q.-.a.9.N.a.q.w.i.w.,.-.@.f.+X%X@X[.[.~.'.N.o.J %XR.R.L 9.h.)._.N.q.m.m.).OX$.@.u.(.).u.i.i.u.2.#.i.N.m.&.B w.a.q.w.q.w.i.B.N.,.^.+X|.f.a.i.w.q.e.,.O.i.m.m.a.e.i.M.m.J.{.k.e.m.m.m.e.@.o.@.J.F.i.w.a.H 2.f.N.N.#.B &.%.O.q.F.N.@.,.p.%.o.N 4.VXN.&.+.q.@.b.m.N.^.q.@.q.XXpX5X^.~.u.B o.N.m.pX'.q.f.[.i.} F.D.G.pXiXi.N o.O.2.G o.o.#.o.,.i.N.&.q.o.K w.$.o.q.a.q.^..XD.a.a.%.H m $.i.q.B ^.~.D.oXm.e.q.i.K #.O.&.$.f.w.#.$.i.i.i.N.&.&.m.+.o.@.o.&.o.$.q.F.s.u.#.r.$.+.,.+.q.w.@.q.O.@.&.i.$.+.@.@.a.,.i.~..Xf.p.#.u.a.a.m.a.,.q.,.a.9.N.f.!.a.w.,.-.,.-.q.w.w.i.m.m.e.J.G.+.K CX+X Xf.D.w.m.w.w.w.m.m.m.i.@.w.,.i.i.@.a.a.i.O.V ,.m.m.0.C i.f.i.w.w.i.m.B.F.,.~.[.'.m.w.e.e.q.i.q.@.e.B.m.m.e.a.N.G.'.oXm.e.G.m.e.w.+.o.@.J.'.b.m.a.B r.u.~.i.$.N +.&.$.i.~.D.@.,.i.o.K N u.VX~.&.+.w.@.m.F.V.G.@.O.q.XXpX5X'.~.4.B O.D.~.pX[.q.D.XXf.o.F.D.D.pX#Xa.K s.f.f.L #.#.L G +.,.d.%.%.H G &.K H &.9.w.+X#X.X_.D.&.K J 2.p.q.! %X.X^.#XG.a.i.",
"i.%.q.&.u.a.w.w.u.u.u.p.,.w.+.q.4.$.u.q.&.&.+.@.w.f.h._.p.$.@.@.a.i.a.u.4.q.-.m.w.e.@.&.a.[.[.m.b.M.i.u.+.K !.f.q.w.q.q.,.i.m.q.M.m.G.i.q.i.,.u.N.~.D.[.^.~.F.F.G.i.&.G !.&.#.o.OXkX%X).G.a.a.i.).D.&.$.&.u.!.h._.f.!.4.T.|.G.m.B &.p.a.q.m.i.i.a.a.a.a.~.^.'.i.q.a.w.w.q.q.o.i.D.a.w.w.i.G.'.F.J.i.,.w.m.m.a.i.a.O.a.i.i.q.w.,.u.,.^.u.s.p.N.+.@.) F.~.w.i.a.u.o.B %.pXN.i.w.@.@.'.N.q.N.i.-.~.yX5XN.+XF.$.K -.F.i.#Xw.i.oXXXq.H [.D.m.oXoXD.&.o.H #.#.m H 2.q.w.q.w.f.f.$.%.&.o.$.q.,._.lXD.w.m.a.u.N z &.u.i.q.~.oX^.'.O.w.m.u.%.u.,.&.q.q.q.i.2.,.N.i.u.@.u.u.$.f.a.,.@.q.+.9.s.u.u.2.&.&.B +.q.&.a.,.$.$.,.q.0.+.+.+.N.~.!.F.F.!.p.&.o.).D.w.w.w.q.q.a.a.q.M.m.F.m.q.q.@.q.m.a.w.b.w.m.N.G.G.i.9.o.$XD.a._.a.a.i.e.z.e.m.a.w.q.,.w.&.w.w.q.e.w.N.2.g.).F.G.B ,.a.a.i.N.i.a.m.w.a.a.~.^.'.m.w.m.a.m.w.w.O.a.F.e.q.a.m.F.'.F.J.w.q.e.m.m.i.q.q.) a.m.i.i.i.@.%.@.'.i.r.p.!.o.&.O.f.'.i.a.i.q.K } 2.xX^.a.i.O.,.J.w.@.e.-.,.`.yXyXN.#XN.@.o.,.'.a.eXi.a.XXeXi.o.[.F.D.XX@X!.u.%.H #.#.m J 1.i.$.o.&.2.d.d.Y.d.} K $.@.^.lX^.a.G.p.i.K z &.g.G.!.+X#X'.XX&.a.N.",
"f.p.q.&.#.a.,.<.~.i.u.u.f.q.o.%.u.#.$.&.i.q.+.o.a._./.f.u.u.&.O.D.a.a.N.i.i.w.w.i.w.q.N.~.^.^.a.B.M.q.q.K r.OXf.i.0.q.q.i.a.i.@.m.N.D.e.w.i.a.D._.[.^.D.N.m.a.a.@.D.&.z f.o.@.!.zX%X+X^.G.a.m.m.q.q.q.K &.i.D.D.!.~.D.Q.).!.i.G.m.&.!.a.i.F.a.D.+XF.u.O.^.[.i.u.w.w.e.a.q.,.&.D.^.@.O.@.i.J.oXF.J.i.q.m.G.m.B.a.e.+.q.a.m.u.i.a.i.a.~.D.+.a..X+.O.i.D.'.!.a.f.i.o.B $.@X^.N.N.) ~.`.i.o.i.G.G.yXcXyX&.a.i.o.} M.F.F.tXw.a.pX'.i.+.m.G.^.^..X.Xu.#.%.2.H &.(.Q.f.i.$.i.p.a.q.i.u.+.&.q.&.D.aXa.i.#X'.p.H z q.a.^.eXxX@XF.i.o.i.^.g.$.,.&.@.q.,.O.a.,.i.!.D.i.@.f.(.!.u.&.p.u.9.o.p.s.r.%.2.u.o.%.).h.).p.,.%.f.f.R.).).N._.[.#X[.B.G.q.0.C r.).f.a.q.,.w.w.m.a.O.a.D.D.i.w.i.q.m.m.G.m.w.w.m.D.N.q.D.r.b !.i.q.M.e.w.a.m.m.w.e.m.q.,.e.-.@.w.w.-.q.w.N.N.|.!.a.J.m.q.!.N.m.F.w.G.'.G.@.! ^.[.N.g.m.e.a.M.k.q.&.D.~.q.,.,.M.'.XXF.F.@.,.m.M.m.m.e.w.+.q.i.N.a.q.&.u.,.D.f.q.f.!.+.&.u.~.^.D.a.a.a.u.+.&.tX@X'.D.+.i.B.-.B q.m.F.yXcX5X@.a.m.+.&.F.~.'.eXp.a.BX[.a.$.N.~.[.)..X.Xu.} %.#.H 2.Y.u.g.4.d.f.d.}.}.%X).r.Y.R.Y.).lXa.i.#X!.a.G N 9.f.).CXVX#X.XD.+.N.[.",
"!.!.q.i.,.u.a.q.~.N.F.f.F.a.@.u.u.r._.}.[.D.u.!.@X.X).1.J r.R./.$X~.~.N.f.q.u.a.-.q.m.^.F.F.^.F.m.F.f.4.%.OX).f.a.w.i.w.i.N.i.i.,.F.a.w.a.^.N.D.D.L.G.G.J.G.a.&.m q.&.#.T.K %.OXiX%X).D.D.D.i.a.N.q.N.,._._.D.D.f.,.i.i.m.m.a.m.e.q.f.i.J.[.F.+XtX'.,.$..X#XN.D.p.i.q.i.w.i.XX@Xa.&.p o.G.[.tX.X'.a.a.m.J.F.'.N.G.i.q.q.m.i.i.D.N.N.^.).%.u.D.N.i.@.D.F.'..X_.4.i.O.O.).@X|.).)..X~.u.+.p.m.'.rXcXpXO.O.i.i.q.~.oXcXtXq.^.aX~.J.i.a.'.[.[.#X'.#.#.2.%.&.4.D.i.'.a.u.m.u.D.D.m.a.#.s.f.+.G.XX&.'.#X.X!.%.G &.q.~.yXlX[.[.q.J i.~.N.u.u.a.,.q.e.@.f.w.m.N.~.f.&.!.%X+Xf.p.a.u.%.%.N.u.%.t.W.}.}.*XCXkXkX[.!.).*X%X_.#X%X+X[..X.X~.m.F.i.&.+.(..XD.N.e.q.a.a.i.a.q.i.^.m.-.a.a.a.m.w.P.m.z.G.J.~.q.H f.&.r.+Xu.D.^.'.a.m.B.m.G.b.a.b.b.m.i.N.a.q.a.a.N.a.G.F.G.N.m.F.i.~.F.'.'.N.F.XX~.@.! oXeX~.F.m.a.w.m.m.a.eXXXG.i.0 o.F.#XtX#XF.a.w.i.m.m.'.m.m.i.i.i.D.q.i.~.u.2.^.).9.s._.D.i.q.!.).'.^.h.,.a.i.i.#XiXyX'.D.~.m.O.B &.i.B.eXcXrX-.@.a.a.a.~.#XBXaXf.'.xX.X.Xf.N.[..X[.+X{.L L %.%.$.4.f.4.g.}.!.f.r.(.!.!._.f.OX%XY.)..X+.F.$X|._.u.H u.a.+XcXVXXX@XD.2.N.~.",
"D.N.+.N.D.a.f.a.).~.~.~.f.u.&.q.f.$X$XkX@X^.f.D.[.!.p.G 1.t.).+X+X~.^.D.F.D.N.q.f.!.[..X^.F.'.^.F.N.D.u.s.+X^.D.^.!.i.D.N.i.D.,.#X#X.XXX[.XXF.N.i.G.G.G.'.eX^.&.%.1.p.1.T.p.!.kXkX+X.X'.!.~.!.p.D.f.!.OXkX%XD.f.N.D.i.G.N.D.D.N.a.q.D.@X.X.X~.#XXX~.m.&.iXtX).D.a.N.N.D.N.D..X[.a.!.+.p..X[.rX#X^.D.D.i.i.N.XX'.^.^.f.D.G.,.i._.m.i.^.^.f.$.f.D.~.+X'.i.F.D.!.i.m.u.N.d.$X$XiXkXXXp.$.u.G.N.F.pXcXDXb.K !.XXD.oXaXBXeXi.oXlXF.G.'.^.~.'.eX5Xu.G J ~.i.u.&.[.[.,.g.f.a.&.XXF.~.^.f.!.p.$.N.N.m.rXXXtX[.u.2.#.2.a.yXcX|.~.4.2.m.[.~.g.u.N.a.a.D.p.~.i.N.'.N.a.a.D.~.'.m.p.D.f.$.Y.i.u.OXOX%X*X$XvXzXkXiX@X'.+X).).*XzXiX+XD.~.F.G.G.D.N.$.f.).^.G.'.D.a.F.a.q.N.w.XX#XeXXX'.~.D.i.w.D.G.J.oXpX.Xf.r.d.OX(.%X+X.XXXJ.m.G.~.'.~.G.w.D.F..XD.N.i.i.f.!.F.a.G.m.F.m.D.F.w.~.F.'.^.N.XX'.N.a.&.iXlX.X!.N.F.~.G.F.F.#XyXN.F.+.f.@XoXpX5X'.a.a.a.e.B.{.D.F.D.f.N.F.u.u._.N.q.'._.u.u.f.D.).+X).D.~.^.).a.D.N.D.(.tX@X@X@X'.w.$.&.m.a.N.pXcXcXi.K N.eXG.eXxXDX#Xf.eXlX^.'..X[.~.D.@X@Xp.m K f.g.&.%.+X@XY.(.(.i.&.)._.d.%X}.OX/.2.a.f.i.tX+XtX).g.r.2.d.[.lXVXtX~.Q.Y.).!.",
"u.u.,.'.f.p.f._.).f.'.kX@Xf.f.i.).$X#X@XeX.X_.~.N.f.D.Y.}.}.kX#X^.~.^.^.f.D.u..X[._.XX@X.X'.~..X'..XF.).+X).^.m.F.^.~.^.a.u.D._.oXXX@X.X'.'.'.'.D.w.^.'..X X!.f.R.OX%Xr.&.f.*XCXCXtX#X[..X$X).F.%X*X#X+X#X_.u.u._.F.N.p.D.f.D.!.N.f.).#X#XoX~.XXoXa.q.lXiXJ.N.D.D.~.'..X[.F.XX^.a._.+X%X$X[.aX#X.X^.D.D.D.^.^.D.F.'.D.a.D.N.f.'.~.f..XN.p.!._.f.@X#X#X!.N.F.!.a.J.^.i._.vXzXtXpX~.u.u.'..Xf.G.aXpXDX`.#.XXBXD.F.xXcX'.D.cXxX.X'.^.pX^.i.XX5Xu.H m r.XX@Xg.@XDX_.f.f.%.D..X~.).!.!._.f.&.p.~.^.xXtXVXVX).f.f.2.u.[.VXVXp.u.f.N.[.!.s.i.F.i.i.a.~.^.D.~.'.F.i.N.F.D.~.D.f.+X~.(.*X+X*XvXvX*X*XkXtX.X'.eX@X)._.N.#X%X$X.X'.@X.X_.^.D.F.F.!.%X).^.G.F.~.N.^.a.q.a.[.XXXX#X'.'.^.'.F.D.&.^.'.oX@XD.&.R.%X*X!.!.#X'.oXXX'.'..X.X.XF.m.J.'.'.N.N.D.!.D.!.F.D.a.m.D.^.~.m.i.D.#X#XoX_.#X.Xi.w.iXlX'.J._.G.^.[.[.'.D.oX'.m..X$XkX$X'.pXyXXXF.F.N.m.'.'.i.m.'.D.i.D.u.p.^.~.!._.f.f.u.!.D.+X).#X+X+X%X[.!.^.~.a._.&X+X.XeX~.&.u.^.'.a.G.rXrXDXN.H XXBXD._.BXDXXXG.xXxX).[.[.tX~.p.#X@Xr.H c u._.).OXzXKX%XY.R.+.9.).~.%XkXOX!.p.o.u.D.D.zX*XVXKX[.f.Y.f.h.@XDXDXf.f._.Q.4.",
"$.u.p.[._.f.a.~.^.[.%XiXXXf.f.%X).).).^.XX^.~.).j.f..XzXzXvXCX+XD.D..Xm..X).).+X_._._.'.].`.F.^.G.oX'..X.X'.'.m.F.'.^.'.^.a.).@X[.^.#X'.oX'.'.oX).a..X.X).!.s.r.t.OX%Xr.o.*XkXkXkXiXkXtXtXCX&X).kXiX.Xh._.R.s.f.!._.^.~.+X_.D.~.i.N.XXtXXX'.'..XG.q..X$XF.F.'.~.'.~.+XtX^.~.D.^.D.[.#XzX+X[.tXpXeXXX'.D.D._.^.D.i.^.^.a.~.D.D.'.#X~._.D.s.R.).F.'.[.@XpXp.^.N.'.~.~.g.!.kX.X.X#XD.&._.iXrX~.'.pXcXcXD.&.'.BX.XD.eXpXyX#XDXcX#X'.XXpXXXF.{.[.4.u.G m N.~.Y.@XpX~.f.u.i.D..X^.a.D.!._.D.p.N._..XoX#XDXcX@X{..Xp.%.f.KXDX#.2..XF.~.d.+.N.N.D.i.f.).F.D.m.'.F.i.f.!.a.^.^..X#X^.).kX*X$XzXCXvXvXiX@X.X.X#X^..X.X_.+X[.!.D.'.+XXX~.F.j.^._.).)..X[.G.F.~.~.F.D.w.[.+X^.~.XX'.'.F.'.[._.a._.oX.X_.r.r.s.*XOXf.@.'.'.oX'..XXX[.'.oXF.F.^.'.'.D.^.!.!._.~.F.D.~..X!.'.!.p.a..X#XoX[.'.'.D.&.@XiX~.J.F.F.'.F.[.XXN.~.m.D.m.'.{.eX^.'.yXrXtXXX~._._.).^.~.D.[._.i.~.D.~.@XkX[.#X@X(.(.%X X).D.iXzX%X$X+X[.'.).,.u.+XD.^.^.N.$.N.#XXXN.~.tXaXcXB.&.~.BX.X^.eXpXyX#XDXlX[.^.@XtX.XD.^.[.2.1.v 3.).|.%XvXVX).f.i.u.a._.!.).OX!.!.p.f.R.).#XiXzXKXBX+X'.+X_.r.f.GXDX%.s.~.u.B ",
"r.s.).).!.).!.)..XF._.[.~.a.D.+X).(.).[..X^.!.D.f.f.).$X$X$X+XF.~.a.D..X.X^.f.!..X.X[.'.'.F.D.'.G.^._.F._.G.^.G.D.'.^.^.D._.$XkX[.a.oX'.'.^.^.F.).^.).#X@X^.%.u.Y.OX/.s.r.kX+X#X@X.X#X'.@X$X+X[.$X%X~.!._.a.&.D.N.D.'._.!.D.^.D.N.D.oX~.'.F.F.^.^.O.@X.XD.F..X~.'.N.^.eXoX[.~.~.~.'.^.XX@X#XzXlX@X#XF.^.f.f.f.N.q.~.G.u.N.N.a.XXeX#X@XN.u.~._.D.[.F.yX_.N.!.D.^.~.tXp.Y..X^.#X#Xa.a.oXoX'.F.F.XXpXpXN.s.[.rXXXD.~.oXpXcXKXBX@XtX@XtX@X[.'.^.Q.N.#.o.'.Q.2.[.D.f.p.N.!._.+X_.a._..X_.^.!._.h.f.N.eXpXeXxXtX!.f.#.g.DXcX%.r.XXD.!.r.H ).Q.i.D.f.f._.!.)..X'._.!.D.f.f.).@XtX_.%X+XOX/.+XvXzX%X).~.)._.)..X[.^.D._.).D.a._.@X).^.).D._.!.!.^.D.J.D.!.'._.G.a.a..X@X~.N.{.'.^.^.'.^.).^.!.+X.XD.K u.E.OXOXs.@. XD.J.'.'.@X_.~.^._.G..XD.D.).[.R.f._.D.D.F.!.D.N.D.!.a.i.[.F.^.F.N.~.F.@.@X.XF.D.^.~.^.f.~..X^.^.D.N.D.D.D.F.G.'.XXXX#X#X'.!._.!.).).!.^.F.a.a.a.p.#XtXtX$X).!._.$X$X!.N.+X@X(.!.)..X^.^.,.%.(.!.+X$X(.!..X'.D.D.D.[.tXeXf.&._.eX.XD._.[.pXxXFXxX[.@X.XyX'.~.Q.f.T.Y.s.T.*X*XE.kX_.p.u.N.R.R.).).}.+X).R.(.}._.(.(.).pXcXpXpXtX[.(.%.p.VXxX%.r.~.u.r.",
"s.t.s.2.f.(.!.R.a.N.^.^.f.u.(.).!.a.~.@XiX).D.!.!.f._.).!.!.D.!.u.f.~._.~.D.+X%X).%X X~.F.N.p.!.^.^.^.D.D.D.N.m.h.!.F.~.i.).$X_.f.f.^.D.F.D.N.D.!.+XkX.X^..X(.%XkX%X(.u.L %XOX*X$X!.).'.D.^.!.D._.!.h.!.f.t.%.9.f.!.).f.h.(.(.+X}.f..X_.D.^._.~.i.+.F.D.D.m.'.D.D.D.~.'.^.F.F.N.~.~.f.~.[.[.tX.X#XoX+X#Xf.N.D.D.a.).!.N.f.f.u.!.^.~.'.u.%.r.!.!.!.^.D.)._.p.D.~..X[.u.u.u.D.^.^.f.D.'.f.N.'.D.^.eX'.p.!.D.D.^.D.N.D.XXeXBXcXeXpX[.lXtX5X~.R.Q.s.u.(.@Xi.r.~.f.o.9.!.^.f.~.D.a._.(.h.!._.D.p.9.q.J.5XG.tXcX[.!.p.f.[.!.2.p.!._.D.s.r.Y.r.u.u.u.u.f..X+X.X_.D.a.f.i.w.D.'..X(.OX X}.!.%XvX%X!.h.D.f.D._.).D.a.j.f.q.f.).+X^.~.N.)..X%X)._.!._.N.a.!.^.^.D.u._.+X!.f.f._.!.^.F.D.F._.!.).).D. X(.OXkX%Xf.r.B OXR._.'.'.^.^.a.~.a.N.~._._.~.D.h.u.i.a._.~.a.u.a.u.a.i.q.Q.N.i.N.m.a.i.+.D.G.D.D._.f.D.f.N.D.N.N.m.a.N.N.i.f.D.~..X_.^.'.~.F.f.f.D.~.D..X!.a.j.p.d._.'.'.[.f.%.f.OX+X~.N.!.Y.D.,.N.f.a.N.2.d.f.f.D.!.f.!.).f.f..X!.~.XX^.g.f.p.f.^.j.p.N.[.XXcXpXXXeX'.@X@X.XY.t.s.s.s.%X$X+XR.).d.+.u.!.!.f.R.OX}.OX(.f.R.!.f.p.u.u.'.XXG.#XcX[.!.p.f.^.!.2.u.f.f.f.",
"2.%.#.K q.u.(.u.$.q.D.u.q.f.(._.f.u.p.+X*X).f.j.f.%.u.u.a.9.&.u.a.h.f.!.D._.+X$X_.).f.N.f.f.f.f.D.D.D.m.i.a.!.!.f.f.a.i.q.OX.Xp.N.f.d.a.D.f.i._.).(.D.j.a.f.!./.+X).f.d.1.%XOXOX%X_.+X).h.f.D.N.D.p.p.p.p.p.r.d.f.).@X).}.+X_.R.d.4.).!.a.N.f.a.s.K a.u.p.N.N.w.i.i.a.D.a.u.u.a.a.a.a.i.j.D.D.N._._.).!.f.f.).).f.p.u.f.p.f.f.u.D.f.u.K &.u.R.D.!.~.!.+XY.|.R.R.D.f.!.&.u.r.f.'.D.~.D.p.i.D.f.D._.D.f._.2.9.!.h.f.p.F.f.F.oX'.[.^.[.!.!.[.Q.u.#.i.@Xu.u.%.).g.%.d.s.i.i.f.p.&.p.p.u.s.!.^.u.#.r.F.F.D.F.6X~.f.!.s.u.$.%.%.u.a.!.d.d.t.L &.$.f.r.u.f._.D.p.u.i.a.p.u.i.f.!._.}.).Y.d./.).%X/.f.r.f.!.!.f.D.D.i.2.q.f.!.).).N.D.f.~.).). X_.h.f.f.f.a.a.p.q. X Xi.N.f.!.a.D.N.i.N.j.a.i.i.p.a.R.(. X/.i.#.G OXh.h.h.a.!.!.f.i.f.p.N.R.f.a.f.f.q.$.u.D.~.f.u.u.i.&.o.o.f.a.i.u.u.i.u.K p.i.i.f.a.4.w.q.u.a.u.&.&.p.q.u.i.i.f.f.j.a.!.^._.R.h.D.D.j.i.f.s.i.i.s.p.a.D.f.N.%.@.s.)._.N.f.f.!.u.a.+.%.i.a.f.E.f.d.f.D.N.a.N.p.i.!.g.N.~.f.R.h.2.$.D.f.a.4.N.u.D.^.^.~.D.^.g.Y.!.T.}.E.%XkXf.u.&.(.a.2.s.s.u.s.*X*XR.f.f.r.t./. X}.E.s.F.F.N.G..X^.N.f.u.u.&.%.2.&.r.u.",
"f.s.3.H +.2.r.%.%.B $.q.%.t.u.p.r.%.&._.).f.s.u.#.o.$.&.u.%.H 1.,.%.9.s.d.i.u.%.s.u.u.h.u.q.i.q.@.u.i.u.i.&.&.u.&.$.&.u.o.).p.p.9.s.r.u.s.f.u.f.D.9.p.q.@.&.$.9.q.f.&.N %.%X*XOXOXR.).(.D.Y.i.&.u.2.&.+.2.$.Y.E.d.f.f.d.u.f.r.2.#.%.s.f.s.$.&.p.#.b L 2.r.q.u.@.$.+.s.a.9.%.%.&.q.+.&.@.D.f.q.i.i.a.i.q.&.f.).D.2.r.Y.f.).f.R.u.u.u.Y.#.G #.#.9.%.&.a.R.f.|.s.E.2.+.q.o.o.m &.!.N.p.%.a.q.u.p.d.D.&.%.D.%.+.p.u.,.q.u.q.$.f.a.f.s.u.u.r.^.^.#.G o.2.o.o.&.Y.f.d.T.&.9.$.2.#.H %.r.%.r.p.f.i.H #.p.a.q.q.i.D.f.f.2.2.o.2.t.1.s.r.1.T.2.G B #.%.#.%.#.,.u.$.o.+.i.%.&.9.u.!.f.2.u.o.H s.f.R.s.#.r.9.&.u.u.u.i.q.&.9.9.9.R./.f.u.&.,.g.h.f.).t.2.&.#.&.&.u.K ).p.u.u.d.s.u.u.p.q.u.i.+.q.@.&.&.%.$.p.f.&.G W.(.2.r.u.&.q.r.q.u.&.Y.f.u.d.&.i.,.@.K %.,.i.&.%.%.&.o.H #.9.s.&.o.&.i.#.N K &.%.@.u.$.+.o.@.$.o.#.#.,.&.+.$.+.f.p.9.q.f.!.!.f.f.a.a.f.o.#.o.&.$.o.o.%.,.r.&.N H %.&.q.$.&.s.R.&.p.H r.r.9.s.%.#.N %.f.a.q.$.p.u.u.u.u.!.%.%.N.#.%.p.u.2.u.4.&.#.p.i.a.2.r.r.2.%XvX}.E.}.Y.#.o.%.s.s.d.t.s.E.}.%X}.y.2.t.%.r.f.(.OXE.&.&.i.@.%.q.N.f.f.%.#.K 1.2.H L s.",
"d.f.I m m N m m B B L K t.r.t.%.K K K s.u.&.%.L N N C K H K B #.K H K H K K K K 1.%.%.%.o.o.&.K C #.H #.o.L K K N K K C %.s.&.C C %.s.f.s.%.#.o.%.#.%.o.H N N o.2.s.%.N E.*X}.OXR.2.u.Y.Y.d.%.o.&.B m G N K %.1.H o.o.N H H C B H K %.%.L o.N #.K z H 2.K ! &.#.K K r.&.o.L K L %.K K o.2.+.O.+.@.+.+.o.o.} +.$.K %.K %.u.2.#.$.$.d.s.#.r.t.G K H K o.K 0.,.o.%.2.K o.o.b c %.u.q.o.N %.@.&.$.$.%.G N u.J H H H #.#.q.+.%.&.@.2.#.N G m 9.f.#.v G H z c H 1.&.o.K K o.+.&.#.i H %.N m H $.#.m c o.%.H K ,.q.#.s.1.o.B %.#.J #.H c #.K H c m N c B B L o.o.N H #.H B #.s.u.o.N K N N B r.s.#.N #.o.B L K K +.o.K 1.K %.r.&.&.9.K C #.o.&.r.%.o.#.1.%.C C %.s.%.K B $.o.K &.#.L o.#.#.#.o.B B N o.2.1.L z y.T.H N K K G +.K K %.E.f.+.K K K K B B K o.#.m K o.H N m K #.#.o.H N #.H z N 2.B H $.#.B N o.K N H B L #.C C H r.L o.%.s.r.%.&.&.%.#.&.#.K m H K L #.s.r.H K m N B N o.H N 1.y.&.@.G %.1.L L } m c L %.,.H c +.+.&.&.$.#.H N 2.J H K K #.K %.o.C #.K #.#.G D L (.%XT.I 1.#.z c 1.T.2.o.G t.(.(./.s.z G o.N c G 2.s.J G %.o.B G $.@.$.2.1.K m o.#.N L 2.",
"H L i y c s m p v L L #.r.#.L m N b m K #.B N m z z m H %.1.K #.N m m z N N c c G N N H N N N B c H c m #.H G m m G K J 1.#.o.J m L 1.1.%.N N B m K H N c p c H r.2.G G y.OXt.r.2.#.s.s.s.K N c N N m c m m m m i m N B B B B B c H N c b b p m c p J L b m #.K b H H H m z N m H N z H B N N B B N B N B N N B z N b #.K G N N G o.#.3.3.L v J 2.t.G z N B B H N N m o.p m K #.@.m N K B N B V N p i K K m c v H N #.@.o.K G #.m m G z v %.#.c i z c N c G N m m N N K o.N p c K N c z o.K z v m #.K K +.+.m %.K m z L N i N c z m z c v S G p v L L K N z K m m G L #.#.N z b z p #.2.L H m L J N m z B H m m G N y.r.#.K K B b K c c K N m K P m K c %.K B m z m m N N N N B m H H B m l c G G N v x ; P c z z N G #.#.1.%.L o.B b v N B N c z H H N B B H H c H m c m m p N z p J L z m #.K z b m m z p b c G b p G H c N #.#.K B N B B N H c m p K B I #.r.%.K m L v p s c b L J %.K N N H G m b #.i S J #.o.v v H B m B B m y y K K m m v G m K H H v c K c c G G P r.#.i y i p G J I c c c L r.t.2.G y c G c i p B H c x N G m H o.B b #.J c z L H p p i ",
"p p - ; ; y s i i v p J H b m c 0 i z p N m 0 i i z c v G 3.H P J p z z c p y i c c p m i p p N m c p z c p i z i p z N G m G z c m m G G c z c v c p p i i c 3.2.G s L x 3.H I J G 1.1.P z l z c i m z t.2.P z y m m c m H K c 0 m c y z i i c y y i L m p N z i v p p z i p p p p 0 c v i m N N b p p p p 0 p i p i z z p z z i m H G c z z m t.t.L L %.N N m c z z m m y c H K c z N N p m B m i y 2.L N c c m m B K o.G G L m N m c i c m y ; z y z c y z i y z c m c c i z B N i y H m y z c m z B o.m N P v i z #.c i c p c m i p i a z i i m z p z z c c z L K m N c i i p z 1.J v m z G 3.m z z c p i i i L 1.%.G c p H N c p z c p i c x z z c m z p p i p 0 c m v b N v c z p v p x m m i i 1 o x y i m G L %.H J J m m z c p m m m p p v N c m H L c 0 v z y z i i v y y i L c p m z y p i i i y y 0 0 i 0 z z i G K H N z c z c 0 p i c i p z z m K v m K 1.i i i c H #.c G K N #.N z i p N v ; s G K z p N m p N G c y ; 2.L G s c v c m H H L P P c v c c i c m ; % p 1 c p ; i y ; i P G c c 1 1 m N < ; H c i i c m c N K c m #.L c N 2.G s ; = ",
"p ; % ; 1 ; i i 1 i < c p 0 i i c z z i c l 0 ; c x i y i v i c c i c v l i c P J J L L c c c m b y ; y i i i y 0 0 y 1 z z c i i m y i i 0 i c v i y 0 ; y v 1.G z i L 1.I J i G c y i p 0 i l i 3.3.J y.1.y.t.3.1.i y l N c l 0 N c 0 z 0 z c ; ; < #.c y p y i a i 0 0 y i l y 0 ; y c i z z i p i c i ; ; c i i y 0 y i 0 i ; m z p z y c G J L L v J G G 0 i i i c m i ; N z ; y B H i N H c 0 ; J c z c i 1 z N m m N m v c z p v a p i ; ; c p i m i ; ; ; i z z p c x y v m c i c z ; y z c z N m i ; m G y y v i 0 p c i x c i i ; i y 1 i ; 0 i y i c J N m c z z i 0 c s z c p i i c G c c v z y y ; i c L L v y i m m ; ; i i i i y y 0 y : z y i i i v 0 i l y i c v i i y ; y i l i 0 ; y - S i x c m P #.m c l p i l y 0 c c i i 0 c i v G G c i 0 m s 0 i y z a ; ; y L c y i y ; i y : ; 0 y i y 0 ; c J z z m l z p c x 0 0 m i p i y 0 y i i 0 c i i i ; i G i i i c G z L i y 1 i c G S a 2.G ; 0 H #.v J K m : ; K v c c y 1 i m z z L P x i i < x i i y < 1 v i i c i % ; ; i v z y i i ; c i i i c i ; - i J G K K J F 1.#.i i c z p % # ",
"; % . # 1 ; p i ; < x ; ; ; 0 i P c i 0 y i : i c i y i a i a m i y y i y ; 0 < ; G L t.L P L N K L v i i y ; ; ; ; y i i i i i c G i 0 ; ; ; 1 i c c i ; S G c i ; a L J G G 1 y y ; ; y i 0 i c 1.1.J L L #.G y.1.G G i y y i 0 c ; ; ; y p i ; - % G i y s i i c 0 ; 0 ; i i i ; ; i i 0 0 i y y y l a i c c y : 0 ; p i i i i J c m c z c i l c G c x J G y ; i i i c i ; c p < 0 N G z z m i ; 0 a i p i i 0 y c c i z c i i i y i p y < ; y P G c G c i y 1 1 i z c c v i c m c c i y ; ; y i i v m c < y y 1 y ; i y G c ; ; y ; 1 - i y ; < < ; ; y c c c c m c z p i i c p i c c p c m a c y i i < 0 < ; G L L s 1 c z l ; y 1 y y ; ; - ; ; i i i i i c G i y 0 ; : y i y ; 0 ; x ; 1 < < ; ; % % c x D L G G p y : 1 < ; y 0 i i 0 0 0 y i v a y 0 i 0 i ; ; ; < i i ; - % G y y i i 0 l ; ; ; ; i i i ; y s x i i i i y i i a i v v 0 : 0 ; a i c l a a y i i i v 0 : y J G L J J y ; 0 y i J P i L m 2 x o.#.K P K v ; < a i i i i y y c l y P G i a < - y S S a ; x L S m G c i < a D i p m c v i c v L J c l P D L J 1.1.K G a i p < < ; y ; < ; ",
"; - i - ; ; i i ; F F i i - ; y y i y < y i < : y y i < c i ; y ; ; < ; ; : x ; F P J G v i v m l c x i x a c l a c I P c i y c x c y ; < ; ; 1 c z a 1 < c i ; 1 ; S a 1 i i c ; 1 ; i ; y y < G I I z i D G G 3.G c P J < ; i i l < ; : : y ; - ; - G y y y i < ; 1 1 ; l 1 1 1 < ; 1 c a y ; 0 y 0 1 ; ; < 0 1 1 1 0 i y 0 1 y P c v v i y i ; l G c c I G y < i i i c y ; c c < y c c y i z i < a a z y i i i c c i 1 x z i i y 1 y i y < - i c z i c P x x 1 0 i v x y c z i i p i p y ; 1 x i i z c i ; ; a J i 1 i i c i i < ; - ; ; y y ; < < i x i y i x x c i i z c i p p z p v p ; i y y ; ; ; < c : l P P J c , y p y ; i 1 ; ; ; - ; 1 G J c i y x x c i ; < < ; ; ; ; ; 1 ; y ; ; 1 ; ; < - % P t.1.1 i c ; : ; ; ; : ; : < < y y i < ; , 1 ; < i 0 y - ; ; : < ; % ; ; J 1 0 i ; ; ; ; : ; i : : : i 1 i c i y < y y 0 1 ; ; < ; 1 ; y < y G i 1 : ; ; i c i ; < S D L c c L x < ; i i c L G 2 J c < p G c p c m s ; a i c y i i i z i a J L G i l < i 1.I y % o a c c i S L x c i - z D x < c c L 3.1.D G G P G I G G m m c < ; ; a i ; i i S x ",
"i y 1 ; ; ; : p a F i - 1 a ; y i ; < < y 1 - ; y a 1 < c i ; ; ; y ; ; < a J G L T.S ; ; ; i i i 1 x S i D S S J L L i < i i l i < < ; i L L x i i i < i a < 2 i l S i % - 1 G ; ; ; ; ; ; ; i D v P x i i D G J D J P i x x y ; i a i ; 0 ; 1 ; ; i L ; ; i y ; ; ; ; < x ; ; ; : ; % y ; y < i ; ; ; ; ; ; ; 1 ; ; ; ; ; ; ; P J l y i y ; < l J I L J x J l c c y ; i y ; ; ; % ; y ; 1 i i i 1 i ; i i i c y y i c s i y < i i i i 0 ; ; y S i < ; y v i a i ; a G i ; ; y y y y y i i < a x i ; 0 z y ; c W.W.G G c i i i x D a ; < - 1 i i 1 ; - a x ; i i i i y i i i y i s i c v i y 1 ; y 0 ; < a c i D 1.G x i < i p p 1 x c ; i i ; a S G i x c a x a 1 1 ; < x v : ; < i ; ; ; < 2 i ; % ; % P y.t.x 1 ; ; ; ; ; i i a i c i < ; p 1 < i i ; % < y ; i : ; % ; ; 1 ; ; 2 L ; < 0 ; ; ; ; ; < x ; - i i ; - 1 ; y : i ; ; ; ; i 1 ; 1 ; ; ; ; ; ; ; ; % ; < i ; - 1 G v x 0 y ; 0 : ; J G c P x - - - # ; y : y p z i < 2 ; y i i G a v G L L P c < i 1 c I x - # < F i < ; ; m 1 x 1 # x J 1 - c I L x : ; y i ; a P x < i c z ; c P F < 1 D L J i ",
"# # # ; < - 1 x P D ; ; y ; ; ; < ; 1 1 ; ; - - y i 1 1 < ; y x i x ; < D x s < c L < ; ; < i i i a G P x x x y x G x ; ; i < 1 ; ; ; x i D c y < y : < a 1 ; < ; c 1 < % o x x - - % % : x x G v L S x < i J x x S S x 2 D D 2 ; i x 1 1 1 < 1 - - # a ; ; < ; ; - ; - ; ; ; - ; ; ; % x ; ; ; ; ; - - - ; - ; 1 - - ; i i ; i i x c ; ; : ; 1 L c S J i ; y x a c < < < 1 - % % % # % - ; : y 0 ; < ; 0 1 i i 0 ; i p x i i y i i < y < ; ; F c ; ; ; ; ; ; 1 a % x v : ; ; i ; ; ; - y 1 < < < < ; ; ; < ; F I D c P D L y.y.L P v i ; - < x a a ; - l y ; ; ; < < ; ; ; ; - < i y x i : i c i c ; y x i ; D J %.G x i y i i i c D c 0 < ; 1 x J P L G D i i c x % - ; i i - ; 1 ; - - - - , - % % ; 1 D I I , - % > ; ; - ; ; 1 1 y ; < < < % ; < 1 ; % 1 < - i i < i y 1 a ; - # x i ; % - ; - - - ; ; ; ; l ; ; % x ; < ; ; ; ; ; : i ; y i ; - ; 1 ; - # - - 1 - % - < D I F D c y ; ; < x P c x a < - o X o o % - ; ; y y % ; ; ; D K J S c J m c x i 1 1 2 J G y % o D S : ; % ; ; ; 1 i o x x ; % y I J a - - i i 1 2 a < ; ; ; 1 < 1 i - ; m G 1 # $ ",
"% % - ; ; - ; 1 a c 0 ; ; - - - % - % - % % % % ; < ; < < ; < 1 < a < i c 1 - - x S - ; ; i 1 < i ; i 1 1 1 ; - a c - ; - - - - - - 1 x a a ; ; - < ; 1 1 - - - 2 < ; - # . # # % % ; x F F S c D x y ; ; ; a 1 ; 1 i x 1 1 F ; i F i 1 1 1 ; ; % % o 1 - - ; - # % % % % - % % < ; - < x < ; ; % ; ; - % % % - < - - J x x 1 1 1 < 1 - - - - P P x x x 1 % 1 1 1 ; - 1 1 < - # % - < i % % % - # < ; % < ; ; < ; ; < y < < 1 1 ; - < < ; - % D 1 ; - % - - ; 1 < % - i - - 1 1 1 - - - 1 1 ; - i < - ; a F x F a a x c a D 3.G i 1 i 1 < i a 1 1 c y ; i - % % - - - - % - % % - ; ; < < ; 1 1 < x ; - 1 < 1 F c a i < < c i ; 0 ; ; ; ; ; < 1 F D c x 1 < - < 1 1 < 1 2 < - - - < ; % % # % - % - # - ; o ; - o % ; x i - - - - - - - - < 1 - % % - 1 - < < - # i i < i 1 < < % % % a ; - % % % - - % - y a i a < - < S < < ; % ; : ; - - ; ; < - % 1 i - % % % - 1 - < a D I G I x i x i < 1 y a 1 1 , - % o # - , i % # % % o - ; < S S i x 2 1 < i < ; < 1 ; - F c , % o P 1 - - % - - - x P i - 1 x F P P v 1 < a D P J a 1 - % < a F 1 # # # - x i - . . ",
"1 a 1 ; - % % , - < - % % - % - - # % - % - % - - ; % % - - % - ; D a # ; ; % - i ; - % 1 F x i i y ; - - % - x x a - % % % - ; ; 2 1 1 < - - % % ; - < ; # - < a i ; - # . o o X 2 x P P x i D < i ; % - - 1 - % % ; < ; 1 1 - ; i ; - ; ; < - o % % a ; % - % # - % % - # < 1 < 1 % - a - - - % ; < ; - % # - - x S x < i ; 1 - - - % - % F x S x ; < - ; 1 1 - - - ; < % % % % F P P P < # % % 1 ; ; a i i , - ; 1 1 < , , < ; - ; ; % % , D < - % - % ; 1 1 - % % % % % 1 - - 1 < - < < < < F , , < c F x P a ; - ; 1 a c c 1 < a < - % % - - < - ; 1 - - - - % - % - - - ; ; ; ; - < ; - ; ; < - % ; ; a D a < - - < i 1 ; ; ; ; - < ; < D F a ; % % % - - - < 1 i 2 x x x i G 1 i y - 1 - - - % 1 - . X o . 1 x x i ; % % # % % % ; 1 ; % - % % - - 1 < % % 1 ; - < ; - - % - % a ; % % % % - % 1 < ; a x 1 1 % ; a ; % % # < < ; - % # ; - % a a % % % < - 2 P c a F D < F c 1 - - % i F i ; - % % % % o # F J P P ; # % o F x i x c a , - - 1 < < - - , - - a x % % , D F a % - % , F I I D P x J 3.L S x a 1 i x P F ; % % - - i a - # o % < 1 ; # % < ",
"; i < - % % % 1 1 ; % % - < < - - # - x < - % o % # o 1 1 - % % 2 v # - < # % % - % # - x P a y ; ; % % # o a x i i % % # % % - % - % # % o % - # % % - % - o 1 1 ; % - # X 2 P D F D D i i i a F 2 - < < i a ; # - - - % % o o o , - % % - ; - % % % < < ; % % # # - # # # < < % % # o < % - % o % % o # % ; i x D x % - - % % % # - % ; - x F a 1 ; ; < 1 1 - # % - % - % % # - < 2 a a ; % < 1 - % ; ; - 1 ; % ; ; % % - - - - - - % o o a F % % o < % < 1 , % % o o % % < - - ; ; 1 x a 1 < < a 1 - % < a P x - < F ; < i 1 ; 1 x 1 - % % - < < % % < 1 < - - - - < < < - % - ; - - x < % - % % % % ; % 1 x a % % - - < - - - ; < < 1 - x c a i % # # # # % % ; % # ; x a i a i 1 D D i < 2 1 - x D < X 1 I P I a 1 % - - < < < - < 2 < % % % % % % % - % o o - - % % % % % # # % < < - # % # % - < - < 2 < % % # # < % % % o % % % % % - < - - 1 - - % # - < i x i a x a % % % - - ; < 1 2 - % - # % % % o - 1 1 x F F 1 F x c < < ; % 1 ; % ; ; - % - - - - - < - o o a F a F # - # , P P a D a F P S J F a < - < i c 1 % # < < - - ; - % - 1 i < ; % - % ",
"% < - % - - , 1 < - , < - # # # % % - , < # o X o o o x < o o # - # # # o # # - , # # F F x i < - # o % # - < - ; # % # - - o o # # # o % > - - # - % - # o - a , # % # o . F I x x 2 i 1 < : - 1 < - - - - - # % - % # o o . o % < , - % % % # # % # . 1 x 1 x < - - - 1 < - # o # # o - # # # % # o % % , a x 1 ; - # # - - % # # - # - - - - < - - - # ; % % # # % % % % - % - o - - - , < 1 i % # < ; % i ; - # # % % % - % - - % - o % a < % % o < o - < # % % % # # % y 1 1 i < , 1 , - < - < - % % - P a D 1 a I a ; i ; ; 1 ; - ; < 2 1 < - - < - % % # % % - < 1 - % # o % % % - - % % o # > # # # i 2 < % # - % % ; - < ; - ; % - < < ; % % o # % o % ; # % % i x x 1 x x < D x 1 1 x 1 x D F - . I W.P F < - % # > % ; ; - < ; # # # # % % # o o . o % < < - # # % % # % # X # # % - - o - 1 2 - - # o o o o - # # % % # o % % % - - 1 - % o % x 2 D x < a ; % - % % # o # % # , % % # # % % # # % o % # x a 2 x 2 a a % # < - % i ; - # # - - , < - - , 2 , # % a < - , # < o x P D x 2 a a a 1 D P x < % % < 1 1 < < 1 ; - - ; - % a ; i 1 - # # # ",
"% - - % - ; % o % # < ; # # o o # o o - # o o X < % - 1 % % o . . . o # o a F x F c 1 P P a ; # o # # % o o , - o o % # o i o o ; - o - 1 1 % % # ; % - # o % ; - o # o o X 2 F % - ; # % - - - ; # o o o o # # < < % - - o o o % < 1 - o # % % # % - % x a < , % # # - % - % o # o o % 1 < % # % < < % ; x < a % % % o - < - % # % - % # # % a < < % - # - % % o % % % # % % - 1 o ; - % % - - % % - 1 ; % a y ; 1 < , - % - - ; - % o o a 1 % # o % ; % % - % % - - o X # i a 1 ; - ; - % - - % o % - % % 1 a 1 % % x i < < - < ; % % % - < < ; % , - o % % o # o o - % # # o < - - - - < % o o X # # o # % - < % % 1 < ; - % - ; - % % o ; - o o o o o 2 - 1 D a ; x D a - : < < - 1 i , % < ; F F ; o . F P % # % % # % % o - i y - # # # % % % # - ; o o o - 1 2 ; # # o % # % o X - % # o # i - 1 - o o o # o o % i < % # % , x 1 a - % - < - % % ; < - % a x D - # % # % % % % # o - % o o % o % # < 1 x D a x < - % - % # % - 1 ; # a 1 ; < < < < % ; - ; , % - , a 1 % o o o - < D D < - < x < % % a x i ; < < - < 1 < % % % - % % # , a < 1 x 1 % X . ",
"# - - - % % % % % % % # o % % o o o o o - X . 1 F x F F x x o . 2 1 . o X < D S c a i P D v ; # o o % % o < < % % X X o o o o . # o # # ; - o # # % - o o o o % o o # o o . , D : < - % ; 1 - o - % o # o - - - < ; < < % o - < 1 a x ; # 2 < # o # - < D < # o % # - - # % o - ; o o - < ; # o # - % 1 i a < - % % o o # < - # # % - o - # x P D - 1 % % 1 - % # # % # % o - < < % - % % - - % % % - < ; % 1 i 1 < 2 % % - < - - o o o a 2 , % o o - % % o - o - # % % X , 2 1 ; ; % % - % % - # o ; - ; < 1 a < - o X a 1 1 - - < # # # - 1 ; - % % % % - # o o o o - - o o i D x F F F x - X 2 1 % o % o o % % % % 1 a y ; % o o - - o < < o o . o % - - < < 1 - - ; 1 1 - > # % o - - % X o o : x 1 o . F D # % o # o % % - S a < 1 - # o o o % ; < % o - 1 2 x x ; # % # o o % o % x - < a a 2 < - # o o - ; o o - 1 a ; - - x S a 1 - % ; x - % % - , - o 2 1 a # % # % o o # , o % a o # o % 1 x F a c x 2 - ; % # % - # # o - < ; % 1 y 1 , 1 # % % < , - o - - x 2 , % o o % - D P P < % o % % . , x a y ; ; , < < ; - % # ; - - 1 1 1 < - < 1 1 - - % ",
"% - - % % # % % % o % # o % % - - - - - < 2 < 2 < - - % o o o - F x x a F a F x i < < i 1 1 - # o o % ; 1 < % o o . 2 2 - . . X , X o o # # # # - - , % o - o . . . o o o . , F < - o % 2 < - % - o # o # < - % a < , - o o % 1 2 F a 1 ; 1 ; < % < < i F < % % % # % % - - , o o o o - - # o o - < < ; < - # # o o . o o - % % % % - o o < F D F , i % % 1 % - - o - - # o - - # o % o % % - - - o o - % # y i < % - % o < , , % o O a x % % - % - - % o o # % - o o % < x x - % ; ; % % % % % # % 1 1 , - - < < - # o F a < - % - o o , o # % # % % % < < % - - - % - 1 < ; i < - - - # o o - D P J x - - X o o # % 1 x ; - - o o % < < ; o o % o F F 2 o o % 1 X % % % % # # % - - o . - X . X - - % o o D D 2 % o o - - - - x 1 % % # o o o - - , - o o - 2 1 F a % # o # o o o X 1 F a < a < - % % - - ; o o o o - x x ; % - a - # - % % a x - X o # - - x F < % % o # o o % # < - % < o G P 1 D D < < < < # # % o o # - % % o # - % # 1 i < % - % o ; - - % o , F a % % - % - F D P P F < % o o % < x x , % ; < % # % - % o % 1 1 , , - < , - , < < - % % ",
"X % % % - % - < - % o o # % % - - o # % < - # % < % o o - x x 2 D I G I W.I D , % o - ; - # % # o o - a - o X X - x F x F - . 2 , X o X X # # # - - - - % x x x x < o o , X % a % o o % 1 - - % % o # - - % % < - % # % % # % - - < x < , - - % < a x F 2 - % - - # o o % - # o % # o # % o o # % < 1 ; ; % % 1 o X . o - o # % # % ; % % x F 1 ; a i # o 1 % % - % o - # o , , # % - % % % - - - o o < # o ; < % - % % o 1 - - % # % D - % # % # % % % % o o , % % o # - o o o o ; y ; % , - % # - 1 < ; - - < ; o % F D x - % % % # o ; % % < - % o o # - % - - o o - - - # % < % % # % o o , D a % x D F < o X < i i - - % - % # - a % o o o - x D F D - . x , o o o o # % % - - o o o x x F I D - o , X . 1 % o % - ; - - % - o # % o o % - % # # % o o % < - < < % o o o o - - , x 1 < ; % - # o o % - % # # # o - x - o # - - o % - % < a - X . % - o % x F J - % o X % o % < < x F I P L J x < 1 - o , - # % - % % % - - % # # < # o ; < - - % % % 1 % % % o < P - o # % % , F D x 2 ; 1 - x < o - o o o o ; y ; % - - % # ; 1 1 ; - % - % - < % % ; - o ",
"# % % - % - o - - % # o < - % % o o o o % o - o , % o o 1 1 1 x I x x 1 F x P P F - - % o % % o # % 1 < o X o x a a 1 1 - % - , X X . . X X o o o o % o - - - 2 F x x F F 1 o x # o o - - # o # # # - < ; % 1 - o o o o # # - ; % % % % o X X x F D D a % o o o - - % % o o # # ; o o # # ; ; % ; % - # % % , 1 % X . < o o o # % % % o < 1 a 2 1 1 < # o 1 ; % - # o o o o 1 < o % - o # < 1 % # % o 2 # o # ; - % % % - < - % o o , D % % - % % % % % - # o 1 - % o - - o X X X % ; i 1 , % % - , 1 < - F a x x 1 - 1 x x - % % % - - % o o - ; % # % < ; # o o o o % % o o o < % # # % o o < - o o o - ; x F x ; % # o % % % # % < < # o o x a x 2 1 ; - ; , o X . . X o o # o o % - < - - 2 I L S x F o   a o o o - % # o # o o o ; - - 1 < # o # # % o o - # # o - o o X a F x i x , ; - o % % # # o - - % ; # o - # o % o # o % # - % 1 1 % X . 1 o o a F a 1 1 % o % - , - , D P P y.G D F F , % o o 1 < o % - o o < < % # % o 2 % o % ; - - % % - < - - # % 1 D % # % # o % 1 2 1 < < F < < ; % - o X X o % ; i < , % % - < a F y % % % o o # o # ; ; - ",
"< - o % % % % o % % % - 1 - % o # o # - - - - % % % # I I D P I D 1 x 1 i , < ; - 1 < # o - # o o < , o % o P P - % , < - - < x x o , , , 1 . X . X - < , - - - - # - < < < - x i # o - % % o o % - - < % o - - # % - - - - - % # # - o o X S x i a # - o % % # - , # # # # - - # # - - o - 1 % - % - # # % # % o o x P % - % - % o % < 1 - , % < 1 # # o < % - - % # o o o - - o # - o o # % % - # % ; % o # < - - o % % - < % o o , x % # % % - - , < - - - , - % % < < o X , < < ; i y % # % % - - % i I G a < 1 - % o x % - < - # ; % o o o o % % , x < % o # o o % - % % % % - % % % % - 1 ; o # 1 x % # # % 1 < o # - # # o , - o % o P P - % < < - - < x x o < , < 1 o o % < ; 2 , - - - < - i < - o X F x # o - % # % # # # % < % o - % % # - - o o o # % % ; % o . F x - % - F < 2 ; % ; < # % # % % % % o % # o - < # o # - % % % o % o o x D % # < F i < x , % ; D < X a x x x I x 1 i 1 i - # o - - % # - # o o - % % # # ; # o # < - - % % % < i % o # 1 x % # % % - - F a % # % 1 - # - < < % o , < < ; i y # # % % - ; < < % % % # % - o . < - 1 ",
"y # o % % % # % % % % o % # % # % % o # % % % % o % 1 D D J D I F i < x x < < - % % < - - % # . a x - o % F D - # o o - % % # # 1 x D P I I x o 1 x F - o o # - - # % # ; 1 - o x % - < % % - % ; i - ; % % - % < ; 1 - - - % < < i ; % . 1 F ; 1 - o o o # # % % % % # % % - - % % - ; % < < % o 1 < % - # # % o - i J 1 < ; - - - % - % < - < < - # # # 1 - ; - - o , % o % % o o - % # % % - % % % % - X # < < - - % - % - - o X 1 a - % % , < - - - - - - - - - % % , , - % < - # ; y % o ; % - % % x P 1 1 % - - o o 1 % - ; % # % % % % % % % % % - - % # # o o % - % % o # - % % % % - 1 % - a F x - % < ; < F x < % # o 1 < % X % F P < - o o - - - - # 1 x D P I I F - a F D - o % # - ; < ; - % 1 x a P - - , % a 2 - % - - 1 - % % - % % a < # % o < < a ; % . 1 x - % 1 < a 1 < ; ; ; ; - # % % % % % # - - # < , % o < < % - % % % o - 1 F , 1 G P D a x 1 ; i - % o ; a < 1 i - < ; < ; 1 < % - % % # - % # % % - - % % % ; o # ; < - - % - , , ; % o 2 2 - % - 1 < 1 x a % % o o o o # % < 1 - % < - % < 1 # o ; % - % % - % % % o % - % o - - y ",
"< % o ; - % - % % % - % x 1 1 - - # o % % - # o # - a 2 ; , 1 i < ; < ; # % % - - % 1 i ; % % % F 1 , 1 G F ; % # o o < ; % % o o - x F a i 1 < , a 1 - - ; % % % - % - ; < # X x % # % - % - - 1 < % % % % - % a a - - # < 1 i 1 - - o 1 D 1 - - % o o # % a < % % % - - % % - < 1 ; % o - < - % < 1 % ; - % % ; 1 % ; ; ; ; - ; ; % a - - % ; - < # - ; c < ; % % 1 1 % % # % % # - % % 1 ; % ; % X ; % o o % < % % % % # o % # # a 1 ; % % < < % % % % % o - o o # - < - - % # % % - ; - % 1 - - o % D c y < % # % # . o - % < - % % - % - % - 1 ; % - % ; - ; # # % % - - o % ; - a ; - x D 1 x x x ; % - i 1 1 F P D i ; o 1 - - i P c - # % o o < ; % % # o - x F x a i a a D a - - - % o 1 < ; % - < x 1 F ; ; < a I c i i D a < % % % 1 1 1 x D 1 1 F D 1 - - X 1 F x ; i 1 1 % - % ; < - % % % ; % % - ; < ; % o ; - % # < i - ; - % % ; ; # % J P D P x y ; < % ; % % x 1.W.L x x , ; % % < 1 - - % % % # - - % 1 < - ; % o ; % o o - < - - % % % % % % < x 1 < % % < < % a < o % - ; o . o % % % 1 < % # % ; : - % ; % - # % ; - ; ; # # % % o o % ; ",
"0 ; - i 1 - i 1 % ; - a L S x 1 1 x , - - % # % - - : ; - # ; ; ; 1 ; % ; - - - - y x i ; ; - x i i F P D 1 % % - o , < ; ; # - , , < < % - % < - x x % - < - % % % - ; - ; % o 1 a % % ; - % i < - ; % - ; % - < 1 - % % % - ; ; - ; % D x ; - - ; - % % % i < % ; ; ; - % - % % % % % # # ; - # - y - - - - - 1 ; - ; ; - ; ; ; ; < x % % # ; i 1 - - ; c ; % ; 1 a < % , # % % # - - ; < < ; < ; - i ; % - ; # % % % % - % % ; - ; ; % # o ; < - % - % o % i % o F < % % % - < 1 % ; ; ; ; ; % o % 1 c y - < < 1 < % X . - % ; - - ; ; % - % 1 1 ; ; ; 1 y - % - % ; - - % o < < i v i ; c a 1 S x ; ; ; - ; - ; i x c x 1 x x s D P D i % - - o , < : ; % ; < , < < - ; - < < D x - - < ; ; a i - ; % ; < % 1 c 1 i x G v S S D J 1 ; ; 1 F 2 i c : < < v c ; - - a I P S a a F , % % - < ; % ; - ; - - ; ; # % % # o # ; - # - 2 - < ; ; % ; ; - i L 1.G c a ; ; < % % # x 3.y.1.L v G x 1 - 1 a < - ; # % - < , - ; 1 < ; 1 ; ; 1 - - - % o # % % % % ; % i < ; < % o o ; ; - < 1 , < F P < - F < % - , < a a - - ; ; ; ; % % % , a < ; i a x a < o # # ; ",
": y i i i x D i < ; y a L J P x x P 1 % ; x - % ; < 1 1 S x v a i ; ; ; ; ; x x i i : 0 ; ; y x ; x x i 1 i % ; < i - % ; ; ; x i % ; : ; ; - < ; ; x % - - ; - ; ; ; 1 : : 1 o . c % < ; ; c S y ; ; - ; ; ; ; ; i ; ; ; # ; y ; ; % D c y ; < < ; - % # ; ; - ; ; - ; ; ; % ; - # o ; % < 1 - # ; : ; % 1 0 ; ; ; % ; ; ; ; ; = i y : ; - ; i c ; ; ; ; i ; ; < x y - ; < < < - % % % ; ; % ; y i ; i y o ; ; ; % o - - i x D G F a ; % . o ; y - % < ; o , i < a D ; - - % 1 a i 1 ; : y ; ; % # 1 i i a ; < ; i i - % 1 - # - ; ; : y - ; % < ; ; ; 1 i ; - ; ; - - ; ; % - i 1 a i : ; c c x i ; < 1 : i ; ; ; ; 1 1 i i x i L P s x a % ; 1 i - - ; : < x 1 % ; 1 ; ; ; < : ; c % - ; x i y y ; y ; ; i % . F i i i a F i y i i a i i i v c i i x ; # ; i ; ; - P x < x i x v < % % ; % ; ; ; - < ; ; ; ; % # o - # a F : - c S x x i i y ; ; ; y c l i 0 = i 1 ; ; - ; P I y.I G F G x c ; x 1 ; ; < < 1 ; % ; - < ; % - y i ; a i # % ; - % # ; - 1 x D D F a ; % O o ; y S F a 1 - D J a x D - - - - i a i i 1 y 0 ; ; # % 1 1 i < ; a i a x < i a ; ; ",
"i i i y y c v x 1 y x y i v v c i S ; ; F D ; - - F L L P P J x 1 ; ; : 1 y l c c i < 0 0 ; m c < a i 1 y y ; y v c < < a 1 i i ; ; y y ; ; i i < ; i ; ; y y ; ; ; : ; y y i ; . ; ; ; ; G J c y ; 1 1 < 1 1 < ; ; y ; < ; i ; ; ; y F ; i 1 - ; 1 ; i y x ; ; ; ; ; y i ; ; ; : ; a x % < i ; ; ; ; i < x 0 ; ; ; ; ; ; 0 ; ; i i i a 1 ; i v c y ; y ; i ; ; i i , ; ; ; 1 y ; 1 - - < ; ; < ; y y y y # ; y i < x S G a x v c x G S ; % X y i < 1 < < # < < % ; ; - ; - 1 i 1 - < c c c y ; < i 1 G v v i i 1 < < < ; a D F i % y 0 0 y y < ; ; y 0 ; y 1 ; ; < ; ; : 1 1 ; x G i i ; ; a y y : 1 y y ; ; i i a y i i 0 m c a S x a a l i v J J 2 1 x 0 i i ; < i i ; ; i i ; ; i 1 ; a x x ; ; y ; 0 < i ; . 2 < ; 1 i i 1 ; < i i y y y i y 1 y y < ; i 1 i ; a x ; ; i a G P D x i i ; ; : ; ; i i ; ; ; < ; a F x J L D x S a i i l i i < < ; ; ; y ; ; i i ; y ; ; ; y J G J c c c y i x a < ; < ; 0 y ; i - ; < , ; < ; i y y < o 1 L I I L P D x x S c x G S y ; % i c F G v x % a 1 - ; ; - ; ; 1 i < ; 1 x y y ; ; < i 1 ; ; y 1 i : < ; 1 a a a i ",
"i i 1 y i y i p y i c i i z c v i ; ; ; i : i 1 x t.W.L 1.I L i i : i i y i c c p i y y z N L L S x c z p < i z m i 1 i c z i i < ; y y 0 0 z i : ; c z y v z i 0 i z 0 i i z ; % % 0 ; i c c i ; 0 i i i i i i y i l l y ; y y 0 ; c ; i l y ; 1 ; < c c z c c c < y y i i ; ; i G L L y y c y ; 0 i y 0 i z y 0 < ; 0 p 0 i p p z y i y p i z c z i i 0 a i c i y c m p m c 1 y G i < ; < p c i c l p p ; p c ; x P L G y ; i v l c m i ; i i c s c p i ; < % % 1 y - ; 0 x i y < y c i 0 ; y c c J J L J m G v i ; i ; ; D D c ; ; y y 0 i i ; ; p : y i i 0 y y ; ; ; 0 l c 1.%.v p i i i ; i i c c i i z c z p J m N z H L m c c m z y c J K c x S N z p p 1 ; i y y 0 z z i 0 v c y m v v i i c 0 p i z ; o X ; = # 0 ; ; ; y p z z p l p y 0 i z i : y l i ; c i v m v F x v i m m c c i z i i c z i y 0 z S P L G m L c y y y 0 0 z z i i y y i l c c z c z ; i i p 1 i G L c i y x i v c i c G c m c y y G i 1 ; % i c y m z i G L W.W.y.y.3.L J y < l v z c J G x x c m G L J c < i ; 1 i < - ; y c i 0 ; y i y ; ; y c c y ; 0 p z G i 0 1 i < ; i x ",
"i y ; y a : z z i 0 l z c z m z z i i < 0 l z J t.E.t.L L K G m c c z z z c b m N z z b o.o.r.%.H p c N z c z N N p p p N b m z p i l p p p z b L H K m z N b z z z c p i N c y ; i S z L L G i ; ; z N b b N b z i N m z 0 l l p c K y m m c i i 0 p z z z m 1.#.z i J G 0 y i z c p m p 0 G K K c i i z N N z N i 0 z b b b b V N l l N m z b H B m i p H m c ; i B G p $.-.m p o.N s i y i B N B N B m J 2.G s J #.N p p ; c K J m m c ; c v b B H } B p c i 1 c i ; y z G m z s N c z z c J z J y.J #.L J c z m c J i L L P c ; # ; i < z z i i i z z c z m c i p y 0 z m G %.2.H z z c z p c c N z z m b m m K %.o.o.B &.%.H c c N m m m H H z z m N m N G m c z p z z b N z z H m b B N N c m N z p m c i < a D i c J v p ; y m B N N B N b y G m z i z m c N L i N N K J c i G K N z N N N z p z b i p p c i z G B p J B N p i i z B B b B p i b H r.s.2.u.B y l N m K 1.r.%.m y p G G m y i B H z &.q.m i #.m s y o i H m H m K 3.T.E.y.1.L #.m c z ; c H H L 1.H i v v m o.%.$.H p v i i v p ; y c N m z i z z b z G J c p i i N N K G z b z p y 1 y z ",
"N K J P B 0 z N m p b N N B B o.B G G m c c B R./.Y.Y.s.&.K K o.o.B B N B N K ) C B B &.+.g.N.i.@.m b B o.K o.+.+.N N B ) B C B B B N N B B C H r.s.r.+.) +.o.+.B o.C N N o.N m y W.%X%X/.Y.s.9.y % b B +.) @.@.+.b #.B b z p b K %.&.K K o.o.K N z B B b N B o.+.o.B r.%.B 7 N c m m N B K r.q.o.B b +.o.$.) ) o.o.m K +.N ) B @.O.B z ) ) B ) i.i.$.N %.N H B z z -.H z ,.@Xm.o.+.H o.#.z p O.q.} $.O.B G @.@.o.,.&.N B ,.N q.~.a.o.H K z G G L #.o.,.O.o.H i m C m c c o.%.o.K K B H ! +.%.+.H s.#.%.$.B B o.! K K N c T.1.d.f.d.J P N i z N m p b N B B C ) B K o.H b H K +.o.#.&.o.o.B B o.#.H B B +.) o.B K &.&.u.&.f.N.i.@.m b ) +.o.) @.@.N B o.@.o.+.&.$.o.} H B C ) +.B ! +.@.o.@.O.$.C +.o.B B +.N J v E.%X}.R.Y.Y.p.z p B o.@.+.-.@.q.B %.C N z B o.+.&.%.K B #.s.u.2.%.u.+.o.) o.#.+.+.N o.H +.q } K G 2.2.$.N o.,.o.C m @.o.q.o.+.+.o.m K u.&.f.d.w.o.N c +.p.f.!.%X!.,.H r.#.#.K m c q.o.N i.yXF.} #.H #.#.l i #.,.H o.g.d.T.a.u.O.%.2.b N ,.J p._.!.2.K o.b #.J L %.@.4.O.O.H m B K B p c o.+.o.B B B o.) +.&.&.! B z K +.} C o.C o.B m c c c m ",
"$.u.f.f.2.H #.$.o.) ! B } +.o.@.+.+.+.o.N K /.+X_.a.f.u.u.$.o.@.+.@.O.O.O.%.+.,.-.@.@.,.f.a.'.'.B.O.o.@.@.2.p.~.i.$.O.,.,.@.,.0.O.O.o.+.O.,.@.O.$.,.! @.,.q.,.w.O.,.q.q.q.i.@.o.c }./.f.q.,.@.a.d.2.p b +.q.a.a.i.o.o.o.K b o.f.N.a.i.w.O.@.@.@.O.) O.O.O.O.q.O.,.q.,.f.q.u.@.&.%.B B ! O.@.u.i.-.+._ i.,.,.-.@.,.,.@.,.m.w.q.O.i.i.m.w.&.i.@.m.[.[.F.D.i.,.N K +.q.{.q.B M.VXxX$.#.$.-.XXi.B @.N.+.i.i.H i -.o.o.M.a.B +.O.B N.iXeXm.H O.O.&.J &.&.@.,.O.B.4.y B q.%.H #.@.i.q.) +.! ) @.@.@.w.u.!.u.o.O.O.+.,.0.@.o.N N !.p.!.).!.~.d.r.H #.@.o.H B N o.o.O.@.@.&.+.H K @.q.&.q.&.p.,.,.@.o.0.u.u.@.o.,.q.+.,.a.f.f.m.~.D.XX{.F.+.o.-.,.$.q.'.m.$.@.q.q.,.q.w.q.-.O.@.,.q.&.-.O.@.o.w.w.e.w.w.@.,.w.i.q.N.p.r.K }.Y.i.q.w.w.D.!.s.N H @.q.m.N.a.+.O.o.%.&.u.).^.m.q.@.K u.u.q.u.u.i.q.,.,.a.,.,.w.,.a.q.i.,.a.H o.u.u.u.O.,.e.w.O.O.m.w.w.q.O.,.q.u.N.[.D.D.p.V.q.p.i.f.).!..XlX@X'.^.!.!.K &.&.i.XXN.%.'.DXlX,.%.%.,..Xg.H &.F.o.p.!.3.S 4.N o.i.i.b K +.H h.%X%Xf.H +.o.f.%.#.%.u.q.@.~.i.p K q.%.N +.@.a.q.o.O.) O.-.-.w.m.O.@.+.o.@.@.+.,.0.-.+.H H #.o.#.",
"q.q.i.a.!.F.f.f.a.p.p.u.q.m.,.@.+.H +.o.H f.$X$X_.@.q.+.q.$.+.&.@.@.,.,.+.$.@.N.@.+.@.a.i.i.~.5XF.,.q.a.,.,.a.^.D.&.,.q.q.q.a.w.q.@.O.+.-.a.w.&.&.,.O.+.q.m.i.e.@.q.q.m.a.D.&.K o./.&.@.,.,.w.m.f.h.f.K z +.N.a.H o.o.B $.~._.f.e.,.m.e.@.@.@.q.@.@.O.w.w.a.D.m.q.w.q.w.N.N.i.i.%.} o.o.+.O.q.w.B.e.@.F.F.e.e.-.a.m.w.m.F.w.m.a.N.'.[.XXm.q.,.N.eXD.e.m.i.D.H N ! w.yXp.o.XXBXpX,.K O.a.lX~.O.q.F.i.m.p.m ; H H $.a.o.N ! O.C a.@XBXXXH H ,.!.%.&.i.4.o.o.eX).i B _.#.m @.w.q.@.+.q.i.%.O.@.@.&.!.f.&.&.u.q.+.,.q.i.&.N o.&.a.i.a.w.i.N._.^.f.f.p.&.2.u.&.f.,.,.@.@.o.o.%.@.a.j.u.q.,.,.w.&.+.@.-.@.,.q.+.@.O.~.f.9.u.~.a.w.~.rXF.@.q.m.,.@.i.^.G.&.,.-.,.-.a.q.q.@.+.+.q.m.e.@.w.q.&.O.w.e.i.q.@.q.a.i.a.D.i.+.%.!.$.&.q.i.m.a.a.f._.&.N o.i.u.o.o.o.+.f.OX)._.w.-.,.&.o.+.+.&.O.&.O.,.q.a.D.m.,.,.@.q.m.D.i.w.H H +.&.@.O.q.q.m.e.O.D.N.w.,.&.D.D.N.~.[.D.D.i.f.N.!.).N.,.O.N.#XN.a.m.f.~.#.B o.q.XXN.@.XXCXxXp.o.$.i.tX^.o.u.F.,.!.!.v - p b #.u.%.%.$.C K u.).kX).m G %._.r.2.i.u.o.o.eX).c K _.#.c @.i.q.@.+.q.i.&.@.-.w.,.,.O.O.,.,.q.@.q.e.i.w.+.o.$.-.&.",
"@.q.w.,.o.@.+.&.4.u.u.i.p.N.u.&.o.m B B %.p.!.f.q.+.C @.&.o.K +.@.O.&.@.O.B u.p.@.} o.q.,.,.q.J.m.@.@.q.,.u.w.i.q.@.O.B -.i.,.-.! &.q.) -.@.,.o.$.i.+.B q.@.i.-.O.) q.@.,.O.K J E.R.$.+.O.@.,.q.,.#.4.!.).r.+.@.N 2.).!.f.D.,.) o.@.q.@.+.+.O.O.,.,.@.@.,.@.M.i.w.O.@.w.D.F.a.f.!.f.$.B o.O.+.,.a.@.! m.k.-.@.,.,.w.e.<.e.,.o.O.@.i.N.F.-.+.,.N.!.,.@.@.-.m.o.N ! i.F.,.@.cXyX@.o.o.i.V.{.,.+.,.,.w.u.o.c b o.H K $.+.o.O.! o.i.D.XX'.K H f.f.K o.%.+.o.@.@X.XN +.q.H z +.,.@.@.o.i.p.2.&.o.+.#.!.$.u.@.,.@.! @.0.q.+.&.u.#.f.,.@.&.q.,.o.@.$.$.4.2.&.d.Y.f.p.&.K H B C +.+.@.+.+.o.N +.o.+.K +.@.) @.@.O.B &.N.,.H ! u.&.@.,.F.e.o.@.,.-.,.,.w.q.+.+.N @.q.q.@.! @.&.) ,.@.,.+.,.w.@.B &.@.q.O.+.+.i.i.q.$.@.m p.d.+.+.$.@.@.@.$.o.u.!.!.2.o.+.B %.!.(.(.!.4.+.) O.+.+.o.&.$.2.u.,.#.@.O.@.a.i.q.+.) @.D.a.w.@.%.u.,.N B o.o.@.w.O.! p.f.a.f.f.D.m.a.i.e.,.+.@.&.,.a.!.,.+.o.p.g.$.$.O.@.m.o.N } w.N.i.,.cXyX&.o.#.a.N.{.,.o.,.&.u.!.#.x c H m H s.R.R.f.B H r.j.).N.H m g.g.o.#.%.%.o.+..X^.m +.q.G z o.@.@.o.o.i.p.9.$.! @.O.q.} p.i.,.@.o.@.q.q.@.$.&.&.a.&.",
"$.+.@.$.o.) ) B B o.o.o.$.+.B H %.H K %.#.&.s.&.%.L B #.o.K N N o.o.o.+.K &.!.(.!.f.%.$.@.O.&.w.q.o.o.,.&.@.&.@.@.o.+.B &.q.o.K N q.%.! +.-.@.N o.@.N B H o.,.q.,.K K o.o.B +.s.+Xr.+.o.) o.) O.+.o.+.@.f.+X(.) H 2.!.$.o.+.@.B o.%.+.+.) ) +.+.+.+.o.-.@.+.i.q.O.o.) w.,.,.&.2.s.s.%.s.s.&.V O.a.B b ,.q.) +.+.@.q.+.} O.+.B o.o.B +.-.+.B r.d.$.H B w.m.q.B b O.q.w.-.w.5Xo.c #.} $.o.&.#.o.,.@.$.%.H b H N b N H B o.@.o.o.&.&.,.i.O.H u.u.o.H K ) B @.N.f.H +.+.N c B +.o.+.$.@.,.+.o.@.o.s.f.4.f.u.o.o.B &.+.&.B r.r.o.p.+.+.&.@.+.B ! B B B o.o.+.@.+.o.+.#.K $.&.o.+.&.O.L K N B K C m C o.} B +.o.o.$.u.q.9.B K +.o.O.,.i.B } ,.@.o.+.O.&.o.o.N &.q.o.B N &.$.B +.@.O.N @.@.) N +.+.&.u.u.&.&.@.O.o.+.%.!.%.+.o.! } ! ) +.o.+.&.f.).Y.B H s.(.u.+.+.+.B ) o.o.C &.$.%.s.u.+.+.&.@.#.i.,.@.o.! ,.,.@.} m %.s.o.H H ! B B q.N %.f.m.u.&.&.q.i.+.o.o.+.B o.o.N o.@.o.B Y.Y.&.C B q.p.,.N b +.,.q.-.i.tX+.c $.} #.o.%.#.o.&.O.s.t.G p G s p L s.s.2.r.+.#.s.&.+.&.K N r.u.o.J o.o.H +.p.p.G o.#.m i N K B K o.$.%.+.B +.#.@.@.+.g.u.$.o.N +.+.@.o.$.O.u.f.&.",
"o.+.#.+.H K %.%.&.r.%.o.C B H H G K K 2.%.2.p.r.t.s.r.2.r.H c 1.r.o.H K p.Y.(.!.d.i.u.$.u.&.$.u.,.o.B +.+.+.o.o.+.+.K B %.o.B N K &.o.K B @.o.B %.o.K H J L q.$.%.o.m N N b K s.d.o.o.K B o.B o.K o.o.o.@.+.&.o.H r.u.H H B o.H o.$.o.o.) ) ) ) ! B N o.@.$.,.o.o.@.N o.C @.N N K o.#.d.%.o.B O.u.b z q.O.K ) o.C ) B C o.o.N C B o.&.B K B 2.r.4.o.V i.i.o.B O.'.-.,.o.@.@.y p +.B B N o.$.$.$.,.K G m B H b p o.%.b p B H o.%.o.+.a.,.B $.o.K o.H N m ,.q.$.m o.H N c N +.+.o.o.+.o.H o.o.$.r.d.$.$.&.&.#.o.o.o.B B } o.B #.) B o.+.! B N B N o.o.N B B N N B K K o.o.o.o.%.o.H G K m K N m B B B B o.B m +.o.K o.B b ) C o.,.@.K N ) o.o.B o.+.o.B B %.#.B N C &.o.B B @.) o.@.+.o.H 2.&.u.u.u.$.C ! o.B H r.r.+.+.B N B B H C o.o.) o.$.&.&.2.Y.f.o.o.V +.B N B o.H o.B B o.o.} H o.O.%.u.o.) @.N o.m %.B N N N H G B o.$.,.(.#.K f.@.+.o.#.) +.B C o.B m B N H u.o.o.%.2.r.s.o.V i.i.! B +.F.O.&.) -.,.y y o.m B N o.&.$.$.q.2.L c m H L P r.s.H m H o.&.Y.s.%.f.u.N %.o.o.K H G B @.,.+.c K K G l z o.o.H B o.o.+.o.o.$.o.o.! #.+.o.B } o.N B ! o.+.&.2.#.",
"+.o.$.o.K o.r.#.$.$.$.o.o.B N K #.%.%.s.s.p.s.&.o.&.+.L t.%.1.s.s.%.H %.d.s.!.R.&.r.r.L r.&.&.&.+.B m B B K B +.o.o.B H o.B N b H o.B B B +.) +.+.+.C N %.N o.C H K m %.K H N f.o.K %.+.B } B N B B o.B o.o.K B N #.&.o.B B o.o.o.H B B C B N B B o.! B @.+.$.+.$.+.) B B B N b H o.r.#.B K O.f.d.l p r.) B B H B N B N @.} m K N H &.B N N o.%.o.+.) i.%.N b q.[.q.+.,.u.K c z H b B H H o.@.#.$.m N B c H B m B $.z i N B H %.o.+.O.-.B +.N N H B N b @.-.H N B H H c N +.K K K H B B B H +.o.%.B N H o.&.%.} K b b H H H N K C K K N N N B H o.B o.N m b N B m N N N o.) o.B m N N z z B H B N B B B B N H o.H o.B z #.o.$.$.+.B b B B B B +.+.o.B H H B N b ) o.B H B o.) +.@.%.! B #.o.+.+.+.o.B o.B K m p.+.o.o.} N ! V N B B ) B o.H #.+.#.r.2.H N N o.B B N N N B B G 2.#.o.o.B @.o.$.B B C ) B B z N z N N H B K 2.u.N.d.Z b r.+.B B H B N B N @.) N B b #.d.o.#.$.$.t.%.&.$.u.$.N b ,.^.q.+.,.u.o.c i H b B H o.#.,.o.$.B N B v #.T.3.2.4.m i m L 2.t.%.+.%.u.#.s.K N H H N b @.@.H c N K J i c H N N B B B K B H #.K o.N N B B o.o.H %.o.+.o.H +.+.%.",
"o.o.#.o.H H H B +.o.H H B N b H &.t.s.s.d.2.K N m N N G #.#.B N H N H o.r.2.s.+.o.o.o.H %.%.+.o.o.H N H +.#.B +.C o.B B o.B N z N K N ) N K K B +.o.B N m m N c m c B H z m z E.H o.#.B V N N N m B C B o.o.N B N m +.H H o.H o.N N B B B N b +.o.o.B N o.+.&.#.B B B N N N B i ! +.r.K N b &.N.2.c i K +.o.o.B B B b N &.B z B N N H N N o.&.B H @.! u.+.C B q.M.-.N H H p c m z b o.&.%.%.K H B G N N H H B b B $.N z m z G K K o.@.u.%.+.c N H K N m +.o.J m B +.o.z N K B B B B N N B H B H H B N %.o.o.o.B H N H %.K C m B H K B N N N N B o.K H N c z p N N b N B B N B N c c c c z B B N m m m B N %.%.C B B B K r.%.$.o.o.B m B +.o.N o.o.o.B K K B B b B K B C N K C B +.o.B N H H K B B B B } N o.c E.H B H N b N N N b B B B o.&.+.o.H m +.B B H H ! N b N B N B #.r.&.o.B B o.o.o.B N B B N N K B y K %.K B m N @.a.%.z i o.+.o.o.B B B b V &.N z m c 2.%.H K 2.@.o.%.&.+.u.+.K B q.M.,.B H H p c c z b O.4.2.%.K o.B N H K #.t.2.#.o.$.N p m c K #.K o.0.Y.s.t.J N H K B N #.+.J c N o.K i c H N B B B N B B B B B B B B &.+.H o.N B } K o.K K o.o.",
"K H B B B B N B o.H B B B N B o.s.f.&.#.%.L #.K N z z c G L N N H B H H H o.#.H B H H o.%.K #.+.+.#.o.o.o.K B o.K K H N H B N b K #.K o.C K K N B B K z J m c c c m N N m i r.R.o.$.} N N N B N N N B o.} H o.%.H p &.o.B H B o.K B K ! B B o.+.+.o.K +.&.9.+.N N K +.B N N B i s.d.@.B b N ,.u.o.c i G H B B b m B b b &.H c G N m B N H r.i.V o.+.-.o.N H +.q.,.q.B m m y m B B } u.4.m b o.o.B N N K o.o.B N H #.H m b y z H B C +.%.&.o.b B m o.o.B H N H z m $.#.s m K N N N N N B N o.B B H N H $.o.) C B B N N K B H m N o.J B N B H b H K H m m #.K L N m N N N H N B H K #.y.t.1.2.K N H m H 1.2.r.1.H K H H &.2.N B o.o.o.H H B B N B B } } B H V B N o.+.K o.B o.o.B O.o.o.N o.o.N N N B B N m p t.R.H H B N N B B B N V B o.O.%.&.+.K m &.+.! H B B B B K B K %.u.r.+.o.N B o.+.K N B K o.H m K B i %.%.C c c B &.i.o.c i H H H B N N o.m b &.H c v K K +.B N 2.f.B o.+.@.o.B H o.q.i.i.} b z i H K B o.u.u.N m o.O.B K 2.t.u.2.#.#.%.%.H N m c m K B K $.s.s.2.K K N L o.K K H H c N $.#.c m H m m N N B B B B K V B B K &.+.) ! B B B N o.K o.H K ",
"K K K H H B N B B B B B B #.#.K %.r.o.o.K o.%.#.H K %.K K o.B H H K H K #.#.%.o.H K H %.%.o.K $.o.#.#.o.o.o.o.o.o.o.o.N N B N b +.o.H B N B H N K d.r.N K K r.N c z N m z m t.o.B H B N B o.H B m B o.B K K +.$.N p &.B ) B H K B B B ) N o.B +.+.+.+.&.2.#.H N N C +.o.o.N %.&.Q.f.@.o.N N q.+.m m y L #.H N N N o.B N +.H N N m N N H H %.+.m ) ,.$.B B ! @.O.,.$.o.p i N o.o.$.o.2.o.m b +.+.B N #.o.@.O.B N o.K o.K m ; y m B N +.@.q.+.N K B B H K H N H c N } H z N H B N m N K B H H B H H H o.o.B ! B B B N N K +.} m V H N N B H N b N N N m N H #.r.2.%.2.1.L #.%.#.#.r.s.s.t.1.&.B B K B o.&.%.2.r.2.o.B B $.%.#.B o.! H H o.B H C B B o.o.B N B N N +.o.o.) o.o.+.B @.) C N +.+.N B B B B N z H Y.o.B B N N B o.H B N H %.o.+.+.+.o.N p q.B ) B H B B B B o.#.2.$.@.o.C ) $.$.K H z B ) o.B o.N o.B %.f.p.r.N N %.L B N 0 K #.H N N B o.B B o.} N m L o.H B b r.$.B +.,.$.o.K o.,.@.,.,.#.p c B $.o.&.o.u.#.m c O.+.o.2.s.%.u.$.K H #.#.#.o.H G m H H N %.$.q.%.#.#.H B K %.#.K H m H o.J c m B N m N N o.H B K H H H o.+.+.) ! ) B o.N H #.o.K K K ",
"#.%.%.%.$.%.B B K N B K #.#.H K &.+.%.K o.#.#.B B K K K N K B N K B B o.%.r.%.#.K o.o.o.B K N B K o.o.K o.o.%.%.%.o.o.K B N m L $.K H +.B 1.r.r.f.(.f.N K H B #.m m z m G t.r.B o.H V N N o.o.B o.B ) o.o.o.$.+.H p r.) o.o.} B ) B B o.o.o.@.@.@.+.) o.$.+.N N N o.O.+.+.s.f.D.m.q.+.o.B N +.+.B B p %.&.B B B o.o.! H o.B N N m z N B B ) o.B o.-.O.+.O.O.,.,.q.@.N m L &.q.&.@.B H K H B u.o.o.+.K H q.&.o.N N B H B K c i z m N &.%.w.q.N K N N B o.o.m H m N G m m m N B N B B o.+.#.K B H B o.+.o.B ! ) C ) N o.&.o.} N 2.p.&.%.%.$.$.m b H m N N &.t.r.r.T.Y.p.t.2.H G L 2.2.+.B N o.o.B B N K K o.o.K K o.C o.+.o.&.) o.o.o.o.! B o.+.&.&.&.+.B B N N N +.) +.+.o.o.) o.+.+.! B +.+.B %.B ) V V H !.s.B o.o.B N B +.o.B H o.&.@.+.o.! ) H p s.B o.+.} K C B B o.r.d.$.@.@.o.o.$.&.o.N N B r.a.u.$.&.&.i.i.f.r.r.o.z %.o.B m p %.9.B B o.o.o.! H o.H N m K N K K H $.+.o.+.q.,.r.&.,.i.q.q.,.B m %.4.q.&.$.} H o.N N u.%.s.f.1.H q.,.$.K H K K K o.L G H H H %.%.&.q.#.#.K K 1.%.#.H H N H H K H G H K B H o.o.) B o.! B B +.@.+.o.o.o.o.) #.2.r.+.o.+.%.",
"+.+.+.+.o.o.%.#.H K K %.%.o.B N o.+.%.K K o.#.r.&.#.o.o.o.$.o.K #.o.%.&.s.s.&.&.%.o.K H B o.K N K K o.K o.#.&.+.o.o.%.&.%.o.%.&.u.&.&.u.9.f.p.&.u.,.@.B H K K K N z 2.E.).OXf.r.&.o.B H o.+.@.+.o.o.o.+.+.$.@.+.H J R.&.q.+.o.o.o.C @.B @.@.,.q.,.+.+.&.,.+.) ) o.q.,.w.q.F.a.d.~.u.o.@.o.b B &.) $.$.u.4.H +.O.o.@.o.H o.o.$.H N N #.o.+.H &.} q.q.q.,.q.w.V.,.q.@.B J u.i.&.u.i.} H &.$.&.&.K H $.o.K @.@.@.B b B N o.&.r.K H N o.u.&.i.m.+.K o.o.u.! $.H o.B c N m K B N o.B o.o.O.,.o.o.C } B +.@.@.o.+.$.O.K N +.u.$.+.o.u.&.+.@.+.+.+.+.%.N B K &.Y.d.#.+.R.d.r.u.%.b m K &.@.@.o.o.o.+.H %.Y./.+.+.+.} +.@.@.@.O.@.,.&.%.&.&.+.o.+.$.@.@.&.@.0.+.o.B B +.,.@.@.,.@.@.@.@.@.@.@.B ) ,.@.+.+.B &.f.h.Y.+.+.@.o.B ! K ) @.%.+.+.@.$.@.+.O.) H H !.q.q.@.O.o.+.+.@.o.p.,.,.q.&.+.@.q.,.&.9.%.q.a.a.a.a.N.a.,.f.#.o.u.2.c K E.u.$.#.2.2.o.@.@.O.,.+.o.O.O.&.K H K o.%.r.%.4.) q.e.a.u.i.i.^.i.p.4.} K i.i.&.q.i.} H %.+.$.2.%.2.&.#.K ,.,.&.#.H H K o.o.&.K #.o.%.r.&.u.u.%.#.#.#.u.#.#.K H B N H #.%.1.2.&.o.o.o.O.@.K o.o.o.o.+.,.&.+.$.$.@.o.o.2.u.+.$.+.9.",
"o.+.+.+.+.+.$.$.%.%.+.%.o.o.B o.+.o.o.o.B B %.r.u.&.u.&.&.p.r.&.%.%.2.2.r.u.%.%.$.&.%.%.K o.o.o.o.o.K o.o.#.%.+.+.r.%.#.#.#.%.r.q.q.i.N.a.a.a.q.q.q.u.$.o.&.&.o.K H *X*X$X).f.N.p.&.,.,.u.q.i.i.$.+.&.w.u.w.w.@.$.} _.m.a.,.@.&.i.a.a.,.i.i.a.N.i.&.q.a.m.i.,.w.w.^.oXoXD.m.i.4.!.f.m.p.@.c &.'.w.O.i.u.f.$.&.a.a.&.&.@.,.O.,.,.o.&.u.u.i.,.).F.'.N.a.i.F.~.5X'.B.i.o.m.^.i.,.u.i.,.$.i.m.&.u.$.O.u.$.$.,.,.a.i.B $.,.^.a.'.%.K H %.D.q.G.#XN.#.O.a.u.i.m.q.o.B c K +.&.o.+.@.&.+.,.i.a.,.$.,.$.O.@.q.w.w.q.q.w.@.@.i.!.i.q.i.a.q.i.a.i.&.@.@.-.&.$.&.p.).f.o.u.!.q.i.a.&.o.o.u.i.,.,.@.,.&.,.u.~.!.D.i.$.&.,.,.q.w.i.i.i.a.m.m.D.w.q.@.q.i.i.w.w.i.@.&.@.O.w.N.N.a.i.m.i.a.i.q.a.i.i.q.@.m.i.&.@.o.!.a.a.e.O.w.i.q.q.q.q.w.m.D.i.&.,.w.q.q.w.,.$.o.[.F.D.w.&.q.q.a.a.q.u.q.i.a.i.,.w.N.^.~.N.D.a.oXXX.X#X'.M.&.&.u.Y.N.i.B i.kX_.g.a.T.N.#.,.m.m.,.q.@.q.@.q.f.&.s.2.w.f.u.^.F.'.F.N.N.[.{.pXXXF.a.$.N.[.a.&.u.a.,.$.&.!.Y.f.$.@.u.$.@.9.&.i.u.o.+.+.u.&.&.K K #.%.u.&.u.f.u.K #.&.%.&.&.%.K #.K #.o.#.o.%.&.+.o.+.&.q.&.$.,.$.$.&.q.u.u.q.,.u.+.$.9.p.q.&.,.i.",
"$.+.+.o.+.K $.$.&.s.&.o.o.+.%.&.&.+.o.o.%.$.o.%.&.&.$.%.&.f.r.&.%.#.%.&.r.&.#.o.o.#.K K B K B o.%.$.+.%.o.K $.&.p.u.u.r.&.u.s.f.f.u.~.~.m.N.a.a.N.^.p.q.&.).p.%.N %.*X%X+XD.i.a.i.i.i.a.a.m.^.a.i.u.0.i.a.u.D.a.i.o.tXXX'._.N.N.G.N.D.m.F.F.F.^.'.F.F.F.'.'.XXeXF.eXeX[.D.,.&.!.).F.'.G.,.o.[.xXF.,.u.i.f.q.u.F.a.N.m.&.p.q.a.u.N.f.f.a.m.a.'.XX[.`.N.'.ZXpXBXxX`.m.u.D.eXa.u.D.m.i.i.[.[.f.u.&.u.^.D.~.D.$.F.#XN.u.@XlX&.^..Xs.c B F.q.~.tX#Xu.4.p.f.F.#XN.u.H K u.N.u.q.&.q.i.a.m.N.a.a.a.m.i.i.a.F.'.G.i.a.a.i.i.D.XXD.i.~.^.D.D.G.N.i.@.i.w.q.).!.f.!.!.9./.[.f.D.).).u.f.f.N.a.i.q.%.u.R.+X#XtX~.N.q.i.i.a.m.N.F.[.F.F.N.G.eXF.i.m.f.m.J.G.XXF.a.w.@.D.[.#X#XG.J.'.m.G.m.m.G.XXG.a.i.D.i.u.! f.D.a.G.D.i.m.m.a.a.i.F._..XF.a.i.q.i.i.q.a.a.i.} iXeXXX'.m.m.m.m.D.m.a.a.a.N.F.D.[.oX#XoXXX5XD..XXXeX@Xi.,.i.m.N.@X+Xu.+.[.BXXXf.f.N.).r.&.D.G.'.m.,.i.q.j.~._.f.a.a.a.a.~.{.'.'.F.XXDXxXBXzX~.N.u.F.eXa.u.h.N.i.i.tX#X!.i.$.q.^.N.~.f.$.f.^.u.#.f.!.K &.s.%.K K &.#.2.f.u.%.#.%.%.u.d.r.r.1.#.%.%.#.o.+.o.%.$.&.i.,.q.q.i.q.u.i.a.N.i.q.i.q.&.$.u.f.q.,.i.a.",
"&.@.+.+.+.o.#.+.%.2.%.%.&.r.s.r.%.+.+.&.s.u.u.r.&.o.o.K %.%.&.&.o.o.%.r.s.2.K K B o.o.$.B o.B o.o.o.%.o.K %.r.&.&.r.&.d.s.f.f.f.a.D._.F.f.m.p.u.u.f.i./.d.+X%.%.t.R.R.h.f.9.i.m.u.u.u.N.f.a.m.D.&.i.9.q.q.q.a.p.u.u.kX_.D.+X~.!.D.i.a.m.D.f.D.D.F.F.G.D.F.F.J.F.F.@X'.f.a.4.f._.^.{.'.N.,.w.#XtXG.u.B g.2.$.i.!.!.!.f.u.s.u.9.i.f.a.N.a.,.p.N.N.G.D.D.[.xXeXGXxXF.p.u.B.^.u.p.!.~.{.XXlX~.!.D.i.!.pX'.~.N.u.N.XXD.&.iXtXr.a.~.f.#.B u.&.f.~.F.D.N $.q.'.@XyXN.L %.a.a.2.q.9.&.p.a.i.f.f.a.i.N.i.u.i.D.D.f.N.a.&.i.a.a.a.a.u.^.D.N.N.m.u.&.q.Y.f.OX%X_.}.).f.i.u.!.a.OX).!.N.f._.).a.4.a.9.f.(.R._.D.~.D.i.q.q.q.i.q.N.F.m.'.f.D.~.m.i.D.D.D.F.D.N.N.a.i.p.!.^.^.F.D.F.F.D.a.i.i.p.m.a.i.V D.O.u.|.+Xa.a.h.w.i.m.a.i.i.D.!.D.N.N.q.i.0.q.0.&.p.i.q.2.tXm.m.F.i.N.m.q.i.i.i.u.i.u.^.F.F.D.D.F.F.N.m.[..X+XD.i.,.,.N._.&X|.p.q.@XXXD.u.K !.d.u.u.u.f.N.D.p.u.q.w.p.f.s.i.q.u.u.m.a.N.N.Q.[.lX5XDXxXN.u.u.D.~.u.u.!.D.^.%XxX).!.N.u.N.eX`.F.f.4.p.!.f.#.R.!.#.%.&.%.o.H %.#.%.%.&.%.K #.#.u.g.f.r.%.#.%.%.L o.#.#.%.%.&.&.&.9.&.u.&.$.&.u.u.r.9.r.$.&.&.$.u.9.&.p.i.",
"9.&.%.K o.K o.%.&.%.&.&.&.r.&.&.#.$.u.u.u.r.r.2.$.%.&.u.&.&.%.%.#.#.o.&.#.%.o.%.%.r.r.$.$.B K K %.o.%.%.#.&.&.$.+.o.o.K $.&.s.s.u.s.u.q.q.u.&.&.%.+.Y.}./.*XY.E.s.o.o.%.%.%.2.R.R.f.f.f.f.&.&.&.&.p.r.2.r.u.q.+.@.2.).i.u.f.f.f.f.u.q.9.w.u.u.,.u.a.a.q.u.i.p.a.G.f.p.&.#.&.d.E.f.m.i.u.+.,.D.i.&.&.N f.H H +.u.s.p.s.u.u.2.%.2.%.$.q.&.K &.&.+.q.&.u.u.N.D.pX@Xu.$.&.u.%.K 2.Y.u.@.!.!.&.f.u.&.f.!.D.f.u.r.u.D.&.o.[.D.K r.s.%.%.i.#.K #.#.&.4.L #.N K +.F.^.G H $.&.L %.o.&.&.u.u.&.u.&.$.&.q.u.u.a.u.f.u.%.+.o.@.&.@.B $.%.&.9.u.,.+.o.2.r.u.h.(.!.!.).!.q.B d.&.f.i.$.u.u.!._.i.%.$.o.f.s.&.u.9.&.q.#.%.o.%.$.$.u.r.i.p.$.s.f.&.u.u.+.u.q.p.q.q.%.r.q.r.a.i.q.,.,.q.0.u.9.&.+.+.$.+.L $X/.(.!.i.q.&.q.@.@.u.&.&.u.f.u.&.&.&.+.s.%.2.r.r.&.C +.&. X&.$.9.9.i.q.&.&.&.r.f.Y.(.!.N.i.&.i.i.i.u.N.!.!.s.%.$.+.2.q.!.+X_.d.u.N.i.&.&.N Y.L K %.t.f.!.(.u.9.2.#.%.%.o.9.%.H &.&.+.q.&.u.u.D.j.tX.Xu.2.r.9.+.J &.f.u.u.[.).&.f.2.$.p.D.f.a.u.&.%.u.%.K u.u.K %.%.L #.%.#.K %.%.2.%.%.%.#.#.L 2.r.K K K K K L 1.2.2.2.%.%.%.#.o.o.$.$.&.r.r.r.%.#.o.+.%.%.&.&.&.&.&.",
"o.K K H B o.&.%.%.#.K o.#.o.K K %.r.r.&.%.#.%.r.&.r.%.%.&.o.K K %.#.$.#.o.%.%.#.r.r.&.r.&.%.#.%.%.#.K o.%.%.#.&.%.B N H N K %.d.2.K B o.K K K N G %.T.1./.R.B J N z b N L %.E.}.s.E.d.T.r.o.K H r.t.%.#.%.L K H C z r.K K K o.+.O.+.+.+.#.r.K C o.+.&.o.o.&.+.o.u.i.%.G y.t.#.%.K $.+.H m +.@.H N o.1.s.m c N B &.&.B K %.K #.%.y.#.o.H m H o.p H o.2.#.#.o.&.a.u.H K G L #.#.K H N B m H %.#.N %.f.f.N B o.K &.B ! Y.#.N L %.K o.@.o.L K N o.K c v c 1 G i.2.m K +.H N G N G m K %.L %.K B N #.o.o.@.9.%.K B H #.#.H B H #.L m N N N K L H 2.o.L L +.&.p.#.o.m L %.r.B K o.K %.$.K H L K L K N G %.&.2.%.1.%.H #.r.r.%.%.%.%.%.u.#.K K K H C K K L +.+.C K &.u.+.N C o.o.K K C K L K p s.R.K o.K K C L #.N H H B L #.#.%.K K K K L K L %.K K Z N b 9.K B K o.o.+.o.r.s.r.s.r.t.r.+.$.B L @.+.o.r.f.d.%.K N N K K r.f.%.#.#.&.K N K %.T.B c N B &.f.d.$.%.#.H L L H H K N K #.p K #.2.#.o.o.&.a.u.H J m P %.#.L K L o.H H %.#.m %.f.p.N K K K $.H B r.%.K #.#.K K K J L #.L #.%.L %.K K K #.o.H K K K K L L #.K K L K #.L K K #.&.%.%.%.%.H o.K %.&.2.&.2.&.%.#.",
"K B B H K #.%.%.#.K K #.&.r.&.%.#.#.K K K K o.&.%.%.%.#.%.K K o.K %.#.#.#.%.H K #.%.%.r.&.r.r.%.o.K #.%.#.#.#.%.o.N N B m m N N N m N N N v N c 3.1.J i W.J N s : c P L 2.t.2.%.#.K H H N m z 1.%.r.1.H c c G G m c T.N c z m N N N G K H N m z c N N N N B c c G m m z L H z c N K N p z b N L m m N m p i c m N m m L #.L G G L #.H H v v 1.v m m b N c G K 2.$.#.v y m H o.G G z ; i m N c z #.&.K c c z z N z o.f.G < N %.K G N c G H c H b i z y , s K z i m m c c N c S c c N v N N z B K m b m N N N c z c H H K %.y.r.L p G L L p v L z c z m B K b m c 0 L H m G N N m c c z m m G 1.y.t.2.#.%.G J m z z G m B B K m K N N m N c z c N N N m m c z B N m z c m N N K m v z i % y.K N m z N N c m c N m m N N N N m z s z b z z z p p z c i t.N z z m m c K #.#.J G H K K H m m m G m N %.K K c v c i z m J K m m N H L v m N m i i c m B G J K J N m H H m c G z y J z m G c m c G K %.2.#.c y m K o.J J N < p m B c i #.$.K l c c m N c K s.L J K #.L H H H H K H K L #.#.K K #.L K K K L #.K L K H K N N B H o.#.r.s.2.%.#.H H H H B L o.%.o.o.o.K #.",
"K #.#.#.o.&.&.o.B K o.r.2.r.&.%.o.K H K H H o.K N G N H #.K K #.#.1.%.%.#.#.L K H K K K #.o.K K K %.2.r.2.%.K #.N z m m m m z z c i c z z z c L I G % < y.i z i ; W.OX}.E.t.K J c z p c z p L L K m G m c G P v v i s.G p y m m m G K N p z G m z z z z z b z i c N y < i i y i c p y y L J #.L m y y i y 0 D L c J i p L H N L J c c v x 1 J z i J i z c N z i c m i < m N m i 1 ; % ; z p i 0 K o.G y y y y i p H #.< ; i c L N z z y a z z i i i ; o % i 0 ; y y z s z z i i y i i z z p c m i i z z c p i y i y i m %.L G v c i D G z c s < ; i c c z i i i y D i p z y i l i z i v 1.s.W.t.1.t.K c i 0 i i i i i i i c m m z p p c p i i i i i i p i i y z i y p z z z c c i ; % ; 3.0 z p y z i 0 i p c c z c i z i i y 1 i y y i i y y i i ; %.m z i c z c G K N i i m N v i i i z z c z N c i y i i y i c l z s i p G L m y y i i 0 c G p m y i c z m J m p p c y ; v y y G i z p c p i c m i < m m G i i ; % ; i p i 0 P o.G y y i i a c H #.G G K K #.K H N K #.K #.o.#.#.#.K K L N m K #.#.#.L L K L L K K K H K K #.#.L K G H H K H K H H K H N N N ",
"B K K K H %.#.B H K #.%.%.&.o.K K o.%.o.o.r.K %.o.#.B N 2.r.%.%.%.%.%.%.&.2.%.%.o.K K K B H H H %.&.s.s.u.&.r.s.s.H c i i i 1 z < 1 1 y i 1 i J 1 ; . P P 1 ; ; x E.E.E.t.1.G i y : i i i J G v m i i c c x c i ; X L i y c J G v J J c p i c c y i i i y i i i m ; ; 1 x : ; ; c v y S J c L G y y i ; ; G L J c v i y G G l i i y y y < ; i < ; G i i i 0 y ; i ; 1 ; c i i 1 % % o ; c i ; 1 G z z ; < i i : y p c ; % ; y m c i < ; i ; : 1 1 y - # % ; ; ; 1 - - ; c y : 1 y : ; i l i i i y 0 i i i i y ; y i i G J y ; ; y i x J c i 1 - - - : y 1 ; y ; ; ; a ; < i i ; i D P 1.y.L 1.t.L 1.L P i ; < 1 : 1 ; ; ; c c z i ; i l i < ; ; ; 0 i < ; y ; y ; ; 1 i i i p i ; - . I L ; < ; ; y 0 ; ; a 0 < y ; ; y < ; ; y i y ; i i y y 0 ; # %.l i < i y y s v z : ; c c 1 ; : y 1 i i y c y ; ; : : ; ; l 1 ; ; ; ; v G y y y ; ; ; i c y c y ; y i m v p y < i ; - i ; ; D i i y ; y ; i < < ; c c i 1 % % o - a i ; 1 J c c : ; y y y y p v G G #.H #.K H K H %.#.%.K %.%.%.K H H B H H K L o.#.%.%.#.L %.K K G H G L 1.%.K H H H K K K K H K K K H H ",
"N K K o.%.K N b N B B z m N H o.r.r.r.s.r.s.&.&.r.&.L K K K #.%.r.t.2.%.2.f.f.s.K K #.o.K K o.%.&.r.s.d.s.f.f.f.r.#.G c < ; ; c ; % % ; ; y S c ; o J I a ; % : a J F G G x i - ; ; ; ; v x y ; ; ; - i < 1 < ; - o L < 1 a J x x i x i i y a i i < < 1 1 ; ; ; y ; 1 < i 1 x S v x ; x 1 < L D ; S D < a x a i ; < < x G p i i ; a G c 1 - % - % 1 ; 1 ; ; - ; c 1 D ; y 1 ; ; o # # - a a - ; 1 ; ; ; ; ; - - % ; ; ; - # ; i i < < - - - - - - % % % - % < ; 1 < o % ; ; - ; ; - 1 < ; < ; - - ; i < ; < ; ; x a 1 c s < ; % , - - c < - # o % % < - - - ; 1 - o 1 % ; 1 - x 3.L y.t.a F L P t.x y ; S - % ; 1 < - % % 2 < y ; - 1 - ; ; % ; - < < ; % ; - i - % ; ; ; y i ; - o F I i % % < ; - % - 1 1 ; % - - % % % % # # % - % < ; ; ; < < - I ; - % < ; ; ; 1 ; ; ; F a < ; , 1 1 1 ; ; < ; - - 2 < - - ; - a i - % c c ; ; i - % - % - ; < < - - y x c ; 1 c i < % % - % < - ; ; - % ; x 1 D ; c v 1 < o o o % 2 1 - ; i ; < ; ; ; % - % < i c L L K K K #.%.K o.H o.o.#.o.o.K o.o.#.+.o.o.K o.2.%.%.K #.L L #.L #.#.%.%.2.#.K K K K K K #.#.L L K H J ",
"K K o.o.o.%.&.o.N N o.K B N H o.&.&.%.&.%.%.%.&.r.2.o.%.o.%.#.K &.%.%.#.2.s.p.s.#.K o.o.o.#.o.&.r.&.&.r.r.u.r.%.L J l - o X % - o o X - o o - 2 , 1 F - X X o o o , 2 F F < , o # o o o - o X o o o o - o o o o X . a - - , < - o 1 - % # o # # o o o o o o o o % - - , < o < a x a a D x ; x < - 1 1 % o   % - o o - a O < - 1 D D x 1 < % - - - - o % - % - - 1 x a % - % o o . O X . % o X O O   o o % % o o o o o # o . , - % o - X O . O . . O o o . X , % % - O X % o o o o o - X . O X O X o - % - % o o < , , < % % o o % 1 x D - o o o X   % o X . o - X . o X . O 2 I I D i P D % < a a % o % - . o - F a % o # - - % # . O . . . . o - - o . . . o % X X . - o # # o . o F   . . X - X X o O , % o X O o . . . . . O . . . - o o % - o X a o o o % o o % o . . % < , . o o o % # o o o o o 1 2 o , - - , a F % . < - o % < o . X o % X X .   O - % % o o - .   X o O # # . o o X % % < i a % % % - % . O O   o O . . . o o o o o . . o o < y m J N m N m H o.K %.o.#.K B B K o.o.#.#.%.o.o.%.2.2.t.s.t.r.s.2.1.2.L #.%.K #.N N H H %.2.r.2.L L K K #.",
"#.#.K H o.o.%.#.H m o.K B K N K K K #.K K o.&.s.r.&.&.&.r.#.o.B K o.&.%.s.s.&.r.&.o.K K #.#.%.s.&.r.%.o.%.K B N 0 0 - o . . . . O   O - , 2   x < F F % - 2 . , - D F       % . . . , , O . O O o % O O . .     . O 2 < , - , X O O   . O . . . .     . . . . , , , . . F I . . 1 1 2 , o o o . O X X .     , o . O , . . O X , 2 2 1 o . % % < , , . . O O X X O X . X O   O O .   . .   . O     . . . . O O O . O O , . O o o . O . . O O .         O . .     O o O O X . O . . . X .   . . . . . X X X . . o o . . X O O . o o < , 1 - O       . .   O . o o . O .   .   F 2 F , % - o . . 2 1 O . . . X . - 1 - o X O . X O O .   . .   . . o o .     .         O o X . . .   O . .     . . . .   .   .   .     . . . . . . . O O . . O o O . O . , X X . . o , o . . . . . . . . . . .   . . . . X o . o o o - o X o . X . . . X O O     o . .   O   O . . O . .   .   O % o %   O   O . . . X . O o o o o O             . . . o X . O .   . o % y i i p N K N K &.%.s.%.K K K K %.#.%.%.#.%.#.o.#.%.#.1.1.r.r.1.r.K 1.L %.1.#.%.K %.%.%.K %.%.2.2.2.%.%.%.",
"B o.K K o.b N B %.s.K K B K K o.z H K #.r.f.Y.f.p.r.s.%.H N b N b B K &.r.r.2.s.p.#.o.o.o.o.u.p.s.%.#.K K B b B 0 # o .                                                                                                                                                                                                                                                                                                                                                                                                                                                                                                           O O       .                                                                                                                                                                                                                                                                                           O       . % ; i z z N H #.%.o.o.%.%.K N H H K o.%.s.d.s.&.%.#.#.%.K L N #.#.r.1.%.%.%.t.d.s.t.d.d.r.2.H H H L #.%.%.#.%.",
"K H H o.o.N 7 N %.2.K K r.&.r.f.&.&.&.r.f.!.!.R.u.r.s.f.f.&.N p b N B %.%.&.2.s.f.p.%.#.H r.s.u.s.o.K K H B B H z ; # . . O O O         . O X O .   O O O . . X X O O O . . X . . . O . . O O O   O O O O O . .   .     O O O O     . O . . O O .     O O . O . O O   O . . O O . . O . O . . . O O . . . O . O O . O O O O . . X O . O O O . . . O . O O     O O O O . X O X O O O . . o O .   O o o o X     . o o . O . . X . X . O X X O O X O X O . . O . . o . O O O . O O . X . O   . O . . O O O O O O O       X X X . O   O . O O O O O O O O X o X X X X X O O O O O . . O O O O .     . O O O   . O . . O O O O O . . . . . . O O X o O . X   O O . o O   O O . o o . O O O X O X O o % o o . . X . . O O O . O . . O . . O   O O . . O O O O . O O . . O   O   . . O O . . . O X . . X O O O . . O     O O   O O O X O O O O O . O X . . X o o X X . X . X O O . . . X X O O O . O o O O O . O O O .   O . O o O       . % o % .     o < i c G J K #.o.o.o.K K o.H B H H K %.%.2.s.f.r.2.#.K L K K N K G L %.K #.%.#.r.%.2.s.s.%.K K K B H N o.L 2.%.",
"%.K K B K B %.&.B N N K B o.$._.s.s.&.$.f.f.R.f.s.t.&.%.#.o.K b N N N #.o.o.#.r.s.f.p.s.K K +.&.$.K K %.%.%.H N z ; o .                                             .                 . . .       . . .       . . . . . . . . . O . . . .                         . . . .                                                                         O       . . O X   . . . .                               . .           .                             .       . . . . . . . O . .                                               . O .   O .         . .                           .   .   .       .   . .         O . .     .         . . . . .                                     . O O O O .                                   . O . O   O                     . .   . O .   . .                             .               . . . .     . O X .                       . . .                                       . .           .           . ; y c c G K #.#.#.$.o.K o.K K #.L #.2.2.2.2.%.1.2.%.K #.K #.m c K H N c H K G %.#.%.r.2.%.#.N %.%.N m H N K #.",
"K K N N B &.s.&.o.b N N N b o.+.r.r.o.#.%.u.r.r.r.#.o.r.&.o.B b b N B %.#.K K #.r.f.d.p.$.B N N o.K o.%.%.#.H G i ; o . X . . .                                     .                 .   .   .   . . . . . . . . .   . . . . O . . . . . O .     . .         . . . O O O .       . . O                                                       . . . . . . . O O . X . . . . . . . . O . . .     .       . O O . . O O . .                         . . .     . . .                         . .         . .                               . . . O O . . . .           .   . .   . O . O . O . . .   .   . O . . . . O O O   . . . . . . O O . O O . .                         .           . . . .           . .         . . O . O O O . . O . O O O . .         .   . . . . O   . . . .   .   O   . .         .   O     .   %                   . O O O .                     . . . . .   .     . . . . . .   . . .       .                       - < y i c G H #.o.K o.K H o.o.%.%.%.#.2.s.2.1.1.K #.2.L m K #.#.N K K m #.%.1.#.r.%.#.r.#.%.H N K m K N m B N N ",
"K K K C r.p.9.K B C %.2.p.f.r.o.K o.H %.o.&.o.K K o.s.(.p.N B p z N #.%.%.%.%.%.#.2.2.#.%.o.H B K H L #.K H m c i ; # # X . # X                                                                                                           . .           X .       . . . .             . .                                                           o X % . X O . o . . . . X . . . O O . .   .       .   . . .   . .                                                                                                   .                     .                           .   . .       .                     .                                                             .                                           .                                                                       .                         .   X                   . O .                                                                                         o < a i m G H K o.B B B B B #.r.%.2.r.s.t.t.r.#.m m N N z K L %.N #.L #.%.r.t.r.2.1.#.%.2.s.#.H %.B K K N K B b ",
"o.&.&.p.f.&.K N #.f.p.f.s.r.%.H b b B %.r.&.%.&.H N r.&.s.r.r.#.%.%.%.K o.%.%.B H K %.K K H K H K K H K J K J i y ; - # o # o .                                                                                                             .               .   .             . .                     .         .                                   O O . . . O O X X o o o X O . . X . O .   .     .                                                                                                           . . .   . . .       O   .                                                   . .                                                                                                                                                                                                                                                     . .                                                                                       . o % y i m K K K o.+.B N b o.%.2.%.r.%.K J K L %.K H N m m N G L K K N K %.%.%.%.%.L N #.K 2.o.H o.K o.%.N #.K o.",
"#.#.o.r.&.K H o.2.s.s.s.%.K o.B B B K s.#.&.&.u.o.B #.o.%.f.s.R.R.r.%.H &.K K b m N N N H m K K H K N K m K m c 1 # % o # % o .                         .                                                                   .   .             . .                                                         .                                           . . . . . O . . . . X o X o o o X . .   . .                                   O . . . .                                                           . . .   . .   O     . . .       . .               . .                               . . .                               .                                 O .                               .                                                                                                                                 .   O       . .         .                                                                                 o - i z N H B K o.%.C o.N K #.2.%.1.K m c c H 1.K K K m N m m m K G m H H %.%.2.#.L N K K H B H o.H K o.K K N B ",
"B #.o.o.m z z N m z b m N H %.%.%.s.s.p.&.&.r.r.%.%.H o.K N %.2.r.&.#.o.K K H N o.#.#.N N m H H K K N H m N m i i # # % # % X .                                                                                                       . .   .     .                                           . O         .                     . . .                   . .   . . O . . . . o % - - % o X . O . .         .                       .                 . . .                                                   . .   .   .     . . .                   .                                                                           .                                                                           . .                                                                           .                                                                                                                                                     # ; m K %.H N B H +.B +.+.K K #.%.%.L G N N G K K K L K G K L #.L N J K L K K H J N K H H H K K K #.N m K N m B ",
"K H H &.r.K p 0 q N z q z p H B B #.#.o.#.2.r.r.&.s.r.m z N z m N b K N m m N N N B #.B B N K K #.K o.H H H G v y - - - % % X .                                                                                       .               . .         .                     . . . .     . . o O .           .     .   .                 .                 . O .     . . X o o # % % - - % o X . . .                 . .             . .                       .                                                 . .             .                     .                   . O . . O O                                       . .   . .                                                                           O . .                       .                                           .                                                     . .                                           . .                 .                                   # c o.s.f.u.$.o.B o.o.H o.#.K K #.#.J J G m m N H L K L 1.1.%.L K K K %.1.K G K H G H H K %.L #.#.L L L K N B H ",
"#.N K o.&.%.B q z m p B b b b z H B N K &.s.r.2.&.2.%.B B K b m m z p 7 0 p K H z B N B o.B #.K K #.%.%.%.#.J v y ; ; ; - # o o           .                                                                                       .             .           . . .       . .           . O O O     O   .     . . .                                   . . . O . O o % o o # % - # % % o X . O                             .                                             .   .                                               O   . . o . .                             . . .   . . . .                                       .   . .                                             .                                                                                                                                                                             .       .                   .                                                       - K %.d.a.u.9.o.K o.$.o.%.#.#.J K K #.#.L H N m N J K L %.%.K J #.#.#.#.K L G K G K G #.r.r.L K L #.L K H H N K ",
"N H B m b B &.s.H H N K B o.0 N B o.r.f.Y.f.p.r.+.$.H z B H K &.o.H 0 7 z o.o.b b o.#.H &.&.r.o.K %.o.%.o.K H c i ; - % - o % #                                                   O   O                           .             .               .         . X X o X . . . . .       O . . . . .   .                       . O . .                   . . O X o - - ; - % % # % o o % o o o . O . .                                                                                               .                       . .     . . o .                         . . O   . O . . . O . . . X .                   . .   .     .   . . . . . .                         .         . O . .   O . .   .       .       . . O                                                   .                       . . .                       .                         . . . . .                                                                                 # J i.d._.a.f.&.$.$.+.#.o.%.%.K s.d.t.t.r.1.K z m K K #.K #.L H 1.%.1.K L K K %.#.%.%.%.%.r.#.K K K L K K K K K ",
"H B B N 0 N %.2.K K r.&.r.f.&.&.&.r.f.!.!.R.p.r.r.f.(.%.N z N N B q b K K N N N B o.&.K #.K %.%.%.K N H K o.N c y - ; # - # < -                           O . . .       O     . .   .   o .                                           . .       . . . . . O . X X O . . O . .   .   . . . O . o .   . . .   .   . . . X . X X X . . O . .         . . O . o % ; - - - - - % # o # % % % o o X o . O . .                                                           .                         . . .                         . .           .                                   . . . O . O . . . .     . . .     . . . . . . .         . . . .     . . . . .       . O O       . .       . . . .                   . X o O .                                               .     .   .         . . . . .                   .   . .                                                                   .   . .                                       ; N &._..X.X#X).u.&.+.o.%.%.H K t.2.2.2.r.2.r.#.m m m K G G L %.r.2.s.d.s.t.s.r.2.2.#.#.%.K %.N N H H %.r.u.r.#.",
"r.%.%.o.%.&.B N N K B o.$.(.u.s.&.$.f.f.!.f.p.f.f.R.f.!.p.R.s.B K N &.o.B N &.p.%.2.r.%.B H N N B B N o.#.K p m x ; ; % # - % %                                           . .   o   .   -           .                                 . . . . . . O O . O . . . .       . . . . . . . . . .   . X O o . O . O . . . . X . . X o X o O X o . .     .   O X o - - - % % % % o o o o o # o o o . X . O O .             . .   . .                                 . .                                                                                         .                   . . . . . O . . .   . . O .   .   .   . . .             . .     . X % o o .         . O .   . . .     . O O     . . O .   .         . O o X O                                         .   .         .     . . . . O .                           . . .                                                 .     O O   O O . . X .                                     < z B ~..XtX.X!.p.&.%.#.&.%.m #.L H K K #.#.%.2.%.r.L #.L %.#.%.%.%.1.r.r.r.2.t.L 2.L %.2.#.%.L %.&.%.K &.&.s.s.",
"%.$.o.&.u.r.o.b V N b b +.%.s.u.o.%.&.p.u.p.f.p.p.f.f.Y.(.!.!.!.(.!.f.p.s.r.f.f.s.f.Y.d.&.N z p H r.u.r.o.o.p z c ; ; % # < X o                                             .   .     . o O         . . o O . .                     . . . . . O O . . O O O O   . . . O O O . .   . . . . O . X .   . .     . . X X . . . . o o o o o . X . X . X X X o % - - ; % # o o o . o . .   . o o X . . . O . O .           . . . . O . .                               .                                                                                     . X * .                 . X         . . o . . . . . . .     . . .                         . O . . .     O .           . .       . .   .   .   . . .             O X o O .                     O O . O   . . O . .               .                 .                       .                                             . . .     . O O   . .     . .     .                               z N o.!..X.X_.a.s.p.2.%.r.s.%.r.#.m N N H K K K %.Y.(.R.r.r.%.%.2.K L G #.#.r.2.%.%.%.t.d.d.s.Y.f.s.2.K #.o.#.%.",
"o.o.&.%.+.N K B +.K u.f.s.o.%.&.o.r.%.&.u.s.p.u.r.r.r.%.p.p.o.u.R.f.}.).p.s.d.r.s.p.p.s.s.2.2.%.&.#.r.%.&.N p z c # % o < < # X                                             .         . .     O . % . X % X . X X . .           . . .   . . . . o % o . . . O . O O . X O .   . . . .       .   . . . . O . o o o . X X .   . o X o X X X o % - , - o - - < < ; % o # # # o % o . . . o o .   . O O X . O O         . .   . O X . . . .       .   .                                                                                                     . + .   . + + . .     . . .           X . X . . . . o .     . . .       . .                   .   . O X X                     .         .   o . O O             . o o o .               . . .   . O O O O o . X O             O                   . .                             . . .                   . O . .   . o o .   . . O . . . .         . . . . X .                         v &.i._._.#X.XD.p.p.s.r.s.#.Y.s.#.#.L H K K K %.2.r.s.R.t.t.#.#.#.K K m K G #.1.K #.#.#.r.%.r.f.d.%.K #.&.K K N ",
"K H o.&.K N B K o.f.r.&.H b 0 K &.h.p.u.f.p.u.u.&.+.H N H B 0 7 B f.f.R.s.!.&.s.&.r.s.s.%.2.2.o.&.2.o.#.#.2.c m y ; ; . < ; o o                                                     .         . X o X . O . .   . .   .         . . . O . . . . o X .       .   . . . . .       . .         . . . . . . O o o o o X X o .   . . . X o o o o o - - % % % - , ; - - % - ; ; ; 1 < - o o X X X . X o X . O O     .     . . .     . .       . . . .                                                                                                           . . .   . . .           .   .               . . . . X .       . o . . .                     .     . O .                 . . O . . . . O O o . . O O   .         .         . . . O X             . . . . . . O O X . .     . . .                                                     .               . . X X X X . X o O   . . . . . . . O   . . . . O . o . .                         L R.!.XX#X.X_.f.f.r.f.r.r.m t.s.1.%.%.#.#.L %.2.r.2.r.1.1.r.2.K %.K #.m c K H N m H K G %.#.2.t.r.%.%.K #.o.H m ",
"N K K B K %.&.&.&.%.s.o.o.K &.%.u.p.u.p.f.f.%.$.%.B z 0 b B z #.u.r.r.f.d.!.R.s.o.%.p.d.2.p.&.o.s.%.%.H #.%.%.%.c ; ; # - % # o .     .                                             .             . O .               .           . . X o . X o . .         . O O                 .   .   . . . . . . . X o X . . . . o X . X . . o o o X . . X o X o % % - - - ; ; ; < i i a i < - o . . . X o % X . .               .               . . . . .                                                                                                                                                               . .     . . # % .   . . .           . . . . . . . X o o O .   .         O X o . . . o X X X X X X X . O               . o o O O               . O .   .   . O . O . O . .   . .                                   O .           .     . . . . X o o % % % % % o O .   o . . . . . . . . . o o o . . . . .                   .     i &.&.f.~.D.^.^.f.p.s.2.m N r.r.2.r.2.r.2.%.#.r.s.r.2.2.K #.2.L m K #.#.N K K c #.%.2.#.t.1.#.r.%.%.K H #.K #.N ",
"B K B N B +.$.$.!.&.r.o.K o.s.o.&.u.s.p.p.p.&.&.o.o.N b o.$.).OXR.!.f.R.!.p.f.f.s.s.p.f.f.Y.!.s.p.r.#.H B H K G i ; - - % % X . .                                             .     .         .     O O .   .       .   O   .   .   . . X . X . .     .     . . O .             . . . . . X . . . . . o o X . .   . . o o % - o o o o % .   . X o o o o % - - - < 1 < i i ; ; - % o . . X X X % % X O .     .     . .   . . . O . . . . . .                                                                                                                                                                           . .                       . . . . X . . . X X o X .       .   O X X o . O . . . . O . O O O . O . .             . . . O . .                         . . O . O . . . . . .     .                             .               . . . O X X X o o X X o o . .     . . . . . O O     X o . X . . . . .       . .               > z p o.,.F.@X[.a.u.&.r.m #.f.s.2.r.r.s.1.r.r.s.s.s.r.%.m m N N z K L %.N #.#.#.%.t.s.t.r.2.#.%.r.s.%.K H K #.o.",
"B %.o.%.%.&.&.&.&.s.o.K H B B K &.r.$.#.$.%.&.&.u.r.H o.K K &.%.&.u.p.R.f.u.s.p.!.s.d.s.f.Y.f.d.p.p.f.K H K #.p i - - - - - # #                 .                             . .         O - ; % O . . . .   . . . . . X   . . .   . O . . . . .           . . O . X                   . . o X . . o % o X . .     . X o - < - % # o % % X X o % % o o % % - - 1 i i a y - o .       . o X . % # X O . . . O . . . . . . o o . o % o X .                                                                                                                                                                                                     . X . . . . . . . o o . X .       . X o o . . .   O   .     . . . O O O . X X X . o % . . O o X X . .               .   . . O O O O O . O   . . .   .                                               . . . X o % o o o . . . O       . . . . . . X . .   o X o o . . O O .   . . . . .             z K @.!.i.[.^.).f.s.%.%.z Y.s.s.r.s.r.s.%.r.%.L H K L 1.K H G m m N N L K K N K %.2.1.1.2.#.m %.o.r.o.H H o.#.&.",
"o.K B o.&.%.o.B o.s.%.$.%.o.H +.K &.#.b N B %.o.r.r.#.o.p o.o.&.%.o.2.2.2.#.&.s.R.p.r.r.u.d.p.d.Y.Y.!.u.K K H c y - # % ; < ; 1 .       . .   . .           .       . .     . . .   .     . . ; . . . . .         .   . X .   .       .   . . . .   . .       . . . .   .             . . X o o X X o % o o X .   . . . o % - ; - % o o - % o o o % % o % % % % % % - - - # X . o # % % % o X o o o . .     . . X o .   . o o . X . X .                                                                             .                                                                                                                     . . . . . . . . .   . . o . o .   .   . . . . . . . . X . . . . O . X X X . o o X . . o o o . X X o o o .   .   .         .               . . . . .               .                                     . . X . . o X X . . . . .       . . . . . . . .     X o X X o O . O . . . .   . .             z B i.+X^.N.D._.h.f.%.q 2.s.%.r.s.Y.s.s.2.2.K c z z H 2.K L L m H c m c K N m H H 2.%.r.%.#.H K K B B H #.H o.#.",
"o.B b N B &.o.K &.u.&.K o.$.s.p.%.o.o.B K B K K %.r.%.K %.&.r.%.o.B H H %.#.&.%.&.&.o.#.%.%.&.&.#.p.p.p.%.#.m v i - % ; - < i -                                     . .   . . . O   O . .         .   . . . . o . . . . O .               . .   . O . .       .   .       . . O X % - o o . . X X o o o o o o o o o . X o # o % - % % % % % X . . o % % % % # o o . X o X . . # < 1 i 1 - # X o o o X .   . . O . o .     . X X . . X .                                                                                       .                                                                                                           . .   . . . . .       . o . X . % X . . . . O . O . . . . X X . . o o o o o o o . X o o o o o o o % - % o O . . . . . . . . . . .       . . O . .         .         . . .                         . . O O . X o . . .     . . .                 . . . .   . o o . . . . . . . X X .                   z #.) p..X^.~.N.f.%.N r.s.1.L 2.s.s.r.t.r.2.L N m m N #.K L %.K H K #.#.#.c G H H N K K H K %.H H K K o.#.%.K N ",
"o.b N N B B o.B +.o.K o.p.&.u.%.K N b N H H N N B %.%.s.(.%.H B m N z b m o.&.%.K o.o.o.B H b p B %.r.d.r.#.m c i - ; - ; # ; -                                                     .       . . . . . . . . X X o O . . O .   . . O . .         .   . X .   . . . . . . .   . o o o o X . . . . . X o X o o o - - - o o % o X # % % - - - % o . . o % % % o X . . . . . . . . # - - ; < - # X . X X X . X X . X X . . . . X . X + .                                 .       .                                                             .                               . .         .                                                     . . . . # o . .     . X . . % o % . . O . . . . . . X . . . X X o . X X . . . X . . . . . . . . . o O O .   . O . . X O O . . . . . . . . . . .               . .   .                               . .   . . . .           . . . .   .         .   .   . X . o . X . . O O   .         .           0 #.7 %.q.i.a.) b u.p.r.#.K K %.%.#.%.2.r.2.K K N m m N G K K #.r.s.t.#.m c z G z m z G H #.#.H o.%.%.r.%.&.%.%.",
"N b z N b N B b H o.$.u.s.+.N B B q q z K B B z b K %.s.p.f.p.&.N p z b b H %.o.o.%.#.%.%.o.p N B K %.o.o.K N p ; # - - o   . o                     . . . . . .                           . % O . . O . . . X O . O . . O     . . . O . .         O o . X O . . . . . O X . X o o . . . . . . . . . o o o o o % % i 1 - # . . o o # - - - ; - o o # % % % o o X . . .     . o o X X o % % # o X . . X % - % o X X . X . . . . . .                                             .     .                                                                     .                             . . .                                                   . # % # % X .   . . . o . . . . O . . . . O O . . o . X X X o o o X . . O O . . . . . . .     .         .   . O O O . O O O . . . . . O O O . .       . . . .                     . . . . .   .   . O O . . . .           . O . . . .     . . . . . . o o o X . X o .             . . .         ; q 0 ) ) B o.w q.f.d.r.2.L #.r.2.%.L 1.2.2.2.1.%.#.H z m m H G #.1.L #.#.z p c z m #.%.K %.#.o.r.r.%.%.&.d.s.&.",
"%.N z N b z N N N o.%.r.o.K o.H K b N b B K B b q N K b B H o.o.K b N N z B o.o.%.%.%.%.o.o.B o.#.K o.H B o.c 0 ; . % # # o . .                     . . X X X O .                       . . o % X X X . X O X .   . . . .         . .             . . O O   . . . . . . o o . X X X X o o o X . . o # % % % - o - % % o . o o o # o % - ; ; ; % % % # o o # o o o o o o . o # o o X X o o o X . o X . o o o . . . X . . . . .                                       . .     . . . . .     .                         . .                   .           . . .                   .           . .     . .                                             . X # # # X . . o o o % % o X . . . . . X X o . X . X o X o o o o o o o . . X X . . . . .   .   . . .       . O . X X X . . O O . . X o o o o o o o . .                     . . . . . . X . . . . . . . . . .             . . . .     . . . o . . o . . o o X o .       . .     . . .         < 8 p @ @ V A w _.f.f.Y.f.r.%.%.%.L K %.%.t.s.Y.s.2.H p p 0 i c K H H K K K H 7 N H L %.N K %.2.2.&.o.2.r.r.%.&.",
"%.o.B q p p o.%.o.N N B %.B B b N N b N N b b N N N N N B 2.%.o.B b b N N o.%.%.&.$.%.%.o.r.r.#.#.H K N H K c z < % - % # ; o .                     . . . . . . .         .             . . X X o o X o X . . O . . . .           .         O . O O . . . . . o . . . . o X o . . X X o o o X . o % % % % % - % # . . . . o o % # . o % - ; ; - % o # o # o o % % % % # # % % % # o . . o # # o % o . . . . . .   . . . . . .                                 . . . . . .   . .     . . . .             . .       . . .                   . . . . . . . . . . . . . . .   .     .                 . . . .                                           . X # % # . # % # % # % # # . . . . o o o . . . . . . . X o o o X o o . . . O . . O . O O   . O O .         . . X X . X X . . . . . o o o o % % o .                       . . O . . . . . . X . . . . . . . . . .   .   .   . . . .   . . . . o . . . o . . .       . o % o . .   .         J #.a.0.kX,.[.$X%Xf.s.d.s.r.%.#.#.#.K L %.2.r.t.2.K G N c m m 0 z H N L %.2.%.%.L H K %.N K #.%.#.%.K #.&.%.%.$.",
"&.2.#.K N K f._.p.+.B K $.f.f.p.%.K b N N N H %.z p z B u.(.p.N B p z N o.#.%.%.&.%.&.2.&.#.r.N o.N b N N K H m i < ; % % < % .                               . . O . . . O . . .         . . . . . . . . . . . . . . .           . . O . O X O . . .   . . . .   . . o o . . . . . o X o o o o % % % # # # o % ; 1 1 ; # . o - % o # % - ; ; - % % o o . o % ; < ; ; - ; ; ; - # X     o # # o # o X   . . . .   . . .                                       .   . . . . . . . .   . .   . . . . .     . . . . .     .                   . . .   . . . . . . + .     . . . . . . .                                                                     . X X . . . . o o # o X X . X . . . X X . . .     . o o X . . X . . . . . . . . X X . O O . . .           . . . O . . O .     . . . . . o o o . . .         . . . . . . . . . . . . . . . .   . .     . o o . . . . . . . o X X   . . .   . . . . . . . . . . . . . o X . .             ; %.vXIXUXUXIXVXkXY.%.r.r.r.r.r.%.%.#.K L %.%.%.J H K #.%.m N c = 0 m G 1.r.Y.(.%.H K 1.#.%.o.#.H #.%.K %.K #.%.",
"r.r.r.d.&.f.!.r.K B &.!.R.!.s.s.&.o.b z b H &.&.o.%.N b r.2.p.r.s.%.%.&.%.K o.&.%.B H %.d.r.K N o.N N N b m K K c < ; - # - o X                             . O O . . . . . . . . . . . . . . . . . .       . . . . .             . . O . . o o X . . . . . . .     . . . . . . X o o % % o % - % % o o o o # % - ; < ; % . . o - % % # % ; ; - % % # o o # ; ; ; ; ; ; ; ; ; % % o . . . X . . . X X X X . . +     .     .                                 . .     . .   . . . . .   .   .   . . . .     . . . .                           . . . . . .       .         . . + . . . . . .                                                                   .         . . . . . . . . . . X . X . . . . . . o o X . . . . X o o o X o o o X o . X X o . .         . . . . . . O . . . . . . . X X . . o % o o X . . o . . . . . . . . . o . . . . .   .     . . o # X . . . . . . . . o . . . . . . . . . . . . o o o . .   . .   .             ; p.&.DXVXxXxX&X%XR.Y.d.f.d.r.r.2.r.r.s.%.%.%.%.#.%.K #.%.m z m 0 c c K s./.d.r.r.m #.L %.2.#.#.K #.r.#.%.o.%.%.",
"o.r.&.&.&.p.s.o.o.%.s.R.f.f.&.o.%.N N N B f.%.r.r.f.o.B &.&.r.!.f.(.(.s.2.K u.o.#.z N o.%.r.N b N N B N N z m m c 1 - - # o X . .                     . .   . . O . O O . . . . . . . . . . .       . . . . .         . . .               . X o o % o o . . X X . . . . . X o o o o # - - - - - % % % o o o # % % - - ; 1 ; < i ; - % # % - ; - % % % ; ; 1 ; % % - ; < < ; ; - - # o o . . . . . . X X X X + . .                                     .           . . . . . . . . .         . . . . .   . . . . .     . . . . .             . . + . . .       .           . . . . . . . . . . .     .                                                             .     . . X o o . . . X . . X X X o o X . . o o .     . o % o o % % % % o . o o o % o o .     . X X . X X X X X o X o o o o o o . . o o % o % % o o . . . . . . . . . X . . . . .         . . . o o X X X X X . . X . . . . . . . . . . . . . . . . . . . . .   .             v #.! kXlXzX@X^._.(.).).!.f.p.%.%.s.d.d.2.%.#.#.1.%.J K 2.#.%.K H p z K s.Y.d.%.K #.2.r.%.2.#.o.#.%.%.#.H o.#.o.",
"B o.#.o.K $.K N b H B B B K o.%.f.&.%.p.s.(.r.s.f.f.r.%.%.r.%.o.p.Y.(.f.u.&.r.&.&.%.#.#.&.%.K b o.%.r.r.r.r.H G i ; # . . # o X                       . .   O . . . . . O . . . . . O . . .         . X o o . . . . X o # - # .       . . . . . . o . . . . . . . . o . X . o o o o % % # # # o # % # o o o % % % < < i i 1 i i ; % % % # # % - % % % ; ; ; - # % - ; ; ; ; ; ; ; - % # X . . . . . . . + X X . . .     .   . .                     . . . . .                 . . .     . . . . . . . . . . + . . .   . . .   . . .     . . . . . . . . . . . . . . . . . . .       . . . . . . . . . . .   . .             . . .                   .               .   . X # % % # o o o . X o # o o o .   . . .       . . o o o o % o o o X o - - % o o X . . . o o o o o . o o - % % % o o o . . X o o # o % % % o o . . . . . . . . . . . . . .     . . . . . o # # # # o o X X X . o . . . . X . . .   .         . o . .     . . . .       y . N ^.tX@X^.p.&.$.%.s.Y.R.d.d.s.r.2.2.%.#.L %.#.K N z m L R.d.m m N m 1.L J K K %.%.#.K K %.L o.K o.H #.#.#.H ",
"&.K %.K o.&.K N z q 7 $ 0 z b b o.B B %.&.r.&.f.R.f.r.u.f.&.K %.%.%.&.&.r.r.s.&.s.p.p.d.u.%.s.o.&.%.f.f.p.2.%.m 1 # # . . # X X           o .       .   .   . . O . . . X . X . . . . . . . . . . o o o o % o o o % % % % - % % o X o % % o % o o X . . . . o o o o o o o o o o o o o o o o X o o o # # o # % % - < y i 1 ; < ; - - % % o X # % % # # # - ; % % - ; ; ; ; ; ; ; ; ; ; # + X . . . . . X . X + . . . . .       .         . . . . .   . . . . . .               . . .   . . . + + + . . . . . . . X .   . + . .   .     . . . . . . . . . . . . . . . . . . . . .   . . . . . .   . + + + + . . . .             . . .                                       . X # o o o o o . . # % % % o .             . . X . . . . X . . . . X o o # o X o o % . . o o o . . o o % % % % o o o . X o o o % % o o o o o o o o . . . . . . . . X o . o o o o . . . o o # # . o . . . . . . . . . . o o . . . . . . o . o X . . .       . . .     y 8 &.^.[.iXN.@.u.+.K #.s.d.R.(.Y.2.#.L K %.#.2.r.%.#.N i y i 0 K L 2.J G J m N c K K K m L #.K K H K 1.s.s.#.H ",
"s.o.%.b m b b b B o.N z m B N q q B B z K o.#.2.%.%.s.K o.2.#.#.r.%.%.K &.#.&.r.u.s.u.&.%.H o.%.t.d.u.d.s.&.K J i # # # o # X . .     . . .     .   . . .   . . . . . . . . . . . . .     . . o # # # # % % % % % % % % - o % % % - o . . X % % o . . . . X o % % % # % # o o o # . o o o o o o # % % % o # % % - ; ; ; ; - - % - ; ; ; % # % # # % - % ; ; ; - ; ; - % ; ; - % # % % # + + . . . . . . . . .     . . .           . . . . . . . . . . . . .         . . . .   . . . .   . + * + . . . + + . + . . . . . + + .   .     . . . . . . + + . . . . . . . . . . + . . . . .   . .       + $ + + + . + + + .           . .     .                               . . . . X . . X X X # o # % - # X . . . . .   .     .             . . . X o . X . . X % o o o X . . o o # o % o o o % # # # % % o o . . . o o o o # o # . . . . . . . o # # ; - # # # o o o o o o . X . . . .       . X o o o . o o X . . o o o o o o o .     .   . .   i }._.@X_..XD.@.N K B K H %.2.s.d.s.r.%.1.%.%.t.s.d.T.2.1.G * c #.2.1.0 y ; J c c p m K H 1.1.1.2.2.2.1.t.s.2.G ",
"K 2.L p 7 7 7 m K r.2.K z m N p 0 0 z N B m K N m N N z G G J %.%.2.d.K o.N o.&.r.u.&.2.%.#.N &.r.r.u.p.s.s.L J c % o # . X .       .       .   .     . O   .           . . . . . . . . . . . . o o . # % % % % % % % % % o % ; - % X . . . X o o o o o % % # % % % % % % % % # o o o o o o # % - - - - % ; ; ; ; ; ; - % o # % ; ; ; 1 ; ; % # - ; 1 ; % ; ; ; ; ; ; % % % % # # # X X + + . . . . . .   . .       .             + + + $ + . + + . .     . . .   . . . . . . . . . . . . . * * * + + + * * + + + . . . . + .   . .   . + + + . . . . . . . . . . . . . . . . . . . . . + + .     + . . . + * . + $ * . .                                             . . . . . . . . # # # # # # - - - # o . O o o .                   . X . . X X . . o o % - % % # o o o o # o o o . . o o % % % % % # o o . # - - % . . . . o . . .   . X # # % ; % # # o X o # o o . . . . o o .     . . . . . o o # o % . . o % o o o % o o   . .   .     L (.@.f.[..Xq.@.B N m b 0 m H r.s.Y.d.s.r.r.t.s.s.R.(.(.}.%X}.%XL v ; ; c i c S c ; z G G I 1.t.s.d.s.2.y.3.T.J ",
"z i i 0 ; # # $ i z c i $ = 0 ; = ; 0 i = ; i i z i i i y v K 1.r.t.r.%.&.o.o.r.u.r.o.&.%.%.H r.p.s.&.&.r.&.L J i % .   . X . .     . . . . .   .         . . .     .         . . . X o # o . . X . . X # # % % % # # # # o % ; % # # o . . o o o o o % o o o o % % o % % - - - % o # % % % % - - - - ; ; ; ; ; < ; ; - # o % % - - - ; ; ; - - ; < < ; ; ; ; ; ; ; ; ; - % # # + + + + . . + . . X .   . .       . . .     . . . . * + + + . % * . .     . + X . . . . . . . . .   . . . . . + * . + + + + + + + . . + + + . . . + . . + + + + + + . . . . . . .   . . . + . . . . + + + . . . . . + . . + . . . * * . + .     . .                         .         . + . . . . X + # # # # # % - ; % # # o # % % o X . .   . .       .       . o o % - - < - - # o o % % % o o # # X # % % % - % % % o # # o # % # o o . . . % o X . . X . . X # # # o o # o X X . . . . .   . X . .   . . . . . . X o # % % % % # # # % % # o . . .         y z 9.D.^..Xq.V B +.N p b z N H %.2.#.r.r.2.%.#.J 2.d.s.s.d.}.t.c # # < - ; # # i i y c c v J P L J P G G i J x ",
"; # # X # .   . . # > # # . ; ; y x i i 1 i ; ; ; - - # ; i J #.s.s.2.s.f.r.&.p.p.&.K o.o.&.o.B &.%.%.%.&.#.K G i # .         - . . . .   . . . . .       . . . . .   . . . . . . . . X . . . . . . . . X o o # o o # # # # - % % ; 1 ; % # o o X X . . . .   . o # o % % ; ; - % % # % - ; % - - - - - - ; - % % % # o % % ; - % % # % % % - ; - ; 1 ; y 1 ; 1 : ; ; ; % # X + + + + . . . . . . . . .   . . . . . . .   . + . . . . . . . + * * X . . . + % % & & + . . . .     . + . . . . . . . . + . . . + # . . + $ & * * + & * . . + * * * $ * + . . . . . . . . . + + . . . + + . . . . + . * . . * + + * . . + + .     .                         . +       . + + . . .   . . + # # # % % % ; % % - - - - - % % % o o o . .     .   . . X % - - < < - % - o o o o # o o % % - % % - ; - ; % % % % % % % X . X % - o X . X # < ; % % o o X X o . . o # o . X . . . .     . . . o . . . X X . . . . . o % # # o o o X X . . .   . .       = z a._.#X^.[.~.u.#.H p 0 p 0 m N N K #.#.H N p z z K N N 2.#.L J L c < % # a i a ; ; i i < i a a i y < ; # , - ",
"# # o # ; - # # # # - ; 1 ; i i ; ; ; y ; 1 1 < ; ; % # ; c %.%.r.2.r.r.d.%.r.%.r.&.%.%.#.s.o.r.r.%.%.#.#.&.N J i - ; - D % X . . . . .     . .         .   . . . .   . . . . . . .             . . . . .   . . . # # # % - ; # # ; < 1 ; % o # o . . . # o o o o o # % # % % % % % % % % % % % % % % % % - - % % o o o % % # o X . . # - % - - % - ; ; y y ; ; ; ; ; % * # # + . . .   . . .     . . . . . . . . . . . . . + .   . . . . + . X * & & + . + % & & & & % + .   . . + % * . . + + . . . + .   . + * . . * * % * * + & $ . + * % * * & $ + . . . . . . . . . . . + . + + + + . . . + + + X . + * $ 5 * . . . . . .     .                     . .         . .   . . . . . . + X + # # # # o # % % % % % # % % o o # o o o   .   . o % % - - - % % % % # o o . X . o % , < < ; ; ; % % % % % % % % # o o % % - # % o o o % o # % % X . . . . % # % - # # # # # o o . % % % % o . . o X #     .       o o . . . .     . .   .     .   m H _.~.@X#XiXzX$X%Xd.#.p 7 p N #.K %.#.2.#.#.#.H K %.#.r.r.#.G J S S x a < < % % % # % % - < < 1 ; % # # . . X ",
". . . . % ; ; ; ; ; : i 1 1 ; ; ; - - # % # ; 1 < ; - - v %.u.2.#.%.&.s.r.B %.K B #.r.r.&.d.r.!.f.r.o.K K K N G i ; ; ; i ; x - .                         . .   .   . . . X o o . . .     . . o o o . . . .   . . # % - - - - # # ; ; ; ; % # o # % % % ; ; - - % % # o o # o # % - % % # # # # # # % % - % o # o # % % % % O O O O . # % # % % % % ; ; ; ; ; ; - - % # # & + . . . . .   . . . . . . . . . . . . . . . . . . . . . . . . . X * & & & & % + + + * & & & & * + + % & & & * + * * . + + . . + * * . . . * & & & & & & & + . + + * + $ * + . . . . + . . . + + + + + + + . . + . . . . . + + + * & & & + + + . + * + . . . .   .             . .         . . * . . . . . . . X X # # X . . o # # o . o o o o . . . X % % . . o % 1 < - - % # o o o o % - % X . . % ; 1 a i i i ; % o o . X o o X . X # % % # % - % o o . . . o # . . X # ; < ; ; ; % % ; ; ; % - ; ; % % ; % o X . . o o # . o       . .         . . o . . .       i H _._.@X_.#XCX.XOXf.u.o.z H #.2.2.#.#.o.r.r.R.r.f.r.2.2.#.m J J i a a x i < 1 % # o % - o % ; ; % # # #     o ",
"o # o o . . . o % # % ; ; % # # - o o . . o % - % - i G r.d.f.r.K K K %.%.H %.B K o.%.%.s.%.p.s.%.$.+.K o.K N c ; # # ; # # - #           .                     . . . . X . . . .     . . # % % % o . . . .   . o # ; ; - - % # # % # % - % # # - ; < - - ; - - - % # # # # # # - ; % % % % % % % ; ; ; ; ; o o . % % ; < ; o O O O # % X X # % % - - ; ; ; % # % # * & * + . . . . . . . .   . . . . . . . .   . . . . . . . . . . . . . . * & & & & & & % % . X . . % & & & & & % % & & & * . . + * * . . * $ * + + + + * $ & & & $ + + + + # * * * + + . . . . . . * * $ $ + + + * * * * X + + + + + + * * * + + + * * . . * + + . .   . $ * .         . .     .     . . . * X .   + . . X + . X . . o # % # # # % - % .     . # % o o % - - - % # o o o # X # % % # . . o - - - - % % % % o X . X o o X . . . o o o # - ; % o # o . . o # # o # % ; ; ; ; ; % % ; ; ; ; ; 1 ; % % ; ; o X . X . o # # % ; .       . . . . X . o X . .       ; N O.q.i.m._.!.!.f.u.K %.2.f.N K o.o.#.H %.%.R.Y.u.t.2.2.K J J S i G i 1 < - - - ; # o o . # . o # # % . o # - ",
"1 x 1 < - - # # o # % ; - - % - - ; ; - % # % ; ; c G d.f.!.f.Y.K m m K K %.o.N N K K K p.s.%.B B B K K K B N i ; . # # % # X X                                 . . . o X . .     . . o # # % # # o . . . . . . X # % - % - - ; % % % # - ; ; ; ; ; ; < ; ; - ; ; - % - - - % # ; ; % - - % % % - ; ; i y y v a ; o . % ; - # . . o ; ; # o . % - ; - % % % % % * & * + * . .   . . + . . . . .   . . . . . X X . . . . . . . . . . . . . X & & & & & & & & % % . X % & & & & & & % % 8 y 8 . * & & . + + . + * * * + + * + * * $ & & * * + * + * & * * * + . . . + + * * $ $ * * + * * $ * + . . + + + * * * . + + + + * * . . . . . .   . & & + + . . . .       . . . . . . . .     . * + .   . + . o # % % - - ; ; < ; # .     . o o o # # o o o . . . # % # # # . . . . # % # .       . . . . o - ; ; - % # # X . X o % - % % ; ; # X # - - % # X # # # # - - % ; ; ; ; ; ; % % % ; ; X . . . . o # # o # ; % X o % o o . . .     .         J H b &.! O.,.@.B b H N H B d.H %.K H b K %.s.s.T.2.2.s.2.t.1.3.J < ; %   X % < - i 1 1 - % # % % % < i ; v x < ",
"z G i i m L K c ; # = ; ; ; 0 0 y z G m z c 0 i z N &.+X_._.).+Xs.c m H o.o.K o.z %.%.&.p.&.%.%.o.o.%.%.%.N c p i # ; # # # o #               .             .   . . . o o X .   . # # % # o o o o o # ; # # # o o o # % % % - ; - - # # - ; < ; - - - ; ; ; ; ; < ; ; ; ; ; - % - - - - % - - ; ; ; ; i y i J y ; - - y - % % ; ; ; % # % - # # # % % % ; % # % * * * . . . . . . . . + . . . . . . . . . . + + + . . . . . . . . . . + # & & % & & & & & & & & & # & & & & % % & ; y 5 8 & . + * * . . + + . + * * + + + * & $ & & $ $ * + * * * $ + + * * * + + + $ * * + & & & & $ * * * * * . . . . * + + + . . + + + + . . + . . . . . + . . & * . .     . . . . + . . . * + .   . + * * . . . . # # # # % - ; ; < < - # . .     . . o o # o o # o o % % # o % # . . X o X .               . o % - - ; - % # . . . X o # ; ; ; < ; - - ; - - - # o # # - ; ; % - - % ; % % # # # - % o o . . . o # # # # % ; X % . . o o o .       .       L /.tX@X~.A V w 7 7 N H #.s.p.r.u.%.H K %.r.2.2.#.N H 2.2.t.t.3.D 1 % o   - S J i 0 y y c ; i # ; i c m G #.G c ",
"z z 0 N #.r.2.2.#.0 = = 7 7 0 0 p N #.r.#.K m z q N u._.[.+X!.f.u.c b N K N %.$.$.f.u.&.%.%.&.&.+.$.$.r.%.H z p v - % # # # # #         . . . . . . . . . .   . . . o o o . . . . # % # X o X o # # - ; ; ; # # o o # # # o # % # # % # - - # # # % % ; ; - ; ; < 1 y i i ; - % % - - - % - - ; ; ; - ; < i ; ; l m l y % - o % - % # % - ; ; % # % % % ; % % * $ * . . . . . X . . . . . . . . . . . . X X + . . . . . . X . . . + . + % & & & & & & & + * % % 5 & & 5 5 8 8 8 ; & * * & + * * * + + @ $ $ $ & & $ $ $ + $ * $ & & * * $ $ * $ * + + * $ * @ + * + $ + . * & 5 $ $ * * & & & & & * * + + + + + + + & % + . . . + + + * + . . . . $ & + + + . * . . . + + . + * + + . . . . . + * + . . . X X X o o o o o % - - % . O X o o o % ; % o o - - # % o o # # o o .                   . . . . # % % o . . . . o # # - ; % ; ; < ; ; ; % ; % - - % ; ; - # % % # - - # # # # # # # . . o . o o o # o o o . . .   X . . o o o o # #     v 2.!._.iX~.V w B +.s.!.(.}.d.f.#.K 2.Y.Y.r.#.K K p %.s.s.t.t.L G ; ; %   - c c m i z p #.p c 0 H 0 p z H K N N ",
"m m p #.K #.#.#.H z p 0 q z p 0 p N B #.%.o.K z b V ,.O.N.a.f.u.#.K H K o.o.%.r.%.u.o.K H &.+.&.u.&.r.%.o.N N c c - # # # . O X .   . .   . . . . . . . . . . . . o o . o o . X - # o # # % % # # % ; % % # # % # # X X . . X X o # - % # # o X X # # - - - ; ; - ; ; < < ; - % % - - - - ; < ; ; % % - ; 1 ; i ; a v c c y - ; # # % ; ; ; ; ; % - % # % % & + . . . . . .   . . . . . . . . . . . . X + X . . . . . X + % % + + * + % & & & & % & & + + + * % & 5 5 5 8 8 ; & & * # % + $ & & & & $ & & & 5 5 & & & & $ * $ $ 5 8 $ & & & $ & & $ * * $ $ & * + * & $ * * * $ * * * $ & 5 5 5 & $ & & $ + + # + + * * + + + . . . . . + . . + + + * @ @ + + * . . . . . . . . . . .   . . + . . * @ . . . . X . . . . . X ; , - o . o o % o % # % o . # # # # o o o # X % . .     .         . X X . . . X o # # o # # % % % % - % ; ; ; ; ; ; % % % ; ; ; - # % % # # # % % % # - % o # % . o - % . . . . . . . X o . . X X X o . o o o o o   ; z +.u.~.q.! ) !.).Y.OX(.d.2.d.H #.K r.r.2.%.%.%.K K #.2.1.#.P D 1 < - . o y m t.H m p b #.(.#.d.H N b z m 7 m ",
"#.K H 2.B #.%.2.f.p.#.N N b b N z 0 0 N B +.B z b q V V N.f.N.f.%.u.o.u.o.$.&.$.B %.&.%.b &.&.u.f.f.u.%.#.N N c y # - ; ; < % o . . . .     . . o . . . . o o o X o o . . . . # % # . . # % ; % # ; ; % % # ; ; ; # . . . X # # o # ; ; # # o X X o o # # # - - % # # # - - - - - % - - ; < < ; - - - ; % ; ; 0 i ; ; y i l i l 1 i i ; ; ; ; ; ; % # % * * & + .     . +   . . . . . . . . . . . X X + * + X * * X + + # & & & & & % % & & & & & & % * + + * & 5 5 & 5 5 5 8 & & & 5 5 $ * $ & & & & $ & & 5 5 & & 5 8 & $ $ 5 9 8 & & 8 5 & 8 5 5 5 $ $ & $ * $ $ & 5 & & 5 & + + + & 5 5 8 8 * . + * & $ * + + * * + + X + . X . . . $ + * $ & * + + * $ * & @ + . * . . . . . + .   . + + .   . . . . . . + X o o o o # % % - % . o o % % o # # % % - # o % % # o o . o o % % # # X o X o # # # X . . . o % ; < < ; - - % % - % % % ; ; ; - - % % - - % % # % % # % # # # % % ; ; # # o # ; ; # o . o # o . . o # # . o o X . . . X .       # q B +.V ,.r .X).).!.&.2.%.&.s.H H K #.#.#.#.#.r.K H B b H #.L S i < %   % v L %.#.%.K B N z b H 2.N z z p o.u.",
"r.K m H H o.B &.(.!.d.&.o.N N p 0 0 b b b B N K +.q.@.q.D.N._.!.u.r.o.Y.&.&.s.K r.o.+.+.K r.s.r.s.u.o.o.%.m z i ; # ; ; ; < - #   .               . . . . . o o o o o . . . . . . . . # # # # # # % - ; ; ; ; ; ; # # X . . # # # - y 1 - # o X # X X # # # % % # # o o % % - % % - ; ; ; ; - % # % % # # % ; ; ; ; % ; y x c i y 1 1 ; ; - ; ; ; # # % + + + + . . . .           . . . . . . + * * + + + * % * * + * % % & * * & & 8 % % & & & 5 & & % % & & & & y u u 8 & & 8 y & 8 8 & + $ $ & & 5 & & & 5 5 5 & 5 & $ & & 8 & 5 5 8 5 5 5 8 8 u 8 & $ $ $ & 5 5 5 5 8 8 8 8 5 & + & 8 5 5 & @ . + + * & & * * $ + + + X * + + + + + + + $ 5 5 $ . . . $ & @ & @ & $ + . . . + * . . + . . . . . .   .   . X + # % % % - - - < - o . o % o o # o o o % # % % % - % # # o # % % % % # % # % % % # # .   . X # % % ; - % % o # # # % % % ; % % # # % % % o % % % % # % # # % # # % % # # o # ; ; # o o # # % # o o # o . . . . . .   . .       ; 7 p V q.eX[.tX)._.%.#.o.B o.%.r.Y.s.#.H #.%.%.2.B H K o.#.K G i ; X     % G J B 2.r.2.B N q q b B q b H 2.).!.",
"f.s.o.%.B B z N %.u.R.R.s.o.b 0 7 0 b p z b B +.&.f.D.^.D.N.~.i.s.r.#.d.%.o.$.+.&.%.$.&.&.r.u.p.u.$.%.%.#.b q ; # # - - - ; - -                     . . . . X o X % # o o . o - ; % < ; ; % # # # # # # ; ; ; ; # # # ; ; . # X ; ; 1 ; - # o # # # # # % % % % % # # o o % ; ; - ; < ; ; ; - % % # o # % ; ; y y y i y ; ; i y ; ; - - - % ; ; % # * % # . + + . .   .           . . . . . . + * + + + # % & % * % + % & & * * * & % % & & & 5 & & & % & 5 & & % 5 y y 8 8 5 y 8 5 8 8 8 * * * & & & 5 5 5 5 5 5 5 & 5 $ 8 8 8 5 $ $ 4 5 8 8 & 8 8 5 5 & & & 8 8 u 8 5 5 8 5 8 8 & * * % & 8 5 & * * * * * $ * # * * + + % & & & * + + + + & 5 & * . . + + * * + + & & * . . . . * + + + . . . .       .     . X X # # # # - ; < % o X # o o o . o . . o o % % - ; ; - - % # # # # # % ; - - % % # # . . . . X . o # % % % # o # # % % % % # # . X o o % o o % % - - % # # # % # # % o . # ; ; ; o o o o o o o . X o o .   . . . . . .   .     # # $ w _ XX#Xa.) $.0 B o.N B %.Y.p.%.%.B B #.%.2.#.H K %.#.J p < . X     o ; z m %.s.o.B %.H q p +.&.K H B 2.2.",
"s.f.s.r.K B B b B K &.f.Y.r.o.b m 0 z p z 0 b K $._.[.zXkX~..X_.!.r.r.%.N K K H B K $.+.%.$.%.K o.N %.&.m b q = ; # - % ; ; # # .   . . .     .     . . . . . . . o o o o . # % ; ; ; # o # % % # o # # ; ; ; # . . . # - # X # - # # X . X # # % % % - - - - - % % # X o % - ; ; ; < < ; ; - - - # o o # ; ; ; y y y ; - ; 1 1 - - - % % % # # * + + + + . . +       .           .     . . . X + + X . + * % & & & * & & & % % % & & & & & & & y % & & & % & & 5 y y & y y u y 5 8 8 y u 8 + & 5 5 & 5 8 9 5 8 9 5 5 8 & 4 8 5 4 & & 8 8 8 5 5 8 u 5 5 8 8 8 8 y u 8 8 8 8 8 & $ * $ $ # $ & 8 5 5 & & * + * 5 $ $ * + + + + # $ * + + $ * $ * * .   . + + + $ * + + + . + + . . + @ * + . . . . .             . . X + X X # % < - % o o . . . . . . X X o o # # % - % % % # o X o # % ; ; ; - % % % o X X . . X X o % % % % o o # # # o o o o . X o o o X X # % % - - ; % # # # # # . o % % - % # # % % # # # o o . . .   . . . . . . . .     > 7 N !.~.@X@XD.) N B N q K o.#.2.&.H %.2.%.u.%.#.K 2.o.o.K H m y % % % . - ; 7 z N o.2.s.Y.!.H #.u.2.&.o.q p H ",
"o.f.d.&.2.K b b b z B r.R.(.R.s.K N z N b N B r.u.f.N.+X$X%X#X.X%Xf.Y.s.K N B N b o.r.o.N N N b b b N o.%.%.N z ; . . X # ; # o . . X O . . . . . . . . .       . . . . . . o . o o o . .   . . . . # % # - # # .     o % y % ; ; ; % # . X X o # # % % - - - - % - # o # # % % - ; < 1 < ; - % # # - % % - ; ; ; ; ; < ; y 1 : - % # # # + # + X + X . . . . .       .     . . + . . . . . + + + X . . . . . * & & * * & % & % & & % & & & 5 8 y 5 & & & & 5 8 y u y y y u u 8 & y u p u u & & & 5 8 5 8 9 6 9 9 5 5 7 8 5 8 5 8 9 5 5 0 8 u 9 5 u 5 & & 8 8 8 u u y u u u u 5 $ $ & * & & 8 8 5 5 8 8 & & $ & & & $ * + + + . + * + + & 5 $ + . . . . + + + $ 5 & + . . + + . . . . @ & * . . . . .             . + + + X o # ; ; - # o . . . . . . .   . . . . . . . o % # o o o # % % - - - - - - % # # X o # # # # # o o X o o o # o .   . o % % # # # # # # # % ; ; ; % % % # # # ; ; ; % - - # # - % # # o o . o #   X . . . . . . .     i H f.p.q.'.iX.X) w N B o.2.K H N #.o.&.u.p.d.r.H %.!.r.o.m H H c 1 i %   . + 0 0 b B %.r.#.2.f.p.&.o.o.2.o.H H ",
"#.p.%.u.&.%.K o.H H N H K B B K K s.%.r.2.p.o.o.+.&.&.Q.).+X[._.R.r.r.r.f.&.%.o.o.$.&.%.o.H K b b z o.N H q b 0 : .   . X # X o .               . . .       . . . o . . o . . . . . % y ; o o # # # # # # # % # # % # . # ; 1 ; ; % # # . . X # X o # % ; ; ; ; ; ; # # # # # % - ; < < ; % % # # - ; ; ; ; ; % - ; ; y 1 1 y 1 ; - % o # # * . + * + X     . .         . + . . . . . + + . + * * * . + + . . X * % & & & & & & & & 5 ; & 5 & 5 y 8 5 5 8 u y y y y y y y u 8 y 8 y y u u u u & 5 5 8 8 8 6 5 9 9 5 5 8 9 8 8 4 8 8 4 5 9 u u u 8 9 8 5 & 8 9 9 9 9 u f u u u 8 % & & * 8 y 8 8 5 5 0 y 5 & & & & * * * * & & + + + + * & & $ * . . . + . . * & 5 9 & + + . . . .   . + 5 5 + + .   . .     .     . X + X X o # # ; - - # o . . o o . .               . o # o o # % % % # % % - - % % - - % # # # # # o o # o o o o # # % X X . o % ; % % # X # # % - ; ; ; % % % # # - 1 ; ; ; - - % # % # # # X . . . . . . . .   .   .       G &. X~.F.'.XX[.!.u.f.$.$.N z p B K o.#.%.&.2.%.o.2.2.r.#.N m c y % # .   X . q N o.H o.&.o.f.r.d.o.&.2.u.&.o.H ",
"2.u.s.s.d.s.u.p.r.%.B q 7 7 7 = b K f.f.%.&.B N B +.a.f.u._.%X_.2.2.K r.u.&.u.s.u.o.o.B $.%.o.N b N N b $ 0 N z l - . . . X o -                 . . .     . . X . # % o o o # ; ; ; ; i y ; ; # % ; # # % ; ; # # ; : ; # # ; % # o .       X # - # ; - - - ; ; ; ; - % # # # - - - ; - - # - - ; ; ; ; ; ; ; ; ; ; : ; ; ; : ; ; ; ; % % # + . + + . . . . . . . . . . + + . . . . + + + + + + * & & $ * X . . + & % % & * & % & % 5 5 & 5 & 8 8 8 y u u u u y y y 8 8 8 8 0 8 5 0 0 0 5 5 9 9 u u 9 5 9 9 9 5 5 5 5 8 9 9 9 9 9 5 6 6 9 u 9 u 9 9 u 9 0 9 u f u u u f f u y & * 8 5 & 8 8 5 8 8 8 5 8 & & & & * * + + * & 5 * * * * $ & & & & + . + @ + + * & 5 5 8 * + + . . .   . * & & + + + .         .         . . + # # % - - - % % # % % - o o o .   . .       . . . . o # o o X o % # # # o % - % % # o X # # % % % % % % % % # # o X o o # # % # # # # % ; < < ; % - - % % % ; ; - - - - # # # X # # # o o . . .   . . . .   .       m d.kXKXVXtX~.^.[.u._.r.+.b b b B o.o.%.#.H #.H %.%.%.#.%.H K m ; .   % X S T.s.r.s.%.#.u.%.2.+.p.f.%.2.r.$.%.o.",
"d.d.%.&.2.%.%.%.&.%.#.B N N N p b B %.&.r.&.o.%.B o.@.,.u.p.f.u.$.#.%.o.&.+.r.p.&.o.o.o.+.%.%.B o.+.b q = o.K G y - # # . . o # . . .     .             . . . . X o # # # % % < 1 i ; ; - ; ; # > ; - - ; ; # # ; y x i ; c ; % # # o X X # # # - ; y < ; ; ; ; ; ; ; ; ; # # % % % # # - ; y i ; ; ; ; ; ; ; ; ; ; ; ; ; ; ; - ; ; ; % # X . . . . . .   . . . . . . . . . . . . . X + + * * + * & & & & + . . + & * + & & $ & & & & & & y 8 8 8 8 u p u u u y y & 5 8 8 8 0 8 8 8 p 8 9 & 5 9 f j u & & 5 & * @ & 9 5 u 9 9 9 9 9 6 9 9 9 9 u f f j f u u u u u f u f u 9 8 8 $ 5 * + * % & u y 8 5 & & & 8 8 5 $ * + + * & * * + * + + $ $ * + . . * * * * & & & $ $ . . + . . . . . X + . + $ + .       . .     .   . . + * * % ; - - - ; ; ; - % % % % # # . .     .   . . . . . . . . X # # # o % % % # % o X o % % % - ; ; ; ; - # o % % o o . . o # # . # # - ; ; ; % # % % % # % - # % % % % % # # # o o # o o X .     . o X . .       K }.%XGXVXXX.XD.f.a.d.f.K o.N +.$.&.%.2.%.o.o.#.2.#.#.+.H m p ; o X # - . i t.s.d.Y.o.o.#.&.o.+.#.%.2.$.2.%.&.s.",
"r.%.K H K #.o.%.%.%.&.u.2.r.&.s.!.o.B #.s.u.s.$.+.b V ) @.r.p.2.p.#.$.%.r.r.u.r.s.o.&.o.o.+.%.o.%.B N b q H N 0 ; # ; ; # . o o o o .                   . . . . X . o o o o o - ; y < ; y 1 y ; > ; ; ; ; ; ; # ; 1 y y ; 1 # # - # ; i y y y - # # ; - # ; ; ; - - ; ; ; % # # # # # % - ; ; ; ; ; - ; ; - % # % ; - ; ; ; ; % ; % % X . . . . . . . . .   . . . . . . . . + .     . . + * & * & 8 & % % X . + * & * + & & & & & 5 5 5 8 u y y y 0 u u u u p 0 0 y 8 5 5 8 u 8 5 9 p u u 5 9 u u j j u & & & $ * @ u u u & 5 f 9 9 9 4 9 f f r f j j f u u f f 0 u u u u 8 u u 8 $ $ 5 * & u f u 8 0 u u u u u u 8 8 & * * * % + + + . . + X . . . . + * * + & 5 $ $ * + . . + . . . . . . + $ + + . . . . . . . + .   . + + + + * * # % % % - % % % % % # # % # % o       . X # # # # o . o # # # o o o o X X . . X o % # % - - - - - % % i i , % # o # # . . # X X # # # # X o # % % - % o # o # % % % o # o # # # o X o       .   . . .     J p. X#X^.F.N.D.f.f.u.%.%.%.%.#.o.%.&.u.u.&.#.%.%.%.H K H N H i v ; 1 o   - c #.%.&.B N $.#.&.%.%.&.2.&.2.r.s.d.",
"%.#.%.o.#.o.s.d.u.u.d.s.2.%.%.f.p.2.%.2.s.f.!.f.u.$.N.q.!.f.d.2.r.2.K B B B B B K &.+.%.o.%.K b o.o.o.B K &.N ; ; # # # ; # X . o . . . . .   . . . .   . . . . . . . . . . . . o # ; i v v c y ; ; % ; = ; % % # # % # o     . # # ; i c x i ; - . o o X # % ; % ; < ; ; ; ; % % # # - ; ; ; - - - % ; - ; ; - % % % % % - ; - % # + + . . . .     . . . . . . . . . . . . . + . . . . + @ & $ & 8 % & * + * * & & & & * % 5 $ & & 5 5 5 y 8 8 u y p p u u p 0 8 u u 5 5 u u u 8 9 9 5 9 8 f f 5 9 m m u 8 8 u & 9 j m j 4 & f e r f f f b b q f h j j f 9 u f u u f b u 9 f m p 5 0 p y 8 f f u y p j j u u u f h u & & $ * & * * * * + + + + . .   . + * + $ 5 8 & + . . . .         . X + * . . . . . .     . . . . . + + + * $ & X # # # o X o o # # X . o o - % . . o - < ; - - % % # # # # # X X X . . .   X X # o o # # # # . o # % - < 1 1 , ; - # o # # o X # # o X . . # % % % # o # # - % % % % # # % # # # % o X .       .         z N B @.@.-.@.,.f.&.o.r.p.r.f.%.&.#.#.#.%.o.#.#.#.o.N b B L 2.3.t.a i o   ; J m N o.B H %.%.#.r.o.#.o.o.u.f.Y.u.",
"H o.&.#.%.u.R.R.(.!.!.s.#.%.u.p.f.u.u.d.p.!.+X).).D.N.N.i.f.u.$.r.u.&.%.%.o.N K o.&.&.&.&.o.K b b B N q b o.#.L J % ; - . X . . X . X o o . . . o X . . . . . . . . . X o o o o o . . # ; 1 y ; - % # # # # # # - % # - o X # # # # X % ; ; ; ; i ; < - # # % % ; ; < 1 ; ; ; ; ; % % - ; % - % # % % % ; % - ; ; ; ; - - ; % % * + + . . .           . . . . . . .   . . . + + + + & & + $ & $ * & 5 & + * * $ 8 8 $ & & 8 u 8 y 8 5 5 5 8 & & 8 u u u u u p u u u u u u u f f 9 9 9 5 5 9 u u u 9 f m m j u j u f N n f 5 @ e t e f g f f n f f n b n j f f 9 f j f j j u u u 9 u m j j y u p u f j u u 8 u 9 f h u 5 & $ $ & & & & $ $ $ * + $ + . . + + * * & & & * . . .         . . . . . . . + + .           . + + . . . + * + + + # % # # # % - % .     . # % o o % - - - - % % # # # # - # # X . . . . . X . . .           . o % % - < ; 1 , ; - - % o X o # % # . . o X X # X # o o - ; # o % # # # % # # . X # o . . . . . .   .     i b q r V q.) ,.@.u.$.#.&.2.&.&.u.%.o.o.o.#.2.K H N p p N #.t.L c i 1 %   ; v N m B H o.&.2.%.u.o.o.B N o.#.o.B ",
"z B H #.2.r.&.&.&.%.#.B H K &.#.&.%.o.N H %.p.&.u.9.O.a.,.u.f.u.+.H %.o.&.o.K o.N B K B o.N B N z o.b m o.%.K #.c % ; # # # O . # . . . . .   . . . o X X X . . . . . o o % ; ; ; ; # # . # ; ; # # # # # # - - y y 0 1 ; ; c i ; - # # # % ; : p i i ; ; # % % ; ; ; ; ; ; ; ; ; % % ; ; - % # # # # # - - ; % ; < 1 ; ; ; % # + . + . .     .       . . X . . . . . . . + + % * & & & & & & & & * & & + & % & 8 y 5 8 8 y p y u p u 8 8 8 8 y 5 8 u 8 u m u p u u u u f u u u u 8 9 9 9 u 9 u f u d M H j 5 f u d M n f 9 4 f g g e 5 e r n M M M b f j M j u u j j f u u u y 8 p j j j p s p u j j u 0 9 8 u j M u u 8 & & 5 * 5 5 $ & $ * $ & * + + + + $ * + . . . . . .     . .   . .   . .   . .       . .     . . . . . . . . . # # # % - ; ; 1 ; % .     . o o o o # X o # o o o o # # - - % # . . # # X                   o # o % , < - % - ; - - % o . o % % # . # # # o # o o # ; % # # . # # # # # . o X X . .   . . . . . . . .   i N O.@.w.N.^._.f.N.f.u.&.o.#.2.2.o.B B m H o.N B N N N B B 2.L s i ; o   - m H o.o.#.K #.2.2.#.$.%.%.B B N p q ",
"K K H %.o.o.K B m b p 0 p N N %.%.B b 0 $ 0 N b N ) &.,.o.&.#.p z m B o.%.K o.H N b q q N N K B p 0 7 7 &.r.%.G c ; - X # . . X o X         . .   . X o o X o . . . . . o # ; - ; ; - ; # . o # # o # # # # % - ; y 1 1 i c J c y ; - ; ; ; 1 ; ; : ; ; % # - - ; ; ; ; ; ; - ; - % - ; ; ; ; # o o o % % ; 1 ; ; < y y ; % # + + + +       . . . . . . . . . X * + . . + + # % * * $ & % & 8 8 8 & 5 & $ 8 8 & 8 u y 8 y p p p u u p u 5 0 8 u u 5 5 0 9 f m u u j j f j j u u f f 8 u j f e f f 9 e M f j 9 5 f f M M M d 4 r g g g g f r M ! ! M n j b M g 9 9 f f u 9 8 5 8 5 f m M h j m j 8 u j u u 8 8 u f j j h u 5 & 5 5 8 8 $ $ $ @ * & 5 & $ $ + * + .       . + . .     .     . . . .           . + + . . . . . * + . . . . . # + # - ; ; 1 < - # . .     . . . o o X o X . X o # - ; - % % # % - - # o o . . o .       . . . . % - - - % % % - % # . o # # o o # ; ; % - - - ; ; % . . . o # o # X o o o X o .             . .     y #.N..X[.[.tX.X^._.!.f.p.u.+.2.&.H b z q b b z B B H o.H H K G S i ; %   ; v H %.%.o.o.K #.2.o.u.u.u.2.H B B o.",
"Y.r.%.%.K H B m N N H o.K o.%.2.r.o.N b b p B H +.q.~.N.u.$.2.K m m z m B H B B z z q 0 b B b 7 0 $ 7 p &.o.N z c < # . X - % -   .             . . o o o . o . . . . . X X o . . . . ; ; % # # # # # # X X # X . . o % y i i 1 ; # - # # # # ; ; y ; ; ; ; - % - - - ; ; ; ; ; ; - ; ; ; ; ; ; - ; - - ; ; ; : ; y i ; # # * + . . .       . . . . X X . . + * % & & % + & & & & $ % & % & 8 y u 8 0 8 5 8 5 5 u 8 y 5 p s u u u u y 5 $ 5 u 8 u u & 5 u 9 u m j f j j j f f u 9 f f 5 f M f e e f d g 9 f f f M f !  .! R 4 4 e g n M W ! ! ~ } ! ! M n n f q e f b j 8 5 8 8 u m m N j j f 0 & 8 u u 8 8 u j 9 9 j W M u $ 8 9 u 9 & $ & * + & & & & * + . . . . . . * . . . . . * .     . .             . + . . . .     + * . . + . . . . X X X X o # % - ; % X . . X . o # % o X o o o % - ; - - ; ; ; ; ; - - - % # % o . . . . . X . # - < 1 ; ; - - % o # o # o . # - < y < ; ; < ; ; - . . . o # o o o o . o # # . . . .       .       z K i.!.^.m.~.a.f.a.$.u.#.u.K &.&.%.#.#.H B B b b o.%.&.#.H J s i , # .   % c K %.%.K o.B H $.o.u.2.r.%.H o.r.f.",
"r.%.o.N B K H b N o.u.Y.!.d.p.u.r.%.B N H K H &.f.f.D.^.i.b p B z p p z b p b z q 7 = 7 7 0 7 7 b B u.B K 9.m c c ; ; # % < - -   . .         .     . X o . . . . . . .       . o # - ; ; ; ; ; ; - # o X . . . .   X # # ; # # # # i i ; - ; y y y ; % ; - % # % - ; ; ; ; ; ; ; ; ; ; ; ; ; ; : y ; ; ; ; ; ; ; < ; ; # + + . .     . .     . . . . . . + + * & & & * & & & & & % 5 8 5 8 8 y u u p p 0 u 9 p 8 u u & 8 s j j j f u 5 & 5 u 9 f u 9 8 f 9 9 m M M f j j g g d 5 f n j d M W n t f h h e 9 f M  .g W | ! M g 6 d f M M n } ! ! ! W !  .W f n M n b M N 9 9 8 u M M M j u u u f 8 8 u 9 8 u j f 9 9 u g W M 8 & f j f 9 9 9 5 & * * $ & @ + . + . . + + + + . + + . . . . . . . . .       . . . . $ . . . . . $ @ + X .   . . + X .       . < < - X . o . o o o o # o . o o o # # # % % - % % % % % % % % % % % % . . . o % - ; 1 < - - - % % # % % X X . # ; i a i < < ; ; ; # # . . o # o # . X . o o o o o . o o . .         c N @.q.q.a.w.i.f.&.o.#.B o.+.u.2.d.d.d.%.K H b N o.2.s.2.#.K c < % . .   - c K #.%.o.B N B +.+.&.$.#.%.o.o.%.%.",
"K o.B B B o.#.&.#.#.2.r.u.%.#.K K #.&.r.&.&.+.&.&.i.^.D.@.O.b B p = i 7 7 0 z p p q q 7 z K B b N R.f.N K o.K %.c x 1 1 # - % - . o .       . .   . . . o . . . . . .         o ; ; ; ; - # # # # # o o o X     # ; y ; > ; ; ; - ; ; i i ; : 1 ; # % % % % % # % - ; - ; ; ; < ; ; ; ; ; ; ; ; ; ; ; ; ; ; < < ; ; % % + . .   . . . X . .   . X X . . + X X * % & & & & $ $ & & & % 5 & 5 0 u u u u p u u u j u p u 8 5 u j j m M j j u 8 u u f f f f j 9 f j M m b M M M g f 9 j M M M W W R g d M !  .W g Q W n f W W W M e e d f f f n M W n R W  .! n M M n M M M u 8 8 u M M m f 9 9 f M f u f f f f j f f f f f g g f 5 8 f f j j 9 5 & $ & 5 8 5 & + + + . * + . . + $ + . + .   . . + * * .     . * + . & * + * * * * $ & + . . . . + + * # # o # % % - % O . . # o . . o o o o . . .     o # # o . o o o # o . o o ; ; o o % < a a 1 < ; ; % # # % - ; ; X . X ; y x x x i y ; - - # ; ; # % o o o o . . . . . . . . . .     .       c &.D.~.XXD..XN.a.&.+.} #.+.H o.2.2.2.2.o.&.#.H o.u.2.u.2.#.#.P c , o     - c H B o.#.#.o.%.o.%.%.+.B B %.o.o.H ",
"N o.H H o.o.2.s.f.r.#.H H K N b B #.d.!.R.2.#.B $.a.^.^.q.a.o.%.b 7 0 = 7 q b m N N o.o.R.r.o.B N +.&.o.o.o.#.L J 1 i i ; X o # - o # o . . . . . o . . o o . . . . . . . . . # - % # # % # # X o o . . . # # < y y ; # # # ; ; ; ; - ; ; ; ; : - % ; ; - ; ; ; - % % % ; ; ; ; ; ; ; ; - % - ; ; ; ; ; - ; ; ; ; ; # + . .     . . + . . . . . + X + + + + + * + & 5 5 & 5 5 & & * & 5 8 8 y j u u u c u u j M m b f u u u 8 5 u j f j j f f f m b b j n 9 f V } M M W ! } M M g f W M W W g g g g g R W | ! ! R n n g n | n e 6 9 t n W f e g W ! W W W n M W n W M n 9 8 5 5 f M M f 9 f n B M M M M j u 9 f j f d f M W h u 8 f f j n 9 9 9 9 8 9 8 & $ + + * + + + * + + . + + * . . . * + $ % * + . . . .   + * + * 5 5 * + * $ . . . . . + % ; ; - - - % < - X   . o X   o X o X o .         . # % # o # % - % .     . % ; % % ; < 1 1 < ; % % - - # % - # # . . % ; ; ; - % - - # # # - - # % - # # # # . . . . . . .   . . . . . .     c f.).XXpX#X'.i.&.@.#.+.o.H +.o.H +.o.#.H 2.2.2.s.!.s.u.#.%.#.1.J < %     - z m N H +.&.9.%.H H #.o.N b B K o.o.",
"N b m H o.o.%.#.%.&.%.#.N B b p b N p b N b o.N o.&.~.zXzXKXVX$Xd.%.o.B z b b K +.&.%.%.p.B B K o.o.o.B z b p m c ; - 1 y ; . . o o . o o . . X . .   . . . . . X . X o % - # o # o . # ; ; ; o o . . .   . # i y - - - ; # ; y i i y ; ; ; ; y ; ; ; ; ; ; ; ; ; ; ; % - ; ; ; ; ; ; % % - ; ; ; ; - % - - ; ; # # + X .     . X + X . X + X X X X X + % + + + * % & 5 8 u y 5 % 8 & & & & u u u u u j u u M H f b f f f f f 9 9 u u f j j j j j V M n g f g M ! } W ! } ! W ! W h f W O.O.W g R U U U g ! W W R ! R f g | ! t 9 t t R ~ R g R R g g n n g n ! W ! W W f 5 q 9 u M W m r f g b j j f M M f u j j e f M | :.W M j 9 f j g 8 8 8 8 5 & & & & $ * & $ + $ $ * + + + * & + + + * * 5 9 9 & + .       . + * $ + $ $ * + + . . . . . + # # # # # - - - o O   o o X . . X . o o X .   . . o # % - ; ; < 1 < % .     o % % % - - % % % # # o - < - - % o . . o % - % . . . X o X o # # # % # % # # # # o X o o . . . . . . . . . .     z #.N.!.[.XXF.a.@.q.+.o.o.o.#.o.o.o.K &.%.#.%.&.$.%.%.o.#.2.2.L v < %     - p z m B N K o.H o.B H B N N B B o.#.",
"N H N K H K #.K K o.#.%.N p 7 p p 7 $ + $ q B #.o.f.$XVXVXVXVXvX$Xs.o.B N m b o.o.+.+.K N z z B b o.q o.w b z c c ; i < 1 2 ; # o o . o o X . o o . . . .   . . o o o o % % % % - # o # # # # # # X . .   o # ; ; ; ; % ; - ; y i i y : 0 ; 0 1 : ; ; ; ; ; ; ; ; ; ; ; - ; ; - ; - % % % - ; - ; % % o # % % % # # + .     . + + . . . X X + + X X + + + + . + % + * 5 u u u 8 & 5 5 8 5 5 8 f f f 8 u j u u f f f u m V u f j m f f u d j j d f g W W r n W M n !  .n  .W W ! ! M d f | :.O.R g f g g g W ! Q Q | ~ R ! ~ | ! R r e r g g Q Q f g g n g f g ! R ! ! W b 9 9 b j n W M j M M u 9 u u g M j g n W M W !  .| M } M 9 d f f 9 8 4 4 $ & & & & 5 5 & 9 9 8 % * $ & $ $ & & * * $ 5 & 8 u f & . .     . + + $ + . + * $ + . . . . . + + X X X X o o - X . . .   .     . . . X . . . . o # # # % ; < < 1 1 < % o O   . . X % % - % % % # % < < - % - % X . # # # . . . . . o o # # o X % % % % # # o . . . . . . . .   . . . .       i B w.q.'.m.D.a.q.@.N B B N #.2.&.+.H !.u.u.#.B H b B H 2.r.#.H v ; -     % z m N b b N B B o.o.H B N N B B K H ",
"B %.#.d.2.%.#.#.#.#.#.o.N B N K %.%.#.N z p N o.&.a.u.!.f.p 0 p +.B B u.&.%.o.%.K K o.K b N b b N K B K 0 z N m i - - < i ; ; - o . . . o o o . . . . . . . % % % % o o . o # - ; % o # # o X X o . O . . # # # % % % % - - ; ; : i ; ; 0 ; 0 0 ; ; ; ; ; ; ; ; ; ; ; ; ; ; ; ; - - % # % - - % % # # # % % % # + X .     . . + . X   . X X + X + X * % % % . + + + * & 8 y 8 & & y 8 8 8 u u u u 9 u f j u 9 u u f n M d 5 5 8 u j M j u u d 9 9 d f f f g W n f g ! W W g R W | W h f W :.*.Q g f g U e U | :.*.*.Q R ~ R ~ *.O.e 6 e e e r g g n n n W g n n W ! W W n 5 5 f n M W }  .|  .b f f f g j f f M | W ! f e M M  . .g g W g 9 9 8 8 5 & & & 5 5 5 9 9 f u & * + * * + + $ * & & & 8 5 5 f 5 + . . . . . $ $ + + . + * + .     . . . . . + # X o o % %             . O .   . o o X o o .       . o X # % - < 1 - o . o # # - < < < # # ; ; - ; # % - % % % .       . . # # % % # o X o # - % % # . . . .   . X . . . .     .       i #.N.f.XX^.m.q.&.$.b +.B m &.H 2.%.$.u.&.o.N B K B N #.r.2.1.#.v ; %     - i z m b B B o.%.$.$.+.#.+.o.#.o.H B ",
"N #.H 2.2.%.u.u.r.o.o.H H %.#.Y.!.).+Xf.o.q 7 p o.+.+.o.o.b N $ q b #.p.Y.p.u.&.o.o.B K z B B b N b N %.&.m p = ; # # # % - % # . . .   . o X . .       . % % - % % % % # # # % - # o # o o . # . . o # # X . X . . # - # # # # ; ; ; ; ; ; ; ; # # ; # # ; ; - ; ; ; ; ; ; % % % % % % % % % % o o o % ; % % + X .     . . . . . . . + X + + + + + + % & % + + % % % & & 5 & & 8 u 8 8 y u u u f m M j m f u f f j N M g g u 5 9 9 j j f 9 f f 9 e e d d d W W R d g R Q W | n ! W R g Q O.| R g g f t 6 e | *.*.~ g R Q g ~ *.O.t k t g r 9 r g W W n W !  .! ~ g W W n 9 5 d n W | :.$.| ! W W g f f f e f M W g g r e M W  . .! | | ! f 9 r 5 5 5 5 $ & 5 & f R g u 5 % $ $ & $ . * % * + * & 5 & 8 8 5 $ $ . . . 5 $ * & & + + * +     . . . . . X + + X o . o           . . .       o - % # o .                 o 1 i < % . % # - - - - ; % X - - % % % % % % # - X . . . o X # # # # # # # # # o # % # X X X   . . . . . . .   . . .     i H D..X[.[.~.w.@.+.B +.o.N o.+.$.2.$.$.#.o.b B B o.N #.2.2.t.1.G < -     % i z p b B #.r.s.2.&.$.#.+.+.#.o.H B ",
"N H N #.o.K %.%.&.o.H H N #.B 2.r.2.H %.#.N N b p b N o.u.$XVX$X!.d.K %.u.s.s.r.o.K #.K z q q z z 7 b o.s.m # = ; % % % # # o # . . . . . . o o o     . X o o o % o o % ; # # o # o X o X . . . . # # # #           X # # # # # % - ; ; = % % # % # # # # # - - ; - % % - % % % % % # % % - - - % # o % % ; # + .   . + + . . . .   + % + % & & + % % * % & * % & * % + & & & 5 u j s p u s u j N H N N } M f f M M M M } } M 9 f f j f f f g g 9 9 f g W d Q R W f 6 f ! | | f g R g g ~ *.Q R U R U t e g Q O.~ t t R Q R Q *.-.R 9 t t t t f g g R g M ! ! O.| W ! | M f f 9 g | *.:.| M n n M R g f r e g W W f f f g g n W !  .! | | W n M 9 9 9 f 9 5 $ & r f 9 * * * & 8 8 $ + $ * & + + * $ & 5 8 8 $ 5 * + + & 5 & $ $ . + * * . . . . . . . . X . . . . o .   . X . . .       . . % o % o o o .   . o o # % % - ; < - o # # ; - # % - ; < 1 - # % - % # # # # # % % % # # # # X # # o % # # # # % # # # % . X . .   o o .   . . . .   p H a..X'.~.N.N.@.&.+.$.$.o.B H o.%.+.o.o.H N o.B H B #.o.2.2.L v ; o     % i z b B $.%.&.r.%.%.&.#.o.+.o.H H H ",
"o.&.H B H H H H o.H N N m N b o.b b q 0 b H K o.w w b } &.%XkXzXK B 0 B #.o.s.s.%.K B N N q q $ 7 = z N m p $ z : - - ; .   o o     . . . . o % o o X % X . . o o o . . . . . # % # ; ; ; . . . % # - ; ; o       # # X . o # # % % > - - % # > - % % ; % # % ; ; - % # # % - ; ; ; ; ; ; ; - % % % # % % * X X   . . . + . +     . . % + X + % * % & & % % & & 5 & & & & & & & y j j u u u j M H H H H } } H M } } M h W  .M h g j g M M M M M g M n R R f Q Q g t 6 f R g d 9 5 9 d f | ,.| R g t e e g E Q R Q U T Q E ~ *.<.;.~ e k t U t R R R R g f W ! | W ~ O.O.! g f f W | | O.O.! f g M W n g n W W R g t f f f g W | ~ M W ! O.:. .W g 9 8 8 8 5 5 * & 5 & & 8 * 5 8 $ & 4 & * 5 * & + + 5 9 9 u & 5 & + + & 5 8 8 5 . . + . . + + . . . X . X . X X . .     o o X . . . . . . . . . X - ; - % o % ; 1 < < ; < < i < % . % - - o - - ; ; 1 % % % - ; - % # # # % % % % # % % % - - % - # # # # # o % # % # o . X . # o o . . .       i H a.^.XX^.'.[.N.f.s.&.+.#.#.o.B +.H o.B H %.o.K #.%.K H H #.J y - o     ; i z p o.&.$.+.%.$.$.r.2.r.$.$.%.&.#.",
"%.u.o.K H #.o.%.%.#.%.H B &.B H N N b B N N B B o.o.o.@.o.f.zXOXK H z z 0 b u.s.K N b z 0 q q 0 0 0 b z b r.N G c ; - - o . . # .   . .   . .   . o o o .   . . o o o . . . . # - ; x i y m i ; o . # - ; # . . o ; ; # o . # ; - # # # # # # > ; ; - ; ; % % % - - # o # % ; ; ; ; ; ; ; ; ; % % - - % # X . .   . + + + + .   . + + + . . X % % # & 5 & & & 8 & & & & & & 5 5 5 f j u u M H  .H H M M  .} N M H  .} } | | } M M M } } $.} f g W | O.~ R e d d f g f f g t 9 9 4 6 6 e Q Q ,.<.| R E t k e U E ~ ../ / ( / <.<.;.` E t T R t R O.~ ~ W W ! | :.R W O.O.O.! Q W Q | *.O.O.O. .R Q ~ ! g n ~ W n g g g g g g ! Q W W ! ! | <.O.n f e 9 & 9 8 5 & & f f f & & 8 9 $ . & $ 9 5 5 & + + 9 9 8 u & 5 5 $ + + + 5 8 5 * + X . + * @ . .   . . . . . X . . .   X X . . . . . X o . . . . # - - - - ; < < - - % 1 1 1 % o   - - - % o - % % ; - ; ; 1 i i < ; - # # # # % % - ; % % - - ; - % % # % % # % # # o . . . . . . . o .       p o.f.~..XoX#XF.!.!.u.u.o.K +.%.K %.N B o.B H H o.o.2.K #.o.%.L c % .     - p N B o.o.H H H B o.$.$.u.r.d.2.s.d.",
"%.%.o.%.#.%.%.%.r.#.f.f.%.s.o.o.H K #.%.r.%.#.r.u.N.^.D.i.&.u.K c H m p 0 = B 2.r.B 0 7 q %.s.o.N N N 0 B L ; J i ; % # # # o . o . . . . . .   . # % .     . # o o o % ; - % ; ; < c y i K 1 - % - y % % # ; ; ; - # # - # # # % # $ = # # # > ; ; ; ; ; # # # # # # o # # # ; - ; ; ; ; ; ; - ; y i ; # . . .     . + + + . . . + . + . . X % + % % & 5 8 & & & & & 8 % % & 5 u j j j j H H H H  .M M H H H M } } }  .M  . .j f g R W :.$.! g R | | | | R g Q R U g t f | g e d d k k *.*.~ w.V.*.>./ e k t Q *.*.*.*.=.>.<.<.<.;.~ Q E E g Q *.*.*.*.*.O.*.,.| Q O.O.*.O.O.~ ~ ~ *.O.O.O.:.| ~ ~ | R g R R W R R W M n n ! ! ~ ~ M ! ~ | ! e g n 5 9 r 9 9 9 9 f  .g 8 & 9 & . . + . + + 9 f * $ 5 8 * & 5 $ 8 & . . X * & * + * * * & * + + .   . . + . . . . .     . . . . . . . . X . . X X X o % 1 a i 1 ; % o o % - i % o o # X # . . % % # % % - ; < < 1 < ; - # X X # % % % % # . X # o # # - # % % o # # o o . . . . . . . . .       z #.a.N.'.[.[.D.q.,.&.$.B H o.$.$.&.o.N B m b N %.$.H #.#.2.%.J x - .     - z %.%.H N b b b B H %.u.2.u.d.r.u.r.",
"#.K %.d.u.%.%.%.2.&.&.r.#.#.H %.o.H H H %.o.+.f.u.,.) -.q V c i m G m q q p $ z B 0 7 q B %.s.r.r.B %.N q K z z i ; - % . o X . o o o X . . .   . . . . .   . o o o o # % - - - ; ; < 1 i ; ; i m z y % - o % - # # # ; ; ; % # # # # ; ; # * # ; ; ; ; % # # # o o o X # # # # # % % % # # # # - ; < ; % X . . .   . * + . + . . X . + + . + & + % & + & y & & & & 5 & & # & u f j H M M } H V H  .} H H } H } } ! W  .W  .O.|  .| W W $.$.$.! Q | | :.,.4.:.<.4.*.U R R *./ g d U t Q <.w.>.| i.<./ ..../ Q ..;.Q R / *.=./ *.` >.` ` E R T E ~ *.>.*.*.,.-.O.! R ~ O.*.*.,.*.O.~ O.~ ~ :.,.| R ! ~ Q R n W ~ ~ ^ ! ! R ~ ~ ~ O.~ n n ~ ~ M 9 r n 9 9 9 5 9 9 5 d j 9 5 9 9 * . . $ $ + * 5 M 9 8 & 9 * * * * & * + . . X $ & $ $ * * & * * + .   . . + + . . . X     . . .   . .     . . . . . . . o - < ; - % o o o % % < i . .       . # % # o   . % % - - % - - ; % # # # # # # # .       . . # % # # # o # o o . . . . . . . .           p #.q.i.G.[.'.N.a.&.$.%.o.$.#.&.$.$.$.$.o.B B +.B %.%.2.r.2.%.L x < .     ; G 2.#.o.N b b N b N B o.o.%.&.%.%.%.",
"o.K u.s.2.%.2.%.&.2.%.%.o.N K p.r.H p b o.#.%.u.u.) O.A r # ; p %.G z 7 $ $ # 7 p q 0 z q N B u.$.+.o.z 0 N = z i - - ; ; - o . % % % o . . .     .   . .   . . o . # o o % ; ; # - ; ; ; ; i ; i m c c 1 % ; # # - ; ; ; ; ; % - # # ; ; ; ; ; ; ; ; ; - # # # # # # o # o o # o o X X o o # % % ; ; % # + + . . . . * . . + . . . + . + + + 5 % % & & + & & & % 5 u 5 & * & b M M } H M H } M H }  . .} } } | | }  .} O.$.$.i.i.4.$.| W | -.| O.,.,.i.i.i.i.B.B.V...Q ..X.Q E R / R *.b.6.>.....<.' E =.k.=.( / Q E / *.( E ` *.<.;./ E t E ~ E ~ *.-.<.<.,.*.! ~ *.O.~ *.*.| ~ ~ ~ | *.-.:.| f U Q ~ Q Q ~ *.~ ~ O.~ ! ~ ~ Q ! n f e f n n r 9 g 9 9 8 5 q n f g 8 5 n  . .u & * * * $ $ 9 5 5 8 $ $ + . . + $ * * * + + * & 5 & * + * * & * + .     . + X . . . .                         O . . . . . . . .   . o o # - % <         . - - - X     o % # - - # - - - % # % % # X . # . .   . . # # # # # o o X . X . X o . . . . .           i o.a.N.w.G.F.a.a.i.u.$.$.$.o.K %.$.r.u.&.$.&.%.#.r.r.r.s.2.2.1.S <       ; L r.H K H N N b N N N b H B H o.K B ",
"o.K #.#.K %.%.#.B H N B B 0 m #.o.B B K %.o.N N N o.,.a.i.p b 2.%XH %.m 0 N b 0 # $ 0 f.f.Y.&.&.%.B B q z p = i ; # % % X o . . o o X . o . .     . X o . .   o o o # o o # - - ; ; ; # # ; ; i ; ; y i l i z y i i ; ; ; ; ; ; - # % ; ; ; ; ; ; = ; ; ; ; # # # % - # o . . . . X X . o # % # % ; - # + X . . + . . . + + * . . . . + X + & & % * % 5 + . X + + & y 5 & 5 8 p f m H  .M d h M H }  .$.|  .} |  . .O.} | O.O.,.i.i.4.:.! Q | | | w.i.i.i.V.V.~.M.B.V.*.<.=.U E >.*.~ >.b.V.;.Q R w.w.E *.;.;./ / ( ( ;.=.( ' ' <.;.*./ E t ( <.<./ ` <.<.>.>.<.<.>.,.*.` >.*.! ! ~ O.>.*.*.~ ! Q Q ~ ` R E ~ O.~ *.>.O.~ ! ~ ~ Q R e 9 9 r 9 9 4 e f 9 9 4 g f q j f 9 n | | f 8 & + $ & $ 8 u & & $ + . . . . X + * * + . + $ 8 5 $ * $ & $ + + .     . + . . . . .                       . . . . .   .         . o o o o # - o . % ; ; # # X o % - - - # - - - - % % o o # # # X . . .     . o % - % # X . X X   . X o o . . . . .           ; N u.N.e.G.G.w.) q.&.$.$.$.o.o.o.+.+.&.+.H d.&.o.%.r.s.2.2.2.K c <       1 L %.b H o.B B b N B B B #.H %.#.o.N ",
"%.o.K o.%.%.%.B b b z 0 m 7 7 0 z z %.&.&.B p $ w ! D.GXiXb i i z N N o.0 q p $ $ + B %.o.r.s.f.&.b N p q 7 . # # . # o X o X . o . . . . o % X . o o - % o o o o # % o o # # - ; - # X # ; ; ; ; # ; y c c i 0 y 1 ; ; - ; ; ; - # % ; ; ; ; ; ; ; ; ; ; ; ; % - ; ; % # # # o # o . . X o o o # % % X . X . . X + . X + % * X + + + % + + & # + . * & % + . . . * & 8 5 5 5 5 u u M  .M h H  . .}  .$.$.$.! W W O.O. .| O.O.| | ,.i.4.| | *...~ <.i.i.V.N.N.N.M.N.N.6.<.=.Q ..;./ ....( E ( Q >.B.M.=.<.<.<.k.>./ / b.k.=.=.;.' w.w.` R R E ~ -.-.-.<.<.*.;.*.<.i.>.*.<.i.<.~ R O.O.,.*.~ ~ E *.*.` ` R ^ / Q ! O.*.*.*.~ ~ ~ R ! R n f 5 e e r n *.! n r f u f R | M f g M f 5 & + + * + $ 5 5 5 & & * . . . + & & 5 * . . . + 5 $ & & * + . . + . . . + . .   . . .                             . . . o X . o o # # # o % # X . 1 1 ; # # # o ; % ; - - % - % % # o o . o # # X .     . X o o % o o . . . .   . o . X o X . . . . .         0 B ,.N.w.k.F.i.i.q.&.+.+.&.o.$.o.o.N K o.o.&.%.B H u.r.o.o.#.J i %       < G #.H N #.H o.N b N H H +.#.2.r.&.&.",
"&.%.&.%.#.o.K N N K K %.H m m H &.%.r.2.s.%.&.o.&.i.~.pXVX$X2.&.m 7 0 B K K r.B o.%.$.&.%.N o.r.%.s.$.B K p $ . # . . . o < 1 , o . . . . o % %   % o % - % o . o o # o # # . # # # # # % ; 1 0 y i y ; ; i y ; ; ; ; - % ; ; ; ; - ; ; ; ; ; ; ; ; ; ; ; ; ; ; ; ; ; ; ; ; - % # # o X o o o # # # # + + . . . . + + + + * # X + + . X + & % + + X & & & % + + + + & 8 & 5 5 5 j f M H | } } } $.$.$.$.$.| } | O.O.| | $.:.:.:.:.i.i.4.4.,.w.,.:.w.<.V.N.B.B.V.M.B.N.<.E / >.<...g E Q U Q *.>.n.b.B.M.k.<.k.m.>.` <.k.k.6.;.k.;.w.<.-.~ *.*.E *.-.-.-.<.<.>.Q *.<.` -.i.i.i.,.^ *.>.~ ~ *.` ` ` -.-.-.` ` *.Q ^ ~ *.*.*.*.Q ~ Q R ~ R e 4 r Q ! W 6.:.Q W f f M *.*.| u f 9 9 5 8 & + * * 5 5 * $ $ & 5 $ + . . % 5 * * + . . $ 5 * & * + + + . . . . . + . . . . . .                             . . o o # o o % % % o # % % o   ; ; ; ; % % # % - - % - % # % % # # % # % % - # . o . . # X # o . . . . . . o o % # # # o X . . . . . .     p N q.p.D.m.G.m.a.q.9.$.$.$.o.$.%.$.+.#.$.u.f.f.f.%.s.$.%.2.K m a o       1 G #.2.o.#.#.%.o.B N H H B B #.%.u.f.",
"N H o.K B B b H N %.2.f.%.%.2.&.%.%.H H d.!.%X$X*X.X_.@XzXKXIXR.K i 0 K r.R.+X+XkXvX).&.p 7 N 2.K &.s.R.).s.G # #       X - X . # o X o o % o .   % o o # o . . . . o # # # . . . . . X % ; ; y i i ; ; ; y ; - - - # % # # - ; ; ; ; ; ; ; - ; - ; ; > # ; ; ; ; ; ; % - - % % % % % % X o o # # # + # # .     . . + + + + + X X + X % & & % . + + & 5 % & & % * + $ 8 8 8 u 5 m } M M  .} $.$.$.2.$. . .W | :.:.| | $.$.:.:.,.i.N.i.4.g.i.<.*.*.i.N.V.V.B.B.b.B.B.~.F.*.E k.<.<.N.F.`.B.B.`.B.B.B.F.B.n.;.<.b.k.=.` ' ;.M.k.' k.w.k.>.;.<.*.~ *.` ` <.<.i.w.<.*.;.-.V.V.w.:.,.*.` *.Q Q *.*.<./ ` w.<.-.~ ~ ^ ~ *.*.*.*.~ R Q E R R g t e g *.*.R *.*.! W f d d g g n n f 8 & & 9 f 5 9 9 8 5 $ $ $ $ $ $ * $ * $ * * + * X + * & * + . . + . . . + . . . . .     . .               .           . . . . . X o o o . . o o o %     - ; - - - # # % # % % # # # % % % # ; ; - - - % # % X . o # . . . X . o # o # o # # % # o . . . . . . .     i H @.q.m.a.m.q.,.$.&.+.$.o.#.2.&.&.&.r.s.f.).%X$Xp.&.o.%.K J m i %       1 J #.r.&.#.&.d.r.o.N B N N H o.#.K H ",
"0 m #.K K %.&.s.s.%.H N z B %.%.K K N p z m o.u.!._.a.w.f.+X$X/.L p H %.d.d.R.R.).$XOXu.%.B q 0 q K B o.H m N y y # o . X . . . o o o . . X o . o o o . . % % o . o o # % - # # # # # # - - ; ; ; : y ; i y 0 - # # # # o o # % ; ; ; ; % # # % # # # X o # % - # # # # % # # o # # ; ; # # % ; < % # + + X . . . X + * * . + + X * % & 8 & * . X % 8 8 8 5 & * * # & 8 u f f f M } } M  .$.4.4.2.$.4. .h W h R W  .| :.,.,.,.,.i.V.i.i.N.N.i.i.i.b.V.b.V.N.`.~.b.m.M.k.( ( F.'.B.F.^.'.F.B.'.`.B.B.`.`.B.6.>.<.M.B.;.;.k.B.F.5.k.M.<.` ;.>.R R ~ ~ -.<.;.w.V.b.w.<.<.;.<.b.*.*.<.*.*.Q ~ ` *.*.` =.<.<.*.~ ` ~ ` / *.*.*.` ^ R ~ *.g t t 9 g ~ *.Q n W | | n r f 9 u g g j 9 5 8 j u & 9 9 8 8 e 5 + + @ * + * * * $ $ + + * + * & * * + + + X . + + + . + . .     . . .   .     . . . . . . . . . . . . . . . X . . . . . X - . . % % % # # % % % % % # X . # # % % # % - - % % # .   .     .   . . X o # # o # % # # # % .   .   . . . .     z $.O.@.-.-.a.) @.@.&.N N B $.+.&.+.$.o.H H +.u.u.#.r.&.r.#.%.v S -       < G %.2.o.B %.#.$.K N b b N &.2.+.b q ",
"z p o.K r.R./.+XR.r.p 7 $ z %.N N N b 0 $ + $ = b @.q.i.u.r.(.}.%X/.s.s.d.f.d.%.N #.s.%X*Xs.q .   . $ . $ = p m G y ; o       . % o o o . . X   . . o o # - % % % # # % % % % ; ; ; ; ; ; ; % % ; : y y y y y ; ; # o o o # - - < ; ; ; % ; # # % o X . X # - ; % # - - ; % o . . o % ; % % ; ; % % # + . . + . + * & & & + + % X * & & & % . X + & 8 8 8 & * + & & 5 8 p f f M  .} } } $.4.4.4.4.4.4. . .W ! h R R W O.| | ..*.<.<.,.m.~.^.~.~.F.~.B.b.b.b.F.~.B.m.M.M.' E k.~.M.F.`.`.~.M.M.b.f 6 / B.F.6.k.M.B.V.M.M.M.k.M.M.k.b.k.;.w.k...~ Q *.<.<.<.=.<.w.w.w.k...*.b.k.<.b.;.*.*.Q E / / *.;.*...` *.=.~ *.` ` ` ` ` ` U Q *.Q e 9 9 9 t f f f n Q <.*.W W Q u 9 9 9 & $ & 9 & & f R d e 9 9 * * & & + . + * * * + + * * * $ $ + . . . + + + + * + + . + . . . . . . . . . O O . .                 . X . . X X o X . . . % . % # # # # % % % - % % % # % # # % # # # % % % # o o % X   . .   . X # # X # # . X o o o X   . . . . . .     N %.-.! -.) _ O.V &.$.N b C o.&.+.$.$.+.b q p b +.o.%.&.%.o.L L D -       ; m #.o.%.+.N H H K N N q b B #.%.K p ",
"%.N b z o.&.K #.%.r.K p q 0 K b z N &.o.b N q p z o.q.i.f.o.2.!.kXOXR.r.%.B p q q 7 N %.!.f.#.o.B o.H b K L i i ; # # X . X . . . . o . . X o   . o % % % # % o o o # - % % - - % ; ; ; ; ; % ; ; 1 : ; ; 1 ; < y < ; < ; i i ; : ; ; ; ; ; ; ; ; # o # # # ; ; ; ; ; : 1 ; % o . X # % % % - % # + + X . . + * * % & & % * * % X X & y 8 % . . * 8 8 & 5 5 % & 8 8 8 u u u u j G $.,.,.$.$.g.u.i.4.$.$.,.,.,.| Q U Q R g R Q ....Q ..<.b.B.M.F.'.[.~.b.~.n.b.F.B.B.F.F.B.m.b.6.B.`.`.`.'.'.M.Q 4 @ 6 / k.b.b.k.b.b.B.`.B.k.k.B.k.k.B.M.m.M.<.R ~ ..~ -.;.<.b.M.k.=.<.-.<.<.b.k.b.>.<.<.*.Q / *.*./ / Q / >.>.Q / / Q ^ ~ ^ ` ` ^ R R f 9 9 r 5 5 9 R n R *.<.<.*.! 9 5 9 9 8 q 8 & $ $ & 9 & 9 9 e 5 5 8 5 + + * * * * + $ & $ * 5 $ * . . . + & * + * * + + . . X .   . . .     O .                     O X X . . o o X O . o % . o # # # # % % - ; % % % ; ; - # # o o . o # # # % ; ; < o       . o o % % % % # X X . . . o . . . . .       i H ) w A A A w w +.C o.o.&.&.o.K +.o.$.B B B N +.o.&.+.#.2.2.1.S %       - v z o.o.r.r.K +.o.%.+.b B N N o.s.o.",
"(.Y.%.z z z 7 = p %.Y.#.r.N z p 2.p.s.d.s.p.#.b b z ) @.$.N %.d.)./.s.%.m = + + $ $ = z B Y.%XzXvX$XOXOXOXR.z = #   . # < < % . % o X o . o . . . o o o o o # # # o # % % # - ; ; : ; ; # - ; ; ; ; ; ; ; - - ; y i i i l 1 ; # # # # o o # - ; % # o # - ; ; ; ; ; ; < 1 1 ; % # o . X o # # # # # + . . . + * % + & & & & * & & & & u 5 & + & 8 u 8 5 5 9 u 5 8 & & & 8 & 8 u u H $.$.! $.i.p.N.g.$. .4.V.V.,.| | ..Q E Q *.=.| Q / / ..k.M.M.B.~.F.m.~.B.<.b.b.B.`.'.[.'.'.[.{.B.' 6.B.n.k.E 9 6 4 e ~ ;.b.b.;.;.b.F.B.k.k.M.B.m.k.k.k.k.k.*./ ..<.>.=.=.<.M.B.b.M.w.=.w.b.b.M.M.B.M.b.b.w.~ Q E ( Q / *.;.` ~ ~ ^ ^ ` ^ ` ^ R t e 9 r e r $ $ 5 g f t R ` :.>.W 5 & & 5 5 9 j r f f 8 8 9 R & 4 9 9 8 8 $ * + * * & & $ 5 8 5 5 $ 5 * + + . $ * . . * * + + . .   . . . .                           . . O . . . . . X X o o % o % % % % % % # % # # # # - ; % % % % % o . # # % - - # % 1 o . . X # % % # % o # X X o # X o .   . . . .     y N ) w A w w A b N ) $.p.r.&.o.B N N +.o.%.B N B B %.2.R.Y.(.t.G %       - c H 2.r.f.!.!.u.f.p.r.#.o.N b H B f.",
"OX).r.N m b m q b #.H (.OX(.r.H o.r.s.2.r.p.f.s.s.q.a.q.i.o.%.%.o.%.#.K N m B N K m z q 0 N o.s.!.!.r.s.#.%.z i ; o - 1 a 1 < o - o o X o . X .   . o o o o % - % # # % - % ; ; 1 ; # o o # # # - ; ; ; ; ; ; ; ; y y y i y ; # # o X . . o # % ; ; % - - # o X X o # # # % - ; < - o o # # # # # + +   . . + * % + & & 5 & $ & & & y y & & % 8 y p 0 * + & & + 5 & & * & 5 f M p M | $.| i.Q.!.N.N.,.| ,.V.,.Q ~ ....*.*.Q / ..~ Q E >.>.<.M.k.=.6.b.B.M.B.M.F.`.F.M.'.XXXX'.'.[.F.6.*...Q ' / U t t k 6 U >.k.m.k.;.b.B.M.F.B.N.M.b.M.M.k.k.k.;.-.<.-.=.;.` k.M.B.B.b.;.k.<.M.B.B.B.B.B.k.>.~ ` E ( >.*.~ ( *.=.=.` ^ ( ( ( [ t e 4 9 t f r & & 5 t g f f n *.| 9 5 5 8 r 9 j ! W ! R f f 5 8 $ 9 Q f 8 f 5 & + + * $ 8 & $ 8 9 8 & $ * $ + . + + X . * & # + +     X . .             . . . .   .   . . . . . . . X o o % % - % % o % % - - - # # # # # # - ; % % ; ; - # X # % - - % o ; ; o # # # ; - % % % # % o X o X X o .   . . . .     y N ,.N.'.-.-.r ) ) B N +.B o.B K B B B o.&.u.&.&.r.f.R.p.Y.Y.t.J o       - K r.&.o.2.$.2.$.&.u.&.H K b b N #.Y.",
"s.d.p.d.d.%.p z z K r.(.%X%Xd.K p B p.d.p.(.%XkXkX$X@X_.D.u.2.N 0 z N H H r.R.OXOXf.B z $ $ $ 0 o.%.&.#.m H p i x i S G x a 1 , # o o X . . . .     . . o o o % ; ; % # % - ; ; - ; % o # - % # # # # # ; ; ; ; ; y i y y : ; # # . O O . . X # = y ; ; - o . . . . . O . X # < < ; % o # # # # # + + + . + # * + # & & * * # + * & u u & & & & & & u u y & 8 # $ 5 u u g f ! -. .| 4.:.g.Q.~.~.V.V.<.h | *.Q Q Q | *.| Q R Q Q | R g >.;.( E / ( E b.B.M.J.'.F.F.n.7.F.'.J.F.B.J.[.'.`.`.M.B.B.b.( e 6 U <.k.k.m.F.k.=.b.M.~.~.F.B.b.M.M.m.k.k.b.b.<.>.*.<.=.' b.A.B.B.b.;.w.M.J.B.n.F.B.M.=.;.<.>.<.m.<.^ E *.k.<.` ^ E E E [ t t e 9 R ^ ! f 9 t g e e e g f f 5 9 9 9 M f W j ..~ | ,.! 5 4 & 9 W | R f 9 r 5 & $ * 5 5 + * 5 9 5 & + . * * * & + . $ * + + + . . . . .             .   .       . . O . . . . . . . . . . o o o o # % ; ; ; % # o X X # - ; - % - - % # # # # % % - % ; % # % i ; - % - - - % % % o o o . X o   . . . .     0 H D.#XpX'.lXF.D.q.B q q q B N B o.o.b B f.+X$X)._._.f.f.f.f.1.c o       1 G H o.K B B +.H o.%.+.N B N K #.o.B ",
"B #.d.s.u.%.B s.p.r.%.K f.Y.f.r.o.b K %.(.(.(.+X$X$XlXVXDX%X!.#.p 7 z B s.!.(.).(.f.&.&.K m N N m q 0 q N &.N m c x x i 1 - o # . . . . .   . .   . . % - % % - ; ; ; - - # o # ; ; - ; o # - ; ; ; - ; ; ; ; < y i y 0 ; % # o . . o o # o o # ; ; ; ; ; ; # # o o # # # % - - - ; % # # # # X + + + X X # # * * $ * * + + + . X & u & % * % & 8 & u M N j f 5 5 & 8 u W g ! ,.| M i.$.i.!.B.V.V.b.i.h g W :.4.B.~.`.<.:.<.B.V.V.V.B.6.k.~.{.n./ [ ' 5.;.M.F.'.XX[.G.z.' 5.'.'.J.'.F.`.[.`.B.b.<.^ t e E *.*.*.6.G.M./ / k.B.~.~.N.M.N.b.b.M.k.k.M.b.<.*.<.<.` ;.M.B.B.B.n.n.M.M.B.w.b.M.n.k.;.w.M.V.b.<.*./ =.n.*.( ` ^ / ^ t t t t e g ` Q g U R t r 4 9 9 9 9 9 g 8 r R r |  .| Q | <.*.~ 9 r 9 M *.~ g 9 9 8 9 & + * $ * + 8 f 9 5 & + + & $ & . X + + . . . + + + X . .                     . O . O . . . . .           X % - % % - - ; - # X X   # # - ; - % % # o o o o o # ; 1 ; X . o ; 1 % o X % - % o # # # # X . . X . . . .       0 B q.a.oXeX'.XXD.i.+.B b p B N b b N %.u.f.u.u.$.+.#.%.s.2.2.J a .       ; v z z b z B o.&.u.&.r.o.N N o.B b z ",
"H #.%.2.o.#.f.d.p.%.B m H %.Y.!.p.o.H N 2.o.K &.f.%XxXKXLX%X).r.#.0 $ N f.(.!.R.p.f.p.p.(.(.R.$.7 + + + $ z z G i i i < # # . . . .     . . o X   . o - ; < - - < - ; ; ; % # o - ; ; ; % - # ; y y ; : ; ; 0 y y y 0 ; # o o . O X # ; ; % % # # # # ; y i y ; - ; ; 1 ; ; ; ; ; < ; % X # o X . + X + + + + & 5 & * + + + + . . * & X . X & y j u u M } M u 8 u 8 u j u q M ,.:.W 4.<.:.B.B.~.~.n.B.:.f  .$.4.~.'.{.N.N.{.XX{.'.[.eX[.`.#XeX@X`.;.( 5.B.J.J.L.oX'.'.`.z.' '.5XXX[.`.[.'.>.U T t U ( ( ;.<.g e n *.k.*.E R =.B.~.b.b.V.m.B.B.k.w.k.k.<.*.*.*.*./ k.B.B.b.M.M.F.J.M.b.<.b.<.k.n.m.M.V.w.k.;.' =.l.=.E ` R ^ ~ T Q T R t t Q R U U E t R t R r e 5 9 ~ ..Q ~ ! *.:.<.| | W ! g g g g e r R g f u & * & & 5 8 & * 9 9 8 5 8 & + * * + + X + . .   + * + + + X . .     .           . . . O O . . .           . . o % - ; - - - ; - # # o . # # # # % % # # o o o # o # % - - % o o # - % o % % # % o X X X X . o X . %     .       0 q ) &.a.m.^.'.i.,.@.$.o.B N b b b o._._.u.B b N b p m N N J G i         ; c q q 7 q b K r.f.f.f.$.H B N H N b ",
"H %.2.r.s.f.d.r.%.%.H N H o.u.R.f.r.&.N B #.o.s.s.)..XzXKXzX%XvXR.2.&.B %.o.K K K K 2.u.!.!.!.).2.%.&.N N m p v i ; ; ; - # o o . . . .   . . . . . . o % - - - - - ; - % % ; - % % % - ; i 1 ; y y y 0 0 = ; y y ; ; # # o o o o # - ; ; ; < ; % - % % ; 1 y 1 1 y y < ; - % ; ; ; % # . # X . . . . X + + + & 5 * + + + + + . + & % % X % 8 f u u y u j u & 8 f f j f 4 8 m ! *.O.B.~.k.b.B.b.F.M.`.~.*.*.V.i.B.~.~.B.~.`.{.{.XX@XeX#X#XtXeX#X`.F.F.M.J.'.{.{.XX'.`.~.M.' B.oXXX`.'.'.6.t e t T R ( 6.B.~.*.e 9 g ' 6.' R R *.k.m.b.V.B.m.b.<.w.b.k.<.*.>.<.k.;.;.k.M.A.A.m.J.].J.M.M.M.M.B.J.F.B.M.<.k.k.;.*.*.;.>.=.^ ^ / ` ;.^ R t t R g t g E E R E U t r 9 9 R *.<.| 6.V.B.n.<.~ W ! W Q W g 5 9 Q *.g d 9 & 5 e 9 9 * * 5 5 $ $ 8 9 & 5 5 & + * * * + . + # + . + X . . . .           . . . . .     . . . . . . o % % % % % % % % % % % # # # . o X o X # # # % % ; % # o o o # % ; - % < ; % % % % o # % X o o % # X o o o             0 q @.&.D.J.m.a.q.q.O.+.$.+.B o.+.+.f.f.u.&.&.+.$.#.K K #.%.L J y .       < m K b N o.B o.o.+.+.$.$.o.%.+.K B N ",
"N H %.s.!.Y.d.%.%.o.o.#.#.%.%.f././.p.K m N #.Y.u.N.).eXVXIXVXLX*XOX+X/.f.b p p 7 N H B #.2./.OX%X%X).s.r.N 0 z y # # # - ; X . . . .   . .     . . . o o % % % % - ; - % - ; - - # # ; : ; i y i z i ; ; ; ; ; ; % # X X # ; ; - - ; ; ; ; ; ; ; ; ; ; ; ; ; i c c i ; - # # % % < % o X X . .     . + + + & & & * + * % * * * & y y % % 5 u j 8 & & y u y y 8 y f W g 4 8 f ! :.V.~.F.<.M.M.<.M.6.B.XX`.*.>.<.V.~.~.~.~.^.{.[.XXeXtXtXtXtXtXiX#XB.`.'.[.XX[.5XyX{.n.' ( ] M.'.B.6.B.'.*.k t t T T U ..M.`.~.W e t U >.k.>.~ R *.M.F.~.F.m.b.b.<.m.M.w.>.<.;.;.*.;.k.b.M.M.B.F.J.J.F.G.M.J.J.M.F.A.M.k.5.B.M.;.` k.k.z.=.;.` ` ` ~ E Q t g f e t R U g U t t e 9 t f g Q U *.K.V.~.<X8.>.W R ..*.M 5 d *.R U r g 9 5 5 5 5 & & & * $ * 8 f 8 9 u 8 + * * + . . + + .   X + X X X .         . O .                 . . . % - - - % # o o # o o # # # % X o X . . . X o % - ; % % o o o # # - ; o ; % - ; # # o % o o o o # % . . o . . . .       ; m @.0.@.q.m.@.q.O.+.q.u.B b b &.p.f.$.B +.f.p.f.u.s.d.#.t.2.J c X       1 m r.p.&.f.&.u.b q b #.&.$.r.d.s.o.K ",
"H H #.s.s.2.K %.%.r.2.u.%.o.%.s.s.R.f.o.%.H %.o.o.) &.a..XkXKX%XvX%X}.OX(.s.%.%.%.#.K K m N N o.&.p.d.#.%.#.i i i # . . . o . . X . . . . .     % X . o % o % # % - % % - - ; ; ; - ; ; : 1 1 : 1 i y : ; ; ; ; ; ; ; % % ; % ; ; ; ; - % # # ; - - ; ; - % ; y y y ; - % # # % % ; ; X . .       . . + + + & $ * $ * * + * * & 5 5 5 * * & y d u y u j M j M u u u R W 9 8 u W ..`.#X'.<.<.O.*.<.<.<.M.M.b.b.B.`.`.`.'.@X{.XX@X@X#XtXkXiXeXtXkXXX'.eXtX{.#X5X#X[.`.n.5.{ 7.M.J.6.( 6.n.' [ t t T T e 6 U 6.M.~ 6 6 t / k.b...R *.b.V.B.F.N.B.V.i.w.w.i.b.n.>.` / / k.k.b.m.F.~.F.F.B.J.B.`.].`.J.J.J.M.m.B.J.M.6.n.M.l.l.z.5.^ E R R ~ U f t e 6 t t t t 6 6 6 f U R t 6 9 Q n.B.B.<...*.W g R ~ g d R R f 9 e g g 9 6 9 e 9 9 9 5 & & 9 d 8 8 f 9 * + + * + * + . . . + + X X X .         . .                 . O O . . o % % # % . o o o # # o % % # # X # X X X o # % - # o o # # o o % - - X % - - ; # % % # X # X o # X o o . .   o       i B ! ) V _ _ q.) +.$.+.$.+.o.b o.&.&.u.o.N &.#.&.+.&.#.1.2.L L x %       < G %.%.s.p.s.s.u.%.%.B o.$.u.f.p.r.%.",
"%.#.%.2.%.K K s./.r.r.%.s.Y.s.p.p.d.p.f.s.%.K N q w b V ,.f.#.}.*XOX(.d.u.u.s.s.}.OXs.f.t.m p 0 q N r.2.u.%.i ; 1 o .       . # o . . . . .   - ; o   # % % - % # % % - ; < < < ; ; ; ; ; y y y ; ; ; 0 ; = = ; ; ; 0 i y y ; % % % % # o X o # % % ; % % # # # # o o o # # # # % % ; X X .   . . . + * % & * + + + # + X + * = y 5 y 5 & % & u j m j H M j M j f j h g f 9 0 u g `.5XB.M.V.*.<.b.M.B.M.;.| *.l.F.M.b.B.'.XX#X#X#XeXkXiXtX#X#XtXiXlXzXlXeX#X#XeXeXaXeXJ.5.=.l.G.J.6.5.' E T T T T Q ( U t U / ;.R k / <.b.V.b.*.*.w.b.B.B.F.F.b.<.<.w.<.b.b.<.` <.6.k.6.>.w.B.N.M.m.B.J.J.J.{.].].J.A.J.J.F.M.M.l.l.A.k.M.C.z.^ E U U Q E U t t 5 6 t t e e t e t U E E d 9 e R <.6.O.~ 6.>.W j g g 8 f f e 9 5 d R 9 5 e 9 5 9 u 5 5 9 9 d 9 & 8 9 $ # & & * * & + + + + + X X + X .       . .             . X . . . . O . X o o o o X o X o o # % % % % # X o . X o # # # o o # # # # X % % % o # % % - % o o o o o X X o . # o o o X # o     i H b A t A V _ ! @.&.o.N B o.%.B &.u.+.o.B B o.B o.+.%.#.%.1.P c %       - c B #.+.+.o.s.R.s.u.s.o.B &.u.u.%.%.",
"2.d.s.2.#.K N s.s.2.B B s.Y.s.2.r.2.s.Y.u.#.H B K B +.B B %.p 2.K m N H m b m o.K K N N B 2.K 2.p H r.&.o.K 0 i ; % % o # # o X .   . .     . % % % . . o o % o o # % - ; ; ; ; ; ; ; ; ; 1 1 ; ; ; ; ; ; ; = ; ; ; y i i y y ; % % # # # o # # % % % # # # # # o X X X o # # # % # % X . . . . . . . + * * * + + + * * + * & u M j u j u % 8 u f } M  .H m M f j ~ M h p f u u g ;.b.O.i.{.`.b.:.n.].J.B.b.;.<.*.Q >.B.'.oXXX5XtXiXiXiXkXpX#XtXlXpXtXtXtXeXtXlXpXpXlXXXM.7.M.L.XX'.6.=.E T [ ( / *.>.;./ f e / Q e Q 6.M.B.M.6./ w.M.V.B.B.B.N.i.-.;.i.>.>.w.w.b.<.k.<.~ ~ b.M.;.<.B.J.'.J.'.{.J.L.].L.J.L.z.B.n.n.J.k.5.M.k.=.;./ U E / *.f t 4 6 t g R g f e 9 9 ~ ( g d t R *.~ ` O.6.6.*.R g g 8 e 8 & 5 & e 9 $ $ r e 9 9 9 & & g 9 9 u & % & * * $ % # * * + X + * + + . + X X . .           .     . O o o . . X X o o o o o o o X X o # % % - - % % # X X . X X # # # % % % # o X # o X . X o # o X .     o o o o . X o . o . . . .     ; q r V w V q.w.&.B N V C K N $.o.u.u.#.o.B B B B $.%.H #.2.2.#.x - .     - i p %.%.$.+.o.+.#.$.&.&.o.&.%.&.o.%.",
"d.s.2.K K K p N o.%.b K K %.2.#.K 2.r.s.%.B N K r.q.q.) b b % ; % = 7 7 7 7 p z 0 0 0 = 0 z u.s.0 B K H N K i 0 y < < i 1 < o o .           o X o o %   . X o o o o # % - ; < ; ; ; ; ; ; ; ; # ; 0 ; ; ; ; ; ; % ; ; ; ; 0 ; 0 ; ; > - ; - % % # # # # # % % - ; - # % % % # # # # # X   . . X + . + + + + + X + + + + * * & j H j j j u & 5 d j | | M  .$.:.j j :.<.| M M j f R >.*.n *.{.5XJ.:.<.].J.`.].J.l.5.6.6.M.'.XX5X].{.#XtXiXlXeX{.#XiXiXeXeX#XeXpXiXeX#XtXeX'.M.n.J.oXXX{.M./ t T E U g g g / ~ t t U U Q >.b.B.B.M.b.<.V.V.N.M.m.M.V.V.*.*.<.;.>.w.<./ ..<.*.T ;.M.b.k.n.C.J.J.`.{.M.J.5X{.M.M.M.J.C.A.l.5.l.k.n.z.] / R U Q / g t e k t t U e e 6 6 6 g R R g g f e g O.! | *.Q ! | R e 8 & & 5 5 5 & * & t g g 9 9 8 5 g u 9 f 8 & + + + * & $ + * + X & + + + + + * # X .         .   .   . . . .   . . o X . X o o # o o o o o % % - - % % # o o . X o # % % % % # o . . . . .   . . . . . o . . . o . o o o # o . . . . .     # 7 b V m.'.J.m.q.+.B V o.b +.u.u.$.$.$.&.o.B b o.%.o.K %.%.2.1.v < X     ; p N B o.f.B b b N o.K &.&.+.&.&.%.r.",
"R.r.#.K %.#.H N 2.%.z %.K z m z z N B N B m N o.&.9.N.N.a.$.0 z N c i p 0 0 z p p z b N N %.#.f.K B K z m H i i a - < ; % - - # . X o % . o o . o o - o . .   o . o o o % % - ; ; - # % % # ; # - ; ; 0 y ; ; ; % % ; ; ; ; ; 0 ; ; ; ; ; ; ; % % # # # # % ; ; ; ; - - - - % # # # # .     X * % + + * * * * + + + * * & & 8 j s u m M h y & & u W W j j | 4.$. .<.M.>.:.| M M M | *.Q Q >.'.J.M.*.b.`.{.5XeX{.M.C.l.M.F.`.XXoX'.{.#XtXkX#XJ.J.XXtXiXiXeXeXtXiXtXtXtX5X{.{.C.n.'.oX{.{.A.5.E T E ( E g t U Q *.=.>.*...<.B.^.F.F.i.V.N.V.b.b.V.b.V.M.*./ 6.6.>...>.<.<.>./ k.B.B.J.B.A.J.J.G.].{.].`.J.B.k.k.M.A.k.;.k.C.K.;XC.( E U t E ` ~ R t e U g t e t f 6 e e U R e 9 9 9 9 d g M W g *.<.| g d 8 & 9 9 5 * & & r Q g 9 9 9 5 d j g M d & * + + % & & & * * + & + + + + + + X . .           . O O O .       . o o o . o o # # # o o o # % % % % % % % % % # o o o # - - % # # X .           . . . o .   X o o . o X o o o . .   . .     > w q q..XoXm.-.) ) B b o.C &.%.$.o.B o.+.+.N q N b o.%.&.%.2.L c - .     ; z B o.#.o.#.o.B b N B $.%.o.&.&.s.Y.",
"K N B H &.2.%.r.r.K m %.B 0 = 7 z z 0 7 p B B B %.@.N.[..XY.p o.s.K p p 0 0 m z b b b H o.K o.#.s.s.R.H K K z y c % % - < a S 1 . o o .   . o . o o o %     .   . . o o o # # # - - # % % # # # # ; ; ; 0 0 0 ; ; ; ; ; ; ; % ; ; ; y y 1 ; ; ; % # % # % - - - - - - % % # o # # # X . . . X * + + + * * % * + * + & % & & 0 f p y u M W u u u f u h *.f u M | | <.B.F.n...| | | } W f ~ *.{.5XM.<.B.`.eXrXeXXX].J.l.z.5.M.oXXX@XXXXX#XtXXXJ.C.'.eXlXiXtXeXiXpXlXpXtXXXoXoXL.A.{.#XXX[.XX.Xb.;.b.b.6.5.;.>.b.m.M.B.b.>.*.<.M.m.B.N.m.b.<.w.b.b.b.b.B.k.*.=.<.k.<.k.B.b.<.M.M.B.F.`.'.J.M.M.G.oX5X5X].M.z.n.M.5.l.l.5.l.M.H.K.C.` ( ( *.l.=./ Q / U g U U R t g U U t t Q R 5 9 8 9 9 f ! ! Q >.<.! 9 9 9 5 9 9 5 * + & 5 R ~ f 9 d 8 9 u j f 9 & * * + * 5 & * * * + * % % * + X X . .             O . O O   .         . o . o o . o # o o o % % o # # # % % % - % % # o # % - % # o # # .   . . .     o . o . . X # . o X . o . .     .       i V b @.a.-.^ V b ! B $.u.u.i.B b q z B o.+.N q q b b N 2.2.1.J i % .     ; p K K #.o.o.&.K N b N B o.B #.%.+.%.",
"z q N H H &.&.H K K N K m b m b p z z z z H #.2.u.f.^.^.~._.B )./.2.K #.%.o.o.m m m K K %.K K H %.2.Y.%.z B ; $ ; # . % % 2 i 1       .     . . o . o o %     . % o o o o # # # # % % ; ; - - % ; ; ; ; ; 0 y 0 ; = ; = ; % # % ; 0 i l y 0 0 ; ; % ; % ; % % # # # # # # o o o o X + X . + + + + + + + * + * % * * & 5 8 8 8 f N M f M M  .| W M j p m W M | <.<.b.J.`.F.,.~ *.b.:.W j :.{.].5XJ.b.b.[.5X5X].`.oXeXL.l.5.k.J.{.eXeX#XeXeXeX#XXXXXtXiXeXiXpXpXpXpXtX#XXXXXtXtX].].XX#X{.XX@X'.~.F.b.;.<.M.`.F.G.F.F.B.k.;.;.M.B.M.M.*.` ` *.w.m.M.B.F.F.n.b.<.b.b.b.B.`.`.`.n.M.M.`.J.M.M.G.A.3X].].].J.B.M.B.B.z.z.x.5.l.M.M.' E ] 5.] 5.` E ( ' U 9 9 e e 6 t U U 9 r R g 4 8 u W Q ~ >.>.! g j u & f g 9 5 & 5 $ $ + + 9 ..g g f 8 5 5 8 5 5 & * + X X % 8 & % & * % * * + + . . .           . . . O .                 . . o X . . o # # % % o o o # # % - % % - % # % # % o % # o % 1 i - o .       . X o o o # % o o o X .   .     .       i N ) i.q.w -._ ! V ,.u.q.&.$.+.K H b N B o.o.z B K r.2.s.r.r.L x < o     < m %.H B B B &.u.%.$.$.+.B N +.B N N ",
"K K #.K o.K b z m B K H m m %.K z z H H z K r.R.%X#X.X^.[._.+.CX%X(./.R.d.&.2.N N N B #.r.%.K B K H m B z p = # . . ; o # o o - %     . %         . o o % o . . % # % o X # % o X # ; ; y ; ; % # ; ; ; 0 y y 0 ; ; 0 ; ; % ; ; ; ; i y ; ; ; ; % # # # # # o # % - # # # # # o X . X X + + + * + * * + + . + % * * & 5 5 8 8 f } $.M u M | :.,.M u f H ,.B.M.i.<.B.oX`.{.{.b.O.<.:.:.! >.].rX7XL.n.>.XXaXJ.A.].oXeXeX{.].{.J.P.oXeXeXeXeX#XtXtXtXiXtXeXtXpXpXtXeXeXeXtXtX5XoXoXL.XXeX#XXXoX[.F.n.6.6.M.F.F.B.6.7.B.F.n.6.k.k.M.F.B.6.;.w.<.e.k.k.5.k.B.B.J.J.B.B.M.B.`.`.J.M.F.J.J.`.J.J.M.A.J.].5X].].{.`.`.J.M.z.l.l.C.M.l.] k.M.l.l.6.E t U U e t t t t 6 e T t t U R U 8 9 Q >.>.*.>.<.Q 9 5 5 5 9 d 9 & + + 5 8 & X 8 | ~ ~ M 9 5 5 & & 5 8 % + . . + y 8 5 & + X X X . . .     . .     O O O . O                     . . . . . o # % % % o o # # # % % % o % % # o o o o o % # . - ; < o . X .         . . o X . o o o o .               z &.w.q.V _ G.@.V ) @.i.u.&.$.+.$.&.o.B B o.N N N &.!.!.p.2.s.L G 1 o     < G r.r.u.u.r.!.).).R.p.o.B b K K H B ",
"r.s.r.2.%.J K #.K %.&.H #.#.2.o.#.r.2.2.o.K #.f.u._.).!.+XD.f f.s.d.d.s.s.&.K B b N K #.r.r.m N H K b z &.#.K c ; # - o ; % o % - o o o o o .   . o o o . o o . . o % ; % % % X # # % ; ; = ; ; - ; ; ; y i i i ; 0 0 ; ; ; = = 0 = ; ; ; - ; - # o o o o . . # % - - # # # % # X . + + + + * * * & $ * . . . + * * & 5 5 8 u f B $.M j j M M $. .M  .<.~.{.{.[.XX'.XX`.`.5X{.<.| O.,.,.J.J.5X8XL.C.k.{.aX].].oXoXXXrXyX5XXXoXL.P.L.oXXXeX#XeXiXtXtXtXtXiXiXpXpXiXlXpXlXaX6XoXoXoXeXeX#XXX'.XX[.M.b.F.J.`.J.G.M.z.M.F.M.M.F.F.6.n.`.B.k.;.;.k.k.z.k.z.k.M.`.{.`.~.B.B.B.F.F.J.J.~.`.J.M.'.J.L.L.J.{.`.J.{.`.{.{.{.A.C.C.K.k.6.l.K.<XJ.n.5.^ ~ R t f U U R ( t t E R e t g R 9 8 R ..| *.<.<.,.| f 9 9 9 u f f 8 5 q 9 8 % u | h j u & 8 & 5 & 8 8 & # . . + y u u 8 & + X + . . .     . . .   O O . O O   . .         .       . . X X o % % % % # % - % o o o X o o X . . o % o X . . . . # ; o - ; % o     X     . . . X o X X .         .     N u.N.~.XXeXG.) V V o.$.$.o.o.N B +.&.o.B b +.K o.H %.%.K K L G v ; .     - c H K s._.u.f.p.p.p.u.&.o.B #.%.o.%.",
"r.2.2.#.H K %.2.r.d.r.2.2.o.%.r.s.Y.Y.(.}.Y.d.s.o.+.a.).#X_.N o.H #.&.f.s.2.%.z m N #.%.%.%.K q H b m m #.2.%.L J - # o % - X X % o X . . X o X . . . . . . # . - - % % - ; - # # o . o . . # ; ; # # ; ; 0 y y ; ; ; ; ; ; ; = = ; ; ; ; ; ; - % # # # # # o # # % % # # # # # + + + + + + + * $ & * * + . + + # $ & 8 8 8 f j n M j n n h 9 M $.:.V.~.'.[.J.eXxXyX6X`.{.{.5X{.k.<.O.4.{.{.3X3X>XJ.i.V.XX5XoXXXXXeXrXyX{.5XeX6X].L.'.5XeXeXtXtXtX#X#XiXpXiXpXlXlXlXlXpXtX6X5XC.J.eXeX#X#XoX'.[.[.'.'.J.A.J.'.'.J.C.J.J.M.M.F.n.8.n.B.m.k.m.F.F.F.`.F.b.;.M.~.`.F.m.b.m.F.J.B.B.b.k.M.J.J.M.J.J.J.J.J.M.J.J.J.].].J.A.K.K.6.;.;.M.C.n.l.{ / ;.*.E R g t R ~ Q g E t 4 4 e 9 & & r n n >.<.b.<.6.*.n R 6.<.~ g f j R M 8 + 8 W *.g 8 8 8 8 & * & 8 5 * + . * y 8 & * X + + + . + + . . . .       . X O O .                     . . . . o # # # % % % % % . o . . o . . . . . o X X . . . # ; % # < 1 < ; - a i %   . . . . . . . .       . .     p N ) q.J.J.w.! ) B o.+.B N B q b o.) ) b B o.u.u.+.N p G G c c c % .     o ; p m $.f.u.&.&.u.s.u.u.s.u.$.&.&.%.",
"%.#.o.K H o.o.2.K %.&.r.2.#.&.%.o.%.s.p.s.r.K %.N &.&.).+X!.!.f.%.K K %.#.%.%.o.K o.&.#.K o.%.N H m N z H H H c i # % # # % o . o o . . . . . . . .   . . . % . . . o % - ; < ; ; ; # # % # # # # # # # # ; ; ; ; % ; = 0 y 0 ; ; ; ; ; ; ; ; ; ; ; ; % % # # % % # % # # # # # + + + + + + + + * * + + + . . + # & 8 8 y u j n g f 9 j ! } d h O.$.b.`.~.V.B.{.aXtXJ.M.L.<XrXpX6X].>.| V.{.aXrX7XJ.b.B.5XtXtX5X{.XXXX].J.J.XX6XXXoX].5XtXiXiXtXtXtXtXiXpXpXlXlXpXlXpXpXtXyXeXJ.n.A.{.#X#X#XoX'.`.`.'.{.J.G.L.].L.J.L.A.M.F.J.{.].b.` w.m.B.F.F.J.F.`.`.M.k.M.~.F.B.M.M.`.J.F.`.`.k.z.B.M.k.6.k.M.n.A.J.L.J.M.J.].K.<XL.K.M.5./ 5.5.{ 5.6.' ` / ;.R t U R ~ / U e 9 6 & 9 e & 9 r r f ~ 6.<.<.K.L.6.>.n.Q Q n g f n p % % Q n ;.~ h u u j u & + * % # + . * 5 j u & % + & + . . . . . . .     . . O .           . .           . . . . . o X o # % % % o o . .         . . . . X # - - % < % % o ; < o ; ; - < ; ; % o   . . X o .     . .       ; H q.~.G.XXXXm.@.B N B +.%.o.b ) o.N N b i.$.&.%.%.o.B B L m i ; o .     # 0 m K %.$.&.r.o.+.o.o.o.$.s.%.2.f.s.",
"&.%.K %.%.%.#.K N #.t.d.s.s.%.H m H K &.z N p b o.&.f._.%Xf.+X+X&.K p m 0 m B &.2.%.%.N %.%.%.o.N N b N K #.G G x # o . o # o . o o X % o X . .         . . o # . . # - - - % - 1 ; - # ; ; ; # # ; # # # % ; % # $ $ ; ; ; ; ; ; ; ; ; ; ; ; ; % ; % % % - % % # # % # # # # X X X X + + + + * $ + + + % * X X + * ; 0 p M ! R g j & 8 g W W  .V.,.i.B.V.>.b.eXrX3Xl.L.B.5XdXBXxX7X6.*.<.i.5XrX6XB.>.b.].rXtXXXL.].'.].'.B.{.5XXXXX'.XXtXiXiXtXiXtXtXiXkXzXzXxXzXpXiXlXiXlXaXL.A.C.J.'.XXXXXXoXJ.'.{.'.L.L.].{.'.L.J.P.J.{.yX5X].B.z.z.F.F.m.m.5.5.b.J.B.n.B.B.B.B.M.J.M.6.b.F.`.m.z.B.k.6.6.( / ;.J.].].J.M.A.A.C.].K.C.C.6.5.l.l.;.*.( E T E *.Q f R ~ Q ~ E t e 6 4 9 g 9 9 9 5 5 f W | 6.K.K.>.6.=.g f g f u f 8 & M k.Q u M M j f u d % # & & + + X 8 & u u y & & & % . . . . .   . . . . .         . . . . . .         . . . . X X . . o # o . . . # X . . % % o o o o # ; ; < < % . . o ; - o % # - % o # # - #   . . .                 y z _.XXJ.aXBXiX-.! N B &.u.&.$.+.+.+.+.o.$.&.+.o.%.H K #.s.L G ; .       # 0 N #.f.u.u.B b N b b b %.%.$.o.&.2.",
"&.2.o.&.r.%.%.2.%.H #.%.2.r.&.&.#.%.&.2.#.K N o.&.h.a..X%XH OX}.d.K m z b N o.r.r.B N H b K o.o.K N m #.s.#.N c i % - . # o # # . o X o . . . . . . . . .   . o X . o # - - % # # # # 1 ; ; ; ; ; % # # ; ; ; # # ; % $ ; ; % % % % # # % ; ; % # # # % - ; - - % # # # # X X X . X + + + + * * + . . + + + . . + & & 8 u f h M M W j h f u g *.~.^.F.B.b.6.b.5X3XC.M.L.J.<XdXcXrX].6.>.B.i.V.`.J.>.$.<.C.3XeX5X].].].{.XXF.J.XX#XeXXXXXiXkXiXlXpXtXeXiXlXlXzXzXxXxXlXpXiXlXiXL.n.6.6.k.J.#X5X5XoX5X5XXXXX5XXXL.P.].{.L.L.oX6XXXB.k.l.l.l.M.M.B.M.<.b.b.k.M.B.k.<.b.M.J.J.7.k.b.M.b.M.b.k.6.B.z.' 5.C.5.k.k.k.n.n.M.l.M.C.n.z.l.K.l.;.5.=.( R R ( ^ ~ >.k.6.;.U U R 9 9 r R / t g 9 5 9 f f ! n.6.6.b.b.:.<.~ 8 % % & W 6.*.~ u f h W u u y & & & & * # % 8 ; + % 5 5 & * * X . . . . .   X .         . X o . . . . . .       . . . . X X . . o o .     . % # o % % % % % - - ; < < ; % %   . - - ; % - - ; % o o % o % o   . .     . .     . . ; = ) #XJ.XXXXXXa.) +.) +.o.o.N +.+.$.@.N +.$.o.B K o.#.s.s.r.J < .       - 0 N K K N b b 0 q B o.+.r.%.%.o.o.o.",
"&.%.%.r.r.s.2.2.%.#.B b K &.2.f.s.%.2.r.r.&.r.f.p.!._.f.r.N (.E.t.%.G b m N &.Y.2.N b N p N m H H z z #.f.d.G i y ; ; # # % - - . . .   . . . X . - o . . . . . o . o % - ; < # o - ; - ; ; ; ; ; # # # ; ; ; # ; ; = ; ; ; ; ; ; ; # # # ; ; # # # % - ; ; ; % % % # # o X X . . X + + + + * * + . + + * + + + % & & 5 u u u f M W | *.! e g <.B.~.~.`.`.B.`.'.J.L.M.L.7X3X].J.k.B.A.m.b.B.V.i.:.O.i.{.].L.<X].J.A.'.XXXXoXJ.J.oXyXeXeXkXkXlXlXiXiXXX6XpXxXxXxXzXxXpXlXlXpXiX].n.8...*.A.XXeXXX{.oXoXXXeXtXXXL.P.L.L.L.L.].P.K.l.l.z.z.M.k.;.6.k.;.6.k.6.b.k.6.b.A.A.x.k.z.z.M.C.A.F.B.B.J.J.J.M.z.x.E =.z.z.6.k.z.=.l.6.5.;.;.<.6.5.6.l.6.=.( ( ' ' *.*.;.>.E E ` ^ R g R ;.k.Q R e e 9 8 9 f f W 6.l.....g 8 u u u n.k.~ >.W g h W j 9 8 & & * & & % & % & % & & 8 % . + X . . X X .   .         . . X X . .   . o o .     . o o . . X X . . . . . . X # o # % % % # % % # % - % % ; X o % < % % # % % % # o # o o . % .       . .   . o . . ; %.) VXVXLXpXF.i.@.&.+.B B N q B V o.+.B o.u.&.&.o.N K %.t.L J < o .     ; i N m p 7 w q 7 q N s.u.f.r.%.%.%.%.",
"%.#.%.&.s.s.s.s.s.r.#.K %.r.p.s.2.#.r.%.o.K p.f.!.+X$X+X).H Y.(.T.1.1.#.%.%.&.2.%.&.r.K &.%.K H B B &.o.%.#.H v x ; ; # - - % % . . .   . . . o o % . o o . o o o . o # # % # # # % ; < - - ; ; ; - # # ; ; ; - ; y i 0 0 i i i z i y ; ; - - % % % ; - - % % # o % # # # o X X . . + + + + + * * + # * % + . + & % 8 8 u u u M W R  .| ~ R M ~ <.F.[.{.J.A.{.{.5XpXaX7X4X8XrXB.b.B.k.6.6.k.`.{.b.>.<.XXrXpX<XJ.J.b.B.5XeX#X].P.oXtXtXtXiXiXlXzXzXkX6X=XfXpXxXzXpXaXaXzXxXxXlX<XK.K.;.>.C.eXeXXXJ.J.J.J.5X5XtXeXL.oXoX6X6X5X3XoXP.M.z.6.M.M.;...6.M.b.6.>.k.k.M.].J.M.l.z.z.M.M.L.].].B.n.B.J.M.M.5.z.c.l.C.l.n.n.6.*.n.6.;.>...Q *.` ' 7.7.=./ Q / =./ / / ~ ~ R Q ( Q Q / l.k.~ g 9 9 8 8 8 9 8 9 Q 6.R R ~ R ~ / h >. .*.M.*.g R n W q u & % * 5 5 & % % & & & % % % X * & X   . + X .         . . . .   . .   . . . . . . X o o X . X X . .     . o # X . % % % o o o . . o . . # # . - - # o o # % # # # o # o o . X . .   . .   . % o .   z o.D.'.'.'.m.@.,.) @.&.$.) o.N ) o.$.+.%.B $.o.o.B N B H K J v < % .     - p p q 0 7 q q q b b &.$.2.&.u.u.r.%.",
"o.o.%.%.%.2.R.R.p.s.K K &.2.d.r.#.B o.B N B s.!.).kXvXkX$Xf.).(.(.s.s.Y.Y.s.2.%.%.#.d.r.d.f.%.K N N d.#.#.J m G x - ; o # - o o .   . . . . . . X . o . o . o o o o . o # # . o % i a i ; ; ; ; ; # % # > > # ; 0 p z i i z c c m c i : ; % % # % ; ; ; % # o o o o o o # + X X . + + + + + + + + * * * & & % + # * & y 8 9 u W $.| ! ! ~ O.~ R / b.#XeXJ.n.].5XrXpXsX8X8XsXdX<XB.V.B.C.6.M.J.5XL.L.:.<.rXcXeXJ.].'.'.5XaXtXeXXX#XtXtX#XXXeXlXzXxXzXlX6XrXaXlXzXxXlXpXlXlXxXzX<Xn.6...*.=.6.C.{.J.J.'.'.].5X6X6XrXrX8X6X8XtXeX].J.J.A.l.6.Q R ..<.B.M.A.M.n.k.l.J.n.6.M.A.A.M.J.L.J.B.F.M.n.M.M.].A.k.z.z.K.A.C.l.6.5.6...=.~ Q / t g / ' 5./ E Q / / ` =./ g R U g g ~ 5.6.6.6.6.W f 8 5 u f g Q g W *.Q Q ~ Q *./ g R R ;.H.>.Q R g M M f y % + 8 9 & * % 8 % % & % % X & 5 & X + X . . .       . .   .             . . o X . . . . o X .         o X X . . # # # # o o . .   X . # o # < % o o o # # o # % % o o X X . . .   .   X o . . .   7 q.D.q.A w _ w -.q.&.9.&.&.o.@.o.B B o.&.o.B q z b b b N G G S y .       # ; q z 0 w q V b B K o.z N +.#.+.&.%.",
"K K %.%.2.2.r.s.2.K %.#.%.2.s.Y.s.r.N o.#.2.s.f.R.+X&X$XzX$X#.(./.T.t.p.Y.f.r.r.2.&.&.N #.&.%.o.K m #.#.H K G m c - ; # o # X X o . . . . . . X o X o . o . o . . . . o # # % ; 1 i a i ; ; ; ; ; ; ; ; # > # ; i c v c c c c i i 0 ; ; # % % % % ; ; % # # o o o # # # # # . X X + + + + + + + + % * + & 5 & + # & % % & 5 f W | O.O.*.*.O.~ R Q b.@X5X].M.n.`.rXrXeX3X<X8XbX7X].5X].`.K.eXrXrX5XJ.<.:.{.xXaX3XeXrX6X6XtXiXiXiXiX$XXXXXXXeXlXzXxXxXCXlXpXaXpXxXBXBXpXaXeXaXrXaXrX].6.n.V.8.8.].A.A.J.5X5XoX6X5X6X8XrXaXrXyX6XoXL.n.b.C.C...g R ..b.B.J.B.k.6.=.6.k.k.l.l.C.l.l.n.k.k.M.M.n.k.C.L.C.( E ( l.C.C.5.=.5.;.=.>.R ~ <.~ 6.C.l.6.;.;.~ h Q ~ ....g g / ~ R Q =.' ..;.k.6.g 8 8 f j ~ *.Q ~ R M Q R W *.>.R W *.*.;X5.R h u h M u 0 & # 9 f 5 + & & % % * + + + & & & + X .             . . . .               . o o .       . X . .       o .   . . o o o o X o # # o . X # X % - # # X # o o # % # o - % # o . o   .   . . . .   .   p &.^.D.) ^ w ! ! q.@.B B o.K o.+.+.K b B N B z q q b z N H #.G y X .     # 0 p q q b b +.N N B N o.B #.o.B o.o.",
"r.#.#.r.%.%.%.N N N %.d.r.%.d.p./.Y.#.&.s.s.s.r.d.).%XiXVXvXb !.r.r.p.d.R.!.f.p.%.%.K p z N %.s.d.K H m p N L L S ; 1 - . o . . o . . . o o o X . . . o o X X o . X o o # ; y x x i 1 < ; ; ; % ; ; y : # # = y z m G G m N c y ; # # # # % ; - % ; ; % % # # # # # ; % * # X . . . . + + + + + * & * * & 5 * + + * * * # 5 u j W | *.w.i.>.,.*.~ b.XXXX5X<Xl.B.rX5XoXL.x.=XsXdXsXdXpX].3XdXZXcXcXrX3XB.B.].6X6XtXrXeXeXtXpXiXtXtX#X.X@X#XeXlXzXxXBXBXBXpXaXpXpXxXBXcXrXpXxXpXpXpXrXS.b.A.8.8.>.k.J.5X5X3X6X6XeXrX8XrXaXeXJ.B.J.J.n.b.8.b...R E ..n.B.`.A.b.M.M.z.6.5.5.5.M.l.;.6.6.l.B.M.k.;.5.l.l.5./ =.=.5.5.5.*.=.;.>.=.R / ~ *.M.C.Z.5.6.6.Q n Q / Q ~ ~ ^ =.>.Q R Q *.>.*.<.<.Q f 8 u f g g f f u n ......|  .M W l.l.C.:.W R f u u u & + * g g u & & & # * + . . + & * * .                 . . . .               . . . .   .   . o X . .     . .       . . . . . . o # o . o o # % % % # o # # % % % % # # % o o . o . . . . . . . .     c H D.eXtXm.q.w.N.a.o.b N N b o.N 9.+.b N q N N q b 0 z K #.L L c ; #     - = = = = $ B (._.f.$.$.&.r.%.+.o.&.%.",
"Y.R.r.%.&.%.K o.K &.d.s.r.s.r.!.s.&.r.&.&.%.#.o.%.+.!.f.%XzXp.).!.R.d.f.d.R.Y.%.2.r.r.&.&.K %.&.r.#.r.K B N G J c ; < ; - ; o X .       . . . . . . X . . . . o # # o # o - ; ; ; < ; - - ; ; ; ; ; ; ; # # ; y y y y 0 y y 0 ; % # ; ; ; 0 ; ; - ; ; % % # # # # - ; ; # # X   . . . + + + + + & * + % & % + . + & & & 5 8 u f R O.,.V.b.V.~.b.Q <.{.tXcXpXL.<XrX7XL.B.5.A.3XdXrXsXdXrX].aXBXZXdXdXBXrXb.,.{.aXoX'.rXlXpXtXiXtX.X[.'.XXeXpXpXlXxXlXzXxXxXpXdXaXBXBXBXcXxXBXcXpX8XaX5X6...*.8.b.C.C.K.K.5XrXtXpXdX5X].3XtX<Xn.b.n.8.| ! *.( R t U ..6.J.J.F.F.M.l.M.M.6.6.C.C.k.k.M.M.M.n.b.k.6.5.5.5.6.;.( E ( 5.] 6.>.*./ E R U R / ;.C.6.*.*.Q / / ~ R E ' ;.5.=./ / ~ *.*.*.<.*.~ f 5 & & 5 9 9 9 d g ! ..6.*.W f R / ~ *.~ W | j 5 & 5 + + & f d u & & # + + + .   .       . .           . . . . . o . . . . .     . .       . . o o X X . . X o o . . . . . o o . . . . X o . # # - ; - % o # # # o o % o o o . X o o . o . . . o .       G o.D.^.tXoXpXeX.X&.N b b b q b b o.B N N b o.B b b 7 q p z K %.J < o     i z $ $ # # $ = q &.&.r.o.B N K #.r.%.",
"r.p.u.#.r.K N &.Y.d.R.r.p.p.s.p.%.2.%.#.2.K K N N b b @.p.!.).u.}.(.R.d.r.%.r.#.#.r.Y./.(.Y.&.#.r.#.d.%.r.#.G G i - % < ; 1 % X           . . .   . . .   . X . # # o o o # # # % % # # # ; 1 ; ; ; % # # > ; 1 ; # # # # # # # # ; i z c z y ; % % % % % # % % % % % # # + .   . . + * + + + + & & 5 & * + + + + * 8 & & 5 9 9 f :.<.<.B.B.B.M.=.6.{.pXxXpX5XA.A.3X].J.M.Z.L.3XsXdXdXrXrX5XrXrXaXBXDXBX8XB.A.rXtXXXaXpXtX'.'.'.J.~.F.XXiXiXpXxXCXxXpXxXBXcXdXaXBXBXxXxXpXxXcXcXaX3X5X5XA.8.S.A.`.].A.].5X5X5XrXpXpX3XK.3XeX5X`.<.>.6.b.n.;.Q d d *.6.5.6.z.5.z.C.C.A.x.l.z.6.n.C.M.n.M.n.k.k.6.5.;.6.C.' ( R ( =.' 5./ ` ` / E R R R / 5.7.' E ~ / Q R U g Q *.` Q R ~ / / Q R Q ~ g 5 # & 8 8 9 5 8 u g ~ <.~ ~ g R *.*.=.*.=.R >.Q 5 & 5 % + 8 8 & & * + + X + + X . . . + * + .         . . . O . . o o % % - o .               o o # o o # # # % % # % # o o # o o . . . o o o # % - % % # # o o # o % o o . o X o % . o o X . . . .       c q.N.q.G.XXpXeX@.b q p w q C N N b b b b N o.&.K o.7 0 m c K L J < .     < i p 0 N p.f.b b q w q q b b N K &.2.",
"r.2.s.&.%.r.%.2.s.d.Y.d.d.&.%.2.f./.f.R.2.L o.%.&.$.B ,._.f.%.z s.s.r.%.%.L 2.%.s.f.Y.s.s.r.2.K r.t.f.s.s.%.m z y - - i < x < - .                 . . . . . o . o o X X X X o # # % # # - < y ; ; ; ; # # ; ; ; # # X . X # # # # ; 0 y i i ; ; - % % % % % - - - % # # X .     . + & & * * & % & & & & + + + % * & % 5 8 9 u f f W >.>.M.F.B.B.8.b.<XpXxXxXpXrXdX8X3XL.L.L.C.C.5XdXdXrXrX5XrX3X5XxXBXdXpXpX'.F.5XeX3X3X{.m.k.<.F.#XyXpXrXeXaXpXpXBXpXaXdXxXdXdXBXBXBXBXxXdXdXpXpX4XJ.].eXL.;.n.J.J.A.].n.C.5X7XrX5X7X].C.K.<X].<.=.<.C.F.B.k./ U X.6.E ' k.*.z.].L.L.A.z.l.z.l.C.M.n.k.k.>.*.6.C.n.6.l.z.( E ( ' ' 5.~ ~ / Q ( / ~ R ~ =./ R g R R R Q Q R R g ~ ' Q R / 5.*.R M h d & & & 5 8 5 & & 8 9 8 f R W h ~ ~ n *.g R g R g u 8 $ + X + X X + $ % + X + + + + * * & $ .           . . . . . . . X o % % % O               . . X X X o # # o o X o o o o # o % o . . # # % o o - # o X o % # # o # o   . o o X . o o o . o .   .       z $.@.q.'.'..Xm.V &.) +.p.!.p.u.u.o.+.+.o.o.C B +.o.s.o.#.H K c i ; o     ; c H !.f.h.).OXh.u.+.+.+.&.o.K K &.r.",
"#.%.2./.&.R.d.s.r.r.R.Y.f.#.#.%.(.%X$X).f.%.%.r.f.!.).$X+X).K H s.N N H o.#.s./.!.!.f.%.%.2.z H #.d.f.d.d.2.G c y % < i a J J 1 . . .               . . . . . . . . . . X . o # - - # # < 1 ; ; ; ; ; ; ; ; # X . . X X X . . # # # # # ; ; ; ; - - % - % - ; ; % # # X .     . + * & & + . + + % % * % + + + & * * & & 8 j M j R <.8.V.`.'.J.A.V.;.l.rXcXcXpXdXZXZXsX3X7XrXJ.J.J.b.B.i.J.5XBXdX5X5XdXdXsXdXoX,.M.'.A.J.b.` *.=.;.XXiXiXrXeX6X6XaXxXBXxXcXsXdXBXBXBXBXBXdXsXaXnXBXBXcX7X3XrX7X5XL.l.C.x.6.].A.K.8XA.K.C.J.A.8.<.*.| 6.C.J.J.'.J.n.6.>./ Q n.C.5.P.3X].J.M.l.k.;.5.M.M.M.n.;.k.A.L.J.6.6.7.' / ( / Q =...f Q ..>.=.*.~ R Q ..R e r g g R Q Q Q Q ~ *.~ f f Q ~ g f f f 9 8 $ * $ * $ * & 8 8 8 9 9 g R g f W g R Q ~ / g 0 * $ & & $ 5 9 & + . . . + * + +   . + .     . + .   . O . . . . o o o o o .                     . . . X .   . . . . . . . o % % . . # % - # # % # . . % - % % # o .   o . . . o o o . o . . . . .     i q O.a.pXBXDXlXD.~.D.a.)._.u.+.%.&.i.@.i.i.+.o.B o.$.&.N m p p c i %     # z 2.!.&.$.u.r.&.s.&.o.K +.K K B B #.",
"%.r.r.d.#.B H K K K s.Y.s.p.s.%.r.d.R.R.s.r.r.r.&.f._.$X).!.K f.(.%.H N u.r.s.Y.f.f.2.%.#.%.%.%.K K H #.#.#.J L c ; % # . - % o . . .             . . . . . . . . . . . . . . o # % # # ; ; ; ; ; ; ; ; ; ; # # # # * # # # # # ; ; # # # - ; ; - % - ; - - - % o X X X .   . . + + # & 8 ; & & % & & & & & + & * & $ & u M | | ~ V.~.F.'.XX[.{.{.A.6.XXcXBXpXuXdXZXZXdX8XaX<Xk.<.B.pXrXaXrXdX5Xb.M.{.5X8XaX8XM.| *.b.n...~ E U ~ B.5X5X5XrXaX7XaXxXBXBXBXBXBXDXBXnXBXnXfX7XdXZXDXDXDXBX4X7XcXBX8X6.7.;.x.K.l.l.<XK.6.J.].L.b.*.=.6.6.n.B.A.F.M.k.M.n.;.*.;.l.x.l.J.L.J.C.C.l.5.=.C.K.K.C.M.J.n.6.A.n.n.n.;.;.5.Q Q =.>.R U ..>.*.*...R Q =.| R R R R g n f n Q Q R R g g E / R f j M n 9 $ $ * + + + + 5 5 8 q r g r 9 n R f R R g R g f 8 0 8 9 5 8 5 $ + . . X + . . + . * + . . * & 8 * .   .     . X o o o .                         . . X o X . X o % o .     . % % o o % % - - # # . . o - % # % % % . o # o . . X . . . . X . . o X     i B w.'.pXVXtX#X^.i.f.f.f.&.o.+.+.+.u.u.u.K K B o.o.r.K K p c z i 1 o     - z K 2.&.N b N K B B B z B N K N b K ",
"&.p.2.H K $ = 7 0 b K d.(.}.f.r.H K r.%.%.#.&.%.o._.+XzX).}.m !.u.G m H %.K %.s.s.2.K K #.N G K c z m z z G J L D - o .         # X .         . o o . . o . . . . . . . . . o . o % ; < y ; % ; ; ; ; ; ; ; ; 0 0 ; ; ; ; ; ; ; ; ; ; # # # ; = ; ; ; ; - - - # # o . . . .   . + % + & u p y & & & & & & & % & & 5 & 9 u j  .<.<.B.~.J.{.{.B.M.`.{.C.A.xXDXrXS.<XdXZXBXdXaXJ.*.B.dXZXBXZXpXL.A.F.F.M.M.J.3X3XA.k.<.B.J.B.b.;.;.<.J.<XL.8X7XfX7X8XaXdXnXnXnXBXBXBXdXdXdXsX7XBXDXGXDXDXBXuX=X1X5X].{.n.7.S.l.7.8.A.<X3X<XL.A.k.n.n.L.<.Q 6.b.n.n.l.b.6.7.l.l.7.5.C.L.Z.x.l.M.x.l.l.C.K.C.l.A.].n./ ;.6.M.K.C.6.*.*.Q ;.*.*...R Q ~ Q R f Q ..../ Q Q ~ ~ Q f 9 g R R R h u 9 f g g f f u 5 5 5 & * + * & & $ 8 9 7 8 9 r 9 n f R n n f g f u u 5 5 + $ $ * + + % 5 & + + . . + . + + * & 5 + .         . o o X .               . o .       . . o # # % ; ; < - o       . o o % % % - % % % # . o - - % % # % % # % % - o . o . . . o . . . .     0 B a.eXxXpX'..X~.D._.a.p.+.$.o.H +.&.&.$.b N B o.o.$.K s.1.m = # X .     1 m s.p.&.&.0 q b V b q z N N K b N o.",
"2.Y.r.%.%.r.0 = q m N H r.R.Y.%.#.H r.&.s.s.f.p.p.f.).kXkX$Xm ).R.r.%.&.r.%.&.p.s.f.r.K &.#.#.d.2.H %.#.#.#.m v < % o o   . . O o o .     . . . . . o o o o X X . . . . . . o . # % - ; 1 ; ; ; < y : ; ; ; ; y y y 0 ; ; ; ; ; 0 ; = # # % % ; ; ; ; ; ; ; % # # # X . . . . + & 8 & & u u 5 & & & * & 5 5 % 8 8 8 5 9 j 9 h <.<.b.B.J.5X{.M.J.`.].5XH.5XBXcX1XS.=X0X8X].B.;.M.3XdXcXZXDXBXF.<XdXdX5Xi.:.J.3XC.M.F.[.tX5XeXL.k.J.5X6X5XrX7XfX7X9X7XfX7X7X4X3X8X7XsXnXdXdXdXdXBXDXZXcXdXuXK.k.].cXdXK.8.8.n.S.n.n.K.K.n.6.<.*.M.C.n./ f / 6.A.J.l.k.z.6.n.n.l.l.l.H.J.C.H.A.l.l.K.<XK.l.7.C.].C.;./ *.l.K.K.C.;.*.Q R ..=.~ Q Q R n g g n Q ..~ Q / / Q ~ / R d g Q ~ R g f 5 & 9 f f e 9 5 9 u 9 9 9 9 8 5 9 9 q 9 g E r g E r 9 e n R j 9 8 5 & & 5 & * & 5 9 d & * X . . . . + + + $ + + .         . . .                 . o # % % # . X o o o # - ; ; < < - o .         . X # # % # # # . o % % # o # % X # . o % # . X . . . . X   .       + 7 _ N.'.eXm.#X#XN.f.+.+.&.u.&.p.&.$.u.u.p.u.u.K B b N m G G c ; o .     1 c &.%.f._.%.B V b N B N C +.b N N %.",
"H B H s.r.R.R.B m m 0 = N s.s.s.#.m H %.r.R.Y.R.p.q.f.#XKXvXH +X+X}./.d.d.p.p.!.s.f.s.#.#.r.(.!.u.s.Y.Y.R.2.L i - o # # o ; - , o . . . . o X X . . o o o o X X X . . . . . o X o # # ; ; ; ; 1 i s c i y y ; ; ; ; ; 0 y y y : ; ; ; % # % # - % - ; ; ; ; - % # X + + X . . * & + + + & & & & & + + % & & & 8 y 8 y f | ,.*.| b.>.M.].].3XL.J.].5XrX<XL.dXDXdX4XsXZX5XA.6.<.<X7XrXdXdXdXdX6X5XrX8XL.M.:.<.B.J.].'.B.rXdXpX5X{.].aXxXrXrXrX6X7X4X3XL.=X3X=X=X3X=XsXnXsXdXsX>X8XsX7X4X4X1XK.K.8XdXdXsX1XZ.S.n.6.8.n.n.b.8.b.B.3XL.7.7.>...>.M.J.J.6.<.b.n.n.M.C.C.K.L.A.K.L.x.=.l.K.K.C.7.l.L.n.8.l.n.l.C.C.C.6.Q g f Q / / Q Q R g R g Q ~ ....*.` / Q ~ ` R d d Q *./ R R f 5 9 f g f f e e f g R M f f 9 8 9 8 5 9 9 8 e f g g R Q g f f 4 $ & * $ + $ $ $ 5 5 & X . . . + * $ * + * * + .   . . . . .             . . . X o % o o # o o .         . . X o % - 1 - o o # % % # % # o o % o X % # o o # # . o o o o #   o . . o . .   .       p B ,.) e.b.G.F.~.N.&.&.+.+.f._._.f.$.@.u.u.!.).!.!.&.z $ c L L v #       < G m &.s.u.f.p.u.+.&._.+.o.K B &.r.%.",
"p 0 c #.%.o.r.r.m N m p b b B 2.s.&.B N r.R.R.p.$.f.D.[.tX%Xo.+XOXR.!.d.!.!.!.p.Y.f.Y.r.&.Y.(.p.r.d.d.R.Y./.T.L v 1 i 1 % ; % - . o . .   . . . . . . . . . . . o o o # o # # # - % % % ; - ; ; y i l i i y ; ; ; ; ; 0 i i y y 0 ; ; ; % ; # # % % ; ; ; - # # # + + + + + + * & + + * & & 5 & % * + & % % 5 8 d u u m | *.6.:.b.J.].5X<XL.5X7X<XL.K.K.3XrXdXsX8XsXdXrXK.;./ M.6XsX7XaXdXpXeX5X8X4X3X8X5XM.b.J.5X5X`.5XdXaX5X{.5XaXdXaXaXaXaX6X].<XL.L.=X4X4X7X4XdXnXnXdXsX=XM.J.3X<X<XK.A.1X4X0XdXdXsX7X<XM.;.<.M.M.C.A.A.A.A.L.J.n.n.n.;...6.l.n.n.8.k.k.C.C.H.L.3XL.K.=X>XH.C.H.K.K.C.7.M.n.l.5.5.C.l.C.x.6./ R ( R g R R Q Q f f f R Q ~ / / Q Q ( / / Q R f g / / R n g f 9 5 5 5 g g u g Q ..*.W M g u y 8 f g 8 $ 5 9 f ~ ~ ~ f 9 9 & & 5 $ + + $ $ $ $ * * .   . . * * & & * $ * . . . . + o o X .       .   . . . X X . . . # o X .                 . < i < - % - - - % % o . # % # # # # # . % o o o o o o # . o o % o . . . . . .   z H -.i.w.w.e.N.D.[.D._.!.p.u.f._.f.u.u.f.f.&.u.f.&.&.N #.1.t.1.1 X       ; m N K &.r.h.s.B N N o.o.N N K Y.p.2.",
"B p m m K B #.r.p K N B q = b o.p.d.H N d.R.f.2.f.!.).D.f._.o.zX).s.r.f.(.R.Y.p.d.s.(.).}.d.f.R.!.(.s.Y.(.%X%XE.I x P D x - X # o . . .   . . . . . . . . . . . o % % - - % ; ; ; - % # # # % ; ; ; : 0 y y y ; ; ; 0 0 0 y 0 y y 0 0 ; ; ; # # ; ; % - % % # # * # # + + . . + + & & & & & & $ $ & + + & & 5 u f u j | } ~ >.8.J.5XrXrXaXrXsXdXrXrX3X5XaXuXuXdXdX8X3X3X3XM.` ^ b.7X8XsXaX5XA.M.L.<X=X<X].J.L.3XrXrX{.V.B.'.5X].5XpXpX5X7X8X<XA.P.L.L.L.4X4X4X4X7XsXnXnXdX4XH.C.L.7X5X<X<XuXZXdXdXsXuX7X8XL.n.n.K.J.J.S.C.K.K.K.J.C.H.C.l.S.l.6.6.5.l.C.C.K.J.C.A.3X=XH.H.;X=X=XK.;X=X=XH.C.A.=Xn.( ( { z.l.7.*.;.*.*.~ ~ g Q / g f h g f Q ~ ~ ~ Q Q Q Q R R R g f f h j R h j u u 8 8 f f u f g W *.*.Q ~ Q 9 u f d 9 8 9 g E r r g 9 9 8 8 8 0 5 & * 5 $ * * $ + . . * 8 8 $ % 8 & & $ * + * * # o o . . o # o o .     . .         . X o o X .     . X o o % - - - - - - - % X . . . o % # % % % % X # X o X . . . . . o . . . . . . .       > q V ) -._ e.w.a.!._.!.h.!.!.&.f.u.).!.).N.#.u.u.r.%.$.(.OXOXT.v % .     - i z b B &.%.o.B b q V K o.z B o.o.&.",
"d.H N q K %.%.r.%.K p o.p p B z %.r.2.K s.2.r.%.f.u.^.)._.%.K kX+Xf.s.s.d.p.2.&.o.%.%.d.s.&.#.d.R.OX(.}.E./.T.s.L D x x i 1 X X . . . . . . X X o . . . . . . . . o % - - % - ; ; ; ; - % - - ; ; ; ; y y y : ; ; 0 0 0 ; 0 y y y 0 0 y 0 ; # # # # # # # % % ; ; * + + + . . . X + & & & & & + + * + + $ % 5 9 f f n  .:.>.<.k.].5X5XXXpXsXrX3X7XdXmXZXZXdXdXZXZXdXL.M.M.-.*.Q b.3XJ.M.B.6.~ ` n.C.C.n.C.].].].].].6XyXXXoX].L.XX6X].<X3X5XL.L.P.A.L.3X8XsXsX0X9XwXnXZXdXwX4X>X0XhXhX7X8XdXdXuXL.l.].<XK.H.C.n.n.S.C.c.c.Z.;XZ.A.K.K.J.C.C.K.L.x.5.=.C.C.K.C.L.<X3X=XH.H.;X>XH.x.H.=XL.H.L.C.C.l.=.Q ( 5.5.l.5.' *./ Q *...Q ..| M n g g Q | ~ Q ..=./ W R g Q ( R j j n M M j u f g M Q g u 9 j Q | ! Q ..Q g g u n R u d f g r 5 9 5 u f f 8 8 5 9 $ 5 & . X .   . & 0 g 9 & 5 5 & 5 8 & * + X . . o X . o # # % o X               . . % - - % o % ; 1 < < - - < i i 1 - .         . o % # o # % % o % o o # o o . . o . o           .       > N _.'.-.^ D.a.a.i.f.f.&.$.u.f.).f.D.u.$.u.B u.$.&.r.h.OXY.d.t.G ; .     # 0 = q b N N b $.%.+.N K z b b z b #.",
"B d.K z H K %.%.r.B b H &.K N p N 2.N r.%.o.%.r.!.).#X$XkXK 2.).OXR.s.%.K L N K &.#.N t.#.i p N d.%XkXOXY.1.#.L L x i < ; < - . . . . . X X o o X . X o o o X . . . o # % - % - ; ; ; 1 ; ; ; ; : y y y ; ; ; = ; ; ; ; ; ; ; ; ; ; = y 0 = - # # # # # # % ; ; % # . . . . . . . X + & & * . . + # + + * & 8 8 8 8 f ! | 4.`.V.L.7X5XL.3XdXBXBXnXGXGXdXuXdXdXdXhXdX8XB.,.~ ~ *.b.b.A.n.<.].K.n.b.J.].3X5X].].A.L.].6XrXrX].].5XXXJ.m.J.8X8X5XaXaXfXsXdXdXdXdXwXwXwXmXZXZXZXdX-X4XhXdXdXsX4XS.b.C.<X3XA.] ( 6.K.1X8XK.l.7.5.l.=X4X>X=X=X=XC.5.l.l.( / 7.l.K.C.C.L.H.;X>X=X>X>X=Xc.=X3XK.H.=XS.;.8.5.' 7.l.7.c.x.5.=.>./ / ~ Q Q | ~ W g g R *.| ....*...Q ~ R R R R j f j j f u 9 n g f R Q f f f f u f ~ / / Q g R Q R g 9 8 9 9 $ $ $ 8 u u 8 5 & 9 & & & . .     5 9 u u 8 $ 5 8 8 9 9 $ + X .     . X X X . o o o # X . . . X X . . . X o % - ; ; 1 < - % % ; < i 1 < ; # .       . # % # o # # # % # # % # o o . . o . % . . . . . .       z %.D.D.m.-.F.D.,.u.&.+.o.o.$.+.+.+.o.&.B o.$.N C %.f._.u.N 0 G S < .     . # = q b N N u.9.B q z 0 $ b q N z K ",
"%.p.r.K H p p K r.%.0 N K p.B z p %.r.&.#.%.2.%.p.a.i.[.iX+X%X%X).s.o.N z m q N = 7 m H z B N m #.r.%.%.#.G m L G 1 1 - ; ; - % o . . . . . . . . . . X o o o o . o # % - - - % - ; ; ; ; ; ; ; ; y : 0 ; ; ; # # # # $ # # ; ; ; ; ; y 0 ; ; ; % # # # # ; % # # # X . + + + + . . + * & # . + + + + + * & 8 9 9 8 h W ! :.B.[.eXrX5XJ.3X7XBXGXGXGXGXmX0XdXcXZXZXZXZXrXb.Q ~ *.k.B.J.b.>.K.5X5XJ.J.oX7XrX].J.].].C.K.K.B.5XrX5X7X8XJ.C.3X7X4XsXdXdXnXmXdXdXdXmXdXdXmXZXmXdXhXdXsXuX7X0XuXuX<X<X1X7XrX4X4X3X4XsXuX7XK.5.' ( C.0XwX9X4X4X;XZ.c.c.H.5.' ( 5.c.L.L.H.H.=X7X=XH.c.x.5.x.H.;X>X=Xx.~ 5.l.l.l.l.5.7.7.5.*.=./ Q Q =.6.=.Q R Q ~ R M M W W W R f M g f f f j u g 9 9 f f 9 9 r n W f 9 9 8 8 8 f n Q n f Q / E f 8 9 f d 5 $ * 5 8 8 & * . $ $ . + .   X * 9 5 & $ & 8 9 & 8 9 5 * . .         . X o . . X . # # o X o % % o . . . . o ; i a i ; # . . o - - - < 1 1 < - o % - % - # # % # % # o # % # % # o o . . o o . . . . . . .   c #.N.~.pXeXF.w.@.) b B &.u.9.C b +.B o.K B b q B +.b b 0 $ p c i # .     # 0 p b q q o.K %.+.b q = 7 o.B K z N ",
"K N %.%.&.#.K N &.s.0 N %.r.K q 7 #.f.s.K o.#.&.&.f._.!.zXKXOX/.t.K N z p p N H N B B K K 2.%.N 0 $ = 0 K K G c S ; 1 < ; ; % - . . . . . . . . . . . X o o o o # % % % ; ; - # # % ; ; ; ; ; ; ; ; ; ; ; ; ; ; ; ; ; = ; $ % ; ; ; 0 y y : ; ; ; ; # # % % # # o X X . + + + + . + X * * + + $ * $ + + + * * 8 9 5 f M ! <.J.5XdXdXL.b.B.].5X5X].7XmXAXFXFXcXpXZXZXZXrXJ.M.B.J.].].pXXX6.;.L.7X6X5XrXaX5X].n.`.{.A.B.6.~ 6.J.].3X8X=XZ.3XsXsXsXdXmXhXdXsXuXhXZXGXZXZXnXnXZXAXmXhXdX0X4X8XsX0X4X1XsXdXsXsXsXsXuX3X<XL.l.] ' 6.l.l.x.Z.x.l.Z.4X>Xx.I.z.E ' =.7.=XH.v.Z.4X4XH.c.x.7.l.H.H.=XH.5.~ 5.l.Z.l.7.5.5.7.l.6.*.E ~ *.=.l.>./ >...R g f u f g g M M g u 8 u f f u u 8 f u 8 8 * 8 f g 9 8 9 8 9 f 8 e f f f f R R e 5 8 g g & $ 8 u 8 $ $ + . + .       X & & 8 & + * & 9 8 5 9 9 5 + .         . . . X . . .   X o o % - - % % o X . . o - < ; ; % o X o o - - - - < 1 1 ; - - ; - - o % # % # # # # # # # o o o . . . o o X . . . .     i H i.'.xXBX'.O.V V w q B B $.B B q b z b 0 7 0 w q B q 7 = m c y # o     1 z p z b b b z b R.!.r.o.z %.2.r.r.%.",
"b z H %.r.&.d.p.&.r.q H B o.H m K N K %.2.K o.%.).f.kXiXkXVXs.Y.t.2.%.#.%.K m K s.%.s.s.s.R.s.r.K N H J #.%.H v c ; - - ; - % % o . X . . X . . . . X X o o o o % % % - ; ; - # # # - ; - ; ; ; ; ; ; ; ; ; 0 i i y y y 0 = # % ; ; 0 ; ; ; ; ; ; ; # # ; ; # # X . . . . . . . + + + .   . * * + & 8 * * * & & % * p M ! O.i.].8XsX7XC.6.3XuX8X<XdXGXBXZXBXdXdXGXFXFXZX`.].rXpXpX].].].l.z.z.J.rXrXrXsXrX`.A.b.*.6.b.M.C.5.5.J.5X8X3X4X4X8X8X=X7XdXdX7X4X0XhXZXZXAXDXZXZXAXAXAXAXAXwX;X4XwXJ.n.;XdXZXsX7XdXcXZXdXuXuX=X7.7.5./ Q ' Z.1X:X;XZ.7.7.x.v.x.x.( ' 5.l.K.H.K.<X1X:X;XZ.5.5.x.=XH.x.6.l.6.S.x.x.7.7.C.C.l.;./ =.5.*.;.;.6.;.~ R M j f M g g f u u u u u 8 8 8 8 9 8 8 8 8 & * 8 f u f n f e f 9 5 9 f 9 9 g R g f f f u $ * 5 8 8 $ +         .   . X & + X . + * & 8 & 5 9 5 & +         + + . .   . . .   . o % < < - - - % o o # o o o X . . . o o % - - - % - ; < 1 1 - % % # # # % % % % # o # # # # o o o . . . . o .           = q O.N.eXeXaXN.V b b b b ) B &.u.o.} b w 7 b i.&.$.p.%.s.G m J m - .     i z m b b N z b q q V B N 0 N #.u.r.K ",
"N b N #.r.r.r.r.f.R.m #.K f.d.2.%.m p K %.r.s.f.!.OX%X$XzXvX%Xs.OX/.R.f.r.%.z z 2.H %.p.!.f.f.Y./.R.f.%.K H G G 1 # o # ; - o % . . X . X o . . . . X . o # % o # % - - ; - % % - % % % ; ; ; y y ; ; ; ; ; ; : i y i i 0 ; ; ; ; ; ; ; ; ; ; ; ; % # % ; ; % # X X .     .   . . .       + * + * 8 5 + . . * X * * 8 f ! *.,.F.7X0X4XL.B.J.dXZXaXBXFXGXBXZXmXbXAXFXZXoXb.M.5XBXDX5XL.{.J.A.F.k.C.J.J.L.].].B...Q b.B.`.5XK.l.<X7X4X8XwX0X7X8XL.L.5XdXdXZXhXhXwXdXZXAXZXZXhXdXhXhXSXwX0XwX0Xn.k.=XdXZXdXdXdXZXGXcXdXsX0Xv.{ ' 5.' ' R / x.C.Z.l.] l.x.H.I.v.x.Z.H.K.-XK.C.=X4X4X>Xx.5.x.H.c.Z.C.Z.C.K.Z.x.c.x.l.c.x.;.=.5./ f R / ;...f R X.R r f f g f f 9 u u u u u & 8 & $ 8 5 5 & $ 8 9 9 f f f e 9 8 5 9 u f e E ~ n f f u 8 8 8 8 5 & * .         .   . . .       . + + + + 8 8 * +         . X .         . . . o o % - - % % % o o X X o . .   . X o o o % % o % % % - < < 1 % # # % % # o # % # % # # o o # X o o . o . o . . . . .     0 9 _ q.m.F.oX'.O.b b N i.f.u.u.o.$.+.o.C ) +.+.&.u.r.p.}.OXt.G : #       1 c %.u.o.$ $ b 0 b q !.f.o.%.K %.o.L ",
"K K K #.2.r.2.2.r.s.#.z m %.s.s.H %.o.#.%.r.R.u.&.!.+XiX%X).Y.s.(.E.Y.d.s.2.o.d.%.H %.%.s.Y.f.!.R.Y.p.2.#.m L G y % - ; 1 < - % . . . . . . . . . . . o o # % o o % % - - # # - ; ; % # ; ; 1 y ; ; ; ; ; ; ; ; ; 0 ; ; ; ; ; ; % ; ; ; ; ; ; ; ; ; ; ; ; % % % X . . .         . .       % X + & % +     . * + X % & 9 W | :.].dXdX<Xk.<.K.ZXGXdXhXFXGXGXPXBX6X6X7X3XJ.;.6.C.0XhX6XM.`.pX7XJ.].J.J.B.B.A.b.<.| | b.B.B.5X].3XsX7X7XdXdXdXhXdX0X4X4XdXZXZXZXmXwXwXdXZXZXhXdX0XmXmXSXmX0XqX4X=X7.x.7XdXcXZXdXZXZXdXZXZXhXhX0X-X4X:XI.l.5.5.l.Z.=X=XC.x.C.v.:XZ.4X0X4X4XH.C.n.C.=XK.C.Z.Z.K.H.=XH.H.C.Z.x.c.x.Z.x.C.c.' =.7.7.' =.Q / ..>.~ / ~ M f 9 d f f f f u 9 9 9 8 8 8 $ & 8 & & * $ 9 8 5 8 9 f 9 u 8 f g f 9 U Q g u 0 8 8 9 5 8 8 & + .               .         . + . . + 8 5 * .   . + + . .       X o . . . o # o o o o X o . .     . . . . X % - - % % % # # % # - - - - - # % # # # % # % % # . o o # o # # o o o . . . . . .   .   > N -.i.G.G.m.m.@.@.+.B @.B B o.+.o.B $.o.N q q &.h.f.R.OX(.T.%.c # .     < v s.!.R.p.N $Xp.$Xp.kX$X%Xp.u.o.$.K ",
"&.r.o.o.&.r.&.r.&.m K $ p K o.%.B #.r.r.%.f.f.d.u.u.+X@X!.u.0 r.r.s.d.d.s.Y.Y.s.f.%.%.K #.s.Y./.d.Y.Y.%.#.z G G x ; 1 i i 2 i - . . . . . . . X o . . o o o % o o o # % # # # - ; ; ; ; ; ; ; ; ; ; ; ; ; ; ; ; = = ; > $ % = ; # ; ; ; ; ; ; ; ; ; ; ; ; % * # X . .           .       . & & 5 $ .   . .   X * * * % f W :.B.].5X].M.6.6.K.dXhX=XJ.3X5X[.BXZXpX~.m.M.cXSXnX<X3X8X3X`.N.yXpXpXZXdX5X{.{.5X<XJ.A.8.=.8.{.5X5XuX0X3XuXdXsXdXhXdXwXuXsXuXdXZXdXwXwXdX0XhXZXsX0XwXmXAXAXdX0XdX8X4XH.l.H.3XuXdXZXZXhXGXFXSXZXAXhXwX9X>X=X-Xc.c.x.>XmXAXAXhX9X>X4X>X=X<X3X=Xl.l.l.;.S.A.l.K.K.n.7.H.=XZ.H.=X=X=XZ.x.Z.x.l.5.7.x.v.5.( ` / / >./ g Q g R n f f f f f p u 9 9 & 5 & & 5 8 & 5 + * & 5 5 5 8 f u 8 5 9 Q R g g Q Q f g g 9 9 8 8 8 & .                         . + & & * 8 5 $ * + . + + + . .     X # % # o o X o . o o o o o o . . . . . X o o % - - - % - % # # # # # # % % % - ; - % % # # % # X # o # o % # # . . . . o . . . .     ; B _ m.G.tX5Xw.! ! u.o.) b N $.$.&.o.N b N u.u.u.d.Y.d.s.T.t.1.P y o     < c r.d.C R.R.!.%.z b o.!.OX+Xf.&.r.r.",
"r.&.s.s.r.&.r.r.&.%.r.$ p B 2.o.#.B %.#.%.R.d.s.(.+XiXkX.XD.i.R.(.Y.r.r.p.&.%.o.2.s.%.K b &.2.2.2.&.%.2.%.K L G x ; - ; ; < - o X X . . . . . . . o o o X o o X X X o o # # - ; ; ; y i y ; % # % ; ; ; = ; ; ; ; = = # # # ; ; = ; ; ; ; ; ; ; ; ; ; ; ; % # X . . . .       . .         + + + .     * & . . . * & 8 n | <.<.| J.cXdXM.=.c.wXhXwX0XhX9XJ.sXZXGXZXsXdXSXJXFXZXdXwXwXZXpX{.<XrXuXdXhXZXZXdXrXrX<X<XJ.6.n.4XZXZX0X=X3X7XsXuXsXsXsXmXhXdXZXZXZXmXmXdXdXmXwX0X0X0XwXhXmXmXwXmXwX4X;XH.H.rXmXdXZXAXmXGXFXHXFXFXAXhXqX=X;XH.c.v.v.Z.wXdXZXAXmXwX0X9X8X1X=Xl.l.*.` / 5.n.;.A.L.5.5.Z.K.=XH.L.=X3X=XS.Z.H.7.C.H.;Xx.5./ =.;.=.=.~ 9 e n ! W j u 8 9 9 8 8 9 8 & & & & & & & & & $ $ 5 8 9 g f 8 8 5 5 e R g 9 f R W W f j g f 9 5 + .                         + & 8 y 8 5 8 5 & + X . . . .     . o o o o # o o . . X o % % o o o % o o # o o o o % # # # o # o o o X o - - - ; ; - - ; % # # % % % # X o o o % % X X . . . . . . .     m #.@.w.F..XG.F._ ) o.+.o.N N +.9.f.D.f.f.9.u.$.u.s.&.K K L y.t.G i %     # z r.r.o.&.u.%.u.h.&.B r.s.u.s.p.!.p.",
"o.o.s.s.&.K r.f.d.s.(.z z m N K H B b B 2.r.f.&._.).iXtXVXD.).$XR.p.r.o.B #.N B H u.r.K z m B o.2.o.K #.%.T.r.L c ; - % % - O . . . . . o . o . . o o o X X X . o X o o # # - < y i y ; ; ; ; ; ; ; ; ; # # ; ; ; ; ; ; ; ; ; ; = ; % ; % ; ; ; ; ; ; ; ; % o . .                       . + + * + + . . .     . X $ 9 n n *.<.:.O.J.B.6.n.=XdXZXdX4X4X9X=X4XwX9X=X4XZXAXAXSXZX7X3XuXZXFXcX<XrXsXdXAXFXnX].eXdXdXcXrX5X5X5XdXhX1XC.K.8X8X<X<X7XsXsXsX0XZXZXdX0XdXdXhX0X4X>X=X=X9XmXSXmXmXZXhX0X-X:X=XsXsXdXAXFXFXJXJXFXPXFXAXAXFXAXAXhX0X9XwX4XwXmXAXSXPXJXAXZXZXdX0Xx.7.n.8.7.l.x.] l.=XK.Z.C.S.H.K.=Xx.6.Z.S.C.Z.6.C.C.;X7.=./ >.~ Q Q W f e r M W f u u f u 9 8 8 5 $ $ & & 5 8 8 8 9 9 9 8 & 8 f 5 $ 9 5 & 5 9 8 5 8 f f f g *...8 8 8 * .                   . . + & 9 8 5 & & * + .                 . . . . . o o . . . . . o o o % o % o o % % o % o o % o X X o . . o X # % - - % % % % - % o # % % % # # # # X o o . o o . . . . . .     m u.D.~.F.G.'.a.i.,.a.+.@.&.u.o.p.&.$.u.u.u.%.$.s.f.!.d.s.s.E.t.L 1 o     % G 2.p.r.!.(.$.p.f.f.&.o.+.%.o.u.p.s.",
"B %.&.%.2.&.t.2.s.r.).p.&.z z K r.%.o.B o.K r.&.f.!..X#XlX.X$XzXd.%.2.N m N b m H %.o.B B H N o.#.&.#.r.2.s.L G i # % % % - o o .   . . . X X . . . X o o X . . o o o . # - ; ; i 1 ; - # ; ; ; ; ; ; ; ; > # ; ; ; ; ; ; ; ; ; ; ; ; ; % ; ; ; ; ; ; ; % # # . .                 .     . . + + + + .           + & 9 f ! <.b.| W ! ,.J.rXdXdX{.B.M.x.8XZXZXAXwX=XK.9X8XwXmXmXdXP.b.L.ZXZXrXsXdXdXhXdXuX5X5XdXZXZXdX5XeXeXrXdX8X=X4X7X8X3X8XuXhXdX0X7X7XdXwX9XdXhXmX0XH.=X=X=XwXAXZXmXZXGXGXdX4XH.=X7XdXAXJXPXPXFXFXGXFXAX8X8XZXdXK.3XZXPXPXPXFXSXmXmXmXhXhXAXFXSXhX:XI.wX>XC.=.l.C.=X4XK.Z.;XZ.x.x.C.C.' 7.;X=X;X=XS.6.>.5.l.l.6.x./ Q g q u 9 9 u f f u f f u 9 8 5 & 8 & & 8 8 8 8 8 9 f j u 5 0 f M g f 5 9 5 $ 5 9 9 9 g g 9 5 & 8 9 & .                   . X + $ * * . . . .                   . O . . . . . .   . .     . o o X . . . o % - % % % o o o # o . . . o X # # # % # o # % # % % % % # % # % # . . o o . . o X . . . . .     c u.D.w.w.m.O.q.i.D.!.!.&.u.f.u.f.+.f.u.u.u.f.u.&.&.f.Y.2.%.s.1.G 1 %     1 %.%.r.&.f.f.u.&.f.h.%.%.%.o.N o.%.9.",
"K s.2.K r.r.&.%.r.(.(.f.b 0 &.%.!.s.%.N K K H %.$.f.^.^.iX@XVXCXR.2.#.%.%.%.r.s.d.2.o.%.K H p z B #.%.r.r.r.K c ; . o # # % o o # X . . .   . . X X o o o X X X o # # o o # - ; ; 1 1 ; - ; ; ; ; ; ; ; ; ; % ; $ $ ; ; % # ; ; ; ; ; ; ; ; ; ; ; ; ; # # # # X . . .                   . .     % & . . .       . % u g n *.C.M.B.5XL.M.L.`.i.i.yXZXhX9XwXsX7XL.L.9XmXhXwX9XwXwXL.<.n.L.rXXXB.i.B.5XdXdXrXsXhXdXdXyXXX{.{.5XsXdX8X4X4X8XsXbXZXAXhXwXwXdXdX0XwX0XsXdX8X4X=XK.C.-X0XhXZXZXFXFXZXdX0XsX7XwXAXbXdXbXZXSXGXZXrXb.>.B.J.V.=XZXJXPXFXsXL.M.l.K.:Xx.I.wXZXmX9XwX9X>Xv.{ ] ;.=X9X=Xx.;X;XS.x.l.l.C.n.S.;XZ.x.l.5./ k.H.=XC.7.R g g 9 8 8 9 9 9 9 f u u u 8 5 5 8 5 5 & 5 8 8 f n f 9 r f 8 5 e Q *.R R R f 8 8 f f e 9 9 9 4 + 9 e 5 .                     . @ & + + .                         . . . . . . . . . o .     . o o .   . o o % - - o o % % o o o . . . . X # o o # o # # % # o % % % # # % o o X o . .   . . . o . X . .     p } w.! -.^ w.! _ a.f.!.u.u.N N B &.u.f.i.f._.a.p.p.2.&.Y.%.t.G l 1 %     1 m K K &.s.&.&.%.%.p.s.&.%.%.o.K s.r.",
"o.s.&.%.%.%.%.K o.s.s.r.b 0 z m K r.&.H K B o.&.&.f.q.^.'.a.$X*XY.1.L L o.%.2.f.p.2.2.s.r.K H m H #.2.r.%.#.G i ; % # % ; % o # # . X o .   . . o % # o o o o o o % - % # # o # - ; y y ; ; ; ; ; y i y ; ; ; # # # # % # # > ; ; ; ; ; ; ; ; ; ; ; ; % # . . X + X . .   . . . .   . * *       * * + + .         + & f f W *.;.M.L.B.| <.<X3XsXZXZXZXZXAXAXmXsXmXwX>X9X>XC.C.8X9XJ.k.z.z.].5X`.4.<.{.dXdXdXZXdXrXeXtXrX5X{.dXZXdXsX7X8XsXmXAXGXZXdXwX7X8X1XK.n.H.>X=X=XK.A.L.4X4XdXhXZXDXZXdXsXdX9X=XdXhX7XsXdXdX4XA.V.J.3XdXFXFXFXFXPXPXPXAX<X=X<XK.6.=.7.;X9XwX4XH.-X9X4X0XqX4XZ.=X-X;XZ.4XC.l.7.l.Z.C.;.;.>.>.' n R =.z.5.6.6.W 9 9 q 9 9 8 9 f g f u f f u & * 5 5 $ * * 5 u u u f n R g 9 9 9 f g n f g / R g R r f 9 9 9 5.` e r 9 &                   . + * + & + . .                           . . . . o % - ; < ; % o . . . . . X % % % o o . . o o o o # # o o X # % % # # # # # - % # % % % % # o % # o % X o . . X . o . . . .     ; N _ ) _ -._ @.a.@.a.u.f.u.B 7 z b B +.&.a.a.&.u.u.#.K 2.%.L 1.v i - X . < c N o.%.&.$.u.r.+.r.u.&.&.s.&.s.s.%.",
"+.r.%.%.&.2.&.K B K B K K p b 0 q %.r.%.%.B r.f.%.f.u.N.iX} +X!.t.1.N B K #.%.u.%.%.r.Y.Y.s.r.N H m #.2.K K c 0 ; - - ; < < - % . . . .     . o o o X X o o o o o % - - - - # o # - ; ; ; ; ; ; ; y y ; ; ; # # * # # # # # # # % ; ; ; ; ; ; ; ; % ; # # # # . X X . . . . . + .   . + + .     . . . * + + . .   . + & & 9 f g h ! *.n.7XZXsXL.<XZXhXwXAXSXZXZXFXFX0X,XgXwXK.k.6.>.^ r n <.5XZXZXyX{.5XdXuX<XJ.].rXdXpX5X5X5X6X5XL.J.3X4X5XdXbXhX7X<X].<X5X1XL.A.H.=XH.K.4X7X0XsXhXmXwXdXBXsXdXsXdXZXGXdX<XrXdX5Xb.n.sXZXAXFXHXFXAXZXAXAXHXSXhX0X0XhX;X5.~ *.C.4X=Xl.5.Z.x.wXZXAXhX4X;XH.H.=X>XC.l.l.Z.H.l.n.>./ ` R R Q ~ R f g f u 9 9 9 9 9 f M W g 9 9 8 $ * + & u 8 5 & 8 8 f f n Q / ~ R g r 9 9 9 f f f 9 j R 9 9 8 & & ~ Q R R u $                   . + + . + . . .       . .         . .       . . o o - < < i 1 ; % . . . . X % - % o X . . . . . . . # - - - % - % % % % % # % % % % % % % % - % o # X # # o X . o . . . . .       i #.D.'.m.m.m.D.w.V ) &.q.&.+.b q N q N o.u.u.o.$.B %.K 2.#.%.J G a - - o < c N K o.+.s.s.r.9.o.&.&.%.%.&.%.%.%.",
"$.&.o.o.r.u.%.%.o.o.H %.p.&.o.N 0 z 0 N b N $.#.+.i.i.,.q.b ).(.R.2.#.#.2.f.s.p.&.u.%.2.&.%.%.%.K N 2.H N 7 ; : 1 - ; 1 1 < % o X . .       . o X . o X . . o % # % % % ; ; ; % # # # # % ; ; ; ; ; ; ; ; # # # # # # # # # # # % ; ; ; ; % ; ; ; # # # % % * + X . . . . . + * + .       . . . + . + & & * . . . + + * $ * 5 g *.k.B.L.L.4XsXC.M.8X0XhXMXhX5XeXZXFXSXhXwX8XM.~ ` C.P.k.>.*.;.].eX{.i.4.V.{.A.].3XsXZXcX7XoX5X].].B.b.b.n.L.L.].].{.rXZXZX7XL.H.K.>X4X4X4X4X0XwXdXdX0X9XnXBXdXdXsXZXAXAX5X].5XdX5X5XdXsXrX5XsXZXZXdX<X5X0XhXsXuX4X;XH.4X9XwXx.*.6.l.` *.H.I.-XmXAXAXwX>X-X:X=X4XwX4X;Xx.C.K.x.=.*.` ~ ~ R f f g M j u g W j f f M W f 5 5 f 8 * . & 9 8 $ 5 5 9 9 f f n R / / / / ~ R W ..>.6.*.f d g f Q d 8 $ * % 9 9 $ .                     . . . . . . .     . . .         . . .       . o % ; ; ; - % o . . . . . . % - o o X . . X X     . % ; - - % - % % % % % % % % - % % % % - - % # o # . o o . .   .   .           p o.w.q.w.m.-._ ! ) &.$.+.$.&.f.o.b N b B B +.o.+.+.#.K %.%.#.G G i ; ; # 1 v H o.%.+.r.%.r.&.o.&.9.&.%.o.K K o.",
"s.#.2.r.u.&.#.K %.#.&.s.).zX!.%.7 = # K = z N B +.&.O.o.8 p s.).(.t.s.2.#.d.f.%.#.2.s.%.N K o.H %.L r.B p & 7 i a - < i 1 < o . . . .     . . . . . X X X o # # o o # # - ; ; ; % o # # ; ; ; ; - ; - ; # # # # # ; # # # # > ; ; ; ; ; ; # ; ; ; % ; ; ; ; # # + X . . . . . . .         + 5 9 5 + X $ * .   . . + * * * * 5 O.b.A.B.<.M.sXZX=Xl.K.=X1X9XhXZXZXhXhXAXwXK.L.>XZ.C.4XL.z.l.=X=X1X8X].<.$.V.'.5X5X].5XdXdX7X].`.<X3XA.n.M.J.L.b.6.n.M.J.].L.l.>.<.C.<X4XwXwXwX0XdXhXuX3X=X8XdXdXdXdXZXdXdX8X3X`.b.M.4X0X8X1XL.C.=XhXSXFXhX0XwXwXmXhX9XC.C.z.Z.4X4X6.l.x.k.K.4X:XhXZXmXhXhXqX>X;X>XwXwXwX0XC.A.k.~ *.~ ~ ~ R f g ~ *...g M ~ M f f W n 9 9 R W f $ $ 9 e & 5 5 8 9 8 u 9 q j W M / Q f Q >.n.x.>.W M 9 u g u f 9 5 8 8 8 *                         + $ e 8 +         . . .           . .       X % - < ; % . .       . . X . % % o o . . o o o # % - - ; - # # % # % # % % % % - % % # % # % % . o o o o o o . o .                 0 w b ^ ^ -.w.a.i.u.u.u.&.u.f.f.).!.u.+.z B B %.u.p.r.&.s.u.%.%.c x 1 ; ; i G H K &.+.%.r.2.u.&.&.&.&.&.o.&.%.2.",
"s.s.s.r.r.r.r.f.2.&.2.o.%.p.s.#.p.r.o.%.B 0 7 B K &.$.!.p i %.s.d.s.s.d.r.s.r.2.%.K 2.2.%.f.!.Y.d.#.z N q 7 z y i ; < ; < ; # o o .     . . . . . . o X o # # o o o o # % - ; ; - % ; y i i ; % % ; ; ; # > ; ; ; ; = = ; ; ; ; ; ; ; ; # # ; ; ; ; ; ; ; ; # # X X . . .   . . . . .     + 8 u & .   . + + . . . + . . . 5 f ! >.J.8XuXuX8X4X<XC.l.M.K.1XhXSXSXAXAXSXAXdX4XJ.n.C.H.z.=.<.J.`.B.J.].~.<.V.{.5X5X].J.3X5XrXrXJ.M.<XL.J.].3X<Xn.n.A.B.C.C.x.C.6.n.C.A.<X9X-X>XwXwX7X1X=XJ.7XaXZXdXuX0X3X3XA.A.<.b.A.].8X1X4X=Xc.9XSXJXJXSXSXSXSXSXMX-Xl.5.;.H.4XK.M.! ` l.3X=XH.4XdXmXhX0X4XH.C.Z.Z.=X4X;XC.C.H.n.5.;.5.~ n n n W ;.*.g W Q R R g Q W f Q | ! 9 $ + 5 f u 8 5 & & 8 5 9 M g f f g f f U | <.<.~ W ~ Q R j f 8 & 8 9 8 $ +               .       . * g ~ f +         . . .           .           . . o # # . . X o o % % o X o o o o . . . X o - ; ; - % # # - # o o # # % - % o % o # # # # # X # o o . . .   o . o .     .       i V ! A ^ -.6XeX~.a.u.&.$.i.&.u.u.u.h._.D.$.o.%.o.u.2.u.r.u.d.r.G c 1 1 ; i m N B K &.+.&.&.&.o.%.o.H %.%.r.s.f.",
"r.d.d.r.p.s.R.R.p.p.2.N z 0 q %.!.OX%XR.r.%.$ N +.!.f.iX!.d.*X}.R.Y.s.p.f.d.f.r.&.%.r.s.R.).+X*X).r.z = 0 $ 0 y ; < < ; % # % # o X . . . . o o o o o o # # # o o o # # % - - ; ; 1 i c v c 1 - % ; 1 ; ; ; ; y y y ; ; ; 0 ; ; ; - = # # # # % ; ; ; ; - # # # + X . . .   . . . . .     . & f 8 + . . .   . . .   + & * * & f O.<.A.J.].K.8X8X=XL.>XwX4X4XwXmXdXsXhXAXAXmX0XH.;X>XA.| M >.L.<XJ.B.V.V.{.5XdXdXrX`.B.`.<X5X].J.].].].5XuX7XJ.b.k.z.M.5.5.l.x.=X=XL.4X4X=X0X4X0X9X0XsX3XaXxXdX].5.;.b.A.n.b.M.<X].3XL.K.8X1X,XNXSXHXSXAXSXAXwXmXmX,X,XwXH.l.-X4XJ.6.` *.;.M.H.4X0XAXAX4XK.Z.=XZ.-X-X-XH.;.C.4XH.;.>.*.~ Q W j f u g g R | ~ R ~ >.*.R W ..>...u 5 u M n u f g d 9 9 u j r q f M ! W ~ >.*.*.>.*.~ W ! g g f 9 9 9 & + + .       . . . . . . . . + 8 9 & .         . . . . .     . .                 . . . o ; 1 1 1 - o X o o % o . . . X o % - % o X # - % % % o o % % % # # % # o o o o . o o % o   . . . X X o X o o o .     i B -.q.XXXX'..X_.N.q.$.$.+.+.$.o.&.u.f.&.p.%.o.B %.#.u.u.2.t.L J 1 ; 1 - ; z N %.&.%.$.$.&.$.+.&.%.B %.$.2.%.r.",
"s.f.f.p.p.R.(.R.f.u.p.H N N p %.o.&.d.s.s.s.p N $.+X#XCX~.).$XY.Y.s.r.r.&.p.s.d.s.%.&.s.d.R.d.s.#.N B q z z z c 1 - - # - % % # o o X O .   . . o o o % % % # o o o % - ; < 1 y y i x c c i ; ; - % ; % - ; : y y ; ; ; ; ; % # # # # # # X # # $ % ; > # # # # # + + . . . + . .       . . & $ +   . .     + * . * 5 5 *   . & j :.n.J.K.n.J.].L.A.K.3X3X1XL.L.A.].0X9X=XK.4X4X9XwX4Xc.;.*.C.3XJ.<.6.{.dXcXdXpXrX5X<X].<X<X<X1X5X<XB.b.<.<.k.k.b.M.L.K.4X4X4X7XuX0X8X=XK.L.=XK.K.8X0XuX7X5XB.*.W 9 ! >.b.n.A.n.k.<X0X0X1X=X9XMXMXhXAXSXHXSXmXgXmXwXwXgX,Xc.H.C.-Xc.z.=.*.Q *.6.3XhXZXhX0X=XZ.=X4X-X=XC.>.6.4XA.6.5.*.Q g M n j j Q ~ *.*...~ *.k.n.6.k.<.5...g u f g Q Q R Q R f g M ~ n f u M M W Q Q ~ ..>.5.>.=.5./ E R R f 8 + .       . . . + + + . . . . + $ $ .               . . .                           . . o % - ; < - # X . o o o o o % % - - % o . o # % # # - - % % % % % % % # o o o # X % o o # . X   . . . % o o . . . .   = B D.DXXXtXeXm.a.a.u.q.u.+.B N ) &.&.&.$.f.+.&.u.&.o.r.%.r.t.1.P < - ; - - i #.u.r.p.&.&.$.$.%.r.&.%.&.%.K B &.",
"%.&.r.p.p.).(.f.f.&.p.#.&.B B z %.#.r.2.d.R.#.B +.).#XxXi._.%Xs.#.K K 2.%.s.Y.R.d.%.2.o.%.#.B b = p m z 7 H H G i o - . - - - # o X . . . .   . . . . . o o # # o # % ; < i i i i i i y ; ; ; ; ; % # o ; ; ; ; ; # # # # # # # # # # # # # # # # % % % # # # # + + X . . + + + .           + & * .         . + + . . . . .     9 ! ;.b.:.>.A.A.b.;.;.M.L.4XwXwXhXAXFXAXrX7XwX=XH.4X4XL.L.C.l.5.k.M.6.k.A.eXrXdXdXdXdXrXJ.J.B.A.M.n.k.*.| *.=.>.>.6.C.C.C.<X5X5XuX0XwX<X1X7X4XZ.k.<.A.A.b.>...| ~ M | >.b.J.K.n.L.mXZXuX0XwXwXmXgX:XwXMXSXFXFXhX:X:XwXjX,X:X:Xx.I.=Xl.7.6.:.! W Q b.`.J.C.C.5.K.=X=XK.6.6.l.n.b.<.>.~ W ! Q W ~ ~ ;.x.x.*.*.6.6.n.8.6.k.*.~ R Q Q g g R ~ Q Q M g M ~ ! W n n Q Q Q Q E R g ;.l.*.~ ~ Q R f 9 8 $ .       . . + * & 5 $ * + . . . + * .           . .       . .                         . . . . o % o o . X . o o - ; - - - - % # % # % % # # % - ; - ; % % % % o # o X o o % # # # o . o o X . o X .   . . .   = &.D.pXm.tXeXN.i.p.@.$.$.N q w 0 q b N o.&.+.f.!.p.r.s.%.r.2.1.P x ; - # ; c 1.&.%.s.s.&.r.r.r.&.%.r.&.%.%.%.K ",
"B N o.r.&.f.f.u.&.&.%.&.N o.K N N b %.%.2.s.R.7 N i.[.N.O._.#X).f.2.K o.%.%.o.r.K N %.H B H N N q z b N p G J K y o . o % ; % % . . . . . .   . . .   . . . # % % % % - ; - ; ; ; ; ; ; ; : y i c i y ; y ; ; % # . . . # # % - # # # # # # # # # # # % # # # . X X . + + + * * * .     .   . * @ .           . . . + .         5 b.<XJ.O.*.b.J.K.A.A.0XhXhXmXmXAXFXPXHXAXmXAXhX4X>X3X4X>X4X0X=XA.].8X3Xn.l.J.5XpXdXdXdXsX3XJ.6.6.B.].L.b.6.b.b.k.M.M.C.n.l.1X7X7XuX8X].3X5XJ.l.| ^ ` | <.C.H.C.Z.K.<X3XK.n.C.K.L.0X3X<XuXsXsXhXdX4X0XhXMXSXFXAXqX:X,XwXwX,X:Xx.:X-X;XH.C.A.b.;.C.`.<XM.! ~ ~ >.n.S.l.6.5.*.>.>.;.6.<.| ~ ~ ~ ~ ~ R W ! ! S.K.k.*.~ ~ Q M g d f j j Q *.~ R Q *.5.=.=.*.R n R E Q ~ { Q / n n ~ E f f f f f f 5 .         . * 5 9 9 d 8 & $ + . . . .       .     + + + . . . . .                     . o o . . . . o # o . o o X % - % % % % - % % % % # # # % - - ; - % % # % # o o . # # # o % # # # % o . . o . o   . .     p #.D.~.'.e.eXN.D.q.q.$.$.$.+.B B B B B #.@.o.u.p.&.+.f.2.#.2.3.L i ; ; - ; v 2.2.2.s.&.s.r.&.&.&.r.s.&.%.%.o.o.",
"o.K +.&.&.r.r.&.o.o.%.o.s.&.s.&.o.K o.%.%.&.f.o.b +._.F.B ,.+X).u.&.m #.K o.B N K o.K H N N B b K &.d.r.H $ 0 . # . . o - ; - - . . X .   .   . .   . . . X # % - - - - % # # # o o o # ; y i v J J G c c ; ; % . . X ; ; ; ; # # # X # # - % # # # # % % # # . . . + * & $ & % $ * . . . . . + +               + * * + .       . f ~ *.*.O.:.b.k.n.b.z.H.=X=XwXmXSXFXAXdXwXmXmXwX9X>X;X;X>X8XH.l.l.6.*.;.<.6.k.J.rXsXrXrXdX5XB.b.b.b.b.M.M.B.J.M.L.3X<XJ.A.L.B.].5X].].<XJ.<.| n n O.].7XH.6.l.J.3XdX].;.;.C.3X3X5X].n.K.dXAXAXMXhXwXhXAXAXSXAXAXhX,X9X,X>Xx.' 7.v.,X4X3XK.9X0X9XZXHXAXJ.R ! g Q ..~ ~ / g g M W ! *.| M j j j j f u u W >.*.W | ..~ M f 9 8 8 f f g n n R Q ~ 5.5.5.*.Q W W Q ~ ~ Q Q ` n u f R ~ n 9 8 f f $         . + 5 9 9 9 9 8 & & + + & + .         . .   + * * * + X . .               . . o # # # X . . X # # . % o . . . . . o % - % % % - # % # - - % % % # % # % o % # X o % # # # % o . # o o . . X o .   .     y H a.D.XX'.m.N.i.q.&.9.&.u.9.f.u.u.9.$.$.o.#.u.2.&.2.%.$.2.s.1.G c ; ; ; ; v %.&.&.o.&.r.r.%.%.&.$.&.r.o.&.&.&.",
"o.o.&.&.&.H K B B &.&.r.&.&.s.s.o.%.%.s.2.r.r.).%XtXm..Xb N $.} o.q N %.o.N b H z o.#.#.K N B N K %.s.&.H z p $ ; o X % % # # # o . .     .   . . . . o o o # # % % % # # # o o o o o # ; ; y i c c i y i y ; - # ; ; ; ; ; # # # # # # # % % # # # # # # # # . . + * $ 5 9 u & 5 5 & & & * * 9 5 +           . * * * + .       . 8 W *.~ W | *.<.M.C.C.k.;.;.;.k.J.3X4X1X<X4X3XH.H.=X=X=XZ.L.L.H.c.k.*.~ *.;.n.K.].<XJ.M.b.`.`.<.| Q h O.>.*.! M O.b.A.n.<.*.O.<.8.n.A.B.*.M W | k.J.J.b.O.:.<.*.J.J.*.k.>XfXaX5X7XL.b.K.4XhXhX4XdXhXmXAXAXHXAXZXSXwX9XhX,Xv.5.5.I.4X0X4X<X3XAXwX9XdXdX4Xl.*.W g f f g M 9 8 u j W M M M ! W M W R Q *.M f u n | W j u u 8 8 f n n g f u g n g Q l.5.5.=.Q Q / / ~ R M j n j u u n g 9 n ` R $         + $ & & & & 5 $ * +   . + .       . . + + + * * & 5 * + +               . . X # # # # .     . o # o % o . .     . X o % % % % % # % # % % # # # # # % o o # % o o # # # # # . X . X X . o . . .   .     y N w.i.F.J.m.m.a.q.&.u.$.$.&.&.u.f.+.&.$.+.u.u.%.&.r.$.s.%.r.2.G i ; ; ; 1 c %.%.o.B r.&.&.&.&.$.&.&.%.L %.&.9.",
"o.o.&.&.o.z z z B &.d.p.p.f.p.p.&.r.r.p.r.r.&.u.!.+XeXXXi.b p p = 7 H o.K N z m p b N o.%.K %.K N z 7 7 H (.OXm c % o o o - # # # o .         . . . O o o o o # o # # o o . . X o # # # - ; ; y y 1 ; y i i i i y 0 y ; # # * # # ; # # # % # # # # # # # * # X # # * * & & $ * $ 5 8 8 8 & & u 8 $ . .         . + $ * + .       . * & & 5 f W ~ >.n.n.l.6.;.] ;.;.6.M.J.M.<.*.` 5.z.k.l.M.H.K.H.c.c.M.*.| O.O.~ *.*.:.| O.O.$.8.n.b.6.*.~ Q ~ O.O.O.:.<.b.<. .M N W :.,.O.O.~ Q ~ ..| ~ | :.<.<.B.*.*.M.J.].].K.J.l.<.C.S.=X9X0XwXmXZXZXAXSXAXhXhXhX=X=X-X:XZ.H.H.,XhXAXsX<X3X4XK.z.n.k.*.~ *.! g g R W g ~ ..<.C.n.| | 6.*.! ! / 5.l.~ g f f f u 8 5 & 5 f j n n n f 9 9 9 r g R Q / ~ Q W Q Q f u f j f 0 8 9 f f 8 u f 8 +         . . . . + * & +       . + . . . . . + & 5 5 5 5 5 8 & * .     . * *     . . o # # # # o     . . . . o % - % o . . . o o % % % % # # # % % % - % # # % # # # % % % # o . # # # o . # . . o . . . . .     ; N O.N.'.F.m.w.i.i.u.u.u.&.u.u.f.u.p.u.&.o.%.$.r.r.u.&.r.%.r.1.G < # ; ; 1 v L #.&.b s.&.r.&.r.&.$.o.%.K K %.K ",
"o.r.&.o.o.N b B %.s.f.r.$.p.s.d.r.r.&.r.&.%.&.r.f.f.a..XkX!.#.N z p b b B N B B %.%.u.r.%.H K o.N K o.%.2.#.N L ; . o - ; ; % - o % .   . .     . . X o o o o o o o o o o o o # # % - ; - - ; ; ; ; ; y i i i 1 ; ; ; # # # X # * % # * # # # # # # # # # # # # * X + * $ $ & 5 & & 8 8 9 f j f u 5 +           . + * + * +         $ 9 f n M W W ! *.<.k.=.] 5.l.x.<.*.*.O.! W W *.<.*.~ Q *.k.n.x.H.4XM.| ~ *.| n Q >.<.6.>.:.b.].].B.b./ ^ *.<.B.J.A.L.3X].J.J.:.b.b.<.*.*.~ R W <.;.>.:.:.J.A.<.*.k.L.M.<.M.k.n.L.b.n.l.C.0XhXwX0XdX0XwXhXhX9XwXwX>XH.=Xc.*.l.>X=Xl.1XdX8X1XL.1XC.6.b.C.6.>.*.| <.6.5.l.C.8.C.n.*.W | ;.6.*.=.=.>.*.n n j 9 9 u f f 9 9 f M u 5 8 8 5 8 q q & & f Q g f R R u 8 8 u n Q u 8 u u f R ( ~ %             . . . .           . $ & & + + + * $ 5 5 8 u 5 & & * + . . . . * * .   . X o o # # % # . X .       . - < , - o . . o # % % % - % - - # % - - # # % # % # # % o - % # . X o o o o o . . .               0 N O.m.G.F.XXe.D.a.9.$.&.u.9.f.&.&.p.u.u.o.u.$.u.$.%.%.%.#.#.L x ; % ; ; y m %.%.s.K %.o.%.o.$.%.r.%.%.N B B N ",
"s.&.#.o.b b B $.f.f.f.%.&.s.s.f.&.r.%.%.2.#.r.u.q.q.@.+.D.%XvX*X#.G p z %.&.s.&.s.s.2.B B N B H m !.!.%XOX%.m v G i - ; 1 1 - - . . . o o .   . . . X . o o . o . o o # # % % % - ; ; ; - # # # % ; ; y i i ; ; # # # # . . . . # % ; # # # # # # # # . # % # # X . . + @ $ & 8 8 8 u 8 9 j n M M f 9 & .     . & 9 9 8 8 8 & .     & r ~ l.=X8X4XC.6.<.6.z.k.z.l.;X>XH.Z.C.M.b.-.! ~ *.*.| *.>.b.M.K.<XK.6.*.*.*.O.~ / <.6.<.<.*.:.n.B.].<.>.z.;.! O.<.M.].7X8X].M.n.n.<.<.<...*.| ~ W W Q O.<.<.O.M O.:.| O. .*.6.B.M.=Xl.5.=X0XsX>X9X>X>X9X=X>X4X9X>XI.c.l.l.H.=X=Xl.=.K.<Xk.A.1X<X<XA.n.l.<.~ <.M.M.k.<.8.>.;.k.>.*.k.H.Z.x.6.~ W n u 8 u u f f u u f f f f 9 & $ & & 5 5 & & & 5 u g n ~ ( M u & f / f 8 5 8 8 8 8 9 f *           . .   .           . * 5 5 & & $ & & & 5 8 9 9 5 u d 5 $ +     . * * .     . X o # % ; # # # X . o X # - - - % o o o o # # % % - - ; ; # % % % % % # % # # # # o % % ; # . o . . o   . . .               i o.a.i.G.'.XX'.N.q.&.$.$.$.$.$.$.&.+.+.&.+.f.$.$.B K r.s.%.%.K c - - - - 1 c K #.r.o.u.%.o.K o.K o.o.o.B K K %.",
"f.&.&.%.o.o.9.p.f.r.&.N r.&.r.r.&.&.&.%.r.r.f.p.&.&.,.o.u.d.OX(.H $ 0 q B $.&.&.o.o.#.$.o.B N m b %.u.u.p.#.2.i i % # ; ; < o #   . X o . . . . . . . . . o . . . . o # % - - - - ; ; ; ; # # # - ; ; y y i ; # o . + # . X . . . # % # # # # ; ; ; % % ; = % # .   . . + . + & u 8 5 9 f M W | W n u & . . * 9 g W ! W M W f & . . & f W >.C.C.M.k.k.6.;.z.H.=XH.H.>X9X4X4XK.z.;.>.M.4XwXwXsX=XA.L.8XJ.A.C.<.| | ..~ Q *.*.n f ..b.<.<.b.n.M.L.<XM.*.6.<X].].<XJ.<.| W M | | >.>.R u y u f u u f f u f M |  .W *.<.b.b.L.1X4X>XL.3X8X9X4X9X>X=XI.x.c.H.l.5.x.H.H.H.6.*.*.*.n.b.6.6.~ | | m j ! | <.b.*.! M W ~ *.*.*.*.;.<.>.~ ! n j f n f u 8 8 8 & & 8 8 5 5 8 & 5 & 5 & + + * & 8 f ~ 7.=.~ R u u R n u 8 & & X                   . . . . .           * & 5 8 u 8 & 8 9 8 8 9 f M 9 5 5 $ + .     . . . .   . X # # # % % ; ; - # # ; - % % % % % % % % # # o o % - ; ; ; - # # # % % % % # % % % o % % % % % . o . . . . . . .     .       y H a.D.'.F.'.^.,.i.+.@.&.$.+.+.B N H o.+.%.&.&.%.#.%.2.#.%.%.G i - % % % < c K o.%.r.&.s.u.&.o.o.B z N B %.r.s.",
"p.r.r.&.s.f.f.R.R.&.B K o.B +.r.p.Y./.f.d.Y._.h.&.a.f.u.+.u.!.f.OXp.%.b 0 p q N p H #.u.r.o.H N b N N o.#.H z = ;   o # # o X X . . X X       . . X o % o o . . . . o o # # % % - - ; - ; - ; ; ; ; ; ; y y ; % # % ; % # # # # # # # # # # % ; ; y y ; ; ; % + .     .   . . & 8 8 9 9 f M ~ ..*.~ n f 9 9 M | <.b.>.! M j 8 5 * + + 9 ! >.>.*.<.b.n.M.A.C.H.K.=X-X=XL.A.C.M.C.K.K.J.C.H.;X;XZ.=XwXwXsX7X].<.:.O.*.~ W g n ~ *.*.~ >.k.<.*.*.,.<.>.>.*.>.<.k.n.b.} j f f M ! | j * 8 :.b.*.W h u u f j W | | >.k.6.k.b.].8X0X7X=XL.fXdXdXhX9X-X:Xz.x.x.c.H.>XZ.x.x.5.;.*.*.W W ~ u f M ! W 8 % f W M j y u n W *.~ ! f ~ >.*.Q W W ~ W j f M Q R 9 8 & 8 f M g g 9 f f R f 9 f n W Q / l.v.:Xl.*.Q u j Q g u 8 5 & & * .           X + * * + +       . . * 9 f g g f f 9 9 u 9 u d u 8 * + . .     + 5 5 .         . . o # # ; ; - % ; 1 < % # o o o # % % % % % % - ; ; - ; ; % % # % % % % % % # # X % # # % % % % # o . . . o o . . . . .   p H -.N.'.'.'.F.q.&.+.&.&.%.+.+.B B +.+.$.N #.K %.&.#.2.#.%.K K y - % o - < v K o.r.&.&.r.d.s.s.r.K K %.r.2.r.s.",
"f.p.r.%.s.u.%.s.s.&.H +.s.&.p.s.u.!.R.R.d.f.r.u.u.,.a.o.N u.!.).vX+X+XB 0 = p b b p b B N N b b q $ 7 z z N z i c x - % o # o o . . . .     . . . . # o o o o . . . o # # # # % - - - - ; ; y y ; ; ; ; 1 y ; ; % ; ; % # ; ; ; ; # # # # # # % ; ; ; ; % % % * X         . + $ * 5 5 9 W | | ~ ~ ~ ..~ 9 & f W ! ! ! | g e e 9 $ + $ f O.>.*.| *.>.<.>.>.6.k.C.H.C.H.=X>X4X0X>XH.l.n.M.C.C.l.H.;XC.b.b.K.4X4X<XJ.J.K.L.M.<.~ >.C.l.=.>.:.*.6.k.b.>.! Q | 6.k.<.*.M u 8 8 5 8 & $ 8 ! b.b.b.B.>.g u f M *.M.M.6.<.<.<.6.B.<XL.8X3XL.3XdXwXdX4X4X:Xv.z.c.c.I.c.v.l.z.5.C.n.;.~ W j f ~ n.C.].*.u 8 8 8 f M m j j M ! *.>.M.=X6...~ ..n f n *.*.M f u u j n f u 9 9 d 9 9 d 9 9 u f W / ;.5.7.7.x.c.l.*.*.! ! Q *.5.7./ f *       . * & 8 y u 8 *       . * 8 M W g g g f 9 8 8 8 8 & * * .         . $ & * .             . . + ; ; - ; i i i - o o o o o % % % - - - ; ; - ; ; ; - # % % % % % # o . o o # # % % % % % o % . . . . . . o . .     z o.m.i.e.G.F.m.q.D.u.&.i.&.o.o.B B B o.#.o.B N o.$.2.s.#.K %.H c y ; % - ; G K %.%.&.r.2.%.%.9.r.%.%.%.%.r.&.&.",
"s.f.&.%.&.s.&.o.+.%.$.f.OXR.!.f.f.p.!.f.f.r.o.C B q._.i.+.).u.f.&.B B #.N 0 7 $ p b B z b b K N K 7 = + z %.H G x < ; ; - - % - . . .       X o . o o o . o . . . . X o # # # # # % ; ; ; ; ; : y y y : : ; ; ; % X .   . # ; : ; ; % # # # # # # # # % # % 8 0 8 & +         . + 5 u h Q R ~ *.*.>.;.Q 8 9 g M M ! | W f e f g 5 $ 5 9 n R R ! *.;.<.>.~ Q ~ ~ ~ ` =.5.l.K.8XsX0X4X4X>X4X0X0X-XZ.k.*.<.b.b.J.C.C.6.O.*.*.>.b.k.*.| *.>.*.<.M.3X<X].b.>.>.*.|  .W ! :.:.M p 8 & * 8 j j M <.8.~ h 0 u u W 6.M.k.<.*.:.*.>.C.L.4X3X=X4X4X0XdX8X>X;XI.c.5.c.l.Z.H.x.5.5.c.3XK.*.M M | n.=XK.6.*.f 8 * 8 } >.l.| j M ~ ~ | 6.>.~ f Q n g f f f 8 8 u u f h j u u g Q g u 9 u 9 9 f n R g g / 5.x.I.Z.7.;.6.x.l.5.5.] R 8 & .       + & 8 8 f R g 5 .     . * & 9 e 9 9 5 5 9 f 9 8 & + . . . .   $ 9 e 9 $ .                 . # % ; ; - ; ; - - o o o # o o # % - - - - - ; ; - - % % # - - % o # % ; - # % # % # o % o o o . . . o   . . .       z $.m.i.G.G.m.m.,.,.+.&.@.&.$.+.$.$.o.$.%.o.K N K #.&.r.#.1.L J N c ; - - ; m #.%.%.2.%.o.#.K %.#.&.r.o.#.K K K ",
"K p.f.p.s.s.r.o.o.r.%.f.s.p.f.R.R.f.u.u.p.r.o.B b V ,._.a.!.%.+.w 0 7 p N 0 +   + $ b p 0 N d.(.(.(.R.N 0 p c G S a i 1 1 < - - . X .     . o . . o o o . . . . . . o # # # # # # - ; ; y ; ; ; ; i i y ; ; ; ; - o . o # # # # % ; # # # # . # # # # # # * % & * & & & + . & 8 5 5 f Q ..>.>.*.>...g & & 8 8 8 8 f j j u 8 5 & 5 9 g g M W ! ~ ~ *.*.;.>.>.| R g R / *.6.l.x.Z.=X4X0XsX4XA.n.6.>.~ W O.<.<.>.*.~ *.;._ g j O.k.:. .~ ~ *.W M *.b.b.>.| | ! W M M :.8.<.:.j * X & u W W j j f g W M f f g ~ <.k.<.8.b.B.b.A.K.>X>X=XH.8XsXdX7Xv.x.>X;Xx.c.x.x.x.l.' =.5.c.L.;.f n ! ;.z.>.O.W n u $ $ u M | W u f R n W >.*.R g n n n f u f f u g u u u u u u u M ~ *.Q Q U f g R g g M Q 7.x.l.=.*.*.*.5.l.5.*.*.R 9 & + .   . & u u u Q Q g 8 & % & 8 u j g f n g u $ & u 8 $ * .       . 8 r e r 9 $ .                 . . % ; - % - # o o o X o % o o o # % - - - ; ; ; ; - - # # # # # o % - - % # % # # # o # o o # . . X o . .   . .     p %.m.~.'.oX'.N.O.@.) +.$.+.&.+.$.f.u.&.+.&.&.+.o.#.o.%.K L v L m y ; - - 1 v H o.&.%.%.B %.&.%.o.&.r.o.H m 0 b ",
"B %.!.).!.&.+.K o.B s.u.o.&.s.u.f.r.p.f.s.%.+.o.N q B V f u.b N p b z o.q = 7 + $ + $ = $ = K %.!.(.s.Y.z 0 H L P x x c a 1 < - . .     % % . . . o . . X o . . o o o # # # # # % - ; ; ; ; - - ; y i i y ; ; : ; ; ; y ; ; ; ; # # X # # # # # # - % # X X X . . + * 5 * $ 5 5 9 n ~ *.>.6.l.l.*.M 4 + * * + + + + % & & & 8 f W ~ ..>.;.;.' ~ ^ ` ' =.<.k.6.=./ Q ~ *.;.>.5.7.l.C.;X9XmXZX8XA.n.C.M.C.C.K.J.<.` ` ;.=.` Q ` *.! <.B.B.<.| ~ Q ~ *.O.! R W g u M |  .H f u f j M <.k.<.| g j h ! | M M M *.n.B.{.5XL.M.J.L.S.H.H.=X7XdXdXsX7X>XZ.=X>XH.c.x.x.5.=./ =.` ( C.M.~ W *.~ ! M | l.l.| W  .f 0 f W M R ~ W W | 6.>.f W ` Q f n n f f g 9 9 f f f u u f Q ' / / ~ / / 5.l.7.>.Q / 7.l.5.l.Z.x.7.;.*.~ *.Q f & X   . + % u u f / 7...W f u u W W W Q W Q g g f u f u & +     + & * & & & * + .                   . . # % # - - # o o o % # # % % # % % - - - ; ; ; - % ; ; % # o o # o % % - # % # % # # o o o o . . X .   . . .       y o.w.'.oXeXXXF.w.i.&.$.@.+.+.$.$.+.9.&.+.&.+.$.$.%.H #.m L J %.G i - ; - < c K K %.%.&.N H %.$.%.s.s.2.K b z N ",
"m N %.%.$.&.$.o.o.V &.&.%.u.r.u.s.s.p.f.p.r.u.&.+.@.u.i.b p p b 7 = 0 7 B %.$.H s.N $ $ + $ 0 s.%.2.%.}.%.(.L L J c 1 < ; ; % % % X   X o . . . . . . . . o o o o . X # # % # % - ; ; ; ; ; ; ; ; y i i y ; ; 0 0 y ; # # ; ; ; ; # # # # % ; # # # % # # X + + + . + * + * 5 u g n n R / 6.n.;.d & + . . . . . . .   + 8 M ~ *.*.*.*.>.6.l.n.k.>.*.*.6.x.C.l.5.] ] z.k.*...=.;.;.6.l.c.K.J.k.M.8XsX7X=X;X=Xx.5.` ;.=XH.k.;.>.*.! *.<.5X3Xb.! O.*.W M ! *.*.<.M.B.<.j 8 f ,.B.<.O.>.<.:.*.*.*.~ W ~  .M :.B.].8XaXpXaXK.<XsX8X0XsXfXsXdXdX8X3X3X=X>X>X;Xv.x.z.5.l.;.5.z.` k.<.| ~ b.b.M.B.6.k.n.*.<.B.b.j y ~ ;.5.` ~ Q ;.6.n f ` ^ n R r r n n R n W ~ ~ *.*.~ g f g Q / =.=./ / ~ *./ / 5.7.5.x.:X-X;Xl.;.=.! Q Q n 8 + . + $ 8 u 0 f f f f u 5 * 8 ..l.l.n.6.n.6...Q d 8 8 8 9 5 & & 8 $ * + . . + . . . . . .         . . X + # # % - - ; - % % % # % % % % - - - - ; ; - - % % % # # # # % % ; < % % - # % o . . . .   . .     . . .       p } w.N.'.'.'.m.i.i.q.+.! B o.B B o.$.$.$.%.H H &.%.$.L L J J K G ; # ; ; 1 v K K %.r.&.H o.%.o.K &.%.2.&.K H N ",
"K H N b b o.#.o.z b o.&.$.9.%.%.%.r.$.r.&.&.u.u.&.!.).$XtX%XvX).g.0 0 $ &.r.).kXkX).z z = q N #.B o.K Y.r.R.#.J v - % % - % # # o . . o       . . . . . o o o o . . . o # % % # - ; ; ; ; ; ; ; ; ; y : 1 ; ; y : ; # . . # # # # # ; # ; - $ # # # # % # # * * & * * * * $ & 9 9 5 9 g ~ >.O.W f &     . + . .   . 5 M *.M.L.<XK.C.C.K.=XsXdXsX3XK.L.3X9X4X=X=X>X>X>X>XP.<.<.M.`.J.A.;X8XdXZXZXDXDXVXxXeX<XK.C.6.` *.5.x.Z.l.>.Q ~ *.:.<.M.k.*.<.<.~ Q ..*.*.k.XXb.h p  .A.B.>.M y u u u f f M ~ ..>.>.M.=X3XsXBXBXcXrX3XsXdXdXdXdX8XsXsXfX8XL.H.=XH.>X=XZ.x.x.c.l.x.=Xc.A.M.O.*.6.M.b.<.W M M j *.n.b.*.! Q / ^ *.*.~ ;.;.*.;.*.W g r r n R n g n ! / *.=.5.=.| *.` 5.c.H.Z.] ' 5.7.=.] 7.l.x.x.7.7.7.7.7.5.*.=.Q n 9 * + * 5 u f j ~ ~ n j g 9 & * 9 | ;.6.8.l.6.6.=.| R u 8 9 9 & 5 8 * . . $ $ * + . . + + .         . . . # X X o % - ; - % % # o % % % - % - - - ; ; ; - - - ; - ; ; i - % % - # - % % # % # # o o . o .   .     .       z o.q.N.G.B.'.N.w.O.@.o.N B B +.B B +.%.+.o.K o.o.%.%.o.#.%.K G G i - - - 1 G K K &.&.&.B o.K o.o.K K #.o.&.K B ",
"o.$.o.%.s.d.%.B z N K N o.&.$.r.r.&.&.u.u.f.u.u.o.+.p.iXCX$XLXvX%X*X(.&.p z s.(.!.Y.u.%X).H o.$.o.d.d.Y.r.2.#.G c ; % - - ; # o     o o . . o % % . o o o o o o X X o o # % % % - ; ; ; ; ; ; ; ; ; ; ; 1 ; 1 1 ; ; ; # # # # # # # # ; # # # # # # * # & * * & $ * $ + $ $ 9 f j u f j ! ~ | W 8 .     . + + & f ! >.l.C.=X4X0XuXdXwXwXwXsXdXhXmXmXMXhXwXwX0XhXAXmXwX8X4X=X=X9XsXnXmXdXsXdXDXDXZXBXBXaX'.F.5XrX5XM.*.~ 5.l.=.~ ! ;.l.k.k.M.3XC.5.=.~ R >.M.b.<.*.W M | O.n.b.:. .W f 8 u u 0 M ~ =.6.x.H.8XdXBXDXDXBXdX6X7X8X7XsX7X7XdXsXsXdX;XI.=XZ.H.8X=Xx.v.v.H.H.8X7X4X3Xn.k.M.6.>.j j u M :.V.:.~ | W j n k.L.6./ l.H.8X3Xn.>.;.~ W z.6.>.~ ! >.;.;.5.*.Q >.~ g ~ x.>X-XC.7.7.5.=.=.=.=.5.5.' / ' 5.7.7.` ` / Q f 9 5 & d R Q R f g R g 9 8 8 & * 5 g *.5...*.*...~ *.~ f g f & & * + * 5 8 $ * + . + + .           . . # # # X o o # - % % % % % % % % % % % - - ; ; ; - - < ; ; ; i 1 1 ; % - # ; ; - % % % % o . . o . . .   . . .     p o.-.~.G.F.'.m.@.@.+.$.&.u.$.o.@.o.$.+.$.N B K B H K #.2.%.%.L G a - - - 1 G #.K %.%.&.o.%.%.%.K N L o.o.&.N %.",
"N &.o.s.).!.R.B b H K H +.&.&.&.%.&.p.u.R.(.!.f.&.f.zXVXzXzXLXlX%XCXp.K q B +Xf.!.f.*X%X).7 b 7 B K u.%.#.%.H m 1 % o - ; ; % #   . X o o % o o % % . o o . . o X o o o o # % - % - ; ; ; ; ; ; ; ; ; ; ; ; ; ; ; y i ; ; > # # # # o # # # # # # # # & 8 8 5 & * * + + $ & 5 u g R ~ W ..>.*.W u + .   . & f ~ 6.l.n.C.;X=X4XwXhXZXAXAXSXSXSXFXFXFXHXFXHXHXSXmXhXhXhXAXAXMXmXMXSXGXZXmXdXdXdXBXDXDXdX5XB.<.B.].8X3XJ.>.*.5.*./ ~ ;.Z.Z.H.L.].7X3Xx.l.5.;.M.].J.>.W W M f M O.V.`.B.| n W h f W ..6.P.=X8XfXsXVXDXVXBXBXBXcXcXdXsXoXoXrX8X=X8XfX8X3Xx.6.C.=XK.=X;X=X=XfXsXfX3X=XL.z.<.*.j *.<.<.m.L.*.n f M *.5.L.L.l.6.x.K.7XJ.8.x.C.<.M ~ *.6.~ M ~ ;.5.*.~ ;.C.;X-X-X:XZ.7./ ~ / / / / =.5.Z.:XI.l.5.5.5.7.5.] ~ Q Q ~ Q f 8 9 f f f u u 8 & & $ * + + 8 Q 7.x.7.;.*.W g g f f 9 5 & $ * * & & * 8 8 & * + .   .       . + + o # o o o # # # % % % - % % % - - % % - - - ; ; - ; - % ; 1 1 < < ; ; % - - % # % # # # . o o o o o . . .       i #.@.F.'.G.m.m.,.i.u.u.u.&.&.+.+.$.+.o.o.B N H N b b N H N m G c i ; - - 1 v K #.%.&.&.&.r.&.&.K N L o.%.&.%.#.",
"B o.r.o.N o.o.%.b +.o.o.%.&.&.p.s.&.u.p.f.f.p.f.!.).iXtX+X).zX$X%Xr.r.).*X}.!.p.}.f.K f.!.z $ $ $ 7 m b b K N v y # % % ; ; % # . . . . o % o o o % % o # . o . o o o X X # - ; % % ; ; ; ; ; ; ; ; ; ; - ; ; # ; y i i 1 > # # # . . X # # # # # # # & 8 8 & + + X . X + 5 9 u n n W ! >.*.W 9 & + + + 9 ..l.n.=XK.-X4X4X4X-X;XH.4XwXhXZXAXAXSXFXFXFXFXHXJXHXSXSXSXHXHXHXHXHXSXAXAXmXdX8XA.b.w.w.F.eXBXBX7XL.F.J.J.].n.M.<.<.b.C.H.l.C.H.8XdXdXwX4X>XH.x.x.].5XL.J.B.>.| >.B.B.<.| ~ ! M W Q >.B.F.oX8X8XfXdXBXBXVXBXcXpXBXBXBXcXrX5X5X3XL.K.5X8X8Xl.7.M.C.L.K.3X8X8XsXdX0X4XZ.;Xl.6.C.~ | B.M.>.>.M.n.k.n.C.C.L.L.H.H.L.3X=XZ.I.C.n.*.` 6.*.! M ~ *.;.l.*.| 6.Z.c.C.H.9XwX4Xx.;.5.=.=.x.;X:XI.:X:XI.c.l.;X,X;Xx.C.H.Z.c.l.5.=.Q 9 & & & % * * * * * + . + 8 R ;.7.7...R u 9 u h u 8 8 & & & $ $ $ & 9 9 9 + .           . + * # # X o X # # o % # % - % % - - - - - ; ; - ; - - - % ; - ; ; ; ; ; ; % # % % # % # o # # % o % % . o o .       i o.e.m.G.m.m.F.@.a.&.$.O.+.u.o.o.+.H B B $.o.o.N B b z z N L G c i - - - 1 c H #.%.&.%.&.&.%.&.&.H o.&.%.#.r.K ",
"N K $.r.b q b r.f.N K o.N K &.p.u.r.&.9.u.s.r.u.f.@X+X$Xu.)..X).!.%./.r.(.).#.!.#.B q B b q . $ . $ $ $ B #.H L i ; ; - - % o # o   . . o . o . X o . . . X X . X o o o o % # - - % - ; ; ; ; ; ; - - - - ; - # # ; ; y ; ; # # # . . X ; # # # # # # + & & * + X .   + * 8 u f f R ~ ;.| f 8 8 8 5 u | <.k.l.l.x.C.;X4XwX0X1X-X;X=X-X1X0XhX0X0XdXwXwXwX9XwXhXhXmXAXSXSXAXAXMXAXSXSXSXAXmXsX{.b.| n f V $.f.{.eX7X].b.<.F.<.6.J.=X>X4X3X7XdXwXwXwXwXwX9X8X=XK.L.5X5X5X{.B.b.J.{.J.b.k.<.Q ~ 5.b.`.XX3XH.=XaXsXBXVXVXBXxXaXBXBXZXBXaX8XaX6X=XL.J.L.3XL.{ 5.H.x.' x.=X8X1X4XH.Z.1X1XP.z.l.>.>.J.{.l.n.<X<XA.A.5X8X8X8X3X4X7X9X=XZ.:X:X5.Z.c.6.*.! *.Q / *...~ ~ *.z.Z.H.c.x.Z.-XH.H.;XH.C.c.;XqX-X:X:XI.l.l.I.I.c.H.-X,XqX,X,X-XI.c.;.W u & + . . . + + + + . + 5 9 R Q Q M f f f M f 8 5 * + + * + $ 8 9 5 + . .           . + * # # o o o # # # % # % % - - - - - ; ; ; ; - ; ; ; - % - - ; ; - ; % % % % % # # # o X o o % o o o X o . . .     z o.w.F.e.G.F.G.w.q.@.&.&.&.$.$.H B N B o.B o.+.o.H B b b %.s.1.D i ; - % 1 m H #.%.%.2.&.&.&.2.r.%.r.%.%.%.r.&.",
"z K r.u.&.&.K $.u.%.N B B z K &.r.r.2.&.u.u.&.&.i._.@X+X$X$X[.f.&.&.r.R.%.o.2.%.&.%.7 7 p B N 2.b H %.Y.%.%.K L c < ; - % % # #     . . .   . o X .   . . . o o o X o o # # o # % % - % - % # - ; - - ; ; ; - # - ; ; ; ; # # . X . . . # # # # # # + * & & * +       . * 5 9 e R ~ =.M u u W ..Q g ~ ;.k.C.;XC.6.;.k.H.=X=XK.K.K.;X=X4X=X=X4X0X0X4X4X1X<X=X8XdXhXhXhXdXwXsXhXZXSXJXPXPXPXJXFXFXZXsXL.<. .| ,.i.V.`.J.*.| M ~ M.J.K.=X=X>XdXhXwXhXwXhXwX9X9X4X=XH.<XtXrX6X`.{.5XeX'.J.M.<.6.z.`.eXiX6X8X3XaXpXBXcXxXBXBXBX7XsXBXBXBXxXaX7X8X3XoXK.>XrX{.J.Z.I.{ X.Z.=X;XZ.Z.v.1XK.4X=Xn.A.A.J.5X3X].J.M.].dXcX7X=X4X=X4XdXwX=Xx.:X,Xl.Z.x.6.5.n ! ! ! ;.H.;XZ.C.Z.l.z.5.=.=.l.Z.-X9XwXwXwX0X,X-X:X;X>X>XZ.Z.;X-X,X-X>X9XwX9X-X;X:Xc.x.l.;.n 5 . . . . . .   . $ 9 g Q R h g g f f f 8 & + + + + + & 9 9 5 +                 + # * % % o # o o # % % % % % % - - - ; ; ; ; ; ; ; ; ; - - - ; ; < ; % # # o % # o X . . . . o . X o o o . . .     p o.w.m.F.F.F.N.q.,.@.@.&.+.&.u.o.$.N b B N B o.+.#.o.N K 2.r.I J 1 ; - % 1 G K #.%.%.&.%.&.2.&.&.o.2.&.%.#.r.s.",
"z K K o.K K B %.C N b b z q N K $.%.9.&.r.&.&.%.&.a.).%XkX@Xf.$.%.2.r.%.s.#.u.%.%.2.B &.Y.&.s.%.).p.!.r.#.#.J J a ; ; % # % % #     o       . o o o o o X o o o o # # # # o o o # % # # % - - ; ; ; ; ; ; ; ; ; ; ; ; ; % # . . X # X o . + * # # # * $ $ $ * + .   . + & 8 8 u g R ! j u u M W ~ Q Q *.*.*.>./ / ~ W | *.*.*.*.k.C.=X=Xn.n.K.4X8X5X].M.<.A.A.B.L.].L.].1X5X3X5XuXdXZXZXZXZXZXZXZXZXZXdX7X4X4X8XrX{.4.| H M M V ~ *.l.>X>XP.=X=X9XmXwXwX>X>X9XwX9X3X3X6XpX5XJ.5X{.b.<.M.B.M.M.XXeXpXlXiX6XaXpXpX6XpXdXpX7XaXBXxXpXpXBXaX8XaX8X6XeX5X<X3X8XH.H.I.7.l.C.x.:XZ.7.7.;X1Xx.L.=X5XJ.].].L.A.n.7XdXsX3X>X4XH.4XZXmXmX,X:Xx.z.H.l.c.l.f r f =.=X=XM.*.W j u 8 8 0 f W *.l.H.4XwXwXhXwXwX0X9X9X9X9XqXwXwXhXwX9XgXNXMXMXMXNXgXwXgXqX,X:X*.d & + * * . . . & f ( { ' / Q W j f u & +     . + & 8 5 9 & .               . * % % - % % # # % % % % % % % - - ; ; ; ; ; ; 1 1 < < ; - - ; - ; - % % o X o # X . o     . . . X . . . . .       i B ,.N.F.XX'.F.i.! &.O.+.+.+.o.+.&.B B p N b o.r.+.r.B #.%.1.L S < - ; - < G L o.r.%.&.%.2.2.&.%.N %.&.s.s.&.s.",
"N o.o.u.%.o.K s.u.f.p.p.&.N q N o.$.r.&.o.%.&.u.f.D.+.).).Y.u.u.&.r.d.&.o.2.%.2.o.r.p.2.R.f.).s.Y.f.#.%.o.H N G y - - - - ; % % o o . . . . .   . o - % % o o X o # # # # o o o # # % % - ; ; ; ; ; ; ; ; ; ; ; ; ; ; ; # X . . . . # # # X # > * # * $ $ * + + .   . + * & 9 9 j Q f & * u M ~ ! g g Q ~ ~ ! R n n n g f f b n h f f f u f M |  .M M f u u u u u u f j M M j m M M } $.>.6.b.B.`.].<X7XsXuXuXuXZXSXcXN.j j M B  .M M *.=X=XM.H.x.9XmXdXwX>X>X4X>XL.3XfXaX5X{.oX].J.M.'.{.J.J.eXeXeXiXiXrXaXeX].5XpXdX8XfXBXBXpXaXpXdXaXrXpX7XaX6X6X6X;X=Xc.c.H.3X=Xx.Z.S.:X7.S.4XC.5.K.=X8X6X].L.3X3XK.L.3XL.3X>XH.dXmXhXmXmX>Xx.5.C.H.<.<.~ f n M | ..| *.*.! f f W / 5.C.;X4XdXhXdXwXhXhXhXhXMXZXhXwXmXMXMXAXAXMXwX9X,XwXhXmXMXMXMXMXgXgXgX-X6...M 8 & X . + $ 9 ~ 7.7.=.~ M M j u 5 $ .     + $ 5 & & * .               . % % % - % - % % - - - % - - - - ; ; ; ; < 1 ; ; ; 1 ; ; - - - % % % % % % o o X . o . . . o . . o # o o . .       i B ,.~.'.oX'.D.q.O.u.&.N o.+.+.o.o.B B q B N %.&.r.%.o.Y.u.1.L c 1 ; ; - i G #.o.u.%.&.%.2.r.&.&.K r.r.r.r.f.R.",
"%.b B &.&.+.u.%.p.!.u.f.s.%.b z B K o.o.%.+.&.f.f.f.f &.&.#.+.#.&.%.r.r.2.&.o.r.%.s.f.R.(.R.+.0 z u.%.d.K #.K v < - ; ; < ; % # o o       . .   . . . . o o X X o o # # # # # # # # # % ; ; ; ; ; y ; ; ; ; 1 y 1 ; ; # # X o # # X . # # # # ; # * % * * + . .     . + + & & & & & & 8 f M R ~ | | W g g f u 8 $ * + . . . . . . . . .   . . X + + X . . . . . . . . . X X . . . . . X X + * & 8 u f f M *.6.<.>.b.M.i.M M <.<.M.,.O.k.V.i.,.*.l.H.9XwX9X>XI.H.=XH.Z.8XaXrXoX'.J.'.XX5XXX'.XXeXeX6XiXlXaXeX6XoX6XpXxXsXxXxXxXxX7XaXxXpX6X3X3XrX6X>X>X>XH.Z.C.>X>X3X=X:Xv.:X8.8.S.7.8.K.:X=X<X<XA.5X3X>X>XK.5.Z.8XwXwXwXwXmXwX;Xx.Z.-XM.! n b M j 8 9 W l.l.=.>.<.6.l.n.C.C.x.C.;X-X4XwXdXhXdXwXwXwXwXwXwX9X9X0XsXwX7X4X=X;X9XdXmXAXAXmXhXdX0X0XC.l.l.k.| u $ . + % u Q ;.l.7.~ M f u u 5 * . X + * $ 8 & $ +                 X % % % % % - - - - - - ; ; ; ; ; ; ; < 1 1 ; % % % - % % % - % % % % % - o o . . o   . . . o . . . o o . .       p o._ N.G.G.G.w._ &.+.@.o.$.$.$.B +.N +.B &.#.#.o.%.r.o.Y.#.%.m i ; - ; - ; G H #.o.%.2.2.%.r.&.r.t.r.r.&.2.r.s.",
"K = m r.s.r.&.B u.f.&.9.&.$.+.B V N B K #.$.&.p.i.D.i.^.f.f.!.d.s.L #.%.2.s.r.s.u.&.s.d.2.%.r.K B o.H N o.K H c i ; ; 1 1 % % # o % % X . o % .           . X X . o o % % % % % % - # # # % - ; y y ; ; ; 1 i y ; ; - # # . # # ; ; . # . # # % # * * $ * + .       . . + + X X + & f f j n M R n W g u 8 * + .                                                                                     . + * & 8 u f f f m  .M :.].B.b.<.$.'.pX~.} | ;.z.>XwXwX=Xv.L.<XC.L.5X5XXX'.F.`.'.[.@X[.XXtXpXiXeXtX5X5X6X6XiXxXpXsXBXBXBXpX<X>XaXpXpX8XU.L.tX5XL.>X;XZ.K.K.C.;X;XZ.x.Z.7.7.6.X.C.;X=X>X=XL.oX5XH.3X6XL.l.H.4X:X=XwX9X:Xx.H.=.7.~ g n f f 9 9 9 f | 6.>.| *.>.<.<.n.n.n.6.>.>.<.<.>.*.6.k.k.M.H.H.C.H.=Xc.l.6.8.S.C.=X=X;X=X>XwXhXmXZXAXAXdX0X=XC.S.S.>.! f & & % 8 f Q *.*.Q g u 0 5 & + . . + * & 8 8 & .               . X % # % % % % - - - ; ; - - ; ; ; ; < ; ; ; % # # - ; - - - - - - % # - - # % . o   . . . . .   . . o . .       z %.w.N.'.'.G.N.) @.O.+.B B o.N o.$.$.H K $.&.$.%.%.$.o.2.%.2.i y ; ; ; % < m K B o.%.%.2.%.%.%.%.r.%.&.%.r.&.N ",
"r.$ b &.!.u.&.+.o.B b N &.u.&.%.b N B K o.o.K +.B ,.a.iX.X$X+X+Xf.2.m N H #.2.&.2.u.&.%.%.p.%.}.p.H K m H N N G c 1 i i 1 - # # o o % . . o X .         . . . . . X # % - - % # - ; # o o # # ; y i y y ; 1 i y ; ; - # # . . . # ; # . # # # X # # + . + +         . .       . 5 g f f f f g j f 8 & + .                                                                                                       X % & y M | *.W :.$.:. .4.#X[.F.,.O.| *.=XhXmXwX>X6X8XL.U.J.C.M.G.`.XX5X'.M.J.eXaXtXtXpXrXaXrXeXpXpXrXpXBXBX6XA.Z.=X>XaXlXpX>XK.5XoX].H.3XK.L.L.A.H.H.c.x.C.l.C.;XS.3X;X:X>XH.L.rX3XA.].8X7XfX>X4X:X:X9XI.' ;.! f Q / R f g r g f 8 f M h g M }  .M u y u u u 5 & 5 & $ & & 8 8 p h W M f u f j M ! *.*.<.A.=X=XK.=X8X0XdXwX9X;X;X-XH.Z.K.H.l.*.! W j ! *.~ f g W g 8 5 5 * .     . . & $ & * . .             . + % # # # # o % - - - - - - - ; ; ; ; - ; ; ; # - ; ; ; - - - % - - - ; - # o o . . .     . . . . . . . . .     i H a.~.G.G.G.N.w.,.O.o.&.+.&.o.+.o.$.+.B u.r.%.o.o.&.2.o.%.r.K c ; - - - 1 m L H %.2.2.u.o.&.o.L #.o.#.%.&.&.%.",
"(.b z o.s.s.+.&.K z 7 z %.f.u.+.b N K #.o.b b o.N &.N.^.!.+X%X!.u.2.N #.N H H o.$.%.2.#.#.o.o.d.&.N z N o.K J G c ; < ; ; ; # # X o o o . . .           . . . . . o % # # - % % % % - % # # % ; ; 1 y 1 ; 1 1 1 ; ; - ; # o . . X # 0 # ; ; % * + + X * + .                 . 5 Q g M R W M M f & X .                                                                                                                 . * 8 f ! M M M } } 4.5XoXB.| O.<.l.4XdXZXdX7X8X7X7X5XP.z.z.J.eX6XL.J.].oX6XtXeXpXaXpXaXtXeX5XeXpXcXrX7.*.C.;X>X3XpXBX6X5XC.P.L.Z.oXoXJ.L.K.C.c.5.H.K.K.K.Z.Z.H.l.C.>Xc.3XdXaX7XL.3XaXfXwXdX,X>XH./ Q =.Q Q Q R 9 9 8 M f 8 n M j u 8 f j u 8 8 8 & X                   . . X . + + . . X + X + * 5 u f f j M W W ! *.<.;.` =.S.Z.S.C.;X;Xx.6.>.*.*.~ g f *.>.f 5 8 & +       . * 5 X . * * .           . + * % % % # % - - - % % - ; ; ; ; ; ; - % - ; - - - - - - - % % % - ; - % o . o o - o     .     . . . . . .     z #.m.F.F.'.'.N.-.@.o.+.) B B o.+.+.+.#.H K $.$.&.$.%.o.%.%.2.1.v < ; ; % < c H #.2.2.%.%.#.&.L o.L K H #.r.s.s.",
").p.&.H #.r.%.s.o.$.%.s.r.p.f.$.u.$.%.r.r.o.B b V B N.'..XiX).f.L J N K H o.o.o.o.%.%.&.&.%.H H %.2.0 #.o.%.#.L c ; % # % ; - # . . X .     .         . . . o o o o o o o % - % o - - ; ; ; ; ; ; ; ; ; ; 1 1 < ; > ; ; ; - ; # . # ; ; ; = # # + + + + .                 . & g ~ W *.R h j 8 *                                                                                                                             . 8 M } f u M } } J.<X<.:.<.k.M.4X8XZXdX7X>XaX8X].P.x.J.3XoXoX5X].C.5XaXaXrXaXtXtXaX6X5X6XfXpX3Xl.l.H.H.H.>X6XpXtX5Xl.P.L.K.L.L.P.K.A.l.x.l.H.5X].<XZ.c.7.7.S.H.L.rX8X3XL.=X5XdX3XdXmX9XH.;.~ 5.g g g R 9 8 u f u 8 ! W j 5 + * X . . . .                                                             . + * 8 f M M ~ ~ *.n.S.n.=XwX2Xx.x.l.*.f 8 * 5 u 8 * * $ * .     . . + * + + * .           . % % % % - - - - ; - % % % % - - - - - - % - ; ; - - ; - - - - % - % % # # . . . X # o . o o . . .     . . .     z &.a.V.F.J.G.N.q.,.@.$.+.b B o.$.z o.$.b o.u.&.%.o.H o.1.1.1.1.c 1 ; ; % < v N H #.o.2.%.#.&.%.K #.K B K %.r.r.",
"(.f.N N o.B B +.N o.&.u.&.o.B o.&.u.$.%.%.o.+.&.u.o.XXXXiX).f.#.N m p z b B B B o.&.%.o.%.N o.f.2.Y.B b K %.L J a ; ; ; ; % # o                   . . o . . # # % o o o o # % # # - ; ; - ; ; ; ; - ; ; - ; ; ; - # ; ; - % ; ; ; # # ; # # . + . . X .                 . 9 Q >.| W f f j 5 .                                                                                                                                   + j :.| u m H j ,.n.} | :.>.<.3X0XZXdX8X5X5X3XeX5XoX5XL.U.8XeXpXpXpXxXxXpXtXrXtXrX6X6XtXiXeXL.c.c.K.1X5XoX8X6XL.l.l.C.J.L.L.C.Z.M.x.l.C.Z.;XK.H.K.H.Z.7.H.H.7XpXaXfX7X6X6XaX8XdX9Xc.] R / R f Q / g 9 f f f 8 W W 8 +   .                                                                                   . * & u M >.Z.=X=X=XZ.6.6.~ R n R g 8 & * + + . . .         . . + . . .           . + # # % % - - - - - % % % % % - - - - - % ; ; ; ; - ; % - - - - % % % % o #     . X . o o . .   .     .         i o.m.~.G.J.G.e.w.&.O.+.$.+.$.$.$.&.o.o.N b K K +.+.#.#.%.#.1.L c ; ; - - ; c N o.%.%.%.%.o.%.r.K K K %.%.%.&.!.",
"t.r.B N b 7 b b b B w q b K B N N N b N N z b o.$.,.'.oXF.).f.#.1.L K N z p q b N H B B H H o.p.2.u.Y.7 H #.#.G c ; ; 1 ; - o o . .             . . o . . . o o o % % % # # % o # % ; ; - ; ; ; ; ; ; ; - # # ; - - ; ; % - ; i i ; i # # # # + . .         .           & | 6.6.| g g h & .                                                                                                                                       . h n.>.u u u u  .>.O. .<.A.M.<XsXZXaXsXdXsXaXrXaXrX3X3XfX3XaXxXxXxXxXxXaX8XrX6X5X].5XrXlXpXL.l.C.aXrXoX].5XG.J.C.l.M.L.K.C.P.C.C.K.L.K.L.3X3X=XZ.7.{ x.H.8XrX7XsXdX3X7X8X4XwX>Xk.n R n 9 j W f 8 f 9 9 8 M f & .                                                                                               . + 8 W ..*.<.n.l.;.*.! W 6.6.>.*.f & # .                               . . . X # # % % % - - - - % # # % - - - - - ; - ; ; ; - - - - % % # % % % % % # - o # o - % .                         i N q.m.G.J.m.q.O.O.) O.$.&.+.+.B @.u.N o.b N K %.%.%.o.#.L %.L a - % % % < p N K 2.2.%.%.%.#.&.K L %.#.#.K K r.",
"B o.o.C N o.K B b C w b %.r.s.&.&.B B b b N B N A 7 V ,.XX@X~.!.H J o.r.%.$.#.%.#.2.2.%.#.2.u.s.f.u.!.q z K K J a ; < < 1 ; o # % o X . . . . o o . . . o . . o o # % % # # # # # % - ; - % ; - - ; ; ; - # # ; ; ; ; ; - ; ; ; ; ; ; # # # # # o .       * .       . . M <.6.<.*.j M 8 X                                                                                                                                           . j b.*.8 8 y y H :.8.6.L.5XA.sXmXZXZXZXBXdXBXxXpXrXrXpXrXaXcXBXBXBXBXaXL.5X8X5Xl.x.8XxXBX5XL.8.yX].oXJ.J.n.J.J.n.M.J.L.J.M.C.C.<XoXL.L.6XaX;Xx.{ ] 7.<X7XdXcXBXdX4X4X8X0X4XH.' ` n f n j $ $ 7 8 5 8 W M & .                                                                                                     . & % & u W ! *.6.6.W ! *.6.l.C.*.8 + .                             X . . . X # % % % % % % % % # # - - - - - - - - - ; ; - - - % % # # # % % # % # % % 1 % # # # % . .                   i N m.i.'.J.m.q.O.O.+.B o.+.o.%.+.B K B N b N o.K o.K H %.L 3.L c < - - % < v K #.L %.%.#.2.%.K L #.%.#.#.B N B ",
"K %.p.$.&.u.%.&.9.!.%X_.s.+.s.%.u.%.u.o.o.$.9.u.o.q V i.'.@X).).r.%.B %.f.Y.Y.(.d.d.u.2.%.r.d.Y.f.d.d.%.= N m m i - ; < < ; % # # % . . . . . . . . o o . o o o o o o % # # % % - # # % # # - - - > # - - ; ; ; ; ; ; ; ; % # # # # . . . # # # X .     * +           9 >.6.*.>. .u u + .                     .                                                                                                                         u $.f & 8 % u $.B.<X=XA.K.8XsXZXGXGXDXDXDXBXxXcXxXBXBXxXBXBXBXdXBXpXK.6XdX5XZ.=X5XpXBX7X7XJ.C.oX5XJ.~ / M.A.M.C.J.L.P.5.P.A.J.].C.C.L.>X:Xv.:Xx.5.oXaXaXcXcXdXsXfXdX>X4XI.] ( ^ n r 8 * $ * & 5 f W 8 .                                                                                                       . + * & 8 u f M ~ ~ M n W ~ | ~ k.<.5           . .             . . * * + * * % % % % % % # % % o o - - - - - % - % - ; ; ; ; ; - # % % - - % - % % % % - .   . % % o       . .           i #.a.F.F.F.'.w.! ) N N B %.$.+.B +.$.B H N N %.$.&.2.K %.K K L c < - % % < v K K H K #.L %.#.L K L %.#.K K K K ",
"&.s.!.).p.u.h.).R.+X$X+X_.B K r.&.u.o.K B N o.a.u.i.XX[.F.D.!.!.p.R.d.r.s.p.f.p.%.o.B N &.#.2.d.2.r.r.Y.o.N N z < % # ; ; ; % # < . X         . X . . . . o o o o o # # # # - - ; o o # # # - # # # # # ; ; ; ; ; ; ; ; ; ; % # # # # # # * # . .     + + .         . Q ....6.| f 9 & .                       .                                                                                                                           y m % * * + f 6.1X0X7X8X0X=XwXAXZXDXGXZXBXZXBXpXBXcXBXDXDXBXsXBXxXpXBXdX1X3XrX6XrXpX>X8X4Xl.oXrXM.~ *.6.b.>.<.M.P.M.=.G.C.l.J.C.A.C.H.;X:X:X>Xv.>XaX3XdXfXfXnXwXwX>X9X:X7.{ ( n 9 $ . + + 8 f W u .                                                                                                         . . . * * * 5 f f j n M ! x.*.! ~ l.<.5   .     . * .           $ * & * . * % % % % % % % % % - % % % % - - % % % # > # ; ; ; ; - % - - ; - - - ; ; ; ; % o . . . . .       .             i #.N.~.'.m.m.F.-.O.) o.o.) B B #.+.&.o.%.B B $.&.#.&.#.%.#.m L c ; - - % < c K #.N %.o.#.K L #.K #.#.#.K K o.o.",
"&.+.&.f.p.f.!. X!.!.%.&.%.%.z +.o.+.B K b z N +.+.f.XXD.D.u.a..X_.&.f.2.r.f.p.u.#.+.B b b #.r.%.o.o.2.s.(.2.c c < # # o . o X o % . . .       . .         . . . o o o o # % % % % # # o o X X # - - - - ; ; - - ; - - ; ; ; ; ; ; ; ; y ; # # . +     . X .         & ~ ~ ....Q 9 & . .                                                                                                                                                     y 8 . . . *  .n.8XdXZXZX8X>XmXnXZXGXGXDXZXdXaXdXdXBXDXDXDXBXZXBXBXVXdX4X4X6X5X8XaX3X3X3Xl.].6XG.*.;.k.6.=.;.k.M.k...n.C.C.L.L.Z.K.l.c.:XZ.fXfX3X7XaXsXaXwXdXwXwX9X-X,Xv.{ / j & . . . & f j f .                                                                                                               . . + * & 8 8 & $ u W M 9 f *.S.;X~ . + .     + *     $ . . & * + & * & & % % % % % - ; ; ; ; - % % % # # # - # - # > - ; ; ; - - - % % % % % % - % % % < - % % % o o         o . .   0 o.,.i.e.w.e.,.w.i.+.B ! o.N B +.o.&.$.+.B B +.%.o.#.K K #.K v i - - - # < c J L m #.K K H K K L r.%.#.#.r.%.%.",
"&.B b K r.f.f.R.s.u.&.%.+.s.K b K o.o.%.&.&.$.b &._.'..X~.N.[._.!.d.s.u.&.u.s.s.&.r.%.2.%.2.#.K H o.%.s.f.d.2.1.v . # o   . X . o . . X . .     . . o . o . X o o o o # # # # # o o o . X X o # ; ; ; ; % % % % % % % - ; ; ; ; ; ; ; i y ; # # # . . + + .         9 ~ W ..W f 5 *                   O                                                                                                             .                         % X   .   % | <.uXbXSXZXsXmXnXAXFXLXFXGXZXdXsXdXBXDXGXDXBXDXBXDXDXdXfX9X7X3X3XrX3XL.A.5.L.J.M.k.;.<.>.<.k.<.6.b.~ 6.A.K.3X=X=X8XH.x.x.C.4X8XaXfXcXdXsX4XwXhXwX9X:X-Xz.=.R 9 . . . . 8 f 8 +                                                                                                               . . . + + * & & $ $ 8 M g f 9 | S.-Xl.& . .   . * * +   + * . + . . & @ * & 8 % % % % - - ; ; ; - % % # # # o - % - # - ; ; ; ; - - - % # # o o o # # - < 1 ; % o o .   . . o % % # .   ; N O.q.w.-.` -.w.! +.N B N o.+.+.o.&.u.o.B z o.%.o.%.K K #.K c i # % # # < v K #.K 2.%.%.#.#.#.H L r.#.%.s.s.s.",
"p.K H o.&.u.u.p.u.f.&.u.+.r.p.o.B o.z %.R.f.B f._.#XXX@X'.[.)._.f.Y.f.f.u.H %.#.2.s.r.%.&.%.o.o.K #.%.2.r.#.L L D i i i < % % # . o o . . .     X % % % o o o o o # # # % % % % % # # o X X # - ; ; ; ; % ; - - ; - ; - - - - ; ; ; ; ; ; * # # # . + & * .       . u g ~ ~ g g & .                   . .                                                                                                         . . .                         .         8 } k.7XhXdXwXmXSXFXFXFXFXFXGXBX9XwXnXDXZXZXZXDXDXDXBXdXwX7X<XK.K.3XL.Z.x.] J.J.J.b.>.*.>.6.6.>.>.>.~ 6.A.J.6X>X=XfX=Xx.5.;X7XrX3X8XsXsXdXwXwXhX9X=XI.Z.l.W j $       X 8 u X                                                                                                                 .   . . + . * * * * 8 j W | | n.S.Z.v.j   .   . & 8 * . . . + .       + + * & & % % - - - - - % # % - % o o o # o # - ; ; ; - % # - - # # # o o o # % o # # o .   o . . . . . . .       p B @.i.oXXXtX-.@.i.o.b b N o.o.+.o.B o.N B b +.o.o.%.K K N J c < # % % % 1 v G L L %.%.#.%.2.%.K L %.t.s.s.p.r.",
"p.&.t.+.&.%.r.r.r.u.&.s.&.u.f.f.9.u.N K r.u.f.f.).~.D.XX.X+X).Y.Y.f.d.u.u.%.2.2.#.o.#.#.o.%.o.#.r.2.2.%.%.o.K G c ; - 1 i < o - o . X . . X X % - o % o % % o o # # # # % - - % % - - # # # % ; 1 1 1 ; ; ; - # % ; ; % # # % - ; ; ; # # # # & & . + & & .       X 8 f ! W h g &                       .                                                                                                         . + .                                     p  .L.hXwX0XdXAXSXZXSXFXFXGXmXdXsXZXGXGXFXFXGXGXZXdX8X=X;X( { x.x.C.C.l.=.J.].'.B.*.*.>.6.>...6.>.^ ;.b.C.H.>X3XfXI.x.5.C.8XpX5X8X8X>XfX7XwX3X=Xx.7.l.;.~ u         + & *                                                                                                                   . . . . . + + + * $ 8 8 j W ! >.6.5.*.j       . * $ + + + * * .         + & & & % % - - - % - - % # # o o X o X o # # % - - # o # % % # o # . # X . o         . . % o .                 = B -.D.m.'.oXF.,.,.u.o.b b o.o.o.N N +.b b N &.K #.%.B o.N G i i % ; ; % ; c m c z K K H #.#.%.B #.%.r.s.r.s.&.",
"&.r.#.u.u.%.&.r.+.%.&.s.r.p.f.f.h.).s.&.N f.!.).!.i.D..X@X[.).).Y.2.%.H 2.s.%.#.o.H $.%.2.%.#.#.d.f.d.2.#.#.G J a ; - < i - . # . . X . % % . % o % . . . X o o o # % % % % % - - ; ; % % # # ; 1 1 ; < ; ; ; # - ; ; - % % - ; ; % % # # * % 9 8 8 + & &         & 8 u M j f u +                                     .                                                                                           . + .                                     X j >.4X0X9XsXdXmXAXAXZXAXGXGXGXDXDXGXFXFXGXDXBXsX8X4X;XZ.( { { ' x.C.C.;.M.L.J.M.*.>.*.;.*./ M.n...<.b.n.5.C.>X=Xz.c.l.C.<XdXaXaX4X>X>X3X8X>XC.l.6.>.| j *         + +                                                                                                                 .   . . . . . # $ * * * * * 8 j g ! *.Q n 9       + & * + 9 5 5 * .         . & y y ; ; - - - % - - - % % - ; ; % # o ; # % - # o # - - % % o # . o . . .     .   o . . . . o o . . . .     = q W -.m.G.G.'.a.q.@.&.+.B o.o.K B o.&.K B B K K H N N m H G G i - % % % - c m L K L N N #.N %.N L #.%.2.%.%.%.",
"&.%.p.s.s.p.&.p.&.&.$.&.$.u.s.u.r.s.o.K b B B 9.&.i.D.[.[.!.p.d.2.K o.B H %.K #.$.#.%.2.2.%.2.2.d.d.u.2.o.K G m i ; ; ; ; # . o . . . X . . . . o . . . . . . . o o % % - - % - ; ; ; - % # # - 1 < ; ; - - - - - - - ; ; - ; ; - # # # X # & f M 9 + & .       . 8 5 9 u u 9 * .                                   . . .                                                                                       . . + +                                       & M >.C.4X3X=X4XdXZXZXZXZXGXGXAXZXGXAXDXnXdX7X4X5X4X=XH.{ x.{ { x.S.x.=.<.M.M.6...>.=.>./ *.C.A.<.n.M.l.` 5.5.z.x.Z.n.A.K.5X4X4X=XK.3X1XK.M.6.6.*.| M &           .                                                                                                                     + + + + . . $ $ * $ + + + & f j W ~ f 8 &       . + * $ u f 9 5           . & u j y ; ; - - - - ; ; - ; ; 1 1 ; o # - # o # # % - - - % % o o o X . . .             . % ; % o . . . .     ; w ! @.w.e.m.w.q.,.@.$.$.O.+.K o.&.$.o.B z N K K B N 0 z m m J v ; # # o ; G K #.%.r.%.%.2.r.r.N %.L #.#.#.L K ",
"r.r.r.u.p.9.r.9.p.p.+.+.+.&.9.&.s.!.K b q z b o.+.a.N.~.).Y.d.g.&.N B N N K K #.&.&.$.#.%.2.d.Y.f.u.%.B #.#.H c y ; 1 - - . . X . . X X . o % o o . . . . . . . . o o o % % % - - - ; - % # o # - ; ; ; - - - ; - - - ; ; ; ; ; % # # . . X 8 9 n 5 . .         & u * $ 5 5 & . .                                     O .                                                                                       . . + +                                       . y V ! >X0X0X1X>XdXZXnXsXdXmXNXgXZXmXmX8X8X3XH.=X;X=XH.7.Z.H.x.c.7.7.;.;.6.6.*./ *.;.<.~ *.l.M.6.n.C.l.` ` ( k.l.l.>.n.J.K.H.H.l.6.=XJ.k.k.>.*.W m y +                                                                                                                                   . * = + + * $ + * + . * 5 f u f j 8 & u .       . . . 5 $ $ + .           + * & & % ; ; - % % - - % % - ; - ; ; < # X X # - - - - ; - % % . o o .   .   . .   . % % o % % % . . . . .   = q O.) w._ m.-.! @.! o.$.B +.o.+.$.#.o.B b q B o.N N p m m m c i - % # o 1 m L #.#.K #.o.%.#.r.K #.#.o.#.K K %.",
"p.r.u.r.u.&.9.u.u.p.r.p.&.%.+.V o.$.r.o.V 7 N b V a.D.N.~.!.Q.).d.#.o.K H o.H K o.+.o.o.%.u.r.s.r.&.#.H %.o.G v y % % # # . . . % o X . . o < % o X X . . . . . . . . . . o # % % - % % X . . X % % - ; - - - - - % - - ; ; ; - % % % o . . + * 8 $             u f + . * & * . .                                     . O O O                                                                                   . . . +                                         + y f <.=X=X0X0X9X0X<XL.:X,XwXwXmXZXdX9X8X=Xx.x.x.x.7.7.;X=XH.H.7.X.k.k.6.*.~ / *.*.;.~ | ;.6.6.M.b.M.` ' *.>.*.~ ;.n.J.].C.C.;.;.C.k./ 6.*.~ f u *                                                                                                                                 . . . * 9 & $ * & + + + X * & 5 & & 5 * & f *             * + .   . .       . + @ & & % ; ; ; - - - % % o o # . o - ; - % o # % % % ; - - - - # . o .   . . . . o % % o o o . o o . % o O   p +.w.@.m.e.-.@.-.) N N $.b N o.o.+.+.+.b N z %.o.m K %.%.L L G < - - - - 1 v H H #.H L #.%.#.%.L %.%.K G N K %.",
"p.&.&.+.&.&.&.&.u.r.9.p.s.$.K z q N $.N B K o.V q N.~.&.@.4.).).).u.%.H N N N B B N H B B B H B o.%.#.N &.K K v y o . .   . . . X X . .   X X o X . % - o . . . X . . . . . o # # # o # X . . X # # % - % - - - % # % - ; ; ; - % # o # # . . + & +             M j . . + + + .                         . . . o .       .                                                                                       . . . +                                           * 8 f <.;.K.9X7X4X;X=X3X4X0X-X4XuX4X8X3XA.S.5.5.7.] 6.=X4X>X=Xl.' 6.k.k...R / / *.*.~ ! | =.6.l.;.n.6.l.6...Q n O.n.b.b.6.z.;.z.5.*.*.<.! h 8 & .                                                                                                                     . X .         . . $ $ $ & * * + X . . + + * + + + . u h +           . .                 . + & & & % ; ; ; ; - % % # # o . .   . o # % o # # o % - % % - # # o . # # o o   o # o .   . . o X . X O . .   z $.D.m.m.^ ^ _ q.O.N ! +.+.B b b N B b K b q K K H N K %.1.L L D 1 - ; % ; c G L #.L L #.L L %.#.B #.K N N +.r.",
"r.r.&.+.&.9.&.o.K B C %.&.&.+.%.o.+.+.q q p.%.&.b a.i.o.a.$.f.D.u.+.#.o.H B N o.K &.&.2.K p N K %.K b K #.K N c ; # # # . # o # X . .       . .   o o o o . . . . . X . . . . X o o o % # X . X # o # % # % % # # # % - ; ; - % # # # # # # . . X .           . M h +   + + . . .     .     .       . X X X o o X .       O                                                                                         . +                                           . * 8 M W Q K.8X4X4X0X3XH.x.5.6.K.K.].J.n.5.( X.6...>.K.4X4X=Xl./ 5.n.M.>.R Q Q | | ! ! ~ >.k.6.( <.l.n.>.M W j ! O.O.*.;.<.k.>.=.Q *.| h u # .                                                                                                                       X # .       . X + % = $ $ # # + . . . . . + . . . + W W .           . . .               . + + 5 & & ; ; ; - - % % # # o . . . o - ; ; # . . # % # # # % - - # # o o o < < % o . . . . . o . . .         p B -.@._ -.` e.! B V b b N K +.b N z B K N p N K K K K H r.t.J v ; % - - - c N L #.2.#.#.K #.#.#.m L K N +.s.s.",
"&.2.r.r.&.$.&.%.K o.K K &.+.o.r.f.$.b K $ b %.q N w.a.O.B +.V O.b b B o.o.B B H o.2.2.Y.%.#.2.#.2.b H N H B m i ; # % - # % o # o . . . .     . . . . . . o % . . . o X . . . . . o # % # # . X o o # # o o o o # # % % % # % # # # % - # o . . . .           . g g +   . . . .     . . . . . . . . . . .     X o .                                                                                                 . .                                             X & f M W 6.K.=X>X4X3XC.7.E E >.n.M.k.;.*./ / Q R *.M.L.4XK.7.' 7.l.M.k.R R ~ ! ~ W W ! ..<.>./ >.6.7...h M f M j M M ~ *.>.*.~ g M u u & .                                                                                                                           X .   .     . . # & & & $ % * X X . . + X . .   & ..u               . * $ .           . * + 5 y = ; - - - - - - # .   . o ; i i i < % . o % - - o # # # # % % o o # i ; - % . . # . . . . . . .       p H -.~.aXeXF.q.,.V r b b N N B N b z H B q q N o.%.%.2.K K G v a ; - - % < c N H %.o.%.L #.%.L L K K #.%.t.s.&.",
"%.&.&.o.+.o.K %.%.+.o.o.o.o.o.B b 7 b B = B N V u.D.tXtX$X@Xu.&.&.H H H N B o.H N K K &.&.s.&.#.s.s.m #.#.H N i ; % - % o % # . . . . . . .     . .     . o o . . # o o # o o X o % % % # # . X # # # # # # # o X # # o o # # % ; < - # # o * X .               u u *   . . .     . . . . X X . . . X X . . . . o . . X O     O                                                                                     . .                                               X 8 j n | n.l.c.=X=XC.;.U f Q | | *.*.*.*./ R M ..6.l.3Xn.7.>.7.6.6.M.~ ~ Q W | ! n R Q *.*.Q ~ ..*.| M h u f y f u M ~ ~ ! g u 9 8 8 X                                                                                                                     . .         . . . . . . $ % * # # & % * + . . . . . . + 9 f +               + * & * .           % & & 8 & ; - - - - - - # % - ; ; x x ; : ; % o - - % % o . . . . o # - % # - - % - o % # . . . . . . . .     z &.^.~.XXG.'.m.a.) o.o.) +.+.&.%.+.z o.b N B V N B K K K #.L G a ; - % % ; v K L %.%.#.%.#.%.%.%.%.t.r.&.t.r.#.",
"o.%.%.o.&.&.K &.&.o.C B +.p.&.b z 7 K r.z N B f._.D.q.[.zX#X_.p.f.r.#.B B #.#.H N N B B B o.%.r.2.&.H %.2.2.H i ; % ; % o % % X . . . . . o . .   . . X o . . . . o o o % o o X # % % % % # X . # % % % % # # X X X o o o # # - ; ; - # o # & * +               5 9 *       . .       . . . X . . . . o o o . . o o . . X                                                                                           . .                                                 * 8 u j *.*.6.x.n.k.~ g g f e f W ~ *.>.*.! ! *.| ..k.*.>.>.7.Q ..k.../ R Q >.| n f R ~ Q R g R W h j u u u u u 9 u M M g 9 9 & & +                                                                                                                           . .       + % + $ % & & $ $ # % % * # # . . . X . * 9 5               . + + + * .           + & & & % ; - - ; ; ; ; - 1 v D i i % # . # . # # # # % o # # % o o o # o o o . o % % . o . o . . . . . .     z o.D.D.G.F.m.w.w.N.a.a.i.$.+.+.$.#.b N b q b q z H K o.H K K G a % % % % < v K #.#.%.L #.L %.%.%.%.t.%.%.L #.+.",
"%.%.&.%.r.&.%.&.+.B N B B o.&.C o.B o.r.o.o.h.f._.~.D.F.N.f._.%Xs.r.%.&.+.K H H o.2.%.B K N #.#.#.#.N B N N z 0 ; # # # . ; % # . . o X o % . . . . o % o . . . . . . o o X X X o # # # X X . o - - % ; ; - % # # # # # # # % % # # # # X + & * .               * 5 &               . X . . . . . # + . . o o o o . . X .                                                                                           . .                                                 . * 8 u M M | ~ ~ ..~ g f d r f g W ~ *.~ n W | R g j U ~ ....r g *.| ~ R ! <.| R d h R g g d g 9 d u 5 8 f u u 8 5 f j 8 8 8 * * .                                                                                                                             .     . % % X % = & 8 9 8 * * $ * * * + . X . . & 5 +                     .               + * & & ; ; ; - ; ; ; ; ; ; 1 1 ; ; 1 ; o # # ; - o # # o # ; # # o . .   .   . X . # o . o . . . .   . .     z o.D.'.F.G.G.m.a.D.u.a.$.o.b b N +.o.o.N b K B B &.K K N 2.%.K v ; - - - < c m K L #.L #.#.L #.%.K %.K K K K L ",
"#.&.&.&.&.$.r.&.o.o.B B z z b b N u.o.).u.K h.!.).iXpXN.&.).%X!.d.u.&.&.o.B N H 2.d.2.%.B B H o.#.H N p z z z 0 ; # . . ; < o o o . X . . o . . . . . . . . . X . o % o o o X . X o o X X X . o - ; ; ; ; - - - % % % # # % % # # # # X . . $ + .                 & & .       . X X X X . . . . . # . . . o X o . o o o O .           O                                                                             . .                                                   . % y 0 u n W g n W g f f g M f f n ! n f M ! h d 9 f R R g e t | | h R Q >.| n d h h j f f f 8 8 5 * 8 f u u 5 5 8 9 & & & * X                                                                                                                                       X . X ; u 8 0 9 0 * * % $ * + + X . . . @ +                 .                   . + * & & 8 ; ; - - ; ; ; ; ; - % # # % - 1 - % ; < ; % # o o # o - % #   o .   .     . . . . .   . . . .       p $.D.m.'.F.tXN.a.+.@.+.o.+.+.&.B N +.$.b b N &.%.o.K %.K K r.3.D ; - - % - c m %.%.r.r.r.%.L #.#.#.N B N N N #.",
"&.&.+.&.&.r.s.&.%.&.o.K C N z z b B +.!.s.N u.D.q.D.m.i.a.).%X%Xs.%.#.%.%.H b b #.2.&.%.&.2.H H m q p z N z z i ; # . - ; ; # # o . .     . X o X . o . . . . . % o o o o o % # . o . o # # o # - ; ; ; - % - - - - % # # % - # # o X .   . + . . .               + * .       X # + + % + . . # # + # * % X . o . o o .                 O O                                                                         . . .                                                   + & * & 8 n f r j g f j R M 9 8 9 f 9 f n Q W u d f f g f 9 t | :.g n Q *.W g f h d u d u u 5 $ * * y f u 8 5 5 & & * + * + .                                                                                                                                   . . . . . # % % 8 8 9 = & = & * + + + + + + .                   +                     . 5 5 % 8 % ; - ; - ; ; ; - - ; ; % o # ; ; ; ; ; ; % o o o # ; ; ; - - . .     .       . .   . . . . .       0 o.m.N.m.'.oXD.q.O.) N o.+.u.u.&.N b B B B H N o.K B K B H L m i - % % % < v G #.#.1.%.%.%.K K K N N N z N K N ",
"+.%.o.%.&.&.r.r.%.s.s.+.&.+.K q b z b &.o.q o.h.f.+.B O.!.VXVXzXf.r.2.%.#.B N b o.%.%.&.&.2.H b p 0 7 p z m p 0 ; % . < ; ; # # .   . . . . . . . . . . o o o o o o o o o o o # o X . # % # # - ; ; - % # # - % # # # # # - - - % o . .     . . . + .             . + . .   . + # + # & % % # % % + + * * . . .   . . .                                                                                             . . .                                                   . X X # & u j 9 f j g M g j 9 8 5 8 8 9 n ~ | 9 g R d f f r g :.:.n n Q ~ g j M h u u u 8 8 & * * * y f u 8 5 & * + + + + .                                                                                                                       .             . # # $ = # % 8 p % & 8 0 8 8 $ * # + * * X .         * &       & +                   + 8 u 5 & ; ; ; ; ; ; ; ; 1 ; 1 i 1 c x i x i 1 ; # # o # # # # # o # < % #         .   . . X   .   . .       ; B w.D.L.6X'.N.q.a.@.+.+.o.o.o.+.o.q B H N 9.z z b b N H N G c i ; - - % 1 v N K K #.#.L o.N H K N K G z m N z ",
"L %.%.%.%.&.&.&.&.u.u.p.u.+.9.&.C N b z z $ &.f.f.!.~.tXBXVXVXkXY.2.&.#.%.o.2.2.#.%.&.&.%.%.2.K K m 0 q m m m c y - o < ; ; # # .   . . . . o . .   . . . o o - o o o o o o o # % # o - % % - ; - % # # # # # # % % % % - % % - ; % # # o . .   . X .               . . X X # + + + + & % # + # % % % % % # . X . X X .                                                                                             . . .                                                     . . X * 8 9 9 9 u M R j f 8 & & & 8 9 j W | 9 R Q d e n n Q <.*.W g R R g u M M f u u 5 5 & & * * 8 u f u & & + + + . .                                                                                                                                       X ; ; i y 8 8 % & # 8 j u 8 9 5 $ * * % * + .       * j W 8 X . & * .               . & 8 u u & y < ; ; ; - ; ; < y i i i c i x y 1 ; # . . o # # o # # . # # ; X X           . . X .       .       ; m -.N.'.5XoXN.^.N.q.o.$.N K B o.K %.+.K z b N m &.%.s.K L G G s < ; - % < v G K L %.L L 1.B z N L N N G N p N ",
"K %.&.r.&.$.+.&.$.+.o.o.&.o.B +.+.$.b z 0 $ &.s.!.$XVXIXLXVXkX%Xf.%.K B o.u./.R.r.K o.&.s.s.d.d.2.B 0 z H H G m v i % 1 ; < % # o . .   . . . . . . X X o o o o # o o o o % % % % % # % % # # # o o # # # # # # % - - - - % % % ; = ; ; ; # . . . + X               . + + + + * % + * # % % + * % % # . # + # % # . . .                                                                                               . .                                                       . . . $ & 8 8 8 n W g f 8 5 & & 9 9 f M W u R R 9 e R ~ *.6.| ! R M j j u h M f u 9 5 8 & $ + * 5 8 f u % & X . . .                                                                                                                                     . . % % p i p B j % * * 8 m M f 9 8 8 & $ & + + .     . u *.6.~ 9 & & & . . . .     . . + & 5 5 8 ; y i ; ; - % - - ; ; < ; 1 y ; 1 # % % # . X # o o # o X o o X X     .         . .   .   . . .       y B O.m.F.J.'.m.i.q.+.B o.b N b N N u.o.o.B &.&.K %.o.K K L 1.G a < - - - 1 c L #.2.%.%.L L N z z H N L K #.m N ",
"K o.K %.%.9.9.r.&.u.o.9.+.C B q B +.o.9.b 0 $.u.f..X%XkXzXzX@X!.&.#.&.o.o.2.#.&.B z p N K o.%.%.2.2.%.#.u.%.K G c ; o # - < % % o .     . . .   . X X o . . . X # o o o % % # % # % % % % o o . . . o # # o # % % - - % - % % # % ; ; ; ; # X   . & +   . + .       . . * * # * % % % % * * % % * + + . + # % % , , % .                                                                                               . .                                                         . . X + * & 8 f g r u 9 8 5 8 u 9 f j M j M h u g ! ~ *.<.~ ! Q g f g f u j f u 8 0 8 & + + * & 5 u u % & . . .                                                                                                                                     . # . ; < i y f H N j 8 8 8 f ! n u 8 5 & & * + + X .   * n 6.;XC.Q d u 5 + + + + .   . + + * * * 8 y 0 y ; ; % % % % % # # % % ; ; % o # # # # % % o o # - % % # % % % . X o       . X . . .   . .       i N @.q.F.G.F.w.i.O.$.+.@.+.+.B o.N &.o.N N u.u.%.&.%.%.%.r.W.L a < - - ; 1 v K #.%.%.#.#.K K N z m i L &.N z N ",
"L K B o.o.&.9.s.9.s.s.&.+.B b z b C +.9.B q r.u.u.N.!.f.).).f.i.o.&.u.+.o.B b z 7 & 7 q 7 b N H #.R.(.(.R.s.1.v y # . . ; - % - .                     . o . . o o o o o o # # % o o # % o X . o o o o o o o # # % % % % % % # # # ; = ; % # # . . & & . & 5 %     . . . * * * % % % % & % $ % % + # # # % % ; ; < , % .                                   .                                                           . .                                                           . . . + $ 8 f 9 9 9 u 9 8 u f f n j g n h h h ~ ` ` =.>.Q R ~ g u f f u u u u 8 u 8 & * + * & & 8 8 & * . .                                                                                                                                   . # # % % y p m p p u p u y u 9 8 9 f u 0 5 & % * # * * . . & R x.4X-Xl.| g d & * + + . . . + + * * . & 8 8 ; % % % % # # # o . o # % - ; % ; ; % % % % - ; < - % # % - ; % . . # # o . . . . X . .   . .     i B ) i.e.M.G.q.i.,.@.$.+.$.&.r.u.#.u.K b B K u.o.$.%.&.2.L y.L x ; % - - 1 G J L #.%.#.%.2.L m N z z = z K p o.",
"%.2.%.o.+.K o.%.&.+.p.u.&.&.$.$.o.B z z q = B o.+.i._..X[.+X).d.2.u.u.$.B o.K H B b N N B B H K 2.2.R.s.2.K H m c ; - o % % # o       .               . . . . X . o o o o o # % # . X X X . o # - % # o o X o # # # # % # # # # - ; ; ; # X . . . & % & g g g X   . X . . * $ % & % & & $ $ & * * % * * % % ; ; , - , % o                                                                                             . .                                                               . * $ 8 u 9 r M M f 9 u f n M M W W M M ~ *.=.=.*.*.Q g ~ g 8 f u 9 9 d u u u 8 8 & % & & & & & & + . .                                                                                                                                   . % ; ; p m H H G p i p p u f u $ 8 j M q 8 & $ * & $ $ + + 5 W Z.qXqX=X6.Q h u & * * + . . . + + * + & 8 % ; % o # % # # # # X . # # # % ; ; ; - % ; ; < ; ; % # # % - < o   . # ; o o # . X . . . . .       0 V _ q.e.e.m._ ,.@.o.@.$.%.o.K +.+.9.B +.N H o.B +.&.+.&.#.L J x ; % % % < G L L #.&.%.%.#.L N K #.t.K K %.&.B ",
"o.r.r.u.r.&.&.&.o.+.9.&.r.f.f.r.&.b b z 0 $ 7 N +.q._.tXzX$X_.f._.u.&.&.K o.%.r.2.r.&.#.K B H o.%.B #.%.H z i G G i ; . # % o .                 .     . . . . . X o o o o o o # % . . . X X # - - - % # # # # # # # # # # o # # ; ; ; # . . . . . * 8 R Q | ..5   . X . + % & & & & < y 8 @ + @ % $ + * # % % % - % % , , o O           O O O O O         .                                                           . .                                                               . * & 5 9 q g W W n n j g Q W ! *.~ Q M ~ ..*.5.=.>.~ n ~ M u f f d f f f f u u u 5 & 8 & % % * % + .                                                                                                                                       . * * i K L %.u.} N p p m N u % 8 n f 9 8 8 & $ $ * $ $ $ 5 W C.4XqX=X5.Q g f 5 & + + + . . X * + + * & % % % . # - % - o o # # o . . o # # # # - y i 1 1 ; - # # % - # X     o o X . X . o .       .       ; m -.q.e.m.m.O.,.,.$.$.$.+.H N o.b o.b r.K b K b z N %.%.H K K a ; % % % < v K L #.#.%.%.%.L K #.d./.t.L C &.%.",
"L L %.&.9.%.%.&.9.9.+.&.r.B s.r.u.u.f.K N q 0 +.o.a.F..X[.#X).r.p.r.$.&.$.%.%.2.%.o.%.B B N #.%.%.K %.#.m z p m v 1 ; . ; ; o X             . o o   . .   . . . . o o o o o # # # o . o o o # % # % % % # # % % % % % % # X o # # # # # . X . . + * f ~ ..| ..Y + . X * $ % & & y y y y % * $ & & + + * * # # + ; , % % % % O         . o .     O O . . O . .       O O                                               . . .                                                               + & & 9 f g M W ^ *.Q g Q W | *.*...Q ~ ~ ~ ] l.k.~ g ~ M f f M n g g g h j u u 9 9 u 5 * * + * .                                                                                                                                       .   . . = N K #.} m N p y p j p 8 u u 9 8 8 8 8 & $ $ & & 5 5 f ..S.A.l.' U U M u & + + + + * + * * . + % % ; # . o o # # # # - ; # # # - % # o o # - - ; ; ; ; # # % o o X       . X   . . . . . .           z o.D.'.G.m.F.w.q.@.+.N p q b N B b o.%.K o.B z b z N o.o.L G L a < - - % ; c G N #.%.#.#.L K z K L B N N %.K K ",
"K L K %.+.+.o.o.%.&.%.%.&.o.&.$.r.h.&.u.R.%.b o.+.D.^.D.~..XkX*XOXr.K r.u.2.%.#.%.o.B z z m o.#.2.B H m p 0 z p i < ; o ; ; # %           . . X o .       . o . . X X o o o % % # # o # o o X # o o % % % # # % % # # # # o o # # # X . . X # * * $ 9 R Q R Q Q 5 + . * $ & y 8 y y $ * + * 8 8 * * * * * # * # , % % % X o o     . o o o .       . X . O o X o X .     O       . .                                   . . .                                                               + * & 8 9 f j n ` 6./ R ~ ~ *.*.>.*.| Q ~ ~ 5.x.C.<.R ! M f f ~ ! M W M M M j u u f f 5 # + + .                                                                                                                                         . . . . * 7 N H b p M N u y 0 u & 8 8 5 & & 5 8 & $ $ & 5 5 5 9 f | X.' =.Q ~ ..d 5 * + * * * + + * + . % % % % % # % ; ; ; - # # % ; # % # - ; 1 1 ; - ; ; - % # # % o # % - o   . .     .   . . . . . .     N q.m.'.'.L.G.m.@.) b b b B o.N b K u.r.&.%.o.+.o.H B K K r.L L x < ; - - < c G z K #.%.#.L L z z z z t.N t.K #.",
"#.%.%.+.o.&.&.%.o.o.&.%.%.$.&.&.&.p.!.&.R.u.N b &.N.F.a.XX+X$X%XOX%.%.r.d.Y.p.d.d.#.N z m N z N %.B H z m B N c y - ; . ; % o #     . . . o o . .       . - - # o X . X o o # # # o % # o o o # o o % % # o o # # # o o # # # % # # # # # # # # * 8 9 f R f E R u $ + * % y y y y y * + + . . + + + % % $ $ + * % - - , o X o o o o o . o o o . . o o X . X X X . X     . .   . .                                       . .                                                               . + * & & 8 f g ;.c.5.Q ;.*.| *.| | ! W ..` 5.x.=XL.*.Q n f f ! W W W W W W h u j M f & # + X .                                                                                                       .     .     . . . .               . + + . + $ p p p p } } N u 8 8 % 5 & & $ * & & $ $ & & 8 u f f f f f t E Q / ..f 9 & * * @ * + + * * + * % % - ; i 1 ; y y 1 - % ; # o . X ; 1 y i i y 1 ; # # # % o o # 1 i ; o o .   o       . . X o X     z O.D.D.G.B.J.e.) B N @.&.u.&.o.q C o.$.&.K r.%.%.o.N N o.r.3.L S < ; ; - 1 c L K K %.&.L #.%.L z = N 2.r.N N %.",
"o.K %.%.+.u.r.p.9.&.9.r.&.$.u.&.9.p.!.!.f.K B q u.D.~._.N..X_.~._.&.s.p._.}.}.!.s.o.#.#.2.N 7 b K N N B #.#.2.c i % - . ; # X o   o X . % . . o o   . o - ; o . . o # o o o o o # X # o . . o # % % - # o o o # # # # # # % - % # * - = ; ; % * * 9 R R R R E R u & & % ; y i i y p % * @ + . + . + + + + + + + . + % , - # X o . o - o o o o X X X X X o - , -   .   . . . . . . X                                 .   . .                                                                 . + & & 8 f g *.Z.l.~ ;.| ! ! j g f Q ;.5.;.5.K.3X6.~ Q n f W M W M M M g f d R W u & % + . .                                                                                                             . .     . X .               . + + + + * $ & p p m M j u f u & $ * & % $ $ $ $ @ & 5 f W Q M W g 9 5 e E / ..h u 5 * * @ * * + * & % & % # - ; ; # o o ; y i c x 1 y 1 ; ; - ; 1 ; - ; ; - % % % # # % - ; # o X . . . . o . o . . .       7 V w.N.'.J.'.G.a.i.u.&.q.+.+.N C H B H B N $.%.K #.b b o.2.1.G x ; ; - % < c K %.r.%.#.L %.&.L %.N r.t.L K #.r.",
"m B %.+.o.&.&.s.&.&.o.u.&.9.r.&.$.&.u.&.).+.N C @.@.f.,.,.^._.f.f.$.&.u.p.p.p.2.o.K #.o.2.K q z N N H #.2.2.2.G c ; - . - - % o o o . o . .   . . . . o - % o o o o # o o . . o o X # X . . o % - # % # o o X # # # # % # # # % # # ; = = ; ; % $ r Q Q R Q Q h u 5 = & ; i i s u ; & y y 8 @ @ . + .   . . . . .   . . o % % o o - % o - - - X o % o o # , 1 < % o O . . X . . o o .                               .   . .                                                                   + & 5 9 f M ! x.C...~ W j f 8 9 9 W >.6.;.] C.=Xx.;.6.~ M M h h f f 9 9 d f R R 8 5 & + +                                                                                                                 . .     . . .               . + + . . . X % = 0 u y b B j 0 & $ * & & & % & $ 5 9 M *.*.W ..M 9 @ 4 U Q Q Y d @ + * * & * * $ 5 5 8 % o . # % X % - y i i c 1 ; y ; ; : - ; - # # o % - % - # % % # - % % - # # . .   o o .             i N @.q.G.F.'.D.D.a.!.9.&.+.$.b &.&.%.+.N K K %.%.r.K N L #.%.L c ; % - % < v L K %.%.%.L H %.%.o.L &.K z z N N ",
"z B B o.o.o.o.%.+.C +.s.u.9.o.+.&.o.r.o.f.!.b N V b o.u.!..X!.u.b b B o.#.#.B B N H o.%.%.#.K b N p K u.d.d.2.G v < < . ; < ; - o . . . .       . . . . o . . . X X o o o X X o X o # # o . . # # o X o X X . X o o # % # # # # # # # % ; ; ; ; = f ! R R R Q g 9 & & % & i p c s & * u j s 8 @ @ @ + . . + +           o , - 3 , , , , 1 < - # % - o # - - - , , - % . X . o o o o o O .                           .   . .                                                                   . * $ u j ! ! 6.k.~ M g 8 & 5 8 9 g W 6.l.l.C.C.z.n.z...W j u u 8 8 & 5 f g Y h u 8 & * X                                                               .                                 . + .         . .     . . .   .         . . . * * . . . . . # 0 u y N } m 8 & & % & & % % * & 8 f Q >.>.*...g 5 $ @ f R R g g & . + * + + * & 5 y p ; ; # % - % ; - - ; y y ; 1 1 y ; ; ; ; ; ; ; # # # # # # # % % # - # - ; o X . . X . . .   .       ; b O.-.e.m.m.m.w.i.@.u.&.$.$.B u.u.r.o.o.o.o.%.%.%.&.m K K L L v < # - - 1 G L L L #.%.%.#.r.r.%.B b N = = 0 z ",
"B o.o.+.K N o.+.$.+.u.%.&.s.C &.o.%.K &.&.f.q b b V q.%X@X%Xf.+.b N H K o.o.#.&.%.u.%.2.%.2.o.B N p K %.2.r.1.J c ; < ; - ; % % . . . . . . o X . o . o o . . . . X o o o o X . X o % # # o . . . . . . . . . . o o # # # # # # # # % # # % % = = 9 ! R g 9 e 9 8 9 & 5 y c m m m 0 @ 8 f 8 @ + @ @ @ @ . .           . o - - % , - , 2 2 < - - - - o o - o . - < < , % . . % - % o o X .                           .   . .                                                                   . + * 9 j ~ ~ *.~ R n u 8 & & 8 9 n n *.z.I.C.5.;.A.<.| M u 8 5 * * * & f f f j M u & * X                                                           O O . .                               . o .         . . . . . .             . . .   + * . . . * % 8 p N p p p y % $ 8 % * & & $ * & u h Q 6.A.6...f 5 $ * 5 f g d e 5 & * * . + & 8 y y 0 i i ; - - ; i ; ; : ; ; ; y ; y 1 : ; ; ; ; ; - % # % % ; # - # o % o o % .       o . . .   .       0 B ) i.m.F.m.w.q.u.u.O.+.$.+.b &.&.&.+.&.o.K r.&.&.&.K m K K L v ; - - % 1 v K #.L L K #.t.%.r.#.K K K K t.o.o.",
"o.%.%.+.B b B o.%.o.r.r.+.K +.N %.&.o.+.o.s.o.V u.!.+X~._.R.!.D.f.&.%.o.#.&.u.d.f.f.s.&.%.o.&.K b 0 B H #.2.#.m i ; < ; - ; - X o . . . . . o o . o   . . . . X o o o o # o X . o . # # # o o . . .   . . . . . o o # # # # # # o # # # # # # % 8 9 n g 9 9 9 f d g u p s c m j j 8 . @ 4 @ . . @ @ + .   .           . % , - o o o % : < 2 2 - < < - - - % X # - < < , % # % % % . o X X .                             . .                                                                   . . * 8 f W ~ ~ g j g 8 9 8 5 8 f Q g R 6.=XZ.5.6.A.6.| g f 5 & + . * & u d u f M u & # .                                                           O O . .                               o # . . . . . . . . . . .             . .   . + +     + 0 u p V H f % * + X * & $ * + * * * & u M ..n.;Xn.*.f & $ & + & 9 9 e u u & * * * & y y & ; ; 1 ; - - ; 1 ; ; 1 y 1 ; : ; ; : ; ; ; ; ; ; ; % % - ; ; - - % % o % % o .     . . . .       .     i N m.F.F.m.m.w.@.u.&.@.+.o.b B &.K o.N &.%.+.&.s.r.r.H H G K G c - - - - 1 v K #.K r.%.#.#.#.#.K o.L K N N K o.",
"o.o.o.%.o.N K %.r.K C C +.o.C N &.+.&.+.$.o.B B ).@X@X_.!.).f.%Xp.p.r.r.+.%.2.s.f.d.s.2.o.K B z p z B N o.H N p ; # % % . # X X # . . . . . . . % o         . # - % # o o o o X o o # % # # % # o o . . . . o X X X X # # # # # X X X # * # # # 8 0 f f & & f ..R R g f m z p p u p . . . & y s b b @ @ $ y $ @ . .     . + # # # % - ; < 2 < 1 < < , # % % o . - 1 < % % % - , % % o o . .                             . X                                                                     . . $ 9 f Q W 9 f f 8 u u 5 9 g Q U R l.H.x.z.C.A.b.| f f 9 5 * + * & y u u u M 8 + X                                     O                     O .   .     . O                         X # + # # X . . . . .           . . . . .   . + +     * u f f N H M p & + + * @ $ $ * * * $ 8 u M *.>.6.*.~ d 4 & & . + & 9 9 d f 5 @ & & & 5 & * # # # ; # ; ; - ; ; ; 1 1 ; ; ; ; ; ; ; ; ; ; < ; < ; ; ; % - ; ; - % # - # o   . . . . . .   .       i o._ q.m.m.m.m.q.q.&.&.) b b &.$.o.#.B %.o.B %.%.&.%.#.K J G P v < - % % 1 v N L K %.#.%.L %.K K r.%.N N L #.K ",
"o.+.%.%.&.o.&.&.s.B V z B K B B o.9.%.&.%.%.o.A D.^..X.X).).Y.!.Y.d.2.2.+.K o.2.f.f.s.o.2.%.o.m N N N b N z z 0 % . . .   . . . o % o o o X . . . .           X o o o X o o # o X o % % - - % % % # . . . . # # o X . X # # # # . . X # * # # % = 8 8 5 * & f >.=.~ ~ ^ M b b N f m 4   + * & m G G y y s c s p i y $ . + * % + * + < < < 1 - , < 1 1 - % - - # . % < 1 , % < < < - - % o o o . X .     . .             . +                                                                         . & 8 r f 8 9 9 5 f f 8 e g R R ^ l.M.l.C.=XC.M.*.d d d u 5 $ & 8 8 y u u u & . .                                                 O O         . . O       . o .                   . . . + % & # + + . + + . . . . . . . . . .     . .     . & 8 p V } H M f 8 5 u f u = % $ % & 5 9 f W M W W h 9 $ & $ . & 8 e 9 u u & @ & & & & % + . . - 1 - ; % % % # # # % % ; ; ; ; ; ; ; ; ; ; ; ; ; % ; - - ; ; - % # o o o .   . . X . .   .       z $.m.m.m.'.m.D.N.i.&.+.+.N +.&.+.+.N o.o.+.b +.o.K %.&.o.c G P D 1 - - - ; c G #.L B K L +.L z #.#.s.L K L N o.",
"o.+.%.%.%.C o.K C V V N N C V N N N o.+.%.&.b q i.D.F.^.^.i.f.R.s.2.%.K K H #.%.r.%.&.&.2.#.%.H #.o.N K K H m i ; . . . . # X o o - < - % o . . .               . . o o # # # o . # # % % # # % # # o . . o # # o X X o # # # # . o # % # # $ % = 8 & X + & r Q 5.5.5.;.*.M f m f N m $ @ y 8 p s s y s s s s c x i = % & & + + # 1 1 1 < 1 < < 1 2 , % % X o . X % % - - , , , < - , - % o X X . o .     .             . + .                                                                         . $ 5 8 5 8 8 8 f g 9 r g g ~ =.5.l.l.H.=XK.A.*.d e f g j u 8 u & 8 8 u & +                                                     O O O O O     O           o o                 . .     . * % * + . + # * * + . . . . + . .               . # * i V H B o.O.V f M M u 8 & & & & 5 5 9 u 8 8 8 8 & * * * $ 9 u d u 5 & * * & & & & % * X X ; 1 ; # # # # # # # o . # % ; > ; ; ; ; ; ; ; ; ; % % % ; - % % - - o o .   .   . . .             z $.a.oXm.G.F.F.D.i.o.) b u.&.%.$.o.B %.o.%.B %.b o.o.%.r.m c P G i - - - 1 v N L #.L #.%.#.r.r.r.o.t.&.z K L %.",
"r.&.&.%.K m B B B m V N o.B u.K z N b B K r.z 7 +.&.i.a.a.p.u.p.t.1.#.m b H K o.o.r.s.&.%.%.o.H d.%.%.%.2.#.G p ; . . . # % o X . . . . . . .       . o o . . . o o # # # # # . o # # # # o # # # % % . . o # o X . o o X # # # # ; ; ; ; % % $ % 8 r % + $ 9 g *.5.x.7.;.` 9 r 9 f H N @ 4 4 7 c p s s a s s s c c 1 % + . . . + % , 1 2 a 2 2 - - , 1 < o     . % % - - , , , - - < - , - % o % o . .                 . + . .                                                                         . * * * & 8 9 f g f g g R ( ` >.k.6.n.C.K.A.*.g 9 f g n f 9 u $ $ & & +                                                   . O .     O O     O             o o             . X .     . + $ $ + . + # # $ * . . . . + + .               . . . % p m V O.,.O.V M u 8 8 = % % % & & & & * * * * + + + 5 9 d g g f 8 & & & & & * % % % % - 1 1 - # - # o # % % o . # % ; = ; ; ; ; - % - % % % % % ; - - # % % o o o . . . .         .       z &.a.D.'.w.^.J.D.i.@.b $.u.+.+.&.&.&.$.%.$.&.o.K o.H H &.Y.%.L D 1 ; - % < m K %.#.#.%.r.9.t.%.%.t.%.r.K #.r.p.",
"o.%.%.o.o.V +.%.o.o.+.o.K C !.!.r.%.B b z N &.$ V +.q.a.a.!.f.f.f.%.K o.o.&.H K #.K B B %.%.2.#.r.%.2.2.%.H z i ; # % # - ; # #                       . o % % % o # % o o # o . # % % # o o X # % % % # o # # o o . X . . # # # - ; ; ; ; ; ; $ & 8 g f & * 8 9 Q >.l.7.6.' r 8 5 6 f 9 9 9 u j s u c G s c m c c c a 1 & + + . # * ; a a 2 2 < , - % - < % . # # % # X o , , % o - < < - , < - % # # . . . .           . + .                                                                             . . & 5 & 9 u j g ~ ~ / ` / *.6.*.;.M.Z.S.>.R e r e f d 8 8 * + + .                                                     . O O     . O                   . o o X . .   . o X . .   . * % % % + . . . * $ + + * * * + . .       . .   .     . % 0 f ! O.! V V u p u 8 % & $ % & $ * + + * + + * & d f g R f f u & * & & & $ % ; ; % ; ; % o o # # % - # . . o ; ; ; ; ; ; ; ; - % # # # # ; % ; ; - # o o o % # o . . .         .       p +.a.N.'.B.F.G.N.a.&.b a.&.+.+.#.&.&.&.&.&.&.B K %.K K L r.1.G a - ; - - ; v L %.#.#.9.r.r.%.#.%.%.L %.#.K r.s.",
"%.o.%.K C o.+.%.%.o.K b b +.9.u.p.s.%.b N o.p.7 b @.w.,.,.a.f.D.f.%.%.%.f.R.u.%.B z q p B %.u.%.%.2.2.%.%.N p = G x c ; < ; o o o .         .   .   .     . . X X o o X . o o . # % % # o o o # # % - - X # # o o . o o . o # % - - > % # % % # $ 8 f n g & + & f W ~ ..l.=.W 9 9 f f 4 + @ 6 q 9 4 0 b m G G c S S a i ; + + . X * % % ; 1 2 1 # % - X X % - - # % #     - - . . - ; < , < < - - - % # X . X .         . # X                                                                             . . 5 5 & 9 d g W >...` *.*./ ;.6.k.C.l.;.*.~ Q n n n 9 5 8 & * + .                                           .       . . .     . . . O O O O . . . .   . X % o   . . . o o X .   . % ; 8 ; % * + + * $ $ $ 0 0 0 $ . + .     . $ $ . + . . + * % f V b V B m f f 9 5 & * & % * * + + * * 9 d f R R M R f d d 5 & & & $ & & ; ; ; # # # . . . . . o .   . # ; ; ; ; ; ; ; ; - - % # # % ; ; ; - # % . o # % o     . .     .   .       7 o.m.m.F.oXJ.m.N.i.&.B i.&.9.u.$.%.+.%.&.&.%.H o.o.H K #.1.%.c < - - - - 1 v #.#.%.%.r.&.r.%.o.o.+.%.K %.N L %.",
"r.%.o.o.o.o.o.o.B B C %.f.u.r.u.r.r.&.$.&.+.p.B b @.i.) N.^.~.a.&.H #.&.s.f.r.o.#.B K o.%.2.r.B K #.K %.#.H 0 m v ; 1 - ; < - - o . .       . o , o X . .     . . X o o o o o o % - % # # # o o # # # % # X # # % % % % # % ; ; ; ; # # # # * # % 5 r f R g * . $ 9 u f | *.R 8 8 M f u 8 @ @ @   @ 9 p b m m J G D c c a y ; % X + # o % % ; 2 % . . o X . % X     o     X - % o % ; < < < < % - ; - # o . # .         . * X O                                                                           . * & 5 & e g g f ~ ! Q *.6.<.;.K.K.S.*.~ *.~ Q n ~ ~ 9 8 8 8 & + .                     .                         . o X . .     . . % - % . . . . . .     # X X     . . # # + + . + % 8 y 8 8 0 = $ $ & & & 5 8 0 & + + $ + . + $ 0 7 $ * + + . + $ & & u n j u u u 9 5 & & * + + + + + u M  .W W Q R W 9 9 f 8 & & & & & % ; ; ; - % % - 1 < ; o . . . # - ; ; # ; # ; ; ; - % % # % ; ; - % # # o # # # # . . . . . . .   . .       7 o.w.i.F.G.J.G.a.@.O.+.9.u.&.&.%.&.o.r.r.&.9.K K K K &.&.r.t.D x < < ; - 1 c K N #.%.r.%.#.L B K #.#.K o.z o.2.",
"s.%.r.+.+.%.o.&.K R.(.*X/.s.u.p.f.R.R.h.f.r.p.!.q +.&.^..X#X.XN.$.o.&.%.r.r.%.%.%.o.&.d.Y.p.#.H H B #.#.#.p p G i % - # ; < i , .           . . o . . o - - o . o o # o o o o # - % - # # # o . o # # # # # # # - ; < ; ; ; ; ; ; ; - # # # # # $ = 9 r f R f * . * & $ j M n 4 & V j n n r k @ 4 4 4 p G G f z c S D c i i a ; X . o o % % % , , , . . % # .   . o o .   # , , 1 < < , < < 2 2 i < ; * X # X X .   . .   X X . O                                                                         . * & 8 8 g n r 9 j j f *.b.6.S.1X1XS.*.W *.Q f f ~ ~ f 8 u u & + .                                               . .     . o X . o % o o X . . . . o . . X   . . . X . # % * $ + + * # % % ; 0 8 $ * $ 4 4 & 5 & $ * + $ @ @ + 8 p p & # + + + * $ & % 5 u f 9 u u u 9 & $ * + + . . 5 M | | R M R h h 9 5 f u & & & & & % ; % % - - - % - ; i ; % - y i ; > - % ; ; ; ; ; ; ; ; % % % - % # # % o # o # # # X . . . . . .           > B -.D.F.F.m.N.a.O.N $.u.9.&.&.&.&.&.&.$.&.%.K B N B K %.r.2.L i < < - - 1 l m K N %.#.L %.#.K o.N K L K z #.&.",
"&.%.r.%.%.K C K &.C %.r.p.r.s.9.r.u.r.o.B N o.s.V N D.+X+X@X).D.u.r.&.%.o.#.%.%.K H K %.&.o.%.#.%.%.o.%.N #.L G x ; ; ; - < - %                     . % - % - % o o o o o X o - % # # # # # o . o X o # # # # # # ; ; - - % ; ; ; ; ; > ; ; ; = ; = 8 f R ~ *.g * + + + $ u u 9 @ 8 j N B o.m 9 6 4 7 8 p m p i s c v c 0 $ * & % X . . . # % % ; 1 ; . . X % # % < - o , - , , 2 2 < - ; < x x a i 1 < + $ * . o # X .   . X X O                                                                         . + $ 8 8 n u 9 9 u 9 e ! b.n.=X=X=XK.k.~ | R 8 0 9 9 8 5 5 5 * .                                                           . X . . .   . . . X X # # + . .     . + * + + % % % + . + . . * ; 0 8 $ * $ & 5 8 7 & + + + + + & 8 q u p y * . . + * $ & 8 8 9 u 9 9 9 9 9 5 $ * * + * 8 g | ..W g f d f f 9 8 j f 8 5 8 8 & % % % ; ; ; % % ; i i i y i i i # # % ; ; ; ; ; ; ; ; ; % # % % % ; % # # o o o o o . . . . . . o . . .     # V -.N.m.m.e.) @.V b $.$.%.$.%.+.%.o.%.$.o.o.N H B 0 b o.%.#.J i - ; - - ; z G L L %.K C o.#.L K N N +.r.z #.%.",
"9.&.r.u.o.#.K N C V q C o.r.s.r.%.K H q w = B +.o.V #XzXkX$X!.D.f.p.r.r.o.#.#.o.N B H b N N H H #.2.#.#.H d.2.J D i a 1 - % # #                     o o o # % o o o o o o o # # # o . X # # # o o o o # % # o o # # # # % % % - ; ; ; ; ; ; y y i 8 8 f g ~ ;.;.g + + + + 0 p 9 @ 9 g H #.H N f q 4 4 @ $ f c c s s c s y $ % i i +     . + # - , 1 1 - - * - - - < 2 a 2 - - , 2 1 ; ; - ; x a i < % ; + * * . # o o .   . . X .                                                                           . * & & 8 8 f g W f e W n.L.-X=X1X1XS.*.W g 8 e 8 8 * * + + .                       . .           .   . . .     .           . .       . o o . . . + . + + # . . # # + . + % % + . . . * y p p y 8 8 & * & 8 8 & . * & + + & 9 9 u u u 8 + . + * $ 8 8 8 8 5 8 8 8 8 8 8 & & $ 5 f ! | | | R g d 9 h g u 5 u u 5 & 8 8 ; ; # # - ; ; - - ; < ; ; 1 y 1 ; # # - ; ; ; ; ; ; ; ; ; % # % - # % % o % # o o o o .   . . . . o . . O     > q ) @.m.F.m.w.) O.N N B b B N B o.%.$.&.%.N B $.%.0 B o.#.#.m c ; ; ; - ; l K N K #.+.L L #.K K %.N %.t.N N %.",
"9.&.&.r.+.K o.%.+.&.z K b b q z q z N B %.B b $.@.7 ~.).%X).).!.p.2.&.r.%.#.B B N K H H N &.%.u.d.#.#.p #.2.#.G c < 1 < - . X . o X % o o . X . . . o . o % - - % o o o o % # # o X . . o # # % ; # # # % % o . X # # # # # % ; - ; ; : y i y ; 8 9 9 f g R *.6.6.d * + & 8 p 9 & 5 N B M j f b H q $ @ @ 8 u m c s p y y 8 y y p y & * . . X + + # < , 1 a 1 < ; 1 2 2 2 , 1 2 2 2 < < ; ; 1 1 a 1 % ; ; y ; ; + .         . X .                                                                           . * 8 8 9 j n n W g g Q <.M.A.H.4X4Xn.~ f f 9 e 9 u & * . . .                           . .           . . . O . . . . X     o o     X o o o X . . . . . + * # # # # + . . + * + . . . % y p p 9 u u % + % 8 5 5 $ & 9 8 $ @ 5 8 9 9 q 8 + + * $ $ & & & & & 5 8 8 8 5 5 & 5 9 g ~ <.>.Q ~ h f d d W g 9 & $ 5 & * & 8 ; ; ; ; ; ; < - # ; - - - % # # # ; ; ; ; ; ; ; ; ; ; - - ; ; ; - # # # X % % o . o o o       o . o . .       = B _ ) w.m.F.N.D.D.u.o.B b b b K o.o.%.%.+.N N %.r.&.%.H K #.N v c i ; ; ; c c N N K %.%.K +.B #.#.9.r.r.K &.o.",
"s.s.&.r.o.%.&.$.r.r.K B b = $ + $ 7 b u.!.u.N N &.& V o.&.u.!.f.#.N K u.s.K m p B K B B B Y.}.+XR.%.b 7 z m H G a ; ; ; ; # . . o o o . . . . .     . . X . % - - # o o % - % # o . . . . # # ; ; ; % # # # # o o # % % # # % ; ; ; y i i p 0 ; * 8 u f g g ~ =.x.>.u + $ y p 8 & @ b } e 9 f b B B p q u 9 w p c s i y 8 < y p p p i ; * . o o # # % ; a x a a 1 ; 1 1 1 2 2 2 2 i ; 2 1 i 1 < < < < , ; y ; + X .   . . .             O O                                                                 . * 8 f n ~ M g j M ~ W ~ *.;.M.=XC.*.g 9 u 9 5 f f 9 5 + .                                 . .       . .       . X o # . . .   . # o . X # o X . . . . + + # + + + + + + + + + . . . . $ p p 0 0 0 % = 8 8 & 8 9 9 f q 5 $ $ 8 8 8 8 8 $ * * $ $ $ & & 5 & & & 8 9 5 5 5 f Q ..;.8.6.~ ~ R f d f M u 9 8 $ & * + % ; ; 0 < 1 ; ; < ; # % ; 1 1 - - ; ; ; 1 ; ; ; ; ; - ; ; % - - % ; % - % # # % % X o . X o .   . o . . . . .     p #.,.~.-.XXJ.F.D.f.q.p.u.o.B q o.K K o.K o.b b K o.o.K K H m N v l i ; < ; c m N K L #.%.+.#.K L K #.%.+.C o.r.",
"&.r.%.%.%.%.&.&.r.r.&.s.p.%.&.9.r.&.&.s.u.%.b N $.q 7 p N N o.+.B 0 m #.r.r.2.r.d.p.&.&.r.d.s.r.&.%.B &.o.%.#.L v 1 ; % # % X . o % o . . . . o o . o . . . . o % % # o % - % # o . . . . X # # - ; ; # # # - % # # # % % # # # % % ; # ; ; ; * # & 8 9 f j W ..*.>.>.u * $ 7 4 & @ u } g n b f N H H m f p q 7 7 7 y i i s i s i y y 8 % % % < < < % # ; 2 a 1 ; - ; 1 2 2 < % # - 2 1 < < < - ; < ; % % # % X                         O o O             O O O                                           . . + 8 n ~ ~ n g f R | M u f ! <.6.W f f 8 u 5 5 u f r 8 *     .                                       .           % - - o . .   . # o . . X X . . + . . . . + + . + + * . . + + . . . . * 8 9 0 5 & & 0 8 & $ & 9 f f q 8 8 & 8 8 4 8 & $ + * + * & & 5 5 5 5 5 8 9 8 5 r ~ 5.7.8.8.6...| W d 9 f f 9 u 9 & * * % % % ; y < y < < ; 1 ; # ; i x 1 1 i 1 ; ; ; ; ; ; ; - % # - ; ; ; ; ; ; ; ; ; - % - # . X X . . o o o . . . .     0 N q.'.XXXXk.w.q.q.O.$.9.&.o.K N K K +.o.%.N N B H +.#.L K m L m i y ; - ; l m m K #.#.L L %.+.%.#.%.o.K z N &.",
"o.&.+.+.+.%.&.%.$.9.f.).$X$XkXkXkX+Xf.&.o.b b B +.V 7 8 B K &.+.B = 7 z o.u.(.%X+X+XR.(.R.d.B m B &.f.+XR./.s.3.J i % # . # o X   o .   . . . . o o o . . . . . o o o o # # # # # # # o o o # # # # - % % # % # o . X # % % # # # # # X + # # X X * & 5 9 9 M | W ~ <.| f & = = 5 + & u b n N N B H G u c m c 0 7 ; y i i i y & $ $ * & = $ # ; ; < y - $ ; 2 2 < ; < a 1 1 x 2 o # < ; ; ; - % % < y % ; # . X         . X O . X O       O O O O       O O O                                         . . . + + & g Q 9 f g j j d 8 5 8 f Q M 9 5 d 8 5 9 9 8 9 8 & *     .                                               . . o < ; - . .       o X X o X # # % # . . . . + + + + * + . + + + + + . + & 8 8 $ * & 5 & & $ $ 5 9 9 9 5 8 8 8 8 8 7 $ + + * * $ & & 5 & 8 9 8 9 e 9 9 Q 5.7.7.7.6.>...~ M 9 5 u 9 8 8 5 % + % & ; % ; ; ; ; ; ; ; ; ; # # ; ; ; - - ; ; ; ; ; ; ; ; ; % # - - - % % % % - # % - ; # X o . . .   . o . . . .       0 B ,.oX'.G.-.) @.O.+.o.o.o.b K o.N K o.K o.B B B o.&.%.#.H K L c y ; ; # ; c m L N L L K +.9.r.%.r.&.L K 0 K +.",
"%.o.o.%.%.r.p.s.p.s.s.p.!.h.R.f.!.f.R.u.r.%.f.u.!.O..XKXKXCXkXkXkXB = q p o.r.f.r.p.o.u.%.B z q z K Y.(.R.s.2.L S < ; ; - % o X . . .     . . . % % o o . . . . . X X o o o o # # - ; - # # # # o # # # % % % % # . . # # % % # # o X . X . . . X + * $ & 9 f M W Q *.*.| f 0 8 $ + $ u m H V n b u u 4 5 p p p 0 8 y a i ; % + 0 0 @ + + + * $ & $ ; % % , < < < ; 1 , + - 2 x - # < % % y p y ; < i i ; o O X .   . . . . O X X O O       O o o O O O                                                 + * + + * 9 r 9 f f u & + & 5 5 f j 9 & 5 8 & * & 8 5 8 5 * +     X                                               . . . # - % # # .     + % % % % - # X + . . . . . * * + + + . . + $ $ * * * $ & 5 * . + $ & & 5 5 & $ 9 r 9 5 9 9 9 p 8 @ + + * $ 5 8 8 5 5 d g u u R Q Q 6.x.l.l.5.>.*.Q R f 5 5 u u 9 5 $ + + % % ; ; ; ; ; ; ; ; ; ; 1 ; ; - ; ; ; - % % # - ; ; ; ; ; ; > ; - % # # o % % X % ; % o o X . . .   . o . .   .       0 B _ F.F.m.F.q.w.@.&.o.o.+.V K &.%.%.o.K K b B o.o.K K L L #.L c ; - # # ; v K L N N N o.%.o.L #.%.%.%.K z %.+.",
"K K o.o.%.f._.f.&.&.%.N B K o.N K r.!.f.R._.kX$X+X@.$XvXVXkX*X+X*X$XY.q = 0 b N z p q b p q 7 p #.2.2.u.f.2.J v i ; < ; < < # # . X . . . . o o % o % o o X o o . . . X o # # # o # # i y % # . . # # # % - - ; % # # # % # # # # X . X o . . . X + * + * & 8 u M W | Q R R R u + . @ q b N N n n q 9 0 & 0 p p 0 & 8 y < % % ; p i & 0 8 8 i y % $ & $ ; ; ; % ; : 2 1 + # ; 1 ; 1 ; ; % i z m N v = 1 , . X . .   . . O .         O O           O O       O O                                         + + + . + 5 9 9 f f & . $ M ! | k.6.*.g g f & & * & 5 8 & + .     X                                           .   . . + % # . . # . . . # % # # % - # . + . + # . + * * + + + + . + % = $ $ $ $ & 8 $ . + @ * & 5 5 8 8 9 f 9 & & 8 8 8 $ + + $ $ & 8 9 9 9 u g g 9 9 ~ *.=.l.x.C.C.;.~ ~ R g d 5 5 u u 9 & * X X * & % ; ; ; ; ; ; ; ; ; ; - ; ; i x i 1 ; # # # - - - ; ; ; ; ; - - # # # - # o % % % # # % # o o . o . . . . . . .   # q _ ~.m.J.m.q.-.u.@.&.+.o.N +.%.&.r.K B B z o.K B b N K #.K L c - # o o - c N N q z N N N B N K #.%.K N z #.K ",
"&.%.%.%.o.&.r.9.&.s.$.%.b N K B B b K $.R.f.!.a.u.o.XX@XiXkX%X).Y.T.(.!.N $ = p z 7 7 b N K !.}.).Y.d.d.d.2.J c x % ; % ; ; % % . X o o . X o % % % % % % % % o o . . o # # % % - # - # # o . # o X # o # # ; ; ; % # # # # # # # # # # # # . . X + * * + * $ 5 f f R Q h Q *.| 5 + $ 9 9 b h f g j p p 4 4 i i i 8 ; 1 1 < ; i p c i i y i i & $ % & $ $ $ $ % < < ; + # ; ; i a 1 < , , y y 0 b i % < i < % + . .     . . X .         O O       O O .     O O . O O                                   . . . . + & 8 9 9 8 * 8 R l.;.*.C.6...Q | R M u + * & & + .       .                                         . .   . . . X # # * # . . - ; % + . - ; * . . . . # $ $ * + . . + + + + $ ; $ $ * + & 8 5 @ + $ $ $ & $ & 8 9 9 9 5 8 8 9 8 $ $ 8 8 5 8 8 9 f f f M u & 8 ~ 6.....6.S.C.*.n n W M u 8 5 5 8 5 & * X + + % % ; 0 0 ; ; ; % - ; ; # - - ; ; ; ; % # % # # # % - ; ; ; ; # % # # # - ; # # o # % - < ; % % . # o . . . .       # m -.i.m.B.G.w.,.,.&.&.&.o.N r.+.o.K K b b N N B z B K B 2.r.J i ; % % o - i z z z 0 z N m K C N N B +.N H %.&.",
"%.&.u.&.o.%.K o.B o.&.$.N B B K q = $ C f.s.o.+.B N.iXlX#X+X}.!.2.K H r.R.p.b p N p N Y.(.).$XkX*X+X).f.s.%.H m y % ; - - % o - o o o o . . . o o . o o o o o o X . o # # # % % - % # . . . . . X # # . X # # ; ; % # # # # # # # # # # # # * # # + + * * * + 5 u 9 f W U ~ >.6.W y u u 9 u u 9 9 j j p 9 5 $ ; y y i a a s i i c v c i 8 i s i = & $ @ 8 = % i ; % $ # # ; ; c S a , % < ; i i p < # y c y o . . .                         .       . .   O         O                                       .   . * & 5 $ * f >.l.H.5./ l.S.~ Q ../ ..n * . + * + .                                 . # .     . + + . .   . . . # % # % ; X   . ; - # . # < ; * . . . # = = $ + .   . + + + $ & $ * + + $ 5 8 5 & & 4 8 5 * + & 8 8 5 5 8 5 8 8 & & 0 u 8 8 9 f f f f f 5 + & R ..R Q >.n.6.~ e g W M f 8 5 5 5 & & * + # * % % ; 0 0 ; - # # # ; ; # # - ; ; ; ; - - ; ; - - # # > - - % # % % # % ; - o % % % % % ; - ; o . . . .             ; b ,.N.'.XX'.m.q.u.O.$.$.$.o.$.K C N N b b 0 N N z B b B %.L P i % - - - ; ; z 0 L p N +.N C p N N N N o.%.&.r.",
"K %.&.r.o.&.%.u.o.K K K B $.o.+.u.r.o.K K B B &.) kX.XeX@Xf.u.%.#.o.K o.2.f.R.d.o.B p r.s.d.R.).(.(.R.&.%.#.G G a % % ; 1 ; # % % o . . .   .   .     . X . o X o o # # # # # # o % ; 1 < - o . X # # . # # # % % % # # # # o # # ; ; ; ; % $ # # + + + $ * + & % & 5 f g ~ =.6.*.W g f u 8 9 u 9 u M j p 8 $ % y i y i i a s i c G m c y y s s s 8 0 7 i y & 7 ; + % ; - # < s c c a ; % 0 p c i ; . % m < % % #                 .         # , # # . . . X O                                               . . . . . . . * n k.7.:XZ.v.H.4Xx.;.7.=./ R 8 . . + + .                                   # # .   . + # . + . . . # - ; - # ; ; # # % % # # * % ; ; * $ * * $ & & + .   . + + + * $ $ % * * * $ 8 8 4 9 9 9 9 9 5 & 5 8 8 8 8 % & 8 8 & 8 0 8 8 u f f u u 5 + . & R Q U Q *.=.| W 9 f h M f 5 & & & & * + X # % ; ; ; ; ; % # % % # ; ; # # # # - ; ; ; ; ; ; ; - - - # - - - % - # # % ; % o ; - # - % # % % o .     .   . .       0 V @.N.'.oXG.w.,.u.O.o.+.o.%.&.o.o.K b B o.N C N o.B z N H G v a - - - # ; 0 z z b 0 0 z C 0 0 N C N z o.K o.o.",
"K %.K r.K %.p.h.u.K B o.&.p.u.h.).kX+X%.0 q B b 9.+X.X@X_.$.+.N b N K #.o.H o.#.r.N p %.K 2.%.d.r.r.r.#.K H H m c - ; - < 1 - - o . . O . . .   . . . . . % % o % # % # o o o o o % % ; ; ; # . . X # # # o # ; ; % # # # # o # ; ; ; ; ; ; ; # # + + + + $ * $ & $ $ 5 d g ~ *.Q M h j p u e M M n M N j u 8 ; < y < ; ; y < X . $ s v y i p c c c p p 0 i p 7 = $ + * % # + # % % - % X ; i p y X . % , , % - X             . % % X X # o % % # # . X .                                                 . + + + .     + 8 g ;.7.;X,X4X4X-Xl.>.6.5.R g 9 $ .     . + .                               X o % . . + + $ ; ; % ; ; ; ; # * ; ; ; % $ = = ; ; % ; < $ $ $ $ = = & $ + . . . . + * $ % % $ * & & 8 8 9 9 9 9 9 r r 8 8 9 f f 9 8 8 0 9 8 & 5 8 9 f g f 9 9 @ . . 9 ~ ..U R ....Q Q f 9 f j u & * * * * + X X # % ; ; ; 0 ; % % - - ; ; ; # - # # # ; ; ; 1 1 1 ; ; ; - - ; ; ; - % % # % # # o ; - - - o # % o . .     . .   .       p @.e.a.-.G.m.-.,.i.&.+.o.N %.%.+.%.%.N o.o.B B z K 0 N b c c D i - % - - ; i z z z z N N N z q b q z m o.+.+.B ",
"&.r.r.s.K &.u.p.!.f.f.f.u.r.9.s.p.p.r.o.o.+.r.b f._.~.+X%X).+Xf.+.B B o.K %.K 2.r.d.o.r.o.B N #.#.2.o.H H H m i y ; 1 i < 1 % - . . . .   . . . o o . X % - - - % % # # o o o o # # # % # - ; ; ; 1 ; # # # # # % # # # # ; ; 0 ; - # ; ; ; ; ; * # + + + * * $ $ * * & 8 f g Q W W R f y y r W | | V M b s p 1 , & ; 0 i y % . . O @ 0 p i i p c m G c 0 7 p 0 ; ; # $ % * * < 1 % % o .   # % + + . . o % % ; X X o .             . ; i % .       X .             . X O                                 . . . *     . 9 f Q =.;X9X9XwXwX4X' 5.Z.6.Q Q f 5 .     . + . .                   . o % . .   . % + + $ $ ; ; 1 i s x i ; $ $ = = $ + $ = ; y y ; ; % * + + $ & & & $ $ + + + . . * & $ * + + * $ & 8 9 9 9 9 9 f f 9 0 u f n f 9 u f u 9 & 5 8 u n W f 9 5 * . $ f *.>.R g Q Q R R f d f 9 8 & + + + + + X # % & ; ; ; 0 ; % % % - ; ; ; # ; ; # # - ; ; ; ; ; ; ; ; % - ; ; ; ; ; ; % o . . o # % % % # o o .   .   . . .   . X     N V q.F.-.k.m.w.f.i.9.N o.b o.K B b C b 0 b z q z q 0 b N c v x 1 % o - # ; i p N z z # q q z z 7 N 0 z K &.u.&.",
"%.&.%.u.o.&.9.u.u.+X&X+X&.K K r.&.b 0 b s.r.!.K ).D.D.OXkXzXvX@Xu.K B H o.%.r.s.Y.R.2.f.o.p q z B H N H H H z 0 a ; a i 1 ; # % . . .       . . . . . o o o o o o . o o o o X X # # % ; ; 1 1 ; 1 y ; # # # X X # # # # # ; = ; ; # # % = ; ; ; % * + X . + * * * * & & 8 M j f ~ ..~ u & % 0 j W ! M M j p i y % & % 8 8 8 & X . . . + ; i i 0 y c G c p i p i 0 0 = $ y i 0 G 1.L 1 o . .               . + % % % . .             . % X   . .               .   X X .                                 . . .         & n R / ;.9XNX9XwXmX0X{ H.1X5.R Q Q e *       . . . .                 . o % # . . . . + + = ; ; ; i i c i a y 7 7 7 = $ $ = = ; y i ; * * * + + + & 7 8 & @ $ + * * * * & $ + $ + + $ 8 8 8 8 8 9 f g f f u u f g f 9 9 9 8 8 8 8 0 f W W g 9 & * + 5 g *.*.R g n g g g f f d 5 & * + . . . X X * % ; 8 0 ; ; ; % - ; ; ; ; - # # ; ; ; - - % - - - ; ; ; - - ; ; ; - ; ; # # . . # X # o o . . . o .   . . .   . .   .   = A _ '.a.G.k.w.i.q.@.+.%.o.&.b b b b b b q b z o.B N N z z v c i o . X o - ; 0 N o.K = m q L +.N K K N &.&.%.&.",
"$.&.%.&.%.&.%.r.&.f.f.u.N N K N N 0 7 q b B z +.f.u.).%X$X*XkX%X!.r.%.2.r.r.r.d.f.p.B r.%.N N N N N B N H H K J c < i ; ; - o % . .       . . .     X . . . . . . . . X o o . o # # % ; 1 y < ; ; ; # # # . . . o # # # # # # ; # # - ; ; ; ; ; % # # X X + + + * & & & 5 f f u ~ :...g & * 8 u g n M W R u y & & @ & 8 u 0 % * . .     + 8 i p i 8 p c p c c c p i y y y G z p D G v < % X X .             . # % O   .           X         X                 .                                                     + 8 g Q ~ l.qXgXqXwXgXqXc.Z.;X*.R g M f 5 .                                 X # o . . # + + = ; ; y s a i y i i i 0 = * $ $ $ & = 0 0 ; * % ; ; $ & & 8 9 5 & & $ $ $ $ $ & & $ * $ + $ 8 8 5 8 8 9 9 f f f u 9 u f f 9 9 8 5 8 8 9 u j W g f 8 $ + + 8 f Q Q R g g e f g f f 9 & * + . . . . + # % % & ; ; % % ; ; ; ; ; ; ; - o # ; 1 ; - # # > ; % ; ; ; ; - ; - - % - - ; ; ; . ; . o . o . o # % . o .   . . . .       # q _ m.m.m.m.i.a.,.$.+.9.K K N z q B B N b z N s.%.B K N 0 c ; ; % # # o - z 0 = 0 K 9.(.h.f.s.s.%.K K %.&.+.%.",
"&.&.&.&.%.C K %.o.%.K z 0 z B 0 7 7 7 7 7 7 7 o.q ) ).iX$X+X+XOX).!.(.(.Y.f.f.f.p.o.7 %.B H H K b p z q m N 2.L S ; ; ; - # o % . . . . . o . .     X . . . . . . . o o # o . # % # % - ; ; ; - - # # ; % % # o # # # # # # # ; % $ ; = # # = % # # X X + + . + % & * & & 5 u u W | *.Q 9 * % u g M ~ | W f 8 & & % & y u 0 y = +     + ; i y i v y & i i c c v s c m v c s z i ; ; % . . . o o           X < i < * % - .       * = .                         .                       . X .                       . $ 9 Q ~ k.H.9XhXMXmXmXwX:XH.x.] =.! n n f *                         . .     X o # # # # * * = = < i s p y y i i 0 = $ & & * . $ $ = = = % ; y i 0 8 & & 8 8 & & 7 $ @ $ & & & & $ $ $ $ 8 0 5 8 9 f 9 9 9 9 e u f f u 9 9 9 8 8 8 9 u g n f 9 & + + * 9 f g Q R g e 9 9 u u u 5 * + + . .   . # % % & % % % % % ; ; ; ; ; ; ; ; # - ; 1 ; ; ; # ; ; % ; ; ; ; - - % % - % % - % ; # # X o o X # % # % # o o     . . . .     # z _ N.F.XXm.q.i.q.B $.o.C N N N N N N o.V 7 b B B N %.K p K m y % # % # ; G %.0.7 K s.f.L z s.%.t.%.o.%.&.&.+.",
"+.+.%.%.$.%.%.$.&.&.&.K B K K b b b N z z p u.p.$.f..X+X).!.).).u.f.Y.f.f.d.d.u.r.%.$ K N N o.K B K B H N N H G i ; ; % - ; ; - . . . . . . . . . .   . . . . . . o % % % % # % - - ; - ; ; # # # o # # ; ; ; ; # # # ; ; - # # % ; ; ; % # # # # + X # + . . . + & * $ & & & u R  .| ~ f $ + & u R ~ *.! j 9 8 & 8 8 y y ; & * .     . @ + @ ; p p @ @ 8 p c c c y z c c a ; y ; + # % .   O o % % % ; y ; y < % . # % % . . + # X                     .     . .     . .             + $ +                     . * 5 R 5.l.I.-XqXNXNXMXMXhX9X9Xx.{ 5.;.~ Q f & .                     . # .   . o o # % % # + * ; y y i i i y i i l i $ $ 0 0 ; < : i i y i y i i p i 8 & & 4 8 8 & & & @ & 8 u 8 & $ & & $ 5 0 8 9 9 f f 9 9 8 d g j m m f f f 8 5 8 8 f M M f 8 $ + + $ u g g Q Q f 9 8 8 5 9 8 & X . + . . . + * % & ; % # # % ; ; ; ; ; ; < ; ; # ; ; ; ; y y ; ; ; ; ; ; ; ; % # % # % # # # % % ; # ; ; ; o X . . . .           . .       0 V @.V.m.'.F.i.,.B N $.%.&.K N b q b b o.o.N o.K o.K o.%.2.K N i - # # - i G L 9.K s.K B b B p.r.r.&.%.t.&.9.+.",
"%.o.o.%.r.r.r.r.u.r.r.f.r.o.K N C $.V o.s.&.f.!.).@X^.^.f.d.d._.p.&.%.%.&.s.u.r.o.N 7 H K #.o.%.%.r.&.d.N N p i y - - % ; < i < o . . . . . . o . . . . . . o X o # % % % % % - - - ; - ; - # # # # # # # ; ; ; # # # # % # # # # - ; ; ; $ # # # + # # + X . . . * $ & & $ & u g ! ~ W j & + * & u h W g f f 9 8 8 0 0 8 & @ @ + . . + $ .   . @ 8 @ + + $ p S i i a c c y % y y i 3 * + .   . ; < ; % ; % < y % * % 0 0 y = .                         .           . .               . * +                   . & 8 9 Q l.H.,XgXMXSXHXSXSXAXhXgX:X;Xx.Z.*.n f 8 & .                 . * $ .   . X . o ; < - % % = ; ; 0 i v p i 0 i 0 + $ i x i i a c c z x a i i p p 0 8 8 0 f f 9 4 $ 4 9 9 f 9 7 8 7 4 & $ $ & 8 8 9 9 9 9 9 u f f j M V m f 9 8 8 8 f R ~ g 5 @ + * $ f W Q | W 9 9 9 8 5 8 & + . + + . . . # * * % % # # % % - ; ; ; ; ; ; ; ; ; ; ; ; ; ; y y 1 y 1 ; ; - ; ; ; ; % # # % - - # % o ; % # # . . . . .       . . . .       i b O.q.e.m.oXG.i.) V $.$.%.B B z 0 7 q z B s.o.u.r.K %.z %.H J - - . - - < y m b s.9.K o.f.r.s.K K N L &.%.9.&.",
"s.&.%.o.&.%.r.&.%.&.&.p.f.r.u.&.B o.b s.%.N +.%.u.D.a..X_..X).!.f.K H o.o.%.#.o.o.K 0 &.2.&.K B o.#.%.d.#.o.m p i - ; ; ; < ; - o X X X o o X o o X . . . o o % o o # % % # % ; - % % # # # % 1 i ; # # o . # # # # # # ; ; ; ; ; = ; ; ; # # # X # # # + . .   . + * & $ * & 5 u R W M f & + * * & u f j 9 5 6 5 8 u u 8 & & @ @ * @ ; 1 .     . @ & $ + + & i i ; y y i y % , # #           . * . . * % * y i < - ; ; % # X                       . X . .         . .               X % $ .                 + 5 5 8 n 6.4XgXMXSXJXPXHXSXSXMXqX-X,X;X>Xl.R 9 & 8 * .               . * $ .         o - < ; < y i y 0 7 0 p c i 0 0 0 + + 0 c i i c c c p c i y y i p q 9 q u f b f 8 5 9 u 9 f 9 9 9 8 4 @ + . + $ & 5 8 & 8 8 9 9 9 u f M M f 9 8 5 8 u M O.R 5 $ $ $ & u R ~ ~ g 5 9 9 9 5 5 & . + * + . . + * # * % * * # # ; - ; ; ; ; ; ; < ; 1 ; ; ; ; ; ; 1 y i i 1 : ; ; ; ; ; ; - - % ; ; ; # # % # # # . . . . . .           .       p z -.q.'.F.XXm.N.f.+.$.%.K B o.K C b q $ N C V K %.9.b N m L L J i ; ; - ; i z o.%.+.K r.r.s.o.#.+.%.%.r.&.s.r.",
"u.%.%.o.o.o.&.%.o.$.r.&.p.u.p.s.o.q K r.o.B B B $.q.i..XeXCX#X!.u.o.K N N B b B H o.b f.s.&.o.b B H o.2.r.#.N c i ; ; ; ; - # % # X X . . . . . X . . . . X . o o o o o o # # # # # # o . . . # # # # . . X # ; ; ; # # ; ; ; 0 ; ; ; ; ; # # # # # # # + .         + & & $ & & u g h j 9 5 @ * & % 8 g n 9 5 & * 5 f u 8 & & 8 5 @ + % < ,     . + % 0 & * * ; i i i i ; & % # o .                     # , 1 y 1 % % % % # . . X .       . .         % - # . .       . .             + 8 8 $ .             . & 9 u f ! x.hXSXNXMXJXPXPXJXHXSXjXgXgXgXwXk.R f f f 8 +             + u f 5 .           . # % ; i s y 0 y 0 0 i i y i y 0 ; = 0 i c c c c c p y = $ 8 0 p q u f f n b 7 9 r 9 & 4 9 9 9 8 & @ + . . + $ & 8 5 5 & 5 8 8 9 u f m f 9 8 9 9 9 n | ! 9 & & & & 9 g Q R 9 5 d d 9 5 & + . + . . . . * % * * * # % # % ; ; ; ; ; - - ; ; 1 i 1 y y y : ; ; ; ; : ; ; ; ; ; ; ; ; ; < ; - - o ; ; # # # # # . . .                       m B -.V.XX'.'.D.^.D.$.$.C B B b q K r.s.K z z N N o.o.B %.#.G 1 i < 1 ; - 1 P L d.%./.d.s.R.&.&.%.%.%.&.r.%.r.&.",
"%.%.K %.%.%.o.K o.o.&.+.&.z &.o.+.!.).s.o.K B +.9.D..XlXxXzXkX+X!.H K N B B B o.%.d.B p.&.&.s.%.&.d.%.r.r.u.#.L S 1 ; ; < < - - % o . .       . . . . . . . . . . . . X o # % # # # # # # # - - % # > = ; ; ; ; ; ; ; ; ; ; ; = ; ; ; ; ; # % # # # + + + .         . + * * % & & 8 f 8 5 8 5 $ 5 & u f f f 9 5 & 5 g u 8 $ $ & 8 5 *   + %       . + % ; ; % ; 0 i i i < ; % + * % & y +             . X ; 1 1 1 ; y p ; ; % *       & & .       . . # # . . . .     . X .     .   + & u j j & + . . . + & 8 M <.*.M ~ l.hXAXqXgXJXPXPXPXHXHXMXMXNXgXNXl.' n R g 9 & * . . + * & 9 9 9 9 *             . # ; < y 0 ; y 0 ; y 0 0 i i l i i i c i y y a c p y ; = 0 p c b u f j b b 9 9 g f 9 4 4 8 9 & @ & & + + * & 8 8 5 & & & 8 8 8 8 9 p u 9 9 9 9 f g ~ ~ f 5 & & 5 9 g R f 5 9 f f 8 * . . . . . . . X % = & % % # # % % ; ; ; ; ; ; ; ; ; y y ; 1 1 : ; ; ; - ; ; ; ; ; ; - - - ; % % % - - X - % o o o o # o . .                       N o.! N.oXoX'.'.D.f.B o.C N o.q V = b B K B q z b o.o.r.s.K # X . o # # - 2 P K z L B 9.9.r.p.p.&.r.r.&.%.+.o.+.",
"&.$.o.%.+.K o.B o.o.%.$.%.p p.f.).%X+X!.&.%.&.o.u.+XVXKXVXVXvX*X).&.r.s.r.r.2.s.r.f.#.u.%.o.&.d.s.R.p.Y.R.Y.d.T.I a i 1 1 a i - X o . . . .     . . . . . . . . . . o # # # # # # # # % # # ; y ; ; ; y y y ; ; ; ; y 0 0 ; ; % % ; % > - % ; # # # # + X . .         + + + + & & & 5 8 5 8 9 & & 8 u f g R g 9 5 5 9 f f 8 8 8 & $ & .   . + .   . @ $ & 7 = i i i p s x i i ; ; i ; + +         . * * * < < < % ; y ; % # $ +                   . . # + . . . . .   . X .         & 8 9 M M f 9 8 f 9 8 8 g | k.k.| *.c.gXqX:XgXHXPXPXPXJXHXSXAXAXmXNX4X5.~ l.;.f 5 & 8 9 u u 8 $ 5 4 & +             . # # % ; < y y y 0 i i p p p c l i s c i = ; < y y ; ; = y p c m b f n f r r f n R r 9 6 5 8 8 8 & 8 $ + + * 8 8 8 & 5 5 8 8 5 8 9 9 9 9 f f f f U *.;.R 5 5 & 9 9 g f 8 5 9 f 9 & .   . . + * + + % = 8 ; ; ; ; % % - ; ; - ; ; ; ; 1 ; ; : ; ; : : ; ; ; - 1 1 ; ; ; ; % % - - % % # % % % % - % % # # # % o . . . . .         .     p b n i.'.oX'.'.~.D.&.N q b w w N K K N C b q z q N 9.f.p.2.y.E.1.< # X X - l N L s.N z N r.d.h.h.&.r.&.%.o.B +.",
"+.$.o.o.+.%.&.&.&.r.s.r.N s._.R.$X$XOX).R.r.%.o.$.f..XBXCXVXKXzX+Xs.s.p.s.s.2.s.u.&.z %.r.f.f.s.%.#.r.p.Y.d.T.1.J i < < - < ; # . . . . . .     . . o X X o o o . o o o # o # # o # # # # - ; y y ; ; y i y ; 0 ; ; y ; ; ; ; # # # # % ; % % % # # # # X . .         . . + + + & * 5 u u 8 8 & $ 5 u f j Q g 9 9 9 g f u 9 f u & . . .     . + + + + * $ & 7 0 i s c c l i a i ; $ % + .           .     # 3 + + ; y y # + + . .     .     . .   . . + + + * $ + . * # .       .   . & u f W *.~ >.*.W 9 u W *.1X=X6.Z.4XgXqXqXhXMXPXPXPXPXPXJXJXAXmX-XH.l.l.:Xl.W f 9 f W ! n e 5 $ * . .               . . # # ; i 0 0 y i i i y 0 y i y i i y y i i < ; ; ; ; y i i p p u b n r V ! ! R g q 9 9 5 8 9 5 8 & & + + & 8 8 5 8 9 8 8 & 8 8 9 9 9 W g f g R 5.l.~ r 5 & 9 9 f 9 $ 5 9 f 8 * . . + + * & * % 8 u 9 0 8 ; ; ; ; - ; - - ; ; ; ; ; ; ; ; ; ; ; : ; ; ; ; 1 ; 1 : ; ; - % - - # % % # o . - - - % o o o # % % # o o o .             i b ! q.'.'.G.~.N.a.9.C N b o.f.p.r.o.q 0 z $.B N &.%.#.L L OXt.P x ; X . - = z #.o.N 7 N K #.t.p.f.%.%.&.K N K ",
"%.r.C o.%.&.r.p.r.r.%.%.q (.+XzXCXkX%X+X).p.K b B o.q.).zXKXVXvX+XY.d.%.%.&.%.s.r.s.b d.f.(.Y.%.B b o.r.R.f.2.L a ; ; - % % # o . . . . . . . . . . . . . X o % # # o o o . # o o o o o # - ; : ; ; ; y 0 ; ; y 0 0 0 ; ; ; ; # # # # % ; - ; ; % % # # X . .   . . . . + . . + * + & y 8 & & $ + 5 u g f Q R g 9 9 g g f 9 f g & * + . +   . + @ + . + $ = = 0 y s i c c c a a < # . . $ $ .             + & ; % % ; y ; # # * + . + + . . + . . . + * # + * # + . . # X .         . + 5 f *.n.l.-X6.M f g Q *.S.4X<.6.7.qXwXhXSXHXPXJXHXJXPXJXHXMXhX;X7.6.l.c.5.Q W g M *.~ n r r 5 +             . . . * # * * = y y y 0 0 i i 0 7 7 0 i i 0 < ; i i ; ; ; ; = ; y y 0 p f b b f V M ! n f q q q 9 9 9 8 = 4 $ $ + $ 4 5 4 8 9 8 9 8 9 9 9 9 f ~ W g R Q 5.5.=.R 5 5 9 9 f 9 @ 8 9 8 & + . . + + * & $ & 9 u 9 0 0 0 ; ; ; ; ; % - ; ; ; % # # - ; ; ; ; ; ; - ; y 1 1 y y y 1 ; - - - % - # % < % ; # ; - % o o % o o o . o o . . . . .     p B _ N.F.i.G.N.i.q.u.$.B 9.u.r.f.B &.u.R.!.r.C N %.&.K o.2.r.I D - ; #   ; z %.#.o.%.9.K K B K K #.r.s.%.%.B o.",
"&.s.C N K o.o.$.&.o.B b 0 R.p.!.%X).).).s.&.o.o.o.! @.u._.%XzX$XR.f.Y.p.%.r.s.u.%.o.0 r.d.%.H K K o.%.%.2.#.K J c ; ; ; - ; # o     . . . . . . .     . . . . o o # # # o . X . # o # # # - ; ; ; ; ; y ; ; ; : ; ; = ; ; ; ; ; $ # # % ; ; ; ; ; # % # X X . . . . . + + . . . + + + 5 5 $ * & * & 9 R R U Q n g 9 g ~ g R f f & & & $ $ & * * & * . . * ; ; y y c p c c a = ; < 0 & + * & . . * * . . . % y y y < y y % # ; % . . . . + + $ @ $ & & 8 0 = $ $ ; * + + + . .   . . . . * g *.S.;X1XS.*.| | W ~ S.K.>.Q 5.-XhXAXHXSXHXSXMXNXSXHXHXwXqX9Xc.l.l.l.;.W g g W *./ R g g 8 +         . . . o % % ; ; % $ = 0 i i 0 0 i 0 0 0 = = y y ; % ; < ; $ % = = ; ; y y y f V V V m f f f f q q p 9 9 8 4 & $ @ $ $ $ 5 5 5 8 9 9 9 9 9 9 9 f n ~ Q M g ..5.=.5.Q 9 6 9 9 d 8 $ u u 5 * . . . + * * * $ 8 u 9 = = 8 = ; ; ; ; 1 ; ; ; ; ; ; % # ; ; y 1 ; ; - # - 1 ; ; y y y y ; - - - - # # o ; ; ; # % % # % # o o % . . . . . . o . .     i B @.F.G.m.G.i.i.+.$.o.V B B 7 z 0 b o.f.p.o.o.+.B +.&.&.R.(.L i o o o X - c G #.K K C N B N N N B N o.%.&.o.&.",
"o.K N V b +.H o.&.o.&.= +.s.%.o.r.f.).(.s.%.u.%.o.V V V +.f._._.!.(.(.R.f.R.f.d.%.B $ o.o.N z z H &.2.%.o.B N m v ; ; < 1 - # o           . . .   . . . o . X o o o o # o . . . # # - - ; ; ; ; y 1 : y y y y : ; ; # $ ; ; ; ; ; - # % ; ; = ; ; % % # # + . . . + + . . . . . . . . * & * * & & * 8 g | Q R R f e r ~ ~ ~ W f 9 u 9 5 $ 5 5 * $ $ * + . * = ; i c p 8 i x y & & & *     . . . * ; % + ; ; y i i i y ; % & ; % .   . + @ @ & & & & 5 0 0 & $ & = $ # * $ . . . . $ + + 8 W *.Z.1X<X=X8.8.:.Q W ;.5.~ Q x.H.qXmXAXMXMXmXgXhXhXSXSXmXgXqX:Xl.x.l.~ n f 8 9 g Q / R n 8 * . . . .   . o # % % ; ; ; ; 0 i p s c 0 8 9 u 8 $ & 0 y ; # ; 0 ; % % $ % % & 8 8 & 0 p p p f q 7 q b V b f f 0 8 & @ + + & 5 & & 8 5 9 9 r f r 9 9 f n W Q W W R 6.5.' ' g 9 9 9 9 9 5 & 8 8 $ + . + $ 5 @ . * 8 f f 8 = = = ; - % ; ; 1 ; ; ; ; ; ; ; ; : y y y 1 : ; # ; : ; ; ; 1 y y y ; ; ; ; - # # # % % % % % % % % # o . . . o . . . . .       z o._ i.G.m.m.q.q.@.o.o.B +.&.+.u.&.u.&.B &.r.r.o.o.+.s.R.}.Y.t.x # . # 1 x m ; 0 7 # q z z z C N B K K o.+.C o.",
"B B N N b N N N B K z o.s.$.&.o.%.s.R.p.f.).R.p.o.) O.@.i.!.g.p.r.2.R.u.s.p.p.d.p.f.p 2.o.o.B 2.f.s.s.%.r.2.K G c < < < < < % #             . . . . . . o o o o o % # o o . . o # # - - ; ; ; < y y : : : y y 0 ; ; # # ; ; ; ; ; ; % % ; ; ; ; # # % % # # + X . + X   . . . . . . . X * * & 5 & & * u | ..~ ..Q h e R / *.*.M 9 f g f 5 & 5 + + + + + * $ = = y i s 0 5 0 a p < & * @ + + * % * ; 1 i i % ; i a y 0 0 z z y ; 8 $ * 9 9 9 5 8 0 0 0 9 7 $ $ & = $ + * + . . . . * * 8 M *.n.K.wX4X<.! :.*.R ..8.;.h =.Z.4XMX9XhXgXwX0X4X4XqXhXwXwX9X-X:X~ ~ R g n n r 9 9 R ;.` g 9 5 + . * .     . . # % ; ; # = 0 p p p b p 8 5 8 0 8 0 p i = = 0 0 ; ; ; ; % % $ = ; % & = = = $ & 8 q b W V b f 0 8 $ + + + @ 5 8 8 9 9 9 9 f f 9 9 9 g Q Q R R Q / l.7.7.Q e u j d 9 9 & 5 & $ + . . * 5 & + . & 9 u 0 = = ; = ; - # - ; ; ; % ; ; ; ; 1 y i y y y 1 y ; ; y 1 ; ; ; ; 1 1 y 1 < ; ; ; % ; # ; ; < ; ; % o # . % . . o o . . . . . .     z N -.q.m.G._ i.w.q.+.f.p.o.$.u.(.u.9.).u.s.s.&.&.b o.K %.r.s.I P 1 - x # i z L #.&.o.B b 7 q K b K K K o.K b B ",
"%.o.o.o.B b b N b p 0 u.H B &.o.&.&.p._.%XvX+XR.q.&.D.J.F.D.f.2.%.K %.2.p.s.2.f.!.).H o.K r.%.f.f.s.&.r.d.p.L G c ; ; ; ; < ; -       .   . . . o X o o o o X o o o o . . X o # # % # # # - ; ; ; ; ; ; ; ; ; ; ; ; ; ; ; ; ; ; ; ; ; ; ; ; - - # # - # # % # + . + .   . . .   . . . . . * @ $ $ & & & W ..~ ..=.>.g f Q >.>.~ f 9 d u 5 + * . + + . . & 8 & = ; y 0 p 0 = 8 i y $ $ & 8 0 ; ; & ; < y y y i i i i ; 0 p 0 8 9 u 8 @ @ 5 9 & & & 8 8 5 & 8 7 0 7 = + # + . . . + & 8 u W <.S.4XwXS.~ W >.<.*.| *.Q f ! l.wXwX=X-XqX9XgXwX-XwXgX0X=XC.l.;.f f n M W R Q g r R =.;.R f f 8 9 9 &     . X # # * $ # % 0 p z b N N b p u u p p c c c s y 0 ; < < ; ; % # % ; ; ; $ * $ * * & 7 9 f f f 7 4 & $ @ * * $ & & 8 f f u 9 f f u 8 f ! ~ Q R Q ..;.7.x.x.R 9 f R f u 5 & 5 $ + . . + $ & * . * 5 0 u y 8 0 ; ; - ; ; ; ; ; ; ; 1 y ; ; ; ; ; ; ; ; ; ; ; y y ; ; ; ; ; ; ; ; ; ; ; ; % ; ; 1 ; - ; - % % o # o # . X X o . . . . .       z B ,.@.-.G.-.i.q.q.&.u.s.B s.p.s.r.R.%.d.f.u.r.B b z N N #.1.%.x i % ; # # ; 0 #.K s.B o.K K b N B K K K K m o.",
"%.%.o.C N #.o.N b b z K +.&.&.$.&.%.&.f.OX).).h.f.D._.G.'.~.+X!.s.2.s.s.r.s.%.u.p.s.o.B 2.H &.%.p.&.%.2.&.2.#.m i ; - ; < ; % % . o X o . . . . % < - o X o X o # o o o o o # # % ; - % # # # % ; ; # ; ; ; ; ; ; y ; ; ; ; ; ; = ; ; ; ; ; % % # # ; ; % * # + X . .   . . .     . . . . . * * + * * * 9 Q Q | ..>.| d R *.6.;.~ g f d 5 $ + . . + + . + 8 & $ $ = 8 9 8 & & $ & $ $ & y i y i y = ; < y i i i i y ; i 0 0 9 0 8 $ 4 8 5 * @ & 8 7 9 & & 0 7 & $ $ + + . . . + 8 f f f ~ <.<XhX4Xl.! *.;.l.6.6.>...9 ! =XZ.C.x.H.-X4XhXMXwX9XwX;Xz.x.x.*.q f R ~ *.W n g r R ` l.=.Q W n j f 8 .     . # # * $ ; = 7 q q q p m m H H m m b m G G c i 0 0 < ; ; ; ; ; = = = % * * * $ $ $ $ $ & 5 8 & $ & $ & & $ $ $ & 8 j n f 9 f f u d W *.*.~ ~ ~ 6.5.5.Z.;.f 9 f M d f 8 5 $ * + . . * @ * + . $ 5 8 u u p 0 ; - % ; ; ; ; ; y y y i y ; ; ; ; ; ; ; ; - ; : ; ; ; ; ; ; ; ; - ; ; - ; ; y i y ; # ; % % # # o X o . % . o . .     . .     0 V -.-.G.J.J.i.a.q.$.&.f.+.%.f.u.&.o.r.o.s.$.&.&.o.o.%.o.#.1.L x ; o #   - ; 0 = N z b B &.o.b q B C K C B o.+.",
"o.B N B o.r.%.H B q N +.f.f.R.s.r.%.+.r.r.p.u.R._.).^.D.eXiX$X(.R.%.d.r.&.&.2.2.K o.B z K %.s.s.%.r.r.#.H K %.m a % ; % - - % # o . . . . . . X o % o . X o o o o o o # # % o . X . # % # # # # # # # % # # ; ; = ; 0 ; ; ; ; ; ; ; ; ; ; ; ; ; % % % # % # # + + X .   . . .       . . . . . + + + + + & d R Q Q ~ ~ U R >.<.;.=.Q M g 9 5 $ . . + + + + $ $ & + & 8 9 8 8 8 % & & & $ & y y y 8 & ; < y y y 8 $ = y y 8 8 9 q 4 q q 8 4 $ & $ & 8 & @ $ 8 8 & $ + . . .   . * f j 9 g *.n.qXgX=X>.*.*.>.<...6.1X6.9 <.=X5.=.l.-X0X0XhXHXMXgXqX,XH.x.x.~ 8 n ` n W *.~ Q r Q >.C.5.g R W n f 8 * . . . + % = $ $ 8 0 p z p b b N o.#.H H N m m m c s p i y ; ; % % $ $ # % $ # + * * $ $ + + $ & & $ $ % % & & & $ & 5 8 j j u 9 f j f R *.;.;.>.*./ 7.7.C.7.f 9 9 f f f d 8 & + * * + + * + + * * & 5 8 y p y = ; # # ; - - - ; ; ; 1 y 1 : ; y y y ; ; ; - ; : 1 1 ; ; ; ; ; ; ; ; ; ; ; ; < ; ; % - # % # # # % o o . o . o . .     .       0 q ! q.G.F.m.N.i.f.$.+.&.%.r.r.%.r.K B H o.o.%.s.s.R.p.2.K K L v - o .   X ; c z K B z 7 0 N z B o.K K K o.K o.",
"%.B f.R.OXp.o.o.b q K %.u.s.p.p.&.r.&.r.u.s.u.&.!.#X#X.XiX#X#X(.R.1.#.#.o.%.&.K o.%.z b r.Y.R.&.&.&.2.H &.B H c ; % # o - ; % # - .       . . X X . . . X o . . X . . o # - ; o . . . . X # # # # # # # # ; ; ; ; ; ; 0 y 0 0 : 0 ; ; ; ; ; ; ; ; # # # # # # + + . . .   . .     .   .   . . . X . . * * & d g R ~ ../ / <.k.n.;.~ R g f 9 8 @ + @ 5 @ . + $ $ * & 8 r u 8 & $ 8 8 0 & & 8 8 ; = % 8 i y 0 y y % $ 0 0 $ $ 7 r 8 q 9 8 9 + @ * + & 9 q 9 8 8 8 $ $ + . . . + $ 9 f g ~ C.4XqX1X;XH.6.<.<.~ ..A.=X;.9 ..x.l.6.C.qXMXhXMXSXMXgXgXqXH.z.;.n 5 j ~ g f *.*.! n Q >.K.6.U ..6.*.W f $ . . . + $ $ = = q b m N H H N p N H H H N b b m m c s i y ; = ; = # * * $ = $ * $ & & $ * $ & 8 8 & $ $ & & & & & 8 8 8 8 f f f n Q ! *.6.6.;.>.~ ;.x.x.Z.*.9 8 9 9 f u 8 & * + * * $ * * . * & 5 8 8 8 y y ; $ % # # % # - - ; ; - ; ; ; 1 y : y 1 ; ; - ; 1 y i y y ; ; ; ; ; ; ; - - ; ; 1 < ; ; # # o o # o X o . . X . . . X .           i N -.F.m.'.e.i.i.&.$.$.+.&.K %.o.K B B K o.+.&.s.r.r.%.K G K L J 1 ; o   o ; m K %.&.s.K b K +.K %.o.9.o.o.%.o.",
"K %.B K +.&.+.&.&.B %.+.&.s.p.r.%.&.&.2.r.p.p.p.).#XCXpXlX@X@Xu.R.K z N o.%.r.&.p.p.s.z r.p.Y.f.#.%.K r.d.K K p 1 - % # % < ; - - o . . . . . .   . . . . . . . o . X o # - ; % # . . . o # # # # # # % % % - # % ; ; ; ; ; 0 ; 0 ; ; ; ; ; ; ; ; # # # o # X X . . . . . . .     . .     . . . . + + & & & 8 d U ..6.6.k.k.k.C.n.*.~ R g R R e 6 @ 9 4 @ + * & & u f f 9 8 & $ 8 8 8 5 5 & & = = 8 y 0 5 & ; ; % * ; ; 0 8 7 4 & 9 8 9 8 + + + & q q 7 8 $ + * $ $ $ . . + & 8 f ~ -.C.4X4X4X4X1XA.S.C.6.*.| S.H./ e ~ >.*.;.Z.0XwX4X0XwXhXwXwX4XH.6.*.f & R ;.W f ~ *.R *.Q ..K.S.7.6.S.5.=.R 8 + . + * * + $ 0 p b N B B H H N f V H J N b N H m c c i & $ = ; % * $ * $ = $ * & 8 5 & & 5 8 9 9 8 & $ & & & 8 9 f 9 8 8 f g n ~ *.>.6.l.5.=.=.5.Z.H.Z.x.~ 9 9 9 f u 8 * * * * * $ 5 $ + + & 5 8 8 8 8 0 = % # # # # # # # # # # # % ; ; ; ; - ; ; - % # - ; 1 y y y ; ; ; ; ; ; ; ; - % ; ; ; ; ; o # # . X o . . . . o . o o . o X .       N B m.~.a.G.D.q.a.&.o.o.o.o.N B N b H B B o.o.%.r.r.H b B H %.L S i % %   1 I R.L N o.r.(.p.f.p.%.o.o.&.o.%.o.K ",
"N K N z N B %.d.f.!.o.o.b B K &.$.%.%.%.s.p.f.f.).#X_.@X_.).f.%.K p m H #.o.&.&.%.s.!.B K %.s.R.d.p.r.K m N H G v < y i 1 - # # . o o o . . . .         . . . . o o # o o # - - i i i < - # # # # # # # # # # # # ; ; ; ; ; 0 ; ; ; = = ; ; ; ; # # # # . . . . . .       . .       .     . . . . * * & * & 8 5 g =.n.K.S.S.6.;.l.6...R g ~ ~ E R 4 r g 4 @ & 5 5 g g M 9 f 8 = u q 5 5 & 8 & $ & = 0 0 4 & $ * * # # ; ; = $ $ 7 7 & & * . + + $ 8 8 7 8 $ + + $ * + . . * u f *.C.K.0XhX9X9X9XK.C.4X=X6.` =.:X-Xl.n *.*.O.>.6.k.k.*.*.6.C.M.k.6.<.l.k.W 8 R ~ R f M ~ Q / Q ~ l.=X1X4X;XH.S.6.W & + # $ $ $ & q p p f r r V o.B V B H H B N B B b p c c 0 $ = = & & 5 & $ $ $ & & 8 8 8 & 8 9 9 9 8 5 & 5 8 8 u f n g u f M W ~ =.6.6.l.z.*.=.5.C.1X1XZ.*.f 5 9 5 8 5 & + + & & $ & 5 $ + * & 5 u y 8 y 8 % # # # # # # # o X . X o # # # # # # # % ; ; ; ; ; ; 1 1 y ; - - ; ; ; 1 < ; % % % % % % o # # o X X o . . . X X o o . . . .       z q.-.~.-.e._ w.i.@.o.o.o.K b N z b N N z B K K &.o.o.o.o.%.%.J x < % o   ; z z = $ = q 0 N o.o.&.o.+.&.r.o.o.K ",
"o.%.&.b K m K s.f.!.!.$.z z p z K %.o.o.%.r.%.&.!..X@X.Xa.p.K N m m %.u.d.r.%.%.p.r.Y.r.z z %.f.f.f.%.B B m m G i ; < 1 i - X .   . . . o . . .   . . . X o % % o . . . . o % - i c a i y ; X o # # # # . # # # # % ; ; ; = ; ; ; ; ; ; ; ; ; # # # # # # # # # X . . . . . . . . . . . . .   . . * * & & * 8 u d =.C.K.K.n.=.( ( 6.6.>.Q ../ ^ / t R ^ U e 9 8 5 R ~ ~ n g f f f f 9 8 5 & 8 5 9 u f 9 8 & & * o o # $ % $ & 8 9 7 = = $ $ $ $ $ $ 7 8 4 * + * * * + . * 8 W *.k.=X0XhX0XK.=X-XH.=X=XA.6.~ ;.Z.qX6.~ *.~ n f e f u & * + * & 8 f M l.C.*.u Q / t r ~ *./ ` / / l.qX4X;X7.x.H.z.*.n & * + * & 4 7 q f b b r b V n B B M j N N H B f q p p 0 = 8 & 5 8 8 8 & $ & & 8 8 u 9 8 9 u u 9 u 9 8 u u f g R R R g Q / *.5.l.l.l.x.6.=.' 5.C.<XK.>.g 8 8 5 5 5 5 & + & 8 & $ $ & * . $ 5 5 y 8 ; 8 8 % % # # % # # # # o X . o # - - - ; i y y i i i 1 - - # ; ; ; ; ; - ; ; ; ; ; % % # # # % # # % # X o o . o . . . . . . . . .       i o.! q.e.'.m.^._.q.C V N b N N N N K N b B B B o.o.K %.&.r.K G y ; # .   ; z p z &.9.R.K z z %.r.&.&.$.&.o.K o.",
"%.&.&.K B b b m K %.u.f.!.s.r.p p b b N o.%.o.u._..XVXlXD.u.r.Y.r.2.2.r.s.%.o.%.K &.f.(.p N K u.f.f.f.r.%.%.N c ; ; < ; ; % o X         X o .     o o - ; ; 1 - # . . o - - o o - 1 1 y i y ; # . . . . . X # # # # # # ; ; ; = ; ; ; ; ; ; # # # # ; % # % % % # X X X X X . . . . . . .       . + * & * + + y u M b.J.C.l.5.;.6.5.` / 7.7.5.6.( U E E { ;.*.W d g W W | ! W n f f 9 8 8 8 9 j W W n g 9 5 $ * # # X . . * $ 5 5 $ # # = % # * $ $ & & $ + + + X . . . u *.<.C.C.4X0X0X4X9X=XH.=XgXgX=XS.k.l.qX4X;.*.*.R e & * * + . .       . $ u W ;...j *.>.Q g ~ *.>.k.l.' 5.Z.,X9X( / C.x.l.` n 8 + $ & 7 7 q 7 q r q f j j V V j n M B V b r q p p 0 8 8 8 8 u f u 8 5 8 8 8 0 f f j j j g g n g f j g W ~ ..*.~ R ` 5.x.H.Z.H.;XH.6.( ( 7.S.S.6.Q d 8 5 5 8 5 & + $ 9 8 $ + * * X + & 5 8 y 8 8 8 y ; ; ; ; ; ; % # % % # # - ; ; ; ; y i i c c c c x 1 - X # # = ; ; - % ; ; - # # # # o # # - # % % % - o X o . . . . . . . . . .     i o.-.@.m.m.F.^.N.O.$.o.B B B N %.&.o.K B B B N B H K %.%.#.H N i - # o   ; m s.OX%.s.u.r.B b o.%.9.r.&.9.o.o.%.",
"&.&.r.%.&.%.B B B o.K o.$.$.s.f.&.N B K o.&.%.!.!..XiX^.N.f..X+X!.R.u.r.s.&.2.o.o.o.r.!.R.N N o.r.R.R.&.s.2.%.G c 1 ; - - - o #             . .   . . . o . o o # # o # - - - # # o # % ; ; ; ; - # # # . . . # # # # # # ; = ; ; ; = ; ; # # # # # % # % % % # # + X X + + X X X . . . . . .   . . * & & * + + 8 u | b.6.l.6.*.=.;.] ( l.=XZ.7.5.*.( ( ( l.C.l.~ g ~ ~ ~ | *.` f 8 f f 9 9 f ! ~ ~ Q j 9 & * + X $ $ * . * & & $ $ + * % 0 0 ; % ; # $ * + + . . . . 5 >.<XK.C.=X4X4X=XwXwXH.H.9XgX4X;X-XH.S.-X;X..~ ;.Q 8 * * + .             + & f *.~ g ! ! f f R ;.>.S.K.5.` x.wXhX' E l.C.5.l.x.~ q 8 4 7 9 u 9 5 f M n g u b n M O.} V V b A b f f p i y 0 u j n j u 9 0 9 u u d f n n W Q W g g n M W >.n.A.K.6.` 5.l.H.=XH.;XK.n.*.( ( 7.l.n.*.h u 5 8 9 8 & + . * 5 & * + + + . + 5 5 8 8 8 ; ; ; < < 1 1 1 ; ; - - % % ; ; ; ; ; ; y : y i i i i i i y 1 ; ; # # % # # # % # # # # # o . % ; # % % % o o . . . . . . . . . . .       0 B ,.q.=.e.F.a.i.+.9.&.p.&.+.K H K o.&.+.B B N b N N K #.%.H H z ; # o   1 m L #.R.%.&.f.).r.o.o.o.&.%.%.o.%.$.",
"+.$.$.s.R.!.h.r.B H B N B N o.+.B b K u.r.r.s.R.&.~._.D._.@XkXzX%XR.2.%.#.%.u.&.r.&.&.%.f.s.z B N o.r.r.%.&.%.G c ; ; - - % o . .           . .                 o % # # o # ; < ; # . . . o o % 0 ; - # # . . # # # . . . # # ; ; ; ; ; ; # # % - ; % # - - % # # X X X X X X X X . . . . . + . . . . * & & * * & u h *.>.5.l.5.] ' ] 5.5.;X;XZ.x.8.x.7.7.5.;X=XZ.=.Q ~ ..*.*.*.*.n R n g n ~ ~ ! ! ~ n 9 @ . + * 8 8 $ + . $ $ * + # + * $ * # $ ; % * + + + .   + f n.4XwX4XK.K.4XqX=X>X=XC.l.wXmXhX4X-Xx.6.Z.6.~ ` ;.M & + .                 . + 8 ~ ~ f f f 9 9 R ` ;.6.Z.l.5.Z.9XhXx.l.l.6.5.5.l.l.*.R q 8 8 5 5 6 f M M B V V n V } B n M V b b b m b p y 0 u j n g f u 9 9 9 d 9 f g n W Q R g R ~ *.*.M.<XqX1XC.l.l.x.H.K.H.C.l.5.' E E / X.~ R f 5 5 9 5 & * + + * $ * + . . . . * 5 8 5 & & % % % ; ; < 1 < < 1 ; ; # - ; 1 ; - - ; ; ; ; ; ; ; ; y y i i i i ; # # # # # # # # # % # ; # ; - # o # o . . . . . . . X . o . X .       i %.q.q._ G.m.D.a.D.u.&.&.%.o.o.o.&.&.$.%.K b N B K B K K #.G K c ; # #   1 G L o.r.N N K o.H %.s.%.&.o.o.o.+.$.",
"r.r.&.&.9.s.9.&.+.N N N b K N o.p p B N B %.%.+.&.a.D.[.#XvXVXKXzX!.u.%.%.r.s.d.s.%.%.B %.s.p.N N p K N 2.r.K v i % % ; - % o . X .           X . .   .       . . . % % o o - ; ; - # o . . . # ; ; # # ; # ; ; ; ; # # # # # $ ; ; ; ; ; # # ; ; ; # # - - % % # # X X X . X . . X . + . . + .     . * & & * * * 5 d Q ~ / ;.l.l.;.` ' ( 7.;X=XZ.x.7.v.4XZ.;X-X-X=Xn.6.;.l.6.6.>.~ ^ Q M n ~ >.*.! g u 5 + . & 8 8 5 * . . $ * X . . . + & 5 $ $ * * * + + . . $ g M.gXwXqX<X1XZ.=X4X4X9X9XH.C.9XhXjX-Xz.~ *.| M ~ *.` 9 +                         * n ~ g 8 8 f n ~ 6.5.5.Z.-X4X9X>X4XH.;.=.` ( ] Z.:Xx.l.~ f 9 8 4 5 9 j M } M b f r b n b n V V b b b u 0 0 0 u M ! M f d 9 9 f f g f n n ~ *.~ Q / / ;.l.C.;X=X<XK.C.x.l.C.C.n.l.6./ E g t U g 9 5 @ & 5 5 & @ + @ & 5 5 * + + + + . * 5 5 5 & = * # # % % - ; ; < 1 < ; # ; 1 1 ; ; ; ; ; ; ; ; ; ; ; ; ; ; ; y y y ; # > ; ; ; ; % % ; - - # # # o # o o o % o . o . X . . . . . .       z &.q.F.F.oXF.[.D._.r.&.+.K K %.u.p.s.u.%.o.N B o.%.&.H H m H K x ; # o   < z K H %.%.z q $ $ b B o.K K o.%.&.s.",
"p.%.%.K b b b B B N B B b N N o.N 0 p b N N K N +.a.~.zXzXzXVXvX$XY.s.%.r.r.2.s.s.s.r.%.%.&.%.r.B z N m 2.#.K v i % - - - - # o # % . .       . % % < ; o     . . . # % o # # X . - ; % . . # # X X # y ; ; ; 0 p z y 0 ; % ; * ; ; ; ; $ # ; ; ; # # # - - % % % # # X X X X X . X + + + . X     . . . & & * * * & 5 f Q Q ..6.n.S.7.] ' Q 7.Z.K.v.7.7.wXdXwXqXZ.qXwX9X;X;X2Xn.8.<.~ ! ! | *.*.*.W f 8 $ . . & 8 0 8 & + . + + .   . . * & 5 5 5 * * * + . . 5 ~ k.4X4X4X=X1X1X-Xn.K.9XwXgX9X;XgXwX4XgXH.6.~ j 9 ! ;.! & .                       . * u Q ~ 8 8 f *.5.c.H.x.-X9XgXMX=X:X;X5.5.;.z.C.Z.H.;X:Xx.=.Q g 9 8 9 j V ! ! M V n f f f r f b n f u 0 8 8 0 f | >.*.~ g f f n n ~ | ~ | ;.n.C.l.l.l.C.l.C.=X4X1XH.Z.C.S.C.C.6.=.~ E E t d f 9 & + * & 5 & & * $ 5 9 f 9 & * * * + + @ 5 8 8 & % # o # . # # % ; ; ; ; ; ; y y ; ; ; 1 y ; ; ; ; ; # - ; ; ; ; ; ; ; - % ; ; ; ; < ; ; ; 1 ; # . o # o o o # % o . o o X . . . . . .       z $.w.^.eXG.F.F.a.D.9.9.&.r.K r.%.s.s.&.&.&.%.&.o.o.&.%.2.%.r.L x ; o .   % i N B B K m %.%.r.z B N B K o.%.p.!.",
"&.+.&.o.H q q N m o.o.N B K N b b z 0 b B N N N +.@.a.iXkX$XvXzX+XR.f.s.r.%.&.s.f.!.f.s.&.o.o.%.2.B K q B %.K G i ; ; ; - - o - . . . o o . .     . X o o . o o o . . . . . .     # # # o # ; - X % 0 c y ; # % ; 0 0 ; 0 ; 0 ; 0 ; ; ; ; % ; - # # # # % ; % # # # # X X X X X X + + + . . .     . + . * & @ * . + & 5 u M | *.6.l.l.6.=.E Q l.6.8.x.7.-XgXhXqX-XqXjXjXgXqXwXqX;XZ.k.;.>.| *.k.k.~ g u $ . * & 0 8 8 8 & + + $ + . + * % & 5 9 8 & * * * + 8 ~ x.4XqX1X4X4XjX=XH.k.C.-X>X=XH.gXHXMXqXqXqXC.~ f 9 ` ;.j % +                       . $ u W ~ 9 5 9 / l.c.;Xx.>X>X>XqXH.Z.=X>X>Xl.C.K.4X:X-XH.C.l.l.z.5.R r e n ~ ! ! ! M b b b f r b n f p 0 8 u u Q ;.l.<...Q n Q Q R *.6.l.l.C.K.-X4X-X=XH.K.K.1XL.C.l.l.l.l.6.;.6.;.( ^ E R f 5 & * . * & & @ @ * & 8 f R f & * @ $ * * & 5 8 8 % % # # o X % % - ; ; ; ; ; ; ; 1 ; ; ; 1 y : % > # # ; - ; ; ; ; ; - ; ; ; ; ; % ; ; % ; ; < ; % # . # o o o o o o . % o . . .   . . .       p o.@.^.pX'.m.m.,.i.&.9.u.s.&.r.+.%.&.&.&.r.&.&.o.%.%.s.T.T.t.1.x 1 # .   - ; N K L %.r.OXr.r.R.$.o.%.%.%.o.&.&.",
"o.B K o.o.z z z q z N N K o.B N q B N z q 0 z &.p.&.q.)._.).$X%XR.r.&.K &.&.o.2.r.s.p.s.r.r.2.&.d.Y.%.#.o.%.#.L v ; ; ; ; ; % o .   . o % o .           . % - - % o . . . . . . . . . % - ; - o # ; y ; ; ; # o . . X % ; ; ; 0 ; ; ; ; % ; - # # # # # - - - - % % # # X o X . . X # + X . . .   . + X + $ * + . . + * & 9 n ..*.;.>.=.5.;./ *...~ 5.l.>X-X4XqX4XqXjXjXgXgXjXgX2X4X4XK.n.<.;.;.k.>.^ g & . * & 8 u 8 8 & & & * * $ 5 8 9 9 9 9 9 5 $ & 9 9 g *.H.wXwX3X4X8XhXhXK.l.=XgXv.;.H.HXHXJXNXgXgXl.Q f ~ *.~ f 8 *                         $ u f M f 5 5 R 5.;X=X;X;Xx.x.H.H.;XwXgX4Xl.S.;X4X4X-X-Xc.c.7.x.:XI.7./ ! Q / ~ ! R n V V b f f f p u p f M ~ =.l.C.S.6.=.*.=.' / =.C.;X;X=X-X-X=X;XC.H.H.C.l.6.6.=.^ ~ ..5.l.n.n.*.R Y h 9 * + + + * & @ * + * $ 5 f R d 5 & & @ + + * & 8 8 ; ; ; ; < ; < 1 1 1 1 ; ; ; ; ; ; ; ; ; ; ; ; - - # ; ; - ; ; - ; ; ; y y ; ; ; ; - # % ; ; ; ; ; % % # % o o . . o o o . . . . . .   .       i N @.~.'.G.m.F.a.i.%.$.9.r.%.o.B o.+.&.&.&.&.o.K %.r.r.Y.1.3.L i ; # o   < i N K r.h.h.p.r.$.p.K K &.r.&.o.%.K ",
"u.o.K B B H K b q 0 z N b o.%.%.o.K K b m N o.o.&.u.u.a.N.,.%X(.%.K H B #.%.o.&.&.o.&.u.p.p.p.d.(.).(.r.H r.#.J v < 1 ; 1 ; o . o o o . . . .   .     . % o % o o . o # . . . # # o o ; - ; ; ; y i ; ; # 0 ; ; % % ; = ; ; ; # $ ; ; # # # - # # ; ; ; ; - - ; - # # % # o . . # o X + X + + .     . . . + . . . . . . & 9 u R ~ ~ ~ *.6.C.7.*.<.| *.>.7.c.;X-X;XgX;X-X,X,X,XNXjXjXMXgX4XJ.M.b.6.x.l.*.f 5 % 8 8 8 u 5 $ & & & & 8 f f 9 7 8 8 9 9 R / n g ( 7.=XhXAXuX1X<XhXHXmX=XqXhX:XI.gXMXHXJXMXNXqXz.n f ` n 8 9 5 .                         . & 8 u f 9 9 f Q Z.9X;X5.;.z.;X-X-XjXMXjX4XS.-XhXgX4XqXI.l.] { >XqX-Xc.x.5.=.=.` =.6.>.| M b f u f M ! *.6.x.H.K.;X=XK.C.x.x.c.l.C.4X-X;XH.C.C.x.C.C.H.C.7.( / / ! g U ..6.6.;.>.~ Y g d @ + + * * @ 5 & + + @ @ & u f 9 9 5 & * + * $ 8 8 0 ; ; < i x x i < ; 1 1 ; - ; ; ; ; ; ; ; ; ; ; - ; # ; - # # # # ; ; ; : y y ; ; ; ; ; ; ; - % - ; # # # % o # X X o o o . . o . . .   . .     y q m.^._ m.i.'.f.p.9.%.%.&.o.+.H N o.B $.%.r.o.o.o.2.s.T.%.1.J c % - o   ; m L r.%.r.s.%.$.&.r.r.&.r.&.r.o.&.&.",
"h.u.o.B o.%.&.m b q H K o.%.&.%.u.p.p.K o.B %.o.$.q.q.D.f.).+X(.u.%.&.%.&.&.r.&.&.%.&.u.&.r.p.u.f.d.&.B K #.K m i ; < ; ; - o X - % X         . . o o - % o o . . . % - .   . # - # # o # o - i c z 0 p c c 0 i y y y % ; ; # # $ ; % ; # % ; # # ; ; ; ; % % - % # # o o o o # % o o + X + + + .   . . . .   . . . . . * & 9 5 d M 9 W >.7.7./ 6.n.n.A.x.;X=X;XZ.;XZ.;X,XgXgXgXMXSXJXHXAXdX3X4XC.H.H.C.-.j 0 8 8 8 8 8 & 8 8 j M M | ~ f 5 4 9 R 5.-X:X:X:Xx.7.x.wXSXAXdX8X0XAXSXqX4XwX9XqXgXgXMXSXNX9XH.~ g n ! 9 & 5 *                           . & & 8 9 9 8 r ` Z.-Xx./ ` =.z.x.C.qXjXjXgXqXqXjXjX9X-X:XI.z.x.-XqX,X,X,X-X:Xc.6.5.l.S.6.*.! ! n | <.6.l.;X>X4X>X>X4X4X=XZ.H.H.z.H.=XC.l.6.z.M.x.x.A.C.6.*.Q Q n R R Q *./ ~ Q g f d 9 & + + @ @ + * @ $ + * 4 8 9 u u 5 9 5 & $ * * & 8 8 ; ; ; ; ; ; < ; - % % % ; ; ; y ; ; ; ; ; ; ; - ; ; # ; ; ; ; ; ; ; ; ; ; ; y y y 1 ; ; - ; - # # # ; # X # # # # # # # X o . .         O .     z N a.^.'.D.D.N.a.$.+.&.$.$.%.&.B o.$.K o.o.$.K &.o.K &.1.r.L m c ; % .   < J #.r.s.o.&.s.H o.N K %.r.%.s.o.&.p.",
"p.!.f.f.f.2.K N &.K s.p.u.r.&.o.&.s.s.B N N K K o.&.D..X#X%X+X_.p.2.&.u.r.s.d.&.%.&.r.2.r.&.o.r.%.%.H b m N m c i ; 1 ; - ; o # .         . . . . o X o . . . . o o o % o . X # ; < ; - # . # ; y i y y y ; ; y y y 0 ; = ; = ; $ > ; ; ; ; ; # # ; % % % # # % % # # # # - ; ; % # # X . + + + . . . . .     . . . . . + $ u 9 & f 9 d ~ 6.7./ ' I.' c.:X-XqXwX4XH.l.:X,X,X9XhXSXHXHXHXmXhXwXwX4X,X>X4X=XM.| n f 9 0 u j W ! *.;.n.l.<.*.~ ~ 6.K.,XgX,X:X:X5.] ( =XAXSXhX0XuXAXAXgXwXwX,X9X>XwXNXMXMXqXx.W ~ ~ g f 8 *                               * & 8 9 9 & 9 ~ l.c.5.` / Q / 5.>.,XMXjX0X4X4XqXqXqXqX,X;Xc.I.,X-X-X,X,X9X,X-X;Xl.5.x.6.=.;.*.*.C.=XZ.H.4XwX9X9XqX9X9X=XZ.I.;Xv.;XH.x.k.=.5.l.l.l.l.6.>...~ ~ / ( E ( Q g d 9 9 5 & @ + * * * + + + + * + $ 8 r n j 8 & 5 & & & & * & 8 ; % ; % # % % - % # o # % ; 1 i i ; ; ; ; ; ; - # # ; - ; 1 y i y ; ; ; ; ; ; ; y ; < ; 1 ; ; ; ; % # - % . # % ; # X # o . . .           . .     i o.N.N.'.F.e.m.i.q.&.$.9.&.%.K B z b B K o.o.o.r.&.H H G #.2.L c % % #   < v K r.#.o.&.%.f.2.%.K r.r.u.s.o.u.p.",
"p.p.+X$X).&.&.f.).p.p.s.&.K o.K &.2.r.&.B %.o.N b i.[.#X$XtX+Xf.f.r.2.%.r.&.%.#.%.%.&.%.&.%.&.2.K 2.r.m N N N m y - ; ; % # % #       . o % - % % % o . . . % % o . . . . o < 1 ; 1 < y < ; ; y y : 0 ; ; ; ; y 0 ; = = 0 ; ; ; ; ; ; ; ; ; ; # # % % % # # # # # % o # # - % # o # o o X X X + . + . .     . . . + * + . . & 6 5 u 8 5 f W / E *.5.{ { wXhXgXgXwXdXZ.:X:X-X-X9XNXSXSXMXMXwXhXmXdX4X9X,X9X>XP.M.k.;.~ ~ ;.J.K.H.z.C.=Xl.x.Z.K.4XgXjXgX,X:XH.4X=Xx.9XZXSXAXhXSXAXwXwX4XqX-XqX-X-XjXMXMXqX7.W ....f f & .                               . & & 8 8 & 9 ! ` ` / ^ Q Q ~ ;.*.x.-X2XC.K.K.9X;X;X:XZ.:X:X,X>XH.c.c.-X,XjXgXqXqX-X4X=XZ.l.;.l.-X,XH.x.;XqXqXqX4X,X=XC.z.c.c.c.H.c.x.5.=./ / ..*.>.6.6.*.5.5.' Q Q U d 9 5 5 & $ & + + + + . + + + + + * & 5 f  .h 5 & & & 5 5 5 * % 8 = % ; % % # % - % % % % ; ; ; 1 y ; ; ; ; ; ; ; - ; ; ; ; < ; y ; ; ; ; ; ; ; ; ; ; ; ; ; < ; ; ; # # % % X o % % % . o . . o o . . . . . .       ; o.q.N.m.m.a.i.@.$.&.&.o.o.o.B B N K b K B K o.&.&.%.K K s.r.1.G i 1 -   < l K #.%.%.d.p.&.R.r.s.9.9.&.s.%.r.u.",
"s.r.h.!.f.&.s.2.r.o.r.%.o.B K %.%.u.%.r.K K B +.B ~.N.XX).+X+Xf.r.&.%.%.#.%.o.&.&.&.%.&.o.K %.%.K %.&.H b N H z : - - ; ; ; o # .     . o - < . X . . . . . % o o . .     . - - # # % - ; ; ; ; ; ; ; ; ; 0 0 0 0 ; ; ; ; ; ; = ; ; ; ; ; ; = - # # % # % - ; ; - # # # # # # # # # # o X X + X . + .       . + * & * + .   . * & 5 5 & 5 9 f U U ( ( ( :XmXhXgXhXhXMXgXwX,XqX>X,XjXAXMXAXAXwXhXZXsX9X,X>X;XL.-XK.A.L.Z.K.hXwXA.x.H.=X-X,X9X-X-X;X-XmXZXhX4X<XA.M.9XhXmXMXmXMXMXjX4XK.=X,XC.v.:XgXwX,XC.*.j M M j 8 +                                   + % 5 8 & 8 n R R ~ Q n M ..~ W Q ~ >.z.=X-X=X=X=XZ.Z.Z.I.;XH.c.l.x.Z.-XgXjXgXjXgXjXHXgXl.z.9XgX9XH.C.;X4XqXqXqX=XZ.l.' l.c.l.5.5.;.*.` Q R ~ =.7.C.C.x.7.X./ ..R 9 5 5 & & @ 5 5 + . . . + + + @ + + $ & 5 j M u & & & 5 9 5 & * * & ; % ; - ; ; ; ; ; ; ; ; ; ; ; ; ; ; - # - - ; ; 1 i c i y y ; ; - ; ; % ; ; ; ; ; # % % ; ; ; ; - # % # % o . % % % # o . . o o o . .             p &.q.q.@.G.! _ V +.+.B N %.K o.%.b B b B o.%.K o.$.#.K p.t.r.1.v 1 - -   1 c K K #.#.s.&.s.f.p.r.&.&.&.2.&.9.&.",
"&.$.r.%.H K s.&.s.&.&.N H H +.%.&.u.u.p.r.o.&.&.!._.$XtX+X+X$Xp.(.u.r.u.&.&.%.d.o.%.&.&.&.%.r.&.r.&.&.o.m N m c i - % ; - - o # < % o o o % %         . . . X o o o X o o o X . . . ; ; ; 1 ; ; ; ; ; ; 0 ; ; = ; ; ; ; ; ; ; ; $ ; $ ; ; % # # # # - - % ; ; ; ; - # % # # # # # # # # o X + . . . . .       * 5 5 * + + .   . + $ * @ & & 5 f d e 9 f ~ K.wXhXmXmXAXMXAXAXwXwXgXjXqX>XdXAXwX3XhXsX=XI.Z.=XL.4X=X4X1X-X4XdXmXwXL.-X9X9XgXwX-XZ.v.:XqXSXSX0Xl.n.K.4XmXMXgX0X9XgX0Xk.l.Z.l.7.5.:X,X;XH.x.n n >.! u &                                       $ 8 5 & & f Q ..W n f f f f n ~ <.n.=X4X4XZ.4XqXH.l.l.l.Z.x.7.l.l.l.:XwXgXgXNXgXMXHXgXc.=XmXMXhX9X9XwXhXgX0X4X4X=Xx.=.l.Z.6./ ~ ~ ~ ;./ *.;.5.l.C.Z.x.' E Y g 6 & & & @ * & 5 + . . + * $ $ @ @ . . + * & u u * * 5 8 9 8 5 & * * % ; % - - ; ; < < ; < ; ; ; ; ; ; ; ; - ; ; ; ; ; 1 y i i y ; % # # - # # # % ; ; - # # # ; ; ; ; ; ; ; % o % . % # # # o o o . . . . . .           z $.w.i.-.-.A A V o.b b N o.o.%.&.o.&.r.&.&.u.&.s.&.2.2.r.r.t.1.D i ; %   < G N K %.%.r.&.&.r.%.r.s.&.2.r.$.o.+.",
"r.s.s.s.&.2.d.R.).f.f.s.%.o.B r.2.d.!.}.!.s.$.&.u.).kX$X$X%X+X/.}.u.2.&.r.#.&.o.H o.%.%.s.s.u.p.u.p.s.&.K m N c y - % % o - X o - % # o o X         . X . . O X . . o % - # X     o ; ; 1 1 ; ; i y y ; 0 ; ; ; ; ; ; ; = ; ; ; ; ; ; ; ; % % # % - - ; % % % ; ; ; ; ; # % % # % % # X o o X + X . + .   . . X & & + @ $ & + + . + * @ * & 5 8 9 7 4 7 r Q k.3XwXhXhXMXAXHXSXmXMXgXqX-XqXhXhX7XhXaXK.H.4XH.0XwXhXqX9X>X4X9XhXmXhXwXwX,X9X9X-X:X:X:XwXJXFXdX4XH.;XgXNXhX9XqXwX1X6.O.*.>./ R ' v.:XZ.-Xl.u M *.n 8 .                                       + 8 u 8 + 9 Q | Q f 8 8 e R 6.n.=XH.=X9XMXgX-X>Xl.;.=.;.x.l.x.:Xx.7.-XMXjXgXgXgXjXNX9X,X9XmXSXAXjXhXmXhXhXwX0XdX0XH.l.5.l.=./ *.=.5.C.l.n.l.l.x.x.7...g d 9 5 & @ @ * * * @ + . + * $ & & 5 & * . . . $ 5 $ + . + 5 f u 8 5 & * % ; % % % % % % ; ; ; ; ; ; ; ; 1 y 1 < 1 y y 1 ; - ; ; ; ; ; ; # o # # # # # # ; y ; ; % # # # % - % % - - ; - . % % # % % . o . . . . . .     .     i 9.N.a.m.w._ A ) N B &.+.&.o.N &.$.Y.Y.f.s.r.r.p.p.r.#.#.%.K L x - # .   ; m H o.r.r.s.&.%.r.B &.%.&.%.%.&.&.&.",
"s.p.p.p.!.f.p.2.p.p.p.s.s.2.%.%.d.r.d.d.R.%.+.+.+.+X$X$X+X+X%X).).p.o.%.%.%.%.o.K r.&.%.#.r.%.s.&.#.&.H H m N m i # - - # - # o % % - % .           . o o X o X . . o % - # o . . . o ; ; ; ; ; i i i 0 0 ; ; ; = ; ; ; ; ; ; = ; ; ; ; ; ; ; % ; ; - % # # - ; ; ; ; ; % % # # % # o o o o o # + . . . . + . . + * + $ 5 9 $ * + + + + . . . * 5 5 & 8 8 8 f *.].uXsXhXSXSXSXSXAXSXhXwXwXhXhXhXdXdX4X9XhXL.wXSXMXhXmXHXMXjXwXwXjXwX-XZ.-XC.Z.4XwX;X=XFXAXmX4XH.H.,XMXHXSXHXHXAXqXA.;./ Q Q ' 5.7.:X:X/ 9 ~ 6.W &                                         . & f 9 * 8 M M g g 9 j ;.l.H.C.;Xx.-XqXqXqX9X;X;.6.<.*.;.;.z.5.` ` H.wXqX-X-X>XqXqX9X9XgXMXSXMXjXhXwXqXqXwXZXZXwX=Xx.l.5.5.5.5.5.l.;XH.K.x.5.7.` ~ h 8 & & $ * * * + + + + + * & 5 & & & 5 5 & @ + + 5 9 5 * + . & f u 8 8 % % % ; % % % # % o % % ; ; ; ; ; ; 1 i y y i i i : ; - - # # # # # # # # # % ; ; ; ; ; : 1 ; # o . # % # % % ; 1 < . % o % % % X . o . . . . .   .       z &.q.a.m.J.tXm.&.u.u.9.&.u.&.%.K &.!.p.u.r.p.r.r.2.%.K %.L K L c i ; o   ; c K K K &.&.&.&.&.o.K %.&.&.&.u.s.u.",
"r.&.s.s.f.R.u.r.o.o.L %.&.u.R.2.p.2.2.K o.o.&.f.&..X).).).kX$X+X}.s.&.2.&.#.%.2.&.r.u.%.%.o.%.%.K B B B N z z G c - ; ; - < ; % . . . .           . . . o o . . . . . . o o . o .   . X % ; ; ; ; y y 0 0 0 ; ; 0 0 ; ; ; ; = ; # # # # ; ; # % ; ; - % # # ; ; ; ; - % # # # # # # # # # # # # X       . + . . . + + $ & 8 5 & * + . . .     . $ $ $ $ & & 5 u | <.B.5XdXFXSXSXSXHXHXZXdXdXZXAXSXSXAXwXmXmXAXJXHXAXJXJXPXJXSXmXgXmX9X5.:XqXc.dXdXhX=X0XAXsX1X;X-X:XjXHXJXPXPXHXAXAXwXc.*.Q g / 5.v.l.f 9 *.5.! *                                           $ f f * & W Q W ~ ~ 6.=X4XZ.C.l.7.:XgXgX,X,X:X5.<.;.~ <.6.Q r n ! k.-Xl.x.C.Z.-X1X=X>XgXmXMXNXhXhXwXqXqXhXAXhX=XH.C.z.5.l.l.l.l.l.Z.l.C.l.` W f 8 & & * * * + . + + . . + * & 5 5 & 5 5 5 5 & & & & 9 d 9 & + . $ u u 8 & % % ; ; % # # # % o # # % - - % ; ; ; 1 ; < y i < ; ; ; ; % # # # - ; ; ; ; ; ; ; ; ; ; ; y ; ; # # # % - % # # % y     . o % % o . X . . . . .   .       i o.) N.G.xX'.D.[.u.&.r.%.2.2.s.#.%.s.o.s.%.d.r.r.%.#.K #.H L J S i 1 %   < v L %.K o.o.#.&.2.%.o.&.%.&.%.&.&.s.",
"r.%.u.p.s.f.r.r.&.K K %.o.r.%.u.u.B N K o.%.H &.o.u.!.N..XkX$X%X}.u.&.s.&.%.%.&.&.2.&.%.2.r.&.%.o.%.2.#.#.N i m y # # ; ; - ; %                   . . . .     . . . .   . o o # X . . . # # % - ; ; ; ; ; y y y 0 0 0 ; ; ; ; # # # # # ; ; # # ; ; ; - # # - - % # # # # # # o # # # % # # o X X + .     . .   . + $ $ & 5 8 & + + + . .       . . $ + & $ & $ & 8 u  .b.5XZXFXHXPXPXAXwXhXAXAXSXHXFXmXhXAXHXPXPXFXIXPXPXPXHXSXmXmXwXH.C.=Xc.H.8XdXhX8X0XhXwXl.Z.-XwXJXJXPXJXAXSXHXHXMXwXl.Q E ' 7.E $ u *.;.n +                                           * n j & & M ~ *.>.C.4X1X1XC.Z.9X-X9XNX9X9XgXl.*.| *.*.*.~ f 9 r ! 6.c.7.;.;.>.6.l.C.K.4XwXhXmXhXwX0XwXwXhXhX8XH.C.x.;.] l.C.S.l.6.' / *.Q u & * + * * * + * + + . . . . + $ 5 5 5 5 5 5 5 5 & & & 5 d f f 9 . . $ 8 8 8 % * # % % % # # # # # o # # # # # - ; - ; ; ; y 1 ; ; - - ; ; . . # ; ; ; : ; ; ; ; ; ; ; y c c y # # # ; % ; ; # - ; .       . o o . o . . . . . . .       y o.m..XXXxXpX#XD.f.&.o.K o.&.&.s.&.f.p.&.r.%.%.o.&.o.#.&.%.%.L J x i % . ; i L #.K K %.&.%.%.%.o.&.o.%.%.%.%.u.",
"#.&.&.s.r.s.r.r.s.s.2.K o.&.s.%.&.K B r.K u.K B K $.!.).+X%X$X$X(.%.r.r.&.r.&.%.o.2.&.&.r.t.%.o.2.s.&.u.&.H z z y - ; ; ; ; % # . . .     . .   . . .     . X . . .   . . # % - - - o . . o # # % ; ; - % ; ; ; = 0 ; = % = ; # ; $ $ # $ ; # # ; # ; # # % ; ; - # # # o o X X # # # ; % # X . + * + .     .   . + & & & 4 5 $ + + .               . * + + * * . .   . 8 } B.dXAXFXSXSXAXmXAXAXSXFXAXmXgXHXPXPXPXJXPXPXPXPXJXJXSXwX4X4X=X0XA.K.J.4XdXhXdXsXhXM.x.,XNXJXJXPXSXhXNXSXHXHXHXhX:X7.5.*.g 8 g ;.;.f                                             + M W 9 5 u W >.M.=X=XS.=XZ.;XqXgXgXMX9X>X>X6.;.W W *.! g g f f g ` =.=.~ Q | *.*.6.A.K.1X0XwX4XK.=X1X4XuXuXK.l.z.;.~ E *.;.*.~ M d u 9 & * . . . + * + + + . . .     . . * & 5 5 5 5 5 5 & * $ & 5 9 d f u . + & 8 8 & % # # # % % # o % % % # % % # % ; ; ; ; y ; ; : ; ; ; # # - # # # # ; ; ; ; : y y y ; ; ; ; ; y ; - - # % # ; ; ; ; ; o %       . o X o . o . . . . .       i #.w.XX'.XX#XiX.X!.u.+.+.K &.u.u.Y.p.s.r.%.K H K %.%.%.p.s.2.1.S x i % . - z N H o.&.r.r.&.&.%.%.&.&.#.&.&.2.%.",
"o.&.&.u.s.s.2.&.&.%.#.%.&.&.r.#.K %.r.r.&.u.o.B $.q._.tX$X%X*X}.R.%.2.2.%.%.&.&.#.$.o.&.&.%.K B +.r.s.r.2.N z c c ; ; ; ; - # # ; % % X . o o   .       . o o o % o . . . . o # - y ; ; - % % # # % ; # o X # # ; ; ; # # ; ; % ; ; ; # # # # # % # ; # % ; ; ; ; - # # X o X o # # ; % % # # X + $ & $ . . . .   + & 5 5 5 5 $ + . .                 .   . . .             8 | J.K.=XhXAXAXwXhXAXAXmXhXhXJXPXJXPXJXHXJXPXPXJXSXmX4X4X>X>X=X4Xb.C.K.3XhX0XK.M.-.x.>X:XwXHXPXPXMXSXHXHXHXHXHXNX-XZ.;.f d ~ ;.~ 5                                               f W j 8 f ! *.C.n.>.k.;X;X4XwX9XqX,XH.x.l.5.;.| *.*.*...*.*.>.>.l.7.*.R g Q ~ ~ *.6.<.6.n.M.-.*.C.C.K.1X1XC.6.<.~ f 8 u u 8 & + . . . .   . . . . . . . . . .       . + * & & 5 5 9 5 5 @ + & & & 8 f g 9 + & & 5 8 % # # o X o # o X # # - # % - - ; ; y y y 1 ; ; ; ; y ; ; ; ; # # # - ; ; = ; y ; ; ; ; ; ; # # # ; < ; ; ; - ; ; % - % o o ;       o . X . . . .             0 H O.i.G.'.tX^.~.D.u.r.o.K &.&.#.%.&.%.&.%.%.%.%.&.r.K 2.o.r.3.G a i ; o ; c K %.o.r.r.&.#.%.%.r.s.&.%.&.&.%.%.",
"r.s.f.d.s.%.s.%.K K K o.%.&.r.%.o.%.r.u.s.r.&.%.r.&.!.#XkX#XOX/.s.1.2.&.%.%.%.%.%.2.&.%.o.B %.K o.r.%.d.u.b z c i - 1 ; < ; % # . . .     . .     . o . . . o . % % # # . . o ; < 1 ; ; ; ; ; ; % % % # # # # - ; ; = = % $ # # # ; # # # # # # ; % ; # # - - ; # - ; - > ; ; ; ; ; ; % # # # # # % 8 5 + . . + . . $ 8 5 5 5 & . . .                                         5 M W ~ 1XhXdXdXgXhXhX0XwXwXAXJXJXPXIXPXJXHXFXFXMXgXqXjXhXqX4X0XZ.l.*.>.=Xk.=Xb.l.-X,Xc.,XMXHXJXHXJXJXJXHXHXHXHXjX-X5.e g *.*.f .                                               & n ! u ! *.=.=.<.5.l.Z.H.qXqXgX4Xc.c.l.7.;.;.6.6.*.| ;.6.l.H.C.x.x./ g g Q g g n R n g | O.W | 6.C.8X7X1Xn.>.~ f $ + # +                         . . . . .       . + + + * & & 5 9 8 5 & * $ & $ 9 R W 8 $ 5 & $ & * # # # # # o o o o # % % % % % ; ; ; ; ; ; ; # ; ; ; ; ; ; ; ; ; % ; ; ; ; ; ; ; ; ; ; ; # # # # ; ; ; ; ; % - - - % % .   # ; .           . .               0 B q.p.a.'.^.F.f.u.$.%.N K $.o.#.o.%.o.&.s.%.2.2.r.s.o.r.r.s.%.G a y ; # < G #.%.%.%.#.o.H &.%.%.&.&.$.&.&.2.r.",
"d.p.p.r.&.N p.s.%.r.o.&.r.#.r.&.u.r.o.r.r.s.f.%.$.B D.XX[.).!.!.Y.r.r.r.r.r.%.%.o.%.&.2.&.&.2.d.%.2.o.&.u.K N z i ; ; < - ; % o .                 o o o o X . . o o % % o % ; 1 i i 1 ; ; ; ; ; - % # # # ; ; ; ; ; ; ; % * # # # # # # # # ; % ; % # # % - % # # % ; ; ; 0 0 ; % o # o o . . . + # 5 $ + + . + + . * 8 & & 5 $ . .           . .                             + u j 9 >.1X4XsXhXwXhXhX4XU.K.7XSXJXPXPXJXZXmXSXdXwXqXMXSX0XqX=X=XK.b.B.H.;.5.5.gXqX,X:X>XqXNXgXjXHXHXHXJXHXhXMXgX-Xx.! Q ;.Q &                                                 &  .~ f ~ ;.5.Q ;.{ x.5.7.wX9X-Xx.x.Z.6.*.6.l.C.S.<.| | *.k.x.;.>.| W j g M f u u u 9 8 M | *.<.n.].uX7XA.*.h 9 * . . .                             . . . . . . . . + + + + + $ & 8 5 & 5 & & & * 9 Q W 8 & 5 & + * + X # # # # o o # o o o % # # # % ; ; ; ; ; ; % ; ; - % # ; ; ; y ; ; ; ; ; - # % - > ; ; ; # # # ; ; < 1 ; % # % ; % %   % o ; . .                     .     p B ,.i.,.q.w.O.,.+.o.+.b o.%.o.&.K %.o.#.%.%.&.&.o.%.B 2.r.L J x 1 i ; # ; v H %.#.o.%.%.%.%.o.K %.r.o.&.#.r.r.",
"2.s.r.#.H z r.%.%.r.%.f.p.r.r.r.u.s.2.s.f.s.f.r.&.o.) ^.@X#X$X).f.s.2.r.s.&.r.2.&.%.o.K %.%.%.&.o.K o.#.2.s.N i i < - ; - ; o % % X . .     .     . % % o o o o . o o o - < ; - - ; ; ; ; ; ; ; ; % # # # ; ; ; = ; ; $ # # # # # = # # # # ; ; # # # # # % # # # # - ; ; ; ; ; % o o . . . . . X * & * X + . . + . + 5 & * @ * + . .   . . . . + . .                   + & & . + 8 5 8 ..S.4XhXZXSXhX4Xb.*.6.0XhXFXHXJXZXMXmXdX0XwXNXJXAXAXdXdX9XJ.dX8X=Xz.l.H.H.,XSXMXNXgXgXjXqXgXNXJXHXSXwXqXgXC.Q *.*.f .                                                   8 W g h *.l.<.5.5.l.=.l.qX=Xl.x.;./ / ;.l.l.Z.=Xk.! ~ *.;.;.| ! j f u 8 5 & & & 5 8 8 j ,.>.6.n.J.<XB.| f & + . .                               .   . + * $ * * + + + + . + + $ & & & 8 8 & $ @ f Q M 5 * & * + + X X # # # % % # # # % % - # # # % % ; ; ; - ; ; ; % % % ; ; ; y 0 ; ; ; ; ; ; - # # - ; # % # - % % ; ; ; % % - % ; % #   ; % ; - < .   .                     z K w.@.m.O.-.! b b N +.q N K K %.K #.o.K N B o.o.H B N o.N G v i ; ; - % ; c m o.#.o.%.o.o.H N B #.r.o.H o.%.%.",
"&.s.2.r.c o.%.o.#.p.K %.2.2.r.%.r.s.o.r.s.s.p.r.p.@.&.N.).).+X(.f.s.%.%.&.f.s.&.r.2.&.o.&.2.o.%.%.o.2.&.&.%.K y ; # # % - # o # % o o . .   . . . . % % % o % % % % % % - - % o . # - ; - % ; ; ; % o . . # # # % % # # # # # # # # # # # # ; % # # # # # # # # # # % ; ; ; ; ; - # . .     .   . + * + X X . . . . + & $ + + * + . . .   . . . . + * +         . . . + $ 5 j 8 . * 5 $ & g k.8XhXAXZXqXK.L.k.M.].dXdX0X0X0X0XdX].sXSXPXPXJXSXAX9Xl.l.K.K.H.C.l.v.,XJXPXJXNX,XgXwXwXgXhXNXMXgXgXK.! W ~ j $                                                     + 8 u 9 g k.n.6.>.=.5.l.-X;XC.5.>./ 5.C.*.~ x.Z.<.| 6.6.l.6.W f u 8 & + + .   . + & 0 g *.6.6.>.>.:.M 8 * * $ * .       .                       .   . + $ 5 8 & + + + + . . . + * * & 5 8 $ * $ u R g & + * + X + X X X o # % % % ; ; ; - # o o # # # # # % % ; ; - - ; ; ; ; ; y y ; < y i y ; ; ; > > # # # % ; ; ; - - - - ; ; ; % # .   % % % # - y % o .                   = K V i.q.e.e.,.b N b N z m K H #.K K K H o.K o.%.%.K H o.N m p i % % # % ; c N o.#.K o.o.%.N z o.r.&.%.&.f.p.2.",
"r.p.p.#.#.r.#.%.&.p.K K H K &.H 2.&.H 2.&.&.s.f.u.i.@.i.!.f.!.!.s.&.K o.r.f.s.s.s.s.&.&.r.2.&.&.&.&.r.%.%.%.K i 1 . o - # X % X . . . . .   . .   . . % % % % % - % - ; - % o o . # # # # % - ; ; % # # o # # # ; ; # # # # # ; # # # % % ; ; # # ; ; % # # # $ # ; ; ; = ; % # # . . . . X X . . X + * X . . . . . . * * . . + . . . .   . + + . . + * * .   . + + + & 8 5 j M 5 + 5 8 5 u ! n.wXMXhX0X].].n.-.O.,.b.w.M.K.J.b.M.3XsXSXJXFXFXSX;Xx.x.C.hXdX4X=X5.-XHXIXIXHXgXgXgXgXwXwXgXgXjXqXl.W j n &                                                         + $ & g C.x.*.W ~ <.6.x.=XM.~ ~ ~ *.>.~ M >.Z.C.l.6.6.<.;.n 8 8 & + .         . * 8 f Q >.| g f y 5 & . + & $ .   . . .                     . .   . + * & 5 & + * * + . . . . . + & & & * + $ 9 j f 5 X + + + o o X X X o # # % ; ; ; - % o . # # o # % ; ; ; ; ; ; ; ; ; ; ; y y : 1 y i i y 1 ; ; ; % # % ; ; ; # % # # # % - # % % . o   % # # o # % ; - % o . o o o       # z ! ! -.! @.) @.u.&.B N q z b o.H B H B K &.%.2.&.%.B &.c m J c ; ; % # ; v N #.#.o.o.%.%.K %.r.R.s.u.!.p.s.s.",
"R.R.s.#.&.K H N N %.K K K o.r.#.r.&.r.r.%.%.&.f.f.N.a.#Xf.u.(.f.d.2.%.r.d.p.s.s.p.s.&.r.%.o.%.%.%.&.r.%.B K K c c ; % # - ; - #       . o . o .   .   . o - - % % o - < - - - - o # X . o % ; ; ; ; % ; # % # % % # # % ; ; ; 0 ; ; ; ; ; = ; ; ; = ; ; ; ; - % ; ; ; ; ; # X . .     . # % % # + . + * + . . . . . . + + . . . .   . .   . + + . . . + $ + . . $ + * 9 f 5 u W g $ % 9 f & 8 M 6.1X8XrXuX<Xn.O.M } } M M W M  .! | ,.`.ZXFXFXPXhXl.l.C.wXhX3X*.5.H.9XJXPXHXNX4XqXwXqXqX=XqXgX4X6.f 8 &                                                               * g k.z.~ n W ~ ;.5.C.n.6.>.~ ~ | | *.<.S.l.l.*.*.;.! 9 5 & .             . + % 0 u u 8 & + & u 6 * + + .   . + + . . . .             . . .   . + + * & & + + + . . . . . . * & & * + + * 9 f u 8 * + # # # # o . . . . o # % % # % - # # X . # % ; ; % ; ; ; ; 0 ; ; ; ; y ; 0 y y y y i i y y ; ; ; ; < ; - # # # o - # ; ; # o # - . % # o # # o   . . . o o o % o .   # N ) ) q.O.D.^.a.q.o.K B $ B q b H K B B o.2.u.2.2.%.b %.K G i i < % # # 1 m K o.#.%.#.#.B o.%.s.&.H u.s.2.r./.",
"%.s.%.K K o.K K N B N m o.&.p.p.r.s.r.%.K r.&.s.!.f.a..X$X%X).!.s.&.&.p.s.r.2.r.p.&.%.&.#.#.&.%.&.r.r.r.N K N L c ; % % ; - - #     . O . . . . .     . X o o o o % - - ; < < < - # # o # % - % - ; - ; ; # o # # # % ; y i y y ; ; ; y 0 ; ; ; ; ; ; ; ; = ; # ; ; = % # # X X X . . # # % ; ; % # + * + + . . + . . . . . . .     + .   . . + . . . . & + . . + + + 8 g 9 $ 5 9 5 + & 9 & + 8 f O.n.A.{.5XB.O.M j & + + * * & u M ! $.`.SXPXPXMXgXK.=X;X;Xl.R ` l.C.qXjXMXgX>X9XZ.Z.;X=XqXNXqX;.8                                                                   & ~ 5.5.Q g *.*.>.<.6.6.<.<.>.*.*.n.:X>...C.>.! ~ ~ f 8 & +       . + . . * * & & % + .     * 5 5 & & +     + + + . . . . . . .     . + + . . + + * $ * * . . . . . . .   . * & $ * + + * 8 9 9 5 & % % % % # o . . . . . o # # # % - ; - # # # # ; ; % - ; ; ; ; ; ; ; 0 ; ; ; ; ; y y y i i i y ; ; ; ; ; # # % # # # # ; % # X % ; X ; # o o o o . . . .   . . . .     i o.@.&.! m.eX^.! b z N b p 7 N B K K N o.o.&.r.&.2.&.N K K G L P c y 1 % < p H o.K o.&.&.q %.o.%.K H r.%.r.s.s.",
"2.2.N H K s.2.2.%.K H o.r.2.2.&.%.%.&.r.&.&.#.&.!._.i..X$X$X%X!.s.s.&.s.%.r.r.2.s.&.%.%.&.o.o.%.%.%.2.s.%.K K G v y ; ; # # % # . . . . . .       . . o X X . X % % % - - < < 1 < % - ; ; - % % ; ; ; ; ; X # % # # ; ; i i y 0 ; ; ; y ; ; ; 0 y ; 0 y 0 ; = ; % % # # X . . X # - # # - ; ; - # * + * + + . . + + . . . . .       + .   + . . . .   . & & + . + + + & 9 9 $ $ 4 $ . . + @ & ~ f u W | V.A.B.O.M 8 .       + $ 8 p m W w.dXAXAXNXgXgXgXgX-X6.;.*.;.l.l.H.-XqXqX,XC.x.C.qX-X-X>X;.8                                                                   & Q / ;.R g n Q ..6.>.>.6.<.*.*.>.6.l.*.;.S.l.>.W W f 8 + .     + 9 n 9 $ $ & & % X           . X * & * .   + + + + + + * + * * . + * * + + + + * $ $ * X . . . . . .     . * & * + + $ & 9 9 5 & & % * # # o X o o o o X . . o # % ; ; ; 1 ; ; % ; ; % ; ; ; ; ; ; ; ; ; ; ; ; ; ; ; ; ; 1 y y y ; ; ; ; # # # ; ; % # o o . X X # ; % - # o X o o . . . . . .   .       z } D.~.aXG.w w w $ B &.u.!.b p 7 7 N z K #.#.o.%.o.&.B %.s.%.L G c < - % % i p H #.K K o.B f.u.o.#.#.r.&.r.r.s.",
"p.s.2.#.o.r.2.2.%.&.s.d.r.&.%.o.#.#.2.s.2.%.K &.R.!.p.@XkX$X+X(.(.r.r.r.s.s.s.&.&.&.r.K H m B #.#.o.K #.%.r.r.m v i i ; # % # o . . . o X .   . - o . o o . o o % % - - ; ; 1 < - ; ; ; ; - % # # - % ; ; ; ; y ; % # ; ; ; ; # # # # # $ = 0 0 0 ; ; 0 0 ; = ; ; ; % # # # # # # ; - - - - % # # # + * * . + . + . . .   . . .     . . . * + . . .   + 4 9 $ . $ & $ 5 9 9 8 & & $ . . 5 5 5 <.*.8 5 u ! ! | ! j 5 +     . & 5 & & y f W <.L.0X4XA.Z.=XgXgX;Xl.;.l.C.c.c.,X9XqX>X;XC.C.-X-X=X-X*.9                                                                   * 9 g R R g ! n Q ~ Q *.;.*.*.6.6.~ *.| ;.l.Z.<.Q | g 8 +     + q ~ ;.` r 9 8 5 & .               + & * . . . . . . + * & & * & & & 5 & * * + . * $ $ * . . . . . . .     . * * + + * 5 9 f 9 & & & % # o o o o # % # o o .   . # # ; < y i i ; % ; ; ; ; ; ; ; ; ; ; ; ; ; ; ; ; ; ; ; ; ; ; y y ; ; ; ; # # o # # # % # # X . . o o # # o # o # X     . . . . . .       c #.N..XoXoX^.w $ b u.f.f.&.z o.%.o.H K o.%.o.#.%.%.%.K o.H #.#.J c < ; % < G p #.o.#.%.o.2.2.2.o.o.%.%.%.%.d.!.",
"s.s.2.2.%.2.r.&.o.o.r.s.#.%.%.%.2.&.%.%.&.&.%.&.$.!.a.!.f.o.).r.#.%.%.r.u.r.&.&.o.K K K #.B %.#.o.%.K %.K r.L G a - < - - ; o o . . o o . X . a a % . % . . o % % - - ; ; ; < % - - % - % # # # # o # - ; i : 0 ; ; ; # # # + . . X # % ; ; ; ; ; ; ; ; ; = = $ % ; % % ; 0 ; ; ; # # # # # X . . # * * + . . . . . .       . .     . . . $ * . . .   . 8 f 5 @ $ 5 4 5 e e 8 5 & * . * f u @ f f $   . 5 8 0 u u u 9 8 & 5 5 & . + $ 8 f ~ -.k.x.H.qX4X-X:Xv.l.l.H.l.6.H.qXjXjXqX9XC.6.-XqX-XC.! 8                                                                   . 5 f R ` g g n g e g ~ ~ ~ ~ *.| | >.*.;.6.6.~ W W 9 * .   + 8 ! 5.x.z.Q f 9 8 * .             . * * + . . + .   . * & & & & & 8 8 8 & & $ + . * * * + . . . . .         . + + + + @ 8 u f 9 & % & % # # # # # # # # o o o . o o % 1 i i 1 ; ; % ; ; ; ; ; ; ; ; ; ; ; = ; ; ; ; ; ; ; ; ; ; ; ; ; ; ; ; # # # o # # # # . # % . # % % # X # X o #     . . . . . .       ; o.w.~.'.tX#XGXzX.X&.+.+.&.z o.p.p.r.f.%.o.K #.#.#.r.r.K #.K J v i < - % ; G %.%.%.%.%.%.r.o.K o.o.o.%.%.%.%.s.",
"%.%.s.%.%.N K %.r.2.#.K B K #.r.r.2.2.%.r.%.o.&.%.~.p.a._.!.+X!.t.#.o.%.#.%.%.N K N z m o.o.s.&.r.%.o.&.o.#.L c i % - ; - - o o . . . .     o - % - o X o o o % % - - - % # - < 1 1 1 - # # - - % # % ; ; ; ; ; ; ; ; # # # . . o = y y ; ; ; ; ; ; ; = ; ; # ; $ # # % ; 0 0 0 ; ; # # # # # o # # * * + . .               .           . $ * + . .   . 9 g e & & 9 e 9 t f 5 $ $ * + 5 9 u + . + .       + % 9 f ! ! ~ *.,.! 8 .   * & 7 ! ;.~ ` H.4XZ.5.l.;.;.6.6.l.:X-X-X4XgXgX4Xl.5.-XgX4X| 8 .                                   .                                 . 5 Q =.e r R r e g ~ Q R M M W | *.*.k.;.W f f f 5 + . . + 8 ~ 6.C.l.*.n 9 & + .             + % + .   + * . . + & & & & 8 8 u 8 & & $ $ * * * * + .     . .           . X + + + * 5 u f 9 & % % * # # # % # # # % % - # # X o # < y y ; ; ; ; ; ; ; ; ; ; ; ; ; ; ; ; ; ; ; ; ; ; ; ; ; ; ; ; ; ; ; # ; ; ; - % ; % # % # o . . # # # # % o o # . . . . . . . .       > H N.N.eXpXeXeX#X.X&.u.&.p.o.= q B #.%.#.K B B K #.%.d.2.%.K J c < % # % < c m o.2.%.o.o.&.#.K &.r.%.o.&.%.%.#.",
"%.%.s.p.r.N B H %.#.#.K H K 2.%.%.2.%.r.o.o.K o.&.f.D.,.f.%XVXkXR.%.&.K o.#.K K N N K K K K &.&.d.&.&.o.K L K G i ; ; ; - % o . #           % . . o , X - % % o # - - - o # % i x x a < - - - ; ; ; ; < 1 ; ; ; # ; ; # X X # ; ; 0 0 ; # # # = $ # ; ; ; ; ; ; = # # # ; ; ; ; ; : ; ; # ; ; ; # * # + .           .                   . + + + . .   . 8 e t 5 4 9 f f g g 8 + + $ $ & 5 9 @             . + 9 ! =.k.M.L.4XK.! $   . 8 u g *.! ^ l.c.5.] c.l.` ` =.;.c.:Xx.:XjXgXc.=.' :X4XC.f .                                   + + .                       .         + 9 f 9 f W g r R M M W n j g Q ~ ~ W W n f f 8 5 * . . + 5 g ` l.l.` g 8 * . . . . . . . . * * + . . + * + . + * & & & 8 u u 8 $ $ * @ $ * * X .                     . . + + + + & 8 9 5 & % * # # # # # o o o # ; 1 ; # # # # ; ; - # - ; ; ; ; ; ; ; ; ; ; ; ; ; ; ; ; - ; ; ; ; ; ; ; ; - ; % ; % ; ; ; 1 y < ; ; % % . . . # - # o # # # % X o o . . .     .     ; #.N.~.'.xX.X@XD.~.#.%.o.o.N $ 7 q p q N B B B o.&.%.2.2.2.L J G 1 - % # ; i m H #.#.&.o.s.#.%.&.#.%.&.&.&.&.&.",
"r.2.o.r.f.(.s.r.#.B B o.K o.#.K %.2.o.H b H m o.u.i.i.a.i.+X$X$XOXr.1.N K o.%.K b H o.r.r.o.&.%.&.&.2.r.%.%.K G i ; ; - # # o . . o o % . o o . . o % . . . . . . % - - - - % - < 1 1 ; ; ; - # % - ; ; ; ; ; ; # # # # # % ; 0 i ; % # # # # $ # $ = ; = ; 0 = # # # # # > = = ; 0 ; ; ; ; 0 0 ; # # + .         . .                       + * . .   . & 8 t t 6 9 d 9 n g 9 $ $ 5 5 $ & 8 @ . .         . * q ! =.Z.=X9XwX4X>.5 + . + + 9 ! ` ~ =.=.=.l.l.7.` / / ' 5.7.5.=.:X:Xl.` / 5.Q 0 *                                     + + $ .                                 + * 5 f | n n W b f n R g f R ..W M M W W n u 5 + . . + 5 g ` 5.;.Q e 5 + . . + + * * + * @ + . . . + * * + + * & & & 8 u u 5 * + . + * . . .                     . . . . . + + * 5 8 & & % * # # % % % % o . . o o o # % ; # # # # # # # ; ; - # ; ; ; ; ; ; ; ; y : ; % ; ; ; # # % # ; ; ; ; ; ; ; = ; ; 1 y < ; ; - . # % # # # # # X # X o o . .               ; #.i.N.D.XXXX_.i.#Xu.B B b b = $ 7 q q N H N B H K o.#.#.2.L G G i ; ; % 1 G #.H K %.u.s.r.%.%.&.%.%.&.%.%.&.r.",
"%.%.&.2.r.s.2.r.o.%.B o.p b m o.&.%.%.H z 0 K K o.9.D.i.q.f.R.(.Y.r.K N N H K z b #.o.H &.&.r.o.o.%.&.r.&.#.K m l ; - o # . % #   . o .     o . . .   .           . - 1 i ; - o o - % % % - - % ; 1 1 ; ; # % # # # # . o # ; ; ; # # # X . # # # # # $ ; = ; ; ; ; $ $ = ; = $ # ; ; ; y i i y ; ; # # X           .                       . + . .   . + $ 9 f e 9 6 8 f f 5 9 8 7 8 & 5 8 & * * .         * r ~ z.=X0XhXhX3X*.9 + * + . $ f W W R ~ =.;.;.;.` / ` ' ' / ~ ] l.l.] ~ Q W 5 +                                       * $ 8 +                                 . + & f ! | ~ W q f Q W f f ~ ~ W W W Q W j 8 & .   . . & n *.;./ g 8 $ . . . * * & & & & & + .   . + * @ & 5 5 5 & % 5 8 8 5 * . . . . .                         . . . . . + + + $ & % & % % # % - - ; ; - # # .   o - ; ; o . . # # # # # % ; % = ; ; ; ; ; ; ; y y ; # ; ; ; # # # # ; ; ; ; ; ; ; ; ; ; ; ; i y ; ;   . % # o # # # # o o o . . .     .         > K i.p..XF.F.D.^._.o.N b q B b s.d.$.o.%.%.%.z o.o.o.#.H 1.2.J P 1 < % ; 1 v 1.#.&.2.2.&.u.&.%.&.&.&.&.&.%.%.%.",
"o.o.#.%.2.r.%.r.K %.%.%.&.r.%.2.r.%.K N B &.r.o.b q O.q.D._.f.s.2.m N K K B H o.o.%.K p b m B B %.%.#.2.%.#.N m i ; ; o # . ; -       .       . X . . . o         . . % < < % # o - % - ; < < 1 y y y y ; . o # # o . . . # o # # # . . . . # # # * # # $ $ = ; ; ; ; = ; $ % # # % = 0 z z p i i y ; # # .         . .                     . . .   .   . . 4 f e 9 4 4 9 f & f f 4 4 5 8 5 5 5 * * @ . .   + 9 ~ C.0XwXwXwXA.~ r 5 $ $ * & f ! ~ ! Q ~ Q / ' *.5.` E / ( R ' 5.=.` ~ R r $ .                                     . & 5 9 *                                   . & f ! | | W n Q ~ W M W R f g W R M n f 5 & + . . + & W *.*.W 9 & . . . + * & & & & & & * .   . + + & 6 d d u & & $ $ 5 u 8 & * * + .                         . + . . . + + . * & % % % # % - ; ; < i 1 i i i i i % % # . o . # # # # X # ; ; ; ; y i i i y y i i i ; ; = ; # X # # # ; ; ; ; ; ; ; ; ; ; - ; ; % ; o o ; # # # X o o o . . . . .   . .         i N _ D.'.^..X[.a.f.&.B o.0 z N d.%.K K H o.%.#.o.o.K #.H #.2.1.J i ; ; - i G #.%.2.%.2.2.%.s.&.%.&.%.&.%.r.%.o.",
"r.#.2.r.%.2.%.r.r.2.%.2.R.f.r.2.r.#.#.b s.s.r.u.u.f.f.D.N.zX%XR.t.#.H %.B o.%.r.o.#.&.#.K K N N H K B %.%.L m m l ; - # # - % %         %         . o X - - . .       . - - - o . o % - y 1 1 ; ; ; ; y ; # % # # o . . o # . . # # . # . . # # # # # * $ = ; 0 0 ; ; ; ; ; $ # $ = ; 0 i i y 0 0 ; ; # # .         . .                     . .           . * 6 9 9 5 & 9 f e R Q r 4 & & 8 9 u $ * * * + + * 5 g b.5X0XqX-Xn.~ f 8 & 8 5 5 9 n R R R Q Q Q =.` / / E E R ^ / =.=.^ g g & .                                       + 8 r r $                                   . * 9 M M n g R ~ *.*.~ R g f f W W Q Q f 8 & + . + $ 0 ! *.~ j 8 * . . . + * & & 5 & * & * .   . * + @ 6 f g d & * & & u g f u 9 5 8 5 +                       . . . . . + + . + * % % % # % % % % ; 1 1 1 i x c i # .   . . . . . o # # # = # ; ; 0 y y y y y y ; y ; % # ; ; % # # # = ; ; ; ; ; ; - ; % # # - - ; . # - X o X . . . . . . . . o .   .         c B ) ~.~.oX'.F.p.&.N o.o.#.q p $ q H K #.#.%.r.%.2.o.K K #.#.L v 1 ; ; ; < m #.K %.#.$.$.#.%.#.r.s.r.%.H s.s.2.",
"r.&.f.s.2.o.&.r.2.r.&.2.p.&.&.#.o.K H %.p.o.o.%.p. X_.!.~.$X(.p.E.s.K o.B B B m K %.p.s.r.o.B N #.d.s.&.N o.c m i ; ; ; % 2 # # - o o . o o     . . . . . o o . . .     . . % - % X . - y 1 ; % % % % - - % ; ; # # X . . . X $ ; ; $ ; ; # # # # # $ $ $ = ; i i 0 = 7 ; ; = $ = = 0 ; ; ; ; ; ; ; # # # .         . . .                           .     & 5 5 5 4 4 4 g Q Q / >.*.9 + + 8 9 d 8 & $ & 4 $ $ & 9 W >.L.4X1XC.*.9 & & 8 8 p n Q R R ~ Q Q / ` ;.R R E E E / / ~ ` Q g 5 +                                         $ f R r $                                   . & 9 f 5 4 8 f ~ *.| W f f f e R ~ ~ ~ j u 8 * + * & 9 n ~ M 9 & + . + * + * * 5 5 * * $ * .   . + . + & 9 u 5 * + 5 u g n f f g f f u & .                     . . . . . + + . X + * % % # # # o o # - % % ; 1 y ; % - # # . . # # % - # # ; ; # ; ; ; ; ; ; ; ; # ; - # # ; y y ; > - > ; # ; ; ; - % % # # # # % ; . o # # . # # . X o o . . . .     .         c %.q.~.'.'.^.m.i.&.B H B %.H }.%Xf.&.2.%.2.&.#.K #.2.#.H L J G S ; - % % < m #.#.%.#.%.%.%.%.r.d.d.s.%.N r.%.&.",
"s.K &.&.%.#.2.&.2.%.&.2.%.r.2.%.K #.m m m z m o.f.f.).p.).+X!.#.z c N N m z N N B #.r.s.s.%.%.&.r.&.s.&.r.L m c i # # X y < % o . . . .   . X .   .   . . . o   . . .     . o ; < o . < 1 ; % - - - o X # # % % # # .       # ; ; ; = ; y i ; = = = = ; $ $ = ; ; ; = ; = ; ; ; = = = ; ; ; ; ; ; ; ; ; # # X .     . . .                         . + . + d f d 8 $ & 9 R / / ;.6.k.R + . 5 4 e 9 9 9 8 9 8 8 & & 9 n *.M.C.M.*.f 8 & & 5 9 g Q R =.5./ ~ ~ Q ~ / E ~ / Q / ^ R / ~ f & .                                         $ t E r $                                   . & 0 u f f f g Q R g g f f u 9 g ..Q M f u 8 & + $ & 8 b ! f & + . . * * * * * & & * * & * .   + * . . + * & * . . 8 g h f 9 u h h M f 5 .                       . . . . . . . X + # * % # # # o o o # # # ; ; % - ; i 1 ; ; # ; ; ; ; % # ; % # # ; ; ; - # # # . # # # # ; y y ; - - ; ; = > ; ; % % # # % # o # # . # # # # # # o # o o o o . .               z &.w.~.G.oXXXF.f.f.&.f.u.H r.u.o.o.#.K N N N o.H N o.2.#.#.J J v < - % - < G #.K #.#.o.%.K o.u.u.r.2.o.%.&.#.%.",
"d.H H B H #.%.2.2.%.%.N B %.r.r.&.&.z H o.#.m o.p.!.!.&.OXOX!.s.s.2.%.K N H b H B K %.r.r.r.t.#.r.s.&.&.%.r.z m : % - . ; ; # # X                     . . . o . .   X     .   # - % o - - - # - # ; - # X . # # # # # # X .         + $ 0 i i y ; ; # $ = # # # = = $ # # $ = 0 ; = = ; = ; 0 0 ; ; ; 0 ; ; # o     . . .                       + @ 4 & 4 Y R R f 4 $ 5 U Q ~ ` ;.5.~ 5 . @ 7 9 9 f f 9 d f u 5 8 5 9 j ~ *.n.-.W q $ * $ 9 n ~ / 5.l.5.R Q M ~ *.~ Q ~ ~ >.` ` ` Q 9 +                                         . & t R g &                                   . * 8 u W | | | | W W M g f f 9 f ~ W h f f 8 & * * $ 8 f M u & + + * * * $ * + $ 5 & & & * . . * * + . . . .     . 8 f f 9 5 8 u f g 9 * .                       . . . . . . . X # # # % % % % - % - ; - ; ; - # - ; 1 y < i y ; ; ; % % # % % # % ; ; ; # # # # . . o . ; ; ; y ; ; ; ; ; ; ; ; - # # # # % # # # # . ; % - # # # # o X . o . . o       .       z %.,.~.^.~.F.D.!.i.f.p.r.z %.B %.K N N N 0 p b N H %.#.#.2.%.J S 1 < - % i m H N o.#.H %.K o.%.&.%.&.K r.%.#.%.",
"%.K K H K o.#.%.2.%.%.%.o.%.%.B B K H s.&.s.b o.$.u.!.u.%X%X).f.).Y.&.r.o.&.%.N b b o.H B %.o.B s.r.&.o.%.%.K K c ; ; % ; ; % # X . .                 . . . . o .   . o . .   . % . - % # # % ; ; ; ; ; o # # ; ; ; y i ; - .   . o # # # $ ; 0 ; $ # # # # * # $ # * * # # = ; = = $ ; ; ; ; ; ; 0 ; ; ; ; - # X   . .                       + 4 4 6 9 9 g U Q ~ e & @ 6 e f R / ~ *.f * @ 4 7 9 g f f g g f q 8 & 5 5 f Q *.Q f 9 & 8 8 e R ~ ;.x.C.l.R g n *./ R n R f *.*.*.Q r & .                                         . 8 ^ 5.` 9                                     . $ u | <.6.<.>.*.*.~ Q M g f f Q Q j j h u & + + + & u f 8 + + * & * * * * + + 5 5 & & X . . @ + + .   . .     . & 8 u 8 & & & 5 & +       .                   + + . . . . . + # # # # % - ; < ; < ; ; ; - # # ; ; ; < ; i i y y ; ; % # % ; # # ; ; % # # # # . . # # ; % ; ; y y y y ; ; ; ; # # # % # # # # # # . # ; ; # X . o . . . X . . o         .     z &.-.!.[.m.m.a.i.@.$.B q q p.2.Y.#.m B b 7 7 N z H H %.#.2.t.L i i < < % 1 m m #.#.%.#.s.%.K &.#.%.#.#.%.%.K B ",
"K N N o.%.2.o.%.%.%.#.&.%.#.N 0 p 7 0 N N z z B N f.f.).$X(._.).f.s.o.%.&.#.o.z z m K o.B K #.K r.r.r.%.%.#.K m i ; ; ; ; ; % # . . . .         .     .     . o o     . - .     % - % # % % # - % # ; ; ; ; ; 0 y y y i y i ; ; ; i 0 0 0 = = = # # # # # = = = $ # # # # # $ # $ # # # # # % = ; ; > = ; ; ; - # . . .                       $ 6 4 5 9 9 9 9 R Q r & . + @ 5 t U n *.~ 5 $ $ 7 9 g f g n g ~ Q r r 9 9 f ~ ~ f 8 8 $ & 9 r ^ ;.A.C.k.;.~ Q ~ ;.;.E T g r *.6...f & .                                           * g 5.v.>.e                                       & j | >.6.6.<.*.>.>.~ M M W W ~ ~ Q R W f & + . + & 8 8 & + + * $ & $ + + + + & 8 5 $ . . . + + . .   . . . . . * * & & $ * + . .         . .                 + + . . X + X + # # # X # % ; < < ; ; ; ; % # % ; ; ; i < ; ; ; ; ; ; ; ; # # # # # # # # ; ; # ; ; ; % # # % ; ; ; ; ; ; ; ; = # # # % % # - - - - - % % < ; % o o . o o   . .   . . .         i B B N.'.'.D.w.o.+.q H w b K r.N H z 7 b $ $ $ p B o.%.%.%.2.L i a < 1 # < v J #.%.%.%.r.2.o.#.2.r.o.o.2.%.#.B ",
"#.H #.r.&.%.K K o.&.%.#.%.K z = 7 + 0 K s.s.m q B u.u.).!.).).!.f.H B N N K +.o.#.o.#.%.o.K H B K %.s.H B K #.z l ; ; < ; ; # # . . . . . . . o X . . . . .   o %   . o % X     # < - o # # % % - ; ; 1 i ; : y 0 i i ; 0 y y y ; # # = 0 ; ; # # # # # ; = ; = = # # = = $ = = = = = = # # > = ; ; - = ; ; = ; # o . . .                     * 4 4 @ 4 & & & d g 9 $ . . . + 4 9 g ~ ~ 8 & 5 9 e r r r r ~ ;.*.~ ! g f 9 R g f 8 $ $ $ 9 g ;.;X;XH.l.>.*.~ Q ;.k./ R t g ~ >.*.f $ .                                           $ n 5.x.5.f                                       + u W *.*.*.>.*.*.*.W j j g | ~ | ..| W j & . + + % 8 8 5 & & $ * & $ * + + + * 8 5 + . . . . . .     . + . . . + + + * + . . .                               . . . . . # # % # + o X % - ; ; < ; - ; ; ; ; ; ; ; - - # o # % ; ; ; : ; ; # # o # # # ; ; ; ; c i ; ; ; ; ; ; ; ; ; # ; > # - % # # # % # # # - % % - % ; ; % % # o X % .       . .     .     z H @.~.m.'.D.N.+.o.N q 7 u.#.H o.&.K H p #.R.d.%.b K #.H K #.J c < % ; - < i N K #.o.%.%.%.H u.#.&.o.K r.2.%.%.",
"%.u.d.r.&.%.o.K K 2.2.%.#.H o.r.#.B K m p.r.(.o.$.&.&. XY.(.!.f.$.K K B B B B o.o.H N m b b B z B N o.N z N N m x ; # - ; ; # - # . . . . . . . X . . . . % % o %   . . X . . X . o % % o o # 1 - 1 ; ; y ; ; ; ; 0 : ; 0 c y 0 # . X # = ; ; ; ; ; ; ; = ; ; = # # $ ; ; ; ; 0 0 i z i 0 ; ; ; ; ; ; ; 0 ; ; = # # . . . . .                 + * + + + + @ + 5 5 $ + . + @ . + 5 f R E 9 5 9 W W R Q E Q ` *.*.>.~ n g g ~ ;.n 9 4 & + 9 R c.;Xl.l.*.*.*.W ~ >.6.k.6.*.R Q >.*.9 .                                             $ R I.-Xv.9                                       + & M ! W | *...~ W g j u u ! Q ~ ..*.Q j & . + $ & 8 u 8 8 8 8 & & * + + + . * & * . + * + + . .     . + . . + * . . . . .                                   . . . . X % % % % # # % % - ; ; % # # ; ; ; ; ; < ; ; % % # ; y i ; # # # # ; o # . . # - ; ; y c y ; ; # # ; ; ; ; # # # # ; ; # o % % % # o # # % % ; ; ; ; - ; % % % # o .   . .     o       y N @.~.m.m.F.O.O.q p + N #.r.K B H B o.&.).Y.2.&.m z H b G %.J c % # % ; < c m H 2.%.2.%.u.&.u.%.o.B %.&.%.%.#.",
"K 2.u.#.%.r.L K #.r.&.%.%.K r.(.p.+XY.K H B B %.B &.b b o.r.f.f.r.&.r.o.%.%.&.+.#.K m b N o.o.o.N #.K K z m m c i - # - % ; % # . . . . . . . o o X o # o o o % -   . . - - % # .   o % - ; ; ; ; ; ; ; 1 0 ; ; ; ; ; ; : z ; ; ; # # # # ; ; ; = ; $ = $ = ; = # # ; 0 i i 0 i z z c z i ; ; $ ; = ; ; 0 ; = # # # # . . . .             . . + * . .   . + @ @ + . * * & & @ + $ 9 f g e 5 & 9 n W ~ *.*.` ~ ` ( R ~ ~ *.k.C.*.R 9 & & 9 >.4X4X5.5.*.*.~ r r / *.M.K.n.6...*.W 5                                               & Q v.-X5.9                                       . * u f g W ~ ~ W n g g 9 9 M M M ..*.! n 8 . + $ & 0 d 9 8 8 9 5 & * + + + . + $ * * & 5 * + .         . . + @ @ + . . .                                   . . . . + % % % % # # % ; ; - % % # X % ; ; ; ; ; ; ; - ; ; ; ; ; ; % # # # # ; # # X # # # # % ; 0 ; ; ; ; # # # # X X # o o # # # % ; - % - # # ; ; % ; % ; ; ; % # o o . . .   .   .           = b B ~.D.F.'.a.V w q %.B B B K 0 7 q 7 N H B p 7 0 B o.H #.3.G y % % % - < c J #.2.2.%.#.%.2.o.H o.H H %.%.#.o.",
"%.o.H H o.%.&.o.&.2.&.2.2.%.r.&.&.OX/.o.#.z N b o.b o.5 & #.#.f.r.2.&.%.L s.Y.r.#.s.r.%.B o.o.H #.#.N L N N p z ; # % o # # % o o . . . . . . . . . . o o o o o # .     o - - . % o # # - < % # % - ; - - - % ; ; ; ; ; y ; 0 i c y ; ; # # # # * # # . # # ; ; = ; ; i z z i p p i 0 0 ; ; = ; = = ; ; 0 = = # $ # # # . + . .     .     . . . * .     . + @ @ + & 9 5 & & @ + . & 9 f f 4 $ @ 9 n n Q ~ ` =.=.R f *.~ *.;.Z.6.n f 9 8 n C.4X=X<.<.;.*.| n e R >.6.k.n.A.6.~ 9 *                                               $ g 5.-X5.f                                         . $ 9 g R ! | | W ~ W 9 8 g h W *.>.*.| 0 . + * & 9 f u 8 8 8 5 5 @ + + + + . * & 5 u u @ . .             + @ & * .                                       . . . . + % % % # # # % ; ; - % % % # % - ; ; ; - ; ; ; ; ; ; # # # ; y % # # % ; c y y ; # # # # # X # % ; # # # . . . . . . # # # ; % # # # X ; ; ; - % # ; % # - % o . . X                     > z V N.m.G.~.i.V #.p o.b K B %.#.N 0 u.u.N 0 = o.r.2.#.2.2.1.S i % # % # < v #.#.#.%.&.o.#.#.B H #.#.%.&.%.#.&.",
"o.#.K #.r.r.r.o.&.%.&.2.2.%.%.%.2.2.#.#.d.p.(.N N N $ q.$X(.r.f.d.2.r.%.&.u.2.%.%.s.r.u.s.r.K H %.H K B H H z c ; # - - o X o o . . . . . . . . . . . o o o o o   .     X o # . o - - # < ; - % o % % o o X # % ; ; ; 0 0 > ; z c c y = $ ; # # + # ; $ # # # ; ; y i p c z z z i 0 ; ; ; = ; 0 0 = ; ; = ; ; ; ; # # # # + + .     .     . . . + .       + . + @ f R u @ @ @ + . $ 8 f U 9 e 9 5 g R R ~ ~ *.<.6.~ U e R ` C.>.n n f 8 ~ C.H.C.k.6.6.>.R W Q ;.l.l.l.n.A.b.! 5 .                                               $ t { :X5.r .                                         + 8 q g W *.*.*.:. .u 9 j W ~ *.<.6.:.f + + * $ 8 f u 8 5 8 8 5 $ + + $ * + & 8 u u u $ .               . @ $ + .                                       . . . . X # % % * # # % % % % % % ; % # # # # % - ; ; ; ; ; ; # # ; y y ; ; - # ; ; ; ; ; ; # # # X # ; ; 0 ; ; ; ; ; ; # # # ; # ; % # % % - # % # % % ; % % % o o # o . . X .   .       .       > N O.q.e.,.-.V @.! q p N K N %.%.+X#.OXY.#.2.Y.Y.2.&.B K L L v a - # % # ; v K K %.%.r.o.o.H H 2.r.%.o.o.o.B o.",
"B B #.2.s.&.%.#.#.#.%.r.%.%.%.%.2.%.&.&.&.u.!.d.N f..XVXiXKX$X!.s.2.s.p.r.s.s.&.&.&.&.r.r.s.o.K o.o.p.r.#.K z m i # ; ; # o . o . . X . X . X . o . . o o o o o o #     . % o o . % o % 1 ; - ; ; ; % # . . # ; ; ; ; y ; - ; i y i y ; ; > # . . # ; ; ; # # ; 0 y 0 ; ; ; 0 ; 0 ; ; 0 0 0 i i 0 ; ; ; ; ; ; ; # # # # # # + . . . .       . . . .       . . . + g ~ d @ + @ @ + $ 5 f R g R R f f Q ~ R R O.` ` Q e 9 n R =.*.n R 8 9 *.C.K.b.<.*.>...9 9 ~ n.S.n.6.6.A.<.9 *                                                 4 ~ x.v.l.R +                                         . * 5 9 g W *.6.<.W u 9 f ! | *.<.n.<.j * + & & 8 j f 8 & 5 8 5 $ * @ $ * @ 5 8 8 5 & + .                 . . + .       . . .                           . . . . X + # % % ; - % # # % % % ; # # # # # % % % - ; # # # # ; ; ; ; y y ; % # . . # ; # X # # ; a c i i y ; y y y ; ; ; y < ; - ; % ; % - ; - o % % % # o o . . . . X . .   .       . .       i H ! ) n ! n w +.N o.r.(.+Xo.H d.%.o.&.Y.R.+Xd.o.B N m m m m i c % # % # < m #.#.#.#.2.B H H %.2.2.o.#.+.$.+.H ",
"#.B o.m H K r.r.r.%.o.&.r.#.#.&.&.r.2.r.#.#.s.s.OX%X@X~.tXvX$X_.s.&.&.&.%.r.2.%.r.r.r.r.s.s.&.N o.K %.H B #.H G c - ; ; - - o o . . X . . . X X X . . . . o % % % <       . . . .   . % - ; % ; ; ; % - . o # ; : : ; ; ; ; ; y = ; ; ; # # # # . X = # $ = = = = > # # # # ; = ; ; 0 i i 0 i 0 ; = = = ; 0 ; ; # # = $ # # # X . + .         . .         . . . @ 9 f 6 + . . @ @ $ & e f R R | *.g R ~ t R Q Q ~ *.R R ~ Q R g ! ~ 9 j 6.M.n.n.6.~ <.<.e 8 W n.C.C.6.n.b.| 8 + .                                               8 =.:Xx.x.~ .                                           . & 9 r g | >.| j 9 8 f | *.~ ..n.6.M % $ & & 8 j f 8 & 5 5 & $ 5 5 & @ @ 5 5 & @ + . .                   . .         . . .                             . . X X X X % ; ; ; % % o # % - ; % # # % - % # # o o . . . X # ; - ; y y ; # ; # . X # ; # # ; ; c i y y ; ; ; y i y y y c ; ; # ; ; ; % ; % % - # # # X o . X . X . o o   . . . .             i q w 7 w.! w.q.u.@.(.z o.m H o.s.#.d.f.!.(.%.o.o.H H H m H H s a ; # # # < c K #.K o.&.N o.%.2.%.2.o.o.#.o.#.H ",
"o.%.%.&.r.2.d.!.Y.%.L #.r.%.%.&.2.r.K %.2.r.(.OX%X%X[.@XzX$X#Xs.s.#.#.#.K K #.%.&.%.r.s.s.&.&.z K B N B B H H G i ; ; - % ; % o . o X X o o % o X .   . X o o % % 1 - #     . % # o . o o % % ; - - % % o # % ; ; ; ; y y 0 ; : ; ; ; # . . # # # # # # # ; = = # # # + # # = ; ; 0 i y 0 ; ; ; ; 0 ; 0 0 0 0 ; = ; # $ # # # X . + .           . . .       . . @ 4 9 $       . $ & + & 9 9 f W <. .R R W <.8...R *.~ R ~ *.W d M n 9 W b.k.6.<.*.~ <.b.W j | >.<.6.n.n.| j 8 $ .                                               8 ;.-XI.x.! .                                           . $ 9 f r Q ~ W f 5 5 f | *.Q ..6.b.| 8 & & $ & f d 8 & $ & & 5 9 9 & @ @ 5 & + . . . .               .                                                 . . . . X X # ; ; % % % # % - % - % % % % % # # o o . o # % # X X # % ; y ; ; y y # # ; : ; ; # # % # # ; ; ; ; ; y y y y c ; ; ; ; - % % - - # % # # # . X .   . o o .   . . o . . .           ; H b i.pXF.oX,.)._._.#.+ 7 $ N H s.2.u.r.o.B 2.2.%.%.%.%.2.#.G i % # o % < p H H K H #.H %.2.u.$.2.%.H #.K +.K ",
"#.#.%.f.d.u.p.f.s.%.o.2.s.r.%.r.o.K B K #.p.f.f.u.).D.i.+X.X)._.p.K #.&.%.H %.r.r.K K %.d.&.K K r.%.#.K %.K L G i ; ; ; - ; % # o % o X o o o o . X . o X . . o < < -     # o 1 - # . o o X # # % ; % ; # % # # # ; y i p y ; ; ; = # o . . # # # = # # # ; = # # # # # # $ $ = ; 0 y 7 ; = = = ; z z y 0 0 ; ; : ; # # # # * # . . .             . . .         . @ 4 +       . + & + + @ $ 5 d | *.Q Q >.V.A...g ! g U ..>.~ f f 9 u | b.<.*.~ ~ ` *.>.M f W ~ ~ <.n.>.j 5 $ $ .                                               4 =.,X-Xk.n .                                           . + 8 f g g g n f 5 5 g *.*.~ *.k.b.*.u & $ + * 8 9 5 & $ $ $ 5 9 9 4 @ @ & * . . . . .           .   . .                                                   . . X # # # % # % - ; ; ; - % % ; ; % # # # # # # ; ; ; ; X . o # # ; y y i i : ; 0 ; ; ; ; # o # # ; ; ; ; : ; ; y ; ; = # ; - # o # % % # # # o o .       o . .   X . . . . . .   .       z &.b eXD.-.-.b r p 7 %.$.}.s.2.H %.o.K p q N #.d.2.o.#.%.2.2.J a ; ; % - < c m B b H H #.r.2.2.#.%.r.#.#.o.#.%.",
"%.o.#.2.#.2.r.r.s.2.%.p.d.f.r.&.%.B b K &.R.r.s.&.a.N.N.[.).).~.R.2.2.&.%.K p.r.u.B N K %.r.K o.K K o.K r.2.N c i ; - ; - ; % # . o o o . X X o o o o o . . . . % % #         . % % . . . o # # - - ; ; # # # # # ; ; ; y 0 ; ; = # X o # # # # # # = # ; i y ; # # # # # # # ; ; ; 0 ; = # # $ ; z z i 0 ; ; 0 y 0 ; # # # # # . . .               . .     .   . + @ @ . + .   . + + + + . * 5 h g 6 e g ..>.Q f g R  .*.<.*.g u 8 9 | n.:.W n Q ~ ! Q f f M ~ ~ W <.*.u & @ + .                                       .     . 5 *.,X>X5.g *                                           . + 5 f g g f f u 8 8 n *.<.>.>.6.>.~ f & * . + 8 9 5 & $ * * & 9 4 @ + * $ + + + . . . .   . . . . . . .                                                   . X o X X X # # % ; ; ; ; ; # ; 1 ; ; # # # # % ; y ; . .   . o # # ; ; 0 ; y i i y ; ; ; y ; ; ; ; ; ; ; ; ; ; ; : ; ; ; ; ; ; - o - % % # # % o o . .   . o o . . o . . . . . .   .       c B V N.! w.,.r $ @ b (.).!.s.s.o.#.K H z p z H #.2.#.o.2.#.3.L S 1 < - - < c c b N o.2.%.2.#.o.%.%.%.$.o.#.#.#.",
"o.o.o.B o.%.&.%.%.s.u.r.&.s.r.s.d.K N K &.d.%.&.u.!.D.).%X$X)._._./.R.f.u.r.f.p.d.u.%.%.&.&.%.r.p.s.&.&.d.r.K G i ; % ; - ; - - o o o o . . . o o o o o X X .   . . . .         o % o # . % ; # - # % - # > - - % # . . # ; = ; # # # . # = ; y # # # = ; y ; = # # # # # # # = ; ; = # # # ; = ; 0 0 0 i i i y 0 : 0 ; # # # # % % # .                     . .   @ @ & & @ @ .   . . . + + $ 5 u 5 @ 4 4 6 k 6 5 e g h ..<.:.g u 8 f | :.W t g R W g d f f W | ~ W | W u & * .                                           .   . 9 ;.-X-X5.n *                                             . $ f n f d f 9 8 8 n *.<.<.*.;.~ W f & * . . 5 9 5 $ * * + & 5 @ + * & * + + + + . + . . . + + + . . .                                               . . . X . . . o # # % % % - - % % ; ; ; ; # # # # # # # # # % % % % ; ; ; ; ; ; i y y 0 ; ; ; ; ; ; ; ; ; ; # # ; ; ; ; ; ; ; 1 a c c ; ; # # . o # o . . o o . o # % o . . . . . . .   . .     i + O.u.! -.) i.zX.X_.H o.b N b B N N K H N m B N H K B #.1.1.L c < ; % % < c N H o.2.%.o.H o.K #.#.#.o.+.#.o.%.",
"#.#.K m N K #.%.%.u.u.o.o.2.s.Y.Y.%.K %.#.%.&.u.f._..X@XvXzX%X+X+X!.p.f.p.f.R.p.Y.R.R.f.p.r.Y.2.d.p.r.&.&.o.%.m i % % ; ; < - - , o X . . . . . o . . X o . . . . . o % o X .       . . . # # # % # # # - 0 y 0 # .     . - ; 0 = # # . . . # ; # # # ; # # X . # # # = = = = ; ; ; # # # $ ; ; ; ; ; 0 p c z i 0 ; i i ; # # > ; ; ; . . .                 . . . @ @ & & @ @ @ . + + + + + & 5 u & + @ @ @ 4 4 @ 6 t t ~ <.*.f 9 8 f | R g f g R Q R 9 9 f R | =.*.~ h f 5 +         .                                       * n x.-X9Xx.n * .                                           . * 9 f e e u 9 & 8 g ..*.*.*.*.| ~ f & + . . & 5 5 @ * + + $ @ @ + $ & * + + + + . + . . . + + * * + .                                             . . o o X . . X o # % % % % # % # - ; ; - ; % # # # X . . ; i G G v i y y ; ; y ; 0 ; y i y ; : : ; ; ; # - % - % ; ; ; ; ; ; ; ; ; 1 ; ; - - # . . X o o # % . o . . o o   . .   . . .   .       = $ a.N.a.'.w.'.)._.u.+.p b H B 0 7 0 z H d.o.H B B H H H #.1.J c < < - % < c N H #.#.2.N B H B #.%.$.%.%.%.#.%.",
"o.o.K B K o.#.#.%.2.%.B N B +.o.o.r.2.H #.%.&.s.f._.+X_.zXCXkX$X+Xu.r.&.f.u.d.r.s.p.s.2.r.%.%.&.&.s.2.r.&.#.K L c - ; ; - ; % % 1 % . .   . .   . . . . . . . . . o % < F < o       .     . . o # o o o # ; y 0 ; # . . # # ; ; ; ; # .   . # ; i ; 0 ; ; = * # . # # $ # # # # $ # # # $ = ; = = = ; ; 0 0 0 i y y i y ; ; ; ; $ # # .                       . * @ @ @ & + @ $ + + & $ @ + $ 5 y & + . + @ 4 4 4 6 e f :.6.h 8 & 5 f W R R R ..*.~ M 8 9 g W *.<.6.W j u 8 +         + . .   . . .                           $ Q c.,XqXc.g .                               .             . * 5 9 9 9 9 8 & 5 d W ! ! *.:.*.| j & + + + @ & 4 @ @ @ + & 5 5 * * & & * + . . . . . . + . . + + + . .                                           . . o o X o X # % % % - - % # % % ; - - % % # o . . . . # y i z v v i i y ; ; ; ; ; ; ; ; : ; ; y ; = # # o # # # # # ; ; ; ; ; ; ; # # % % # ; % X . . . . o . . o o o o   . . . .               # #.w.i.G.pXpXlX!.).2.Y.!.d.&.#.q p p #.2.%.%.%.o.o.#.H #.%.3.1.c ; - % o - i m N H B #.B o.B B K #.o.K o.o.+.#.",
"o.K #.B H o.o.%.o.#.#.N b q z q b H B o.o.o.s.f.f._.)._.$XzXkX*X!.2.p.r.f.%.#.%.&.r.%.&.%.u.o.u.%.&.u.s.&.r.#.L G y 1 1 ; # o o o .         . . . . o . . X % o o o . X - % o - % o # .     . . o o % # # ; ; 0 ; ; ; # # # # # ; ; ; > ; $ . = 0 y ; ; ; $ * . . . # . . # + # # * $ = ; $ ; = ; ; = $ ; = = 0 0 i z i y y i ; # . .                         + * + + 4 4 4 4 & + @ + $ + @ 8 5 & @ + . + @ 4 @ @ 4 6  .8.<.8 & $ 5 g Q Q ! Q *.*.*.W 8 9 M ..*.<.>.W f 8 5 *       . . + . . + + * + .                       $ R x.-XqXl.n +                     . .         . .         . * & 5 9 9 5 8 8 & 5 f g R | | *.~ f & + + * & 5 9 9 5 & * 5 u 8 * * @ * + . . . . . . . . . . + . . . .                                           O . o o # # % % # % - - ; ; % % - ; - % # # # # # # % - 1 ; ; ; ; y y y ; # # ; ; ; ; ; ; : ; ; : 0 ; ; % - ; # ; ; - # ; ; ; # % # # # - % ; # # . .     . . X X o o o # . . o o .               0 B V A w ) F.[._._.f.f.d.o.+.%.o.&.#.%.%.r.2.%.H o.o.H o.%.%.L a < - # X ; i z z b N o.B B N B o.o.+.H o.B #.o.",
"#.o.o.o.o.H b b H K K o.H H o.H o.%.&.#.o.o.u.p.f.f.!.)._.%XkX$X!.s.r.u.d.2.&.u.s.s.&.s.r.r.#.s.r.u.r.r.r.r.#.L v i < i 1 ; - # .               . . . o X % % % % o .       o < i c < - #   . o - # ; # % ; ; ; - # ; ; # # # = ; ; # # ; y ; # > ; ; $ # . .     . * ; # = $ # # # $ ; 0 ; ; # ; ; ; = = = 0 0 0 p z i y i i ; - # # .   .                   . . . @ 4 4 4 & & @ + . + @ & 8 $ + @ + . + @ @ @ + @ 9 ..6.:.h 9 + 8 R ....Q ~ ..*.>.W 9 9 h ..<.6.>.M f u 5 +     . . * & + . . * & * + . .                   $ Q v.-X-X=.f $                   . + + +       . .         . + $ & 8 5 & 8 9 & & 9 f Q ~ W | W f 5 + + + & u d d u 5 & 5 9 5 * * * * + + . .     . . .   . . . . .                                             . . . # % % - % % % % % - - # % - % % # o # # % ; y c y i - % ; ; ; ; ; ; # = ; ; ; ; ; ; ; ; ; ; ; ; i y y ; ; y ; ; ; ; ; ; # % o # % ; - ; # o . .   . .   . . o . . . . o .   . . . . .       i z ,.i.G.-.@.V $.q.u.&.%.p.%.u.d.d.2.2.%.#.o.o.H +.2.%.#.#.#.J c < ; % X # i p m N B H b B N B B H K K K B H H ",
"#.#.o.H o.#.7 N N B o.#.&.#.u.u.r.2.r.&.#.%.&.u.u.q.N.p.f.).+X).!.s.%.r.p.d.p.R.R.u.&.s.u.p.%.o.u.r.r.u.s.%.K G c i 1 i i < - - o .             . . . o % - % % o % .       o o % - - ; -   . # ; ; ; # % ; # # o # # ; ; # = ; ; ; # ; i c z 0 c ; ; # # # # . # $ # = ; i i = # # ; 0 y ; y 0 0 ; ; 0 y i i i i i 0 i i i y 0 ; ; ; # . . . .                     + @ 4 @ * @ $ + . . @ 5 5 * . + * @ + @ @ @ . @ d h Q |  .8 + u ~ <.>.Q ~ ~ >.b.W f u f | >.<.>.f 8 8 5     . . + 5 5 * . + $ & & & * + + .             . 5 R x.-XH.5.g & .             . . + * $ $ +   . + . .         . @ & 5 5 4 5 8 & $ 9 g ~ W g R ~ W u $ . . & d d u 8 5 @ & & & * * + + . + + .       .   . . . . . .                                             . . X o % % - % - % % # % # % - % # # o . o # ; ; ; y y i ; ; ; ; ; # # # % ; ; ; ; y ; ; ; # # $ ; ; 0 0 ; ; ; y ; ; ; ; ; ; # ; - - # # - % # . . o o . X . . o o o o . o . o . . . . . .       i b D.'.pXaX~.,.u.&.u.&.%.K %.d.R.&.H B B p p H H K %.%.2.2.2.H c < % # o # 0 c N N B H B N N N B B B H o.K H B ",
"%.o.B H %.&.B o.K #.&.%.$.2.%.%.o.o.%.%.%.%.$.r.f.~.D.D.D..X%X).R.u.r.2.s.&.p.s.s.s.s.p.u.f.%.u.s.r.s.s.r.s.K L v i 1 1 i < - - o o X . . .     . . o o - - % % o % . o . .   o o % % ; 1 # . o ; ; 1 X # % . . . X # ; ; $ ; ; ; ; ; ; y i y ; y # # ; = ; i i i i ; # # ; ; # # # = 0 0 = 0 y 0 ; ; 0 0 i 0 0 0 ; ; 0 y 0 ; ; # = ; # # # # . .                   @ @ @ @ + + * + . + & & & & @ + + * @ @ @ @ * d | | ..U g & @ 9 ..8.6.Q Q ~ <.B.:.R d f M | :.*.j u 5 *     + * & 9 5 * . + $ 5 8 8 8 8 & * .           + 9 / H.,X=Xl.Q 5 .         . . * * * $ 5 5 $ . . + + + .       . $ & 8 9 5 5 8 5 & u M ~ W f f ~ W u * . . & 9 9 5 5 y & $ @ 5 @ + . . . . + .           . . . . + .                                           . X o o # # % % % - % # # # # % % # # o o o # # ; ; ; ; y ; ; ; ; ; ; ; ; ; ; ; ; ; ; ; ; ; ; ; # ; ; ; = ; = # ; ; ; ; ; ; ; ; # ; ; % o # % % % % o # # # . . # o . X X . o . o . . . .           + z i.N.#XlX#X.Xf.,.o.N p 7 H H 2.#.H p p 7 7 b N o.%.2.2.2.2.L G 1 ; - - ; z i m N N B H H o.B B N B B %.H B K ",
"#.#.o.H #.#.o.H %.&.2.&.&.#.H B K H %.%.%.%.%.&.u.!.^..X[.+X+X).s.r.r.s.r.K r.%.o.&.p.p.s.p.&.Y.f.p.s.r.r.&.#.#.D i < < < < - <       . . . .   . . . . % % o o o o o . o . . . . # # % ; 1   . # ; o . # % # # # % ; ; ; # ; = ; % ; # # ; > #   . . # # = i z z p 0 = . . . . * # # $ $ = ; 7 0 = ; = ; ; ; ; $ = ; ; = ; % # # # # . . # # X .                   @ @ . @ + + @ & $ $ & & & 5 5 + . & & & @ @ u Q | Y U e 5 $ + 8 ..8.<./ ......<.*.R u f f M *.| f j 8 .     $ 9 9 f f & + * $ 8 u u f g f 9 8 5 5 * * & 8 f =.;XqX,Xx.Q 9 * + * $ & & & 8 & % & & 5 & + + * $ $ .       . * & 8 9 5 5 8 5 8 u M ~ ~ W R ~ Q 9 * + + 8 9 8 8 u d 9 & @ & & + . . . + + .           . . . . . .                                       . . . o # % % % % % % - % o o X X o # X # # # # # # # ; ; ; y ; ; ; ; ; ; ; ; ; ; ; ; ; 0 ; ; : 0 ; ; ; ; ; ; # # # # # # % ; % # # # ; # # # ; ; # - % # ; # # . o o . o . . . . . . . . . .           y q a.XXoXm.,.+.o.) b b b q o.H o.#.r.%.H K N H N %.2.u.2.#.#.#.J 1 ; ; - < c p N N N b N B #.H o.B B o.o.o.H o.",
"o.%.o.o.%.H B H #.%.&.r.r.&.o.H %.o.r.%.#.%.%.r.u.f.[.~.[.!.).!.%.2.%.&.&.H %.B o.%.r.r.p.%.p.d.r.s.s.r.2.2.#.J c < ; i ; ; - -           . . . . . . . o o o . . o X # o - % o X o % % % ; o   . > #   . % # # - ; ; ; # # # # # # # ; ; # ; # . # # # # # $ ; 0 ; 0 p : y ; = $ $ # # $ $ ; = ; = = = = = $ # # # # ; = > # # # # . . # = # - # .                 + & @ + * + * & @ @ * + + & & + . * & 9 5 u g g g d t u 5 @ + 8 ..b.6...:...~ >.*.R f g g g ..M u f y . . + u W W W M f 5 5 5 9 g M M | | W W ! R d f n R Q ;.:X-XI.l.~ j 9 d g g g g g r 8 9 9 9 8 8 * * & & & $ .     . + $ 5 9 5 9 u 9 9 f M ~ | ......Q d & * * 9 9 5 u f g d 5 & & @ + . . + + .           . . + . . .                           . . . . .     . . X o # % % % - # % - % # o o o o X . o # % ; % # # # # ; ; ; ; ; ; ; ; ; 0 ; ; ; ; ; ; ; ; y y y y ; ; ; # # # # # # # # # # # # # % # % ; ; ; # % % - ; # # o o o o . . . . . . . o . .             p b @.q.w.m.m.a.) ! o.o.B B %.b p N q = q o.r.r.%.H o.%.2.#.#.L J < , 1 ; i v N H H B H o.o.+.H o.o.H %.$.#.B o.",
"%.2.&.%.o.o.2.%.%.#.2.p.u.s.%.#.%.%.2.r.%.K &.&.&.f.a.^.D.).R.).%.H B &.o.%.K N B %.%.o.s.r.&.o.%.&.s.s.r.#.K m x ; < ; 1 < # #       . o . . . . . . . . . . . o o # o o % - o # % ; - - - i i i # -     . . # # - ; # X X # # # ; ; y i 0 y 0 0 c i ; ; * # # $ ; 0 c c c 0 ; ; = = # $ # = # $ = ; = = $ # # # # X # # # # # # . . . # ; ; 1 ; X                 + & + + . @ * & @ . . * * @ & * + + @ 5 5 5 8 9 d d d 5 & @ + 8 Q b.S.6.>...~ *.*.R U R R ~ ;.! u u u * + & f | *.:.:.R 9 9 f R ..*.*.>.>.<.<.6.>.Q W ~ R R { :X-Xl.5.~ R g n ` 6.=.` R t 9 r R g f 9 $ & 8 8 u 5 .     . + $ & 9 e f f u d g W ! Q W ..>.| g 5 * * 8 8 5 u d g f 5 * * * + .   + + .       . . . . . .   .                         . . . . . .     . . . o o o % # % # % - - ; - % # # # X o # ; ; ; ; # # # # # # # # # ; ; ; 0 ; ; ; # % ; ; ; 0 ; ; ; ; ; ; # # # # # # % ; # # # # # % # # ; ; ; - # # % ; ; # % o o . o . . . X . . . . . .           m &.q +.A -.m.[.,.$.N p 7 z o.p p 7 p m o.H &.%.#.B B #.K 2.#.L J 1 1 ; ; i J r.%.#.K %.%.%.o.H B B o.2.o.o.H K ",
"o.o.#.$.%.%.%.o.o.o.2.r.&.2.&.#.K o.&.&.2.%.#.&.u.f.~.@X!._.+X*XR.B H %.&.o.K o.z %.%.#.r.#.%.&.r.u.d.s.r.#.L G c % ; # - - # #     . % o X X . . X X .       . o # % % - - - % % % ; - ; - ; < y y ; o   . . X # # # # # # # # # # = ; y y y z c K c y 0 = ; ; 0 0 ; ; 0 = # = = = $ # # # = # * $ = ; = # # # # # . o # # = # # # # X . o % < y # . .             . +   . . + + $ & . + + + + @ * . . * & & & & 9 g g 6 @ @ + * 8 W 8.S.S.n.:.Q Q Q R g Q *.k.k.*.f u u 5 5 9 n | *.<.>.W f g Q <.n.n.k.6.n.A.C.n.n.;...*.R ~ x.-XqX:Xl.~ R R ' x.x.l.l.] E r g Q ~ ~ f 5 9 u u f 8 *     . + * $ u R M f f f j n n n n Q ~ W g 5 + . & 5 y u 9 5 5 & @ + + + . . . + .   . . . . . + . . . .                         . . . . . .     . X X X X o o o # # % - ; ; ; ; % % # o # % ; ; ; ; % # # # # o # # # ; ; ; ; ; ; % # ; ; ; ; ; ; ; ; ; ; % # # ; ; ; ; ; % # # # # # % # # # ; ; % % % # % % - ; % % o . .   . .   . . . . .   . .     i u.D.N.e._ ! O.O.q.B p 0 H B N #.N #.s.!.#.b p b p b m H o.L P S < ; % - < J #.H #.B o.&.&.#.H #.o.%.%.%.2.$.#.",
"o.K H %.%.#.H o.#.%.%.&.#.#.%.o.o.o.#.%.%.%.&.s.u.f.D.[._.).(./.f.H K %.%.B %.#.o.r.#.o.H o.r.r.%.r.&.r.%.&.L m c # # # # - # # .   X o o X . . . X . . .   . . o % # o - % - % - % - % % % - ; ; # ; ; # X . o # # # # # # # . . # # . . # # 0 i i 0 = $ ; # # # # ; ; i ; ; i 0 ; # # # # = = # # # $ # # # # # # # # # # # # # ; ; > # o % ; ; # # X             .     . .   . @ & + . . . + & & * . . + $ @ & e g g 6 @ @ @ @ 9 W <.S.A.n.=.Q U Y g g ..6.M.n.<.W M u 5 5 f W *.>.<.<.| ~ :.6.A.K.K.H.C.K.<X=X;XS.=.>.;.=.z.:X-X,X-Xx.Q R ~ l.H.x.v.I.v.( / *.;.5./ j 9 8 r f f 9 $ .   . + * & f W W g f j f f f g g R Q M u & + . * & 5 5 & * * @ * . . . . + @ & + . . . . . . + + . . .                         . . . . . . . . X X X X X o o # # # # % - ; ; % % ; - % ; ; ; ; ; ; - ; ; ; - # # % % ; ; ; ; ; ; ; ; ; ; ; ; ; ; # > ; # # ; ; ; ; ; # # # # # # # # # % # # # # # % % - # # ; - % - % # X . . .   .     . . . .       = B w.XXBXBXw.O.f.u.u.u.o.o.q b N H %.2.o.b 7 q b 0 N H N N N c a - - % % < c K K #.H o.#.o.+.o.%.o.&.%.%.u.f.s.",
"K K %.r.2.%.2.r.r.%.o.o.H K K B B %.o.#.o.K $.&.u.i.D.~.+X).(.T.2.#.o.&.&.#.%.r.%.&.B B B &.%.&.s.%.&.%.%.o.K m c - # # - # o . X o o o X . . . . . O     . . o # - o # % - ; % - % % - % ; ; % # . . # ; y ; # # # # ; ; # # . . . . . . o # $ = = # * $ z i = = ; i i i 0 $ ; # # . # # # # # # # * # # . . . # # # # # # # ; ; y y : y # # # # # # # .                 + + . + + + . . .   . 5 8 & + . . + $ @ 9 t g e 5 & @ $ 9 ~ <.C.Z.S.*.Q U g f h *.6.n.n.>.*.M f 5 4 j *.<.>.<.>.*.<.b.n.K.1X4X4X1X1X;XZ.;Xn.~ *.n.K.9XgXqX-X:X7.E R =.c.Z.l.v.:X-Xv.c.x.l.;.~ W j j M W W f & +   . * 5 f M ! W f u f f 9 d f g R W g 9 & * . + & 5 5 @ @ + . + . .   . & 9 5 * . . . . . + $ @ + + .                     . .   . . . . . . X X X . . X o o o # # # # % % % % % ; ; ; ; y y ; ; ; ; ; < < ; ; - ; ; = % # # ; ; ; : ; ; ; ; ; = # # # # ; ; y y 0 ; % # # . . X # o # # o o # # # % % - - - ; % % % o o . # o o     .   . . . . .     = m N.^.xXtXe.,.$X)._.).s.%.z B p #.N B N B b p 7 b N b N H H m i - % - % ; c K o.%.#.o.H o.%.o.#.%.#.o.#.u.u.2.",
"%.#.s.d.f.f.f.f.s.&.o.B B N B H H H B #.B o.K o.u.f.~.!..X).).Y.2.2.o.p.%.2.r.2.K %.o.%.N r.%.$.$.&.&.r.2.#.H m i % ; - # # o X - % o . . . . . . . . . . X o % o o . % # # % % % - # ; ; : ; % # o . X # ; - # . X # # # o X X . .   # ; y ; = ; ; ; = ; ; i i 0 0 y ; # # # = # $ $ $ = # = # # $ = # # . . # # # . # # # # = ; y y ; - # # # # . . . .     .     .     . @ 5 & @ . . + + . * 8 u 5 +   . @ & @ 6 t U t 5 & + $ u | b.A.;XA.7.( Y U g Q <.;.x.C.<.| M M 9 5 g *.<.<.>.*.*.8.B.A.<X8X0XwXdXwXK.5.C.A.n.<.l.4XjXMXjX-X:Xx./ / =.x.v.I.:X,XqX,X-X:Xx.*./ *.~ W ~ ..| M 8 + . + & u W | | | j 8 u u 9 9 e f g n j u 5 * . . & 9 6 5 & @ . . + .   . & u 8 + . . . . . + @ @ + + .                     . . . . . . X . . X X X . . o o X o # % # # # # % ; ; - ; ; ; ; ; ; - ; ; ; ; ; ; ; % % ; ; # # # # # ; ; ; ; - % # # # # # ; ; ; ; ; ; ; ; ; # # # # % # # # o o # # # % # ; ; ; ; < ; o . . . o % % . .   .               z o.N.'.XXoXw..Xa.p.#.o.K H K u.o.u.K N b N b b b p B B N o.K G s - % - % ; z N o.%.+.o.H #.o.N +.r.o.o.$.u.u.u.",
"u.r.r.&.s.s.r.2.2.%.#.o.B B %.K K K K K B #.+.u.f.!._.^.@X[.[._.d.2.K f.2.r.d.#.s.o.#.o.B &.$.o.+.%.o.%.2.#.N m ; # ; ; % - % o < - o .       . . . . o % o % % o . . . . o % ; 1 i < ; y i y % ; # o . o # # 1 ; # o . .   . . # # ; i y = # # # ; 0 ; ; = ; ; ; 0 0 = # = = = ; y 0 ; ; # $ = = = ; = # X # # # ; # # # # # # - ; ; ; # # # ; ; # # . .       . * +       * 5 5 @ . + + * * & u d 9 + . . @ & @ 5 d Q g & + @ $ f O.8.S.K.<XA.6...~ ~ ~ 6.n.1X0XK.*.Q W j f M *.n.B.6.<.6.n.].].8XdXhXhXmXhX,XZ.5.6.Z.Z.C.9XgXMXMX,X:X-XZ.5.*.5.I.-X,XgXgXwXqX-Xv.=.*.>...Q ~ ..*.~ u $ & 8 u M | *.*.*.W u 8 9 8 5 9 f f g f 9 5 & . . * 5 u u u 5 * + + X . . & 9 5 * + + . . + . * * . . .                   . .       . . . . . . X X X X . . X X o % - - % # ; 1 ; ; % # # # # # ; ; ; ; ; ; ; ; ; ; # - % # # # # # % % = = ; # # # # # # ; ; ; ; ; ; 0 y ; ; ; # ; ; # # # # # # # # # # # # - ; ; % % # # . . .   . . . . . . .       z H i.N.G.cXF.~.u.&.B %.o.B H B %.%.2.o.H B o.%.#.p B o.o.o.H G p ; # % # ; z N N o.#.o.H o.o.N o.&.o.o.%.&.$.%.",
"r.r.o.o.%.&.#.o.%.%.r.&.%.%.#.K K H o.K K %.r.u.f.f.^.).@X+X[.u.u.%.B u.#.%.r.2.u.&.&.2.#.+.+.$.%.o.o.%.%.%.G y # # % % % ; - # < o o . . . . o . . . o X . o o o . . # o - - ; y y y ; 0 ; ; % # # .   o # ; c z i # X . . .   . # i y ; ; ; ; # ; i z i i ; ; ; ; 0 = ; ; = ; 0 0 ; ; ; ; = $ $ = # # # # # # # # # # # # # # # # # # # # # - ; # # # .       . & & +     . @ @ + + @ @ & 5 8 u g d 4 + + @ @ @ @ 6  .g @ @ @ 4 g | <.n.A.K.<X1XJ.n.6.*.6.1XdXhX0XC.*...W M W <.A.].A.A.6.l.<XuXwXhXmXmXmXqX:X:Xx.] x.-X>XwXgXNXMXgX,XqXqX:X7.5.l.I.:X,XgXwX9X-XZ.6.*.=.*.*.>.*.~ W j u y u j W ~ | *.*.! j u u 6 9 9 e f f u 9 5 & . . * 5 u g f 8 & & & + + $ 9 u 8 & 5 5 * + + + + + .   . .                   .         . .   X X X . X X . . o o o % # - - % ; ; ; % # # # # # % ; ; ; ; ; ; ; ; ; % # # # # # # # # ; ; ; = ; ; ; # # ; ; # # ; # ; ; ; ; ; ; ; = > ; # # # # # # # # o o . o # % ; ; ; - o . .     . . . .   . .       = b O.q.w.aXeX^.@.N.2.%.%.%.B p p b z b N b N o.#.o.B B K H N G i % o o # - p G B o.%.H B $.+.N K &.o.o.#.%.%.#.",
"&.#.N N B o.o.#.%.&.r.2.2.%.o.o.#.%.%.%.#.#.&.&.&.u.N..X+X~.).f.s.K H %.K %.r.&.o.+.$.%.%.%.o.o.%.B #.&.&.o.N 0 y % - # # ; % - % . . X   . o - o . . . X . . . . . % 1 ; < ; ; ; y ; ; ; # o X # ; # . % X # # # # # # . .     # # ; ; ; ; ; ; = ; y z z 0 0 0 7 0 y 0 0 0 0 y 0 0 0 0 0 0 ; # # # # # # # = = # # . # # # X . X # # # ; # o # # # # . . .     . & 5 @ +   . + + + @ @ @ & 5 5 8 d d 9 @ + @ @ @ @ 4 g d 4 + @ 4 g ! :.b.n.8.K.sX0X1X].6.k.].sXdXwX1Xl.5.*.W W >.n.K.<X].=X<X7XdXwX0XwXhXhX-Xx.Z.Z.x.x.-XqXgXNXNXNXNXgX9X-X:Xc.] ' 7.x.-XgX9X,X2X;Xn.*.=.>.*.6.>.R j f f f f h ~ *.*...| W g f d e e d f f f 9 8 5 $ . . . & 9 d u 5 & & & + + 5 f f 9 & 5 9 5 * * * $ * .   . .                             . . . X X X X . . . X # o o # # - ; ; ; ; - # # # # % # ; ; ; ; ; y ; ; y ; % # # # # # # ; = ; y ; ; ; ; ; ; ; ; = = ; ; ; ; ; ; % # # = ; # # # # # # % # # # o X # % # % ; < - - # o .     . . . .   . .       ; N ,.i.~.XX#X#XN.u.u.#.2.r.o.b N q 0 0 B N u.o.B z N b b H H G 0 % # % % 1 i B H H o.H B %.&.H $.#.#.#.%.%.#.%.",
"#.o.N b m H B %.r.2.%.&.r.&.&.#.%.u.&.r.%.&.$.$.%.u.a.^.).).).p.f.K %.2.%.o.$.&.+.#.&.+.K o.H K %.K %.#.o.N m c i # X . # - # # % o . . X % o o o o o X X . . . o . % % - ; ; ; ; ; ; ; ; # o . . o ; # # . .   . . . o .   . . # # # # # % # = ; ; ; 0 i ; 0 0 0 0 0 ; ; 0 ; ; 0 : ; ; ; ; = $ . . . . . # # # # # . X o # X # # # # # ; # # # X # # . # . .     . @ & & .     . + @ @ @ & 5 5 5 9 e e 4 @ @ @ @ @ 4 9 9 & + @ 4 g Q *.<.>.*.n.uXdX0X<Xn.6.k.H.=X1X=Xc.5.*.~ R Q <.S.<X<X=X<X1X4XL.K.4X8X=XS.>.>.6.5.5.x.>XgXhXMXMXMXjX-Xl.5.=.` / / ( x.-XI.v.Z.7.=.=.6.<.Q >.<.R d f g h R W | *.*.| M M g f g d d d g g f 8 & & * + . X & 8 5 5 & & * * + * 9 h h u 8 9 9 5 5 & & $ * .     .                             . . . . X X o . . X X # # # # # % - - % % % # # # # # # ; ; ; ; ; ; ; ; ; ; % # # # # # ; ; ; 0 y ; ; ; ; ; ; ; ; ; ; ; ; ; ; ; = # # # # # # # # # # # % % % # # # % - % % % - 1 ; % % . .   . . . . . . .       m } q.N.m.G.N.~.i.O.$.#.+.u.o.H b N o.B B N #.o.N b N 7 c b K G y < - % % ; i N N N N o.#.#.u.o.#.&.#.#.+.+.%.o.",
"K K o.B K o.K %.&.%.o.2.2.2.2.r.%.u.r.&.%.%.H o.$.u.a.^.[._.f.f.u.#.%.%.$.o.o.o.#.2.2.2.$.o.%.H N H 2.B B q N m y o . . # # o # o % X o % , o X o - - % . . . . . # % o # - % ; - ; ; ; # % # .   .     o   .   . . # . . o # # . . . . . # ; # = # # = ; ; 7 0 ; ; ; # # $ # # ; = = $ ; ; = = # . . . . . X # # # # . . . # # # # # . # ; ; ; # # # # * .         . * 5 @ .     + @ @ @ @ 5 5 & & 5 9 4 @ @ @ @ @ @ 4 5 @ @ $ e Q ~ *.6.*.*.6.1X0X4XZ.7.' ] l.C.;X4X;Xl.6.;.*.W | 8.A.K.C.C.C.n.6.=.;.;.*./ Q R R R R ( 5.H.-X-XqXwXqXC.` ~ Q ( / ~ E ` c.l.5.C.n.*.l.S.6.R ~ *.M u f M Q ~ Q ..*.| ~ Q ~ ....R e 5 9 f f 9 8 $ * * * . + & 8 5 & 5 & * + * $ u h f u 8 8 5 5 5 5 5 @ * .                                     . X X X X # o o # # # # # # # # % % # # # # # # # # - ; % - ; ; ; % ; ; ; # - # # # # ; ; ; ; ; ; ; ; ; ; ; ; ; ; ; ; : ; ; ; = > # # # # # - ; ; % # # % % - % % - - % % ; % % % o o o o . . . . . . .         v %.!.i.F.G.F.m.N.O.o.o.&.%.+.N B B B #.H %.H H p p N #.K G L G v a ; - % < i m N B B K %.o.r.H #.#.#.%.o.b b B ",
"B K o.$.o.2.%.2.%.%.#.#.%.u.u.d.u.r.u.2.%.#.B b H ,.i.F.[.)._.f.u.&.K B B N K #.#.$.2.+.2.r.r.K H o.&.r.0 b K G i - o o # # # - X . . . . o o X X . . . . X . . . o % # % % - ; ; ; : ; ; ; ; # # # o             .   . # # # #           # # # # # # # $ = ; = $ # # # # # # # # = ; = $ # # = # X # # # # # # # # = X X . # # # # # # ; y y y # - - % # .         . . @ $ .     . @ @ @ & 5 5 $ @ @ 4 @ @ @ 4 4 @ @ & & @ @ @ e ~ >.6.6.*.>.<.n.A.Z.c.5.{ 5.Z.=X1X4X=XC.H.H.S.>.~ *.b.n.6.<.<.;.>.*.Q ^ / ( E R f r n ~ / 6.C.l.6.l.l.~ g f f g R Q Q Q / ;.l.C.n.6.C.K.6.Q R R h h Q R Q Q Q Q ..| ~ | >.n.n.Q 9 & 5 9 d 8 5 * * * + . + & 5 5 & 5 5 & * * & u u 5 & & 5 5 8 8 5 & $ + .                             . .     . X X X o # # % % % % # # % % # % # # # # % ; # # = ; ; - # % ; ; % ; ; ; ; ; # # # # ; ; ; ; ; ; = ; ; 0 y : 0 ; ; ; ; ; ; ; ; ; # # # # % ; ; ; ; # # % ; ; - % % # % - - # o o o . o o .         .           y K !.'.D.oXF.N.f.V #.o.o.#.o.#.s.u.B s.o.H %.N B N B H K J %.P c < ; ; % < i m H K K H K H %.o.#.#.#.#.%.z N B ",
"o.%.#.#.%.%.o.o.o.K K H o.o.$.&.$.%.%.%.%.o.o.o.o.q.a.D.N.[.!.p.$.#.#.K %.H %.&.+.o.+.%.%.&.%.H %.r.#.%.N u.K J c y ; % # # # # .         . . X .       . . . . . . o o # % % # - % ; - ; ; ; % ; ; ; ; ; i ; =   .   # # ; ; ; o     . # # . . # # # # # = = = $ # $ = = # $ # # # ; ; = # . # # $ = ; ; ; ; ; ; # # # # X # # # # # ; y y ; : ; ; y y ; % o . . . . + @ * + * + + @ @ @ @ @ @ + + @ & @ @ 4 5 4 @ @ @ & @ @ @ g -.n.n.6.>.:.:.,.=.x.H.x.x.c.-X4XqX9X=XH.;X>XH.6.` 6.J.n.>.<.6.;.*.~ Q *.;.=.*.~ n e g W | *.<.6.=./ ~ n 9 8 9 9 r R ~ ~ | *.<.;.*.>.n.A.6...R W W ..>.~ E Q ~ E | *.*.*.6.C.n.R & * & 9 9 5 & $ * * + . + @ & & 5 u u 5 & + * 8 8 * * * $ 5 5 & & $ * + . .                                   . . X o # # # # % % % # # % - % - # # # # # # # ; ; ; ; ; ; ; ; ; ; ; ; ; ; ; # ; ; ; ; % # # # # ; ; ; 0 y y y y 0 ; ; ; ; ; ; ; # # # ; ; ; % - ; ; % % % ; % % % % # # % . o o o o o o . .                   i H i.N.[.~.'.N.f.@.$.%.K H o.r.R.r.#.+.%.H %.H %.r.u.H N H L J c ; ; - - ; i N K %.o.o.#.#.#.B o.o.o.#.$.H o.K ",
"$.%.%.#.o.H B o.H B N N N B H o.K o.#.%.$.#.9.%.$.u.a.i.p.N.!.p.u.+.%.$.r.2.2.%.%.B $.o.+.%.o.K &.o.K N N #.K c i ; i i - # # o   .         . X o . . o o . .   . . . o # # - - - - ; ; 0 ; ; # o # 0 i ; G c p G z ; o . # ; ; # . . # ; ; # o . # = = # # # $ $ = = = ; = = ; # # # = = # . . # ; 0 = ; 0 0 0 0 ; # # - - # # # # ; ; : i ; : i : y y y y ; X . . . . @ + + * @ @ @ @ @ @ @ @ @ + + @ @ & 5 9 6 @ @ @ @ @ @ 4 Q 6.C.k.<.>.:.| W R 5.C.C.c.Z.-X9XqXqX=XH.;X=XZ.7.' n.1XK.<.6.k.>.~ Q ~ >.>.;.>.| g 9 9 j g h | >.*.~ Q g 9 8 8 8 r n Q ~ ~ | >.<.! | >.<.>.....<.=.>.n.l.( ~ *.E ..6.6.5.7.8.>.f + + $ 5 5 5 $ $ * * . . + + & & & d h u & * + & & + + + + * * * * + . + . .                               . . . . X o o o X o # # # o # # - - ; - # # # # # # ; ; - ; ; ; ; ; ; ; ; ; ; ; ; ; y y ; # # # # # # # ; : ; 0 y y y y ; ; ; ; ; ; ; ; # = ; ; ; ; - ; ; ; # # % % # % # # % % o # o o o o . . o . o .   . .       z B O.u.a.F.F.~.!.f.&.o.%.N 2.2.d.r.d.%.s.B 2.d.r.$.H B N K 2.L S < ; ; % ; p m K %.o.K 2.$.&.+.o.o.o.o.o.o.B +.",
"o.#.&.%.o.B B o.K B B B N N B H K K H o.o.%.9.$.$.&.a.f.~.~.!.p.u.2.o.o.r.2.r.$.o.&.#.#.+.#.B b o.o.%.b N o.K m i ; % ; < ; o #     .           . X o ; - - .   . o o # # # % # - ; ; y i i ; # ; i z y y G p p L y ; % - y > - # ; ; ; ; # # ; # # # # # = = $ $ = = = ; ; = = # # * # # # . # # $ = ; ; 0 0 0 ; ; ; ; i z y ; ; ; ; i : ; y ; i ; ; ; ; ; # . .       . . . @ + @ @ @ @ @ @ @ + + . + + & 9 t t 6 4 $ @ @ @ e ..n.Z.;.>.*.*.~ g f ~ 6.l.x.C.H.-X4X4XH.Z.H.Z.l.*.>.l.K.M.*.! Q Q R ~ >.<.;.>...Q g f 9 u f f M ..*.~ R f e 9 8 9 f ! ` ~ Q ~ *.<.*.*.<.*.....l.C.x.C.=XK.S.5.6./ =.6.7.l.7.>.R 5 . + * & 5 5 $ $ * * . . + * 5 9 5 u f 8 & & + * & + . + + . + + . . . + .                                 . . . . . X o o o # # # # # % % - - - ; ; - % # % ; # ; ; ; ; ; ; ; ; ; 0 ; ; ; ; y i y ; - # # # # # # # - ; ; ; ; ; ; ; ; ; ; ; ; ; ; ; ; ; ; ; % - - ; ; ; - # # o # o # # o # % % # . o o . . . . . . . .       i H O.q.i.m.m.a.N.$.o.K $.K r.#.#.#.H o.$.#.o.#.o.o.N B m J 1.P v ; % - % - c H #.%.#.#.&.#.o.#.H o.o.o.H B B o.",
"o.%.u.%.%.K K K o.K H N N N N B H H B K o.%.u.#.u.u.N.+X+X_._.u.$.2.2.&.%.o.$.r.&.u.u.&.%.o.K N z H H p K &.#.L c # - ; # % o #     . o o o X .         . . .   . . . o # # ; ; - ; ; y 0 ; ; 0 0 y 0 ; ; y i p ; ; z m z y - - o % ; # # # ; ; ; # # # # $ = = $ # $ ; 0 0 0 = # # # # X # X # $ ; # # % ; ; # # # > ; ; i i l y y i c i ; y : y y : ; ; ; # . . .     .   . @ + @ @ @ * @ @ @ @ +   . & f Q ....Q e 9 5 & 9 W 6.H.;Xl.<.*.*.| g f n E ;.l.x.l.C.=X;Xx.Z.H.x.7.*.6.n.6.*.W g e e f Q ~ ..*.*.~ / ..| M f f g W *.*.R n f f 9 u f ~ >.=./ Q | | | ~ ~ *...| ..n.A.S.<X4X4X4XC.n.5.=.8.x.x.8.~ d 5 . . * & 5 & $ $ * * . + * & 5 u 8 u u 5 & & + . + + . . + + + + . . . + . . .                               . . . . . X o o # # # # % % % # % - ; ; ; ; ; ; ; ; ; ; ; y ; ; ; ; ; y ; - ; ; i i y ; ; - # # # # # # # # ; # ; ; ; # # ; ; ; ; ; ; ; ; ; ; ; # - ; ; ; ; ; ; #   X . o % # % % # - # % . X .   .               i #.a.i.a.oXw.a.q.9.K B B B B H o.B H o.o.H o.N o.#.%.u.K K L J a - % - % < G %.%.%.%.$.&.#.B o.H o.H B o.$.o.+.",
"H $.%.o.o.o.H H K o.B N B H B B H K K B K o.u.+.g.a.f.).).4.!.g.2.o.%.o.&.+.o.u.o.%.%.o.K B K o.B &.b b o.#.H H i # ; ; - - o # .   o % % o o o .           o %   . . . . # ; ; ; % ; ; ; ; ; ; i ; ; # ; ; ; 0 ; p ; z m z c y # ; # # ; ; ; = ; ; $ = # # ; ; = ; ; ; = 0 0 = $ * # # # # # # # # # X . . . X # # ; ; ; i i c i y c i y i i ; i i c s y ; # X .         . * & @ 5 5 5 5 5 5 5 5 $ + $ g *.6.6.8...g f d 9 f ^ 7.;X;XZ.6.R R ~ g f f g ^ *.6.5.7.H.H.l.C.K.l.=.6.S.].A.<.~ g e f g R M f f f f Q >.<.| g f h W O.| g g g M f f n | *.~ R g W M f u f j h M W >.6.n.1X4XqX4XA.S.8.7.S.Z.A.n.g u 9 + . * & & $ * @ $ & . + * & & 8 8 5 8 5 & * . . . + . . . + + + . . . + + . .                               . . . . . o o . o # # # % % # % % % - ; ; % ; 1 ; ; ; ; y ; ; ; ; ; ; ; # # ; y i i ; # ; ; > # # # # # # ; ; ; ; ; ; ; ; ; ; ; ; ; ; # # # # ; % - % % % # - ; < # # o o % # ; - - ; % # X . .   . .     .       z #.N.N.~.[.'.~.a.a.2.+.H N B o.o.B B H N B #.K #.&.o.r.#.K %.J c ; # % # ; m K #.%.%.o.o.+.+.B H B o.B o.#.B H ",
"o.K +.H B K K H B B N N H H N B o.K o.o.b N $.#.u.f.!.).Q.!.g.%.2.o.H H o.K o.$.o.K b z B m B K +.&.&.N #.B m z i - - # % - o # o . o o X . . . . . . X . . X # o . o . . # % ; ; ; ; ; ; ; = ; ; 0 ; ; 0 ; % ; = 0 i ; ; y i z z z y i p ; = ; ; ; ; = # # ; ; = = ; ; = 0 0 0 = $ # # ; ; # X . . . . o . . # % ; # ; y y ; ; y y i y y y i ; y c i y 1 ; # # . .     . + + @ 5 8 y 8 8 8 0 u u & + 5 n *.6.>.8.;.g d e f R / 7.;X-X-Xk.U R ~ W f f g n W ` 5.5.c.Z.l.6.S.7.( 7.S.A.S.6.>./ Q ~ | ~ Q W h f e g | ..W h f f j M h u f f M g g R | W d 9 d f j f u 9 u u f R ....6.K.Z.=X=Xn.S.n.6.6.8.6.~ f u 5 * . + * & $ @ $ & & . . * & * & & & 5 $ * + .   . . . . + + + . . . + + + + . .                             . . . . . o o o # # # # # - % - % % # # % % ; ; ; # % ; y ; ; ; ; ; ; ; # # ; y y y ; - - ; - - # # # # ; ; ; ; y y y : ; ; # = ; ; # o . # # ; ; % % # # # ; ; ; ; - o . # # % - ; - % o o . . . . . .   . .     c &.a.~.oX'.oXD.f.g.u.&.#.#.B #.o.B B N N #.s.#.d.o.K K o.#.H G c ; % % o % i z H o.H H N H $.N o.H K o.H H H o.",
"o.K B N B B N N N N B B N B B B B N o.o.o.N #.$.u.f._.~.!.).+X!.s.%.H o.%.&.$.#.B H o.b %.$.+.K o.K o.B #.K N c x ; # . # % o # # . X . . .           . .   X . . . . . . . # % # - - ; ; ; # % ; ; ; 0 ; # # # ; ; ; ; # ; y z c i 0 0 0 ; ; ; ; 0 0 = # % ; ; 0 ; = ; ; 0 0 7 ; = = ; ; ; ; # # # # # # . . . # # # # ; : ; : y y y i y y ; - ; ; ; ; ; ; ; # + . . .   . + + & 5 8 8 5 5 8 u 9 $ + & f ~ ;.6.x.8.Q d t f R / 7.v.:X-Xk.T ~ ~ n u u g n j W ` 5.x.x.5.' ;./ E S.K.A.S.7.=.;.=.>.>...~ *.*.W f f W ..Q M 9 8 8 5 & & 5 8 9 f W ....| g d d R  .M h f f j M | =...>.6.6.6.6.6.S.C.6.=...W f 9 8 & + + + + @ & 5 5 5 & .   X * + * * & 5 & * + .     .   . + + + . . + + + + . . .                             . . . . X o o # # # % # % % % - - - % % ; ; ; y y y ; 0 ; ; ; ; ; ; ; ; ; y i i y 0 y ; ; ; ; ; = # # % ; % % ; ; : y ; ; ; ; ; ; # # # # # # # % % - % # % ; ; - % % # . o % # # # % # . o o o . . . . .         m o.a.~.'.F.~.i.i.f.&.&.B &.N K B H K b o.&.2.o.o.r.%.#.&.H H c i ; - % X % p B %.%.o.+.K K #.B %.#.o.K H +.%.%.",
"#.K N b b b N b b B B H B N H b b N N N B o.o.&.i.i.D.).!.).~.%XY.2.#.o.%.$.o.B b B B K o.&.%.#.&.o.o.m H %.N m i - - o # ; # o .   . . .   .           . . # % % % % # o . X # % ; ; # % ; ; ; ; . ; ; # # # % ; y 0 y i y ; ; z i ; = ; ; ; % ; ; ; = ; ; ; 0 0 ; ; ; 0 0 y 0 ; 0 0 0 y 0 ; ; ; ; ; ; # # # X # # # # ; ; : i i y i z i : # o # # o # # # ; # + . . . .   . . * & % & & $ 5 8 5 + + @ 9 R 5.S.x.7.~ d f g 9 R 5.7.Z.I.] E *...g d f g M M M ~ ;.l.x.5.^ R U / ].7X1XK.l.5.=.>.;.<.;.=.>.>.| g U Q Q R f 5 & * * & * * & 9 f Q / ..>.*.R g | | W R g g W ..>.>.=.>.*.~ W W ..C.C...R g u 8 8 5 5 & * * @ 5 9 f d 8 *     . + + * * * 5 5 & * .         . . . . + + + + . . . .                           . . . . . . . o o o o # # # % % % ; ; ; ; ; ; : i c v v y ; ; ; ; ; # # ; : i v c i y y y y ; ; ; y ; ; # # = # # # ; ; ; ; ; ; ; # # # # # # # # # # % - % % - % % # # # # o . o X o o # o o o # % o o . .           i N a.~.oX'.'.N.D.f.u.r.B H H o.K #.K o.o.o.2.%.#.+.%.u.&.#.H c y ; % % # ; m K %.2.$.$.#.#.#.+.r.%.o.o.o.2.u.&.",
"#.o.H N N K B B N N o.o.$.K H N N B N B B o.o.+.+.@.~.[.f._.u._.u.H &.#.&.o.o.B N B N p K &.$.+.B +.%.B o.B N m y ; - ; ; ; # #     . . . . . . . . . . . # o % ; # % % # X . o # # # - # ; y ; ; . o o . . # ; ; 0 y i i 0 ; ; y 0 ; ; - # # # # ; ; ; 0 ; = = ; ; = = = = ; ; = ; 0 0 ; ; ; ; ; ; ; ; ; ; ; # # # # ; ; ; ; ; y < ; y ; ; # o # # # # # # ; % + . .   .     . + $ & & $ $ & $ + . . & r ^ =.;.' *.~ f f f e R / ] l.x.5.` ;.*.R f f f j W W | *.n.Z.7.^ t ~ b.S.S.=XqX<Xl.5.=.5.7.6.6.8.8.b.:.R Q R e 9 & & $ & 8 & * & 8 d g g R :.*.W Y :.:.| R g R ..6.6.8.8.6.~ U g n Q l.l.~ u 8 & & & & 5 & & 5 9 9 5 9 u 9 *     . . . . + + & 5 5 * .           . . . . . . . . . . .         .               . . O . . . . . . . X o # # o # # - ; ; ; ; ; ; ; ; y c c : ; ; ; ; ; % - : i i c z y y y y y ; ; ; 0 : ; # # # # # ; ; $ $ # ; ; % # # # # # # # # # # # % - - # # # # # % ; - # # . . . o o # o - o X o .   . .       ; z &.N.'.m.'.D.p.u.&.o.%.o.N H #.%.#.r.N #.#.B H %.$.&.2.o.K G c ; % # % < m #.K %.2.&.%.r.$.&.&.%.o.o.r.#.$.%.",
"#.&.%.#.#.o.o.N B B +.&.%.2.K H o.B N B B b N b o.@.D.[.).).f.%.#.#.%.o.#.#.$.K $.K o.b u.$.o.H N K %.B N H N m i ; ; 1 ; - o # .   . . . . o o o . % # o o . # - # # # # # # . . X # # - ; ; ; ; # ; # # ; > ; ; ; = 0 0 0 ; y y 0 ; # # # # X X # % = 0 0 = % # # = # # # . # $ ; ; # # # # ; = # # # ; 0 0 # # # ; y i y ; ; = - - ; % # # # # # # # % ; ; # + .     . . .   . . * $ $ $ $ + +   . 8 R ^ ( R U ^ R g g f f R ( ` 5.c.Z.7.6.;.~ n f d d g M  .| 6.C.l.E t 7.K.8.Q 7.qXwX;X7.{ 7.7.6.;.>.>...W R W g 9 u & 5 8 f j u 5 & 5 5 9 f M | W R E >.6.:.Q ..<.<.6.n.n.8.6.Q g g g Q 6.6.W 8 & & & & * & & & u d d u 5 5 5 *       . . . + + @ 5 y & .           . . .     . .     . .           . . .         . O . . . . . . . . . o # # . o # # ; ; ; ; ; # # # # ; ; ; ; ; ; ; ; ; ; y i : i i ; ; y y ; ; ; ; ; ; ; # # # o # ; ; ; ; # % # # # # # > ; ; # # - # # % % % # % # ; % ; ; # - # #   .   . o o % . . .               ; b O.i.F.m.D.q.&.+.o.o.o.K o.H B o.%.2.N o.B N B #.%.2.%.%.H J x % # # % 1 G K o.%.%.2.2.2.#.$.2.2.&.%.r.%.o.%.",
"&.2.&.%.#.#.$.o.K o.#.&.K %.H B H o.N B B b B b N o.u.+X).).(.u.#.#.%.K N +.K +.&.2.%.o.&.B B +.H B o.H b m p c i ; - - - - o # .   .     . X o o o % - # o X . .   . # % # # . o # # # # # # # # $ y ; 0 ; 0 ; ; # # = ; y y y y y ; ; # # # X # ; ; 0 0 ; = ; ; # $ $ # . . . # ; = ; ; ; ; 0 = # . . # ; y ; ; ; y l c y ; % # # # # # # # # % # # ; ; ; ; % # .     . . .   . . + + + + + + +   . 5 g E U t t R R f f g g g R ( ] c.v.l.=.>.*.R d 9 8 u f j h | 6.>.~ ~ 6.C.6.*.7.=XwX9XZ.l.7.6.5.=.6.6.~ g Q | Y g  .h g  .,.<.*.g f f 9 9 g | *.Q U R 6.A.6.Q ..6.>.8.K.A.8.>.~ U g f Y ....g & * * * * + * $ & 5 u M W g u & + .     . . + + + & u u 5 +                     . .     . .           . . . . . . . . . . . . . . . . . . . # # o # % % ; # - ; ; % # o # # ; ; ; ; ; ; ; ; 0 y y ; y y ; ; ; ; ; ; ; ; % ; ; ; % # # # = ; = ; # # # = ; ; ; ; y y y < < ; ; ; ; ; % ; % % % ; % o # # - o . o . o o . . . . .             i N q.q.F.~.F.a.@.u.#.K o.o.%.%.2.o.2.%.#.+.o.o.o.o.%.#.%.2.1.J a % % % % 1 G H K %.#.&.&.#.2.$.&.&.%.#.&.%.%.%.",
"&.%.&.%.#.%.s.u.&.$.#.o.N N N H +.+.+.B B N B B N $.N.!.p.Y.Y.f.%.%.H B H o.K +.B N N B B b b H B #.o.&.N N p c i ; ; - % - # # .         . . . o # % % # . o . .   . # - % # . . # # # # . # o # ; ; = ; 0 = = ; ; ; ; 0 0 ; = 0 = ; 0 ; ; 0 0 i i 0 0 ; = ; ; ; ; ; ; * # # # ; = ; 0 0 i p z i ; # . X ; ; ; ; : y y ; ; ; % # # . . . o o # - ; ; ; ; ; ; ; % + .   .         . + + + + + @ + . . 5 f R t t g R R e r g R R ^ ` ;.x.x.7.7.7.>.R 9 9 5 8 8 u f g W ~ ..*.*.*.>.S.;X1X0X0XH.l.l.7.5.5.l.S.6.Q ..>.....8.:...<.].4X<X6.*.>.*.~ ..8.b.:.Q Q 6.n.:.Q *.6.<.:.6.S.6.6.>.W f f g g g u & * * + + + * & & & u W | g u & X . .     . + + * & 8 8 & +                               .         . .   . . . . X . X . . .             . X # # - ; ; - # % # ; ; # % # # ; ; ; ; : y y i i y y ; y y ; ; ; ; ; ; i i ; ; ; ; ; ; # # # # % ; # # ; ; y i i i y y i y y ; ; ; ; ; - ; ; # ; % % o # # % % % # % o o . . o o . .   .       p H i.q.~.w.F.N.i.$.B K o.H #.u.d.%.H s.#.#.#.o.o.B %.&.r.r.#.G i % ; - - < m H #.K &.r.u.&.r.u.s.d.2.o.#.o.&.r.",
"%.o.%.%.%.%.%.&.&.$.&.%.o.#.B H o.o.#.H o.N B B o.q.p.N.).f.u.#.%.+.#.o.o.o.o.o.N b B B b B N N N o.o.%.K N m c x - - - ; % o X . .     . . . . . o o o o X # X o o # # % ; # ; # # ; ; # # . . . ; ; ; y ; ; # ; ; ; ; ; ; ; ; ; = ; 0 i p p z y ; # # # # # # # ; ; ; # # $ ; = = = ; y i p z i y ; % # # # o # # ; ; ; ; ; - # o . . . # # # ; ; ; ; % # # ; ; # .           . + + + + + + + @   . @ f R g f R Q g e 9 f n g R / =.5.7.7.7.6.*.U 9 5 5 5 8 u u d j ! *.>.| ~ >.S.K.A.K.K.l.;.6.;.=.5.l.S.7.5.6.6.6.>.V.6...6.`.<X<X8.*.6.8.6.6.b.n.8.....n.8.| | :.>.>...Q >.8.n.6.R f d 5 5 9 5 * + + + . . * & & 5 f W R u 5 @ . . . .   . + X * & 8 8 & +                                         . .   . . . X X . . . . . . .       . . X # % ; ; ; % # # # % ; ; ; - > > ; : y i z c c i i i ; ; ; ; ; ; y y y i i p y i i 0 ; ; # # # # # # # = ; y z c c y ; ; ; ; ; ; ; ; ; ; ; ; ; ; - ; # # # o % % - - % # X X o % % o . . .     i #.a.q.m.,.,.w.q.$.N %.#.B 2.K 2.#.#.2.K K B H %.#.#.2.s.r.1.L c ; ; ; - 1 m K #.o.u.&.&.&.&.r.u.d.u.&.&.+.&.2.",
"%.#.o.#.$.#.%.%.&.%.s.u.2.s.o.+.o.N H o.o.K b b o.&.p.D.^.N.f.o.b o.o.o.o.H B B H N b N b B B B K N B H K N c c c ; ; % # % X . o . .   .     . . . . .   . . . o # % # # o # # ; # - % # % ; ; # y 0 y = # # # # # # = ; ; ; ; ; ; ; ; 0 y i p i ; # # # X . . o # ; 0 ; ; = ; # # # # # # # ; ; : i z y ; ; ; 0 ; ; ; ; - - # # # # # # ; # ; ; ; ; ; % # # - + + .         . + + @ @ @ + + @ +     @ 9 R !  .! g f 9 9 r g r t R / ( ] 5.7.5.~ g e 5 & 5 8 9 u f g ! ..*.*...:.>.>.<.8.6.*.Q ....~ ( 5.7.7.8.n.8.>...8.:.W W | <.<.>.~ W :.<.6.8.>.=.*.6.A.6.| ......| | Y | n.n...g h f & @ 5 & + + + + . . + & 5 u f g j 8 & + . + . .   . . . * & 5 8 & +             . .                         . . . . . . . . . . . . o o # . X . . o o o o # # # # # # # # # ; : y y y y i p i i i i i y 0 # ; ; ; y i y ; ; ; ; ; ; ; 0 ; ; $ # # # # # # # % ; ; ; 0 ; ; ; ; ; ; ; ; ; ; ; ; ; ; ; ; ; % # % # % % % # % o % . o o o o . o .       p B ,.i.-.-.i.O.O.@.B %.$.o.&.#.#.%.o.o.o.H b o.%.2.H %.t.2.s.3.G 1 < ; % 1 m K H o.$.$.%.&.#.%.2.r.u.r.r.%.u.%.",
"K K H o.o.o.o.B o.o.#.#.K $.B 2.+.B q H K H } B N ! ,.,.N.~.u.&.$.&.o.B B B B H N N N B b N N B B N B B %.N 0 p y % # % o . o . # . o . .       . . .         . o o o # # # o o X . o # . . # % # 0 ; ; = $ # = = $ # # # # # ; ; ; ; ; i i i y 0 ; # # .   . . . . # 0 p i 0 ; # . . . . . . . o % z c z y ; y i y ; ; ; # # # # ; ; ; ; ; ; ; ; ; ; ; ; ; ; # X + . .       . @ @ @ & 4 $ @ @ + .   + 4 g | ! g e 9 8 8 9 g r e R / ~ ` =.5.=.R f d e 9 5 & 8 u f f n W Q | >.>.~ W ..:.:.| W W M f R ( =.7.n.n.b.<...*.| j f f W *.*.W g Q | | *...| =.A.`.*. . . .W g f R ..>.6...Q Q R & @ 5 & + . + + . . + & 8 f f d u 5 & + . . .       . . + * & 5 & .             . . .                     . . .   . . . . . . . . X o % % # - % % % # X . . . # # # # # # # ; i v G c c c i i i i i y ; ; # # ; i i : ; ; ; # # ; ; ; ; ; ; # # # X . . # # # # # # % ; 0 y y ; ; ; ; ; - ; ; ; ; ; ; % % # - # % # o # . . . . . o %   o o O .     y p ! &.-.,.i.N.@.@.%.%.2.#.K K o.#.H B B B N #.K #.K 2.#.r.t.3.P i < ; % 1 m K H o.r.2.2.r.#.%.2.%.%.2.%.%.#.o.",
"H B B B H B N b N N N N b B N r.$.%.B b H $.u.r.! B @.i.f.+X[.f.&.B b N B B +.H B N N z b b b b b N B B B N = i ; X o #     X o . X o o . .     . . .   . . . . # # # # > - % # # # X . # # # .   . # ; 0 ; ; # # ; ; ; ; ; ; ; = ; 0 0 i i 0 ; % # o . . X # # # o # = y 0 0 ; ; ; # # # # ; ; ; ; y 0 0 y 0 y y ; # # # # % % ; y i y ; ; ; ; ; ; ; ; ; ; ; ; # X . .       . @ @ 4 4 8 & @ @ @ .   + f Q ~ M g d 9 5 & 8 f g n ~ ` ` ' ` =.=.R t d f f 9 & 8 f g g n W Q | *.*...W R ~ ..| W W f e g R Q =.n.8.<.:.| | | M M h M | *.| h f f g W | ~ *.=XS.| W W W h f f g Q *.>.=.*...W 9 & 5 & + + + + . . + & 8 f f 9 5 5 & + . . .       . . + * & 5 @ .             . . . .             .     . . . . . . .       . . . X o % % % - % % # # # . . # # # # # - ; y i i y ; ; ; ; 0 0 : ; ; ; ; ; ; ; ; ; ; # # # # # ; ; y 0 0 ; % # # . . . . # % # # # ; ; ; ; ; ; ; ; ; ; ; ; ; ; ; ; % % - - ; # o o X X . . .   . o o . o . . .     i z ! +.w.-.a.D.u.u.u.2.o.#.#.#.o.#.N m N B #.H o.%.&.#.K H 1.r.J a i < % i c H N o.2.%.2.u.%.#.%.o.#.#.o.K #.o.",
"B H o.B B B N B H H o.N b #.B +.o.$.B o.K H o.B o.! q.D.u.~.$X%Xu.b N N b N o.+.N N B B N B B N b B K N B H = i ; # # - # o o - . o % % . . . . . . . o # o o # - ; ; ; % ; % ; - ; # # ; ; ; #   . # ; 0 ; ; = ; # ; 0 y 0 0 ; 0 0 i i 0 0 ; # o o . . . # ; ; ; % # # ; ; ; p z p 0 ; 0 i z z p i i i c c c i # o . . . # ; ; y i l i ; ; y ; ; ; ; ; ; - % # # # X .       . @ 4 4 4 9 5 @ & & +   & R ~ Q g g f 9 8 & 4 e g U ( *.=.5.' ` ` E g f f f 9 5 9 g Q Q Q ~ >.;.~ | 6.>.R h W Q W R g g R Q R Q *.>.| Q Q ..*. .M h f  .| | h f d d R W ~ >.K.l.| h h h f f g g h W =.=.=...Q h 9 5 5 & * + . . . * $ 8 u f 9 9 & & + + . .       . . + * & & @ .         . . . . . + .           . .     . . . .           . . . . . o o # % # # # # % # # # # # # # y z i ; - # # # # # # # # ; ; ; ; ; 0 0 ; ; # # X . X # ; 0 i i i 0 ; # # # # # # # # ; ; ; ; ; # # = ; ; ; ; ; ; ; ; ; % # % - - - - % # o o o . . X . . X .   . . .       i b @.&.w.m.'.a.D.!.f.u.o.K %.%.o.%.B H #.o.H H #.#.u.o.#.L 3.3.P i ; ; ; ; c N B o.%.%.2.2.#.o.o.H #.#.o.o.#.o.",
"K o.H o.B N N B #.H &.r.H o.N o.#.u.r.$.%.B b b V @.~.D.p.f.!.d.%.N b q q b H K B o.N K B B H N N B +.b H H $ y ; o # # y < ; # o o o % . o o X . . o # # - ; % ; ; ; ; % - ; ; ; # # # # # ; ; ; y ; ; ; ; ; = i 0 0 y i i 0 0 = ; 0 0 ; ; # # # # o o # ; ; ; y y 0 ; = ; ; y i p i p z z p i 0 ; i i c c i i ; # # X # ; y i i y y ; ; ; y y ; ; ; ; ; - # # # # + . .     . @ 4 4 4 e 9 9 9 5 + . 4 g R R f u u 9 8 & $ 9 t t ^ ` =.5.` ~ / ` ~ n e 9 9 9 f g R ..;.5.*.` ~ | >.>.Q f 9 g W g g R R R R E ~ ~ W R Q :.:.M f h h  .:.W f f f f M R Q 6.K.n.Q d u d d d f d d d R Q | ~ Q W f 5 5 & & .   . . * % 8 f g d d 5 $ + . .         . . . + $ & & +           . . . . . .             .     . . . . . . . . . . . . . . o o # # # # # # % - % # # - - ; y i y ; ; ; ; ; > # # ; ; ; ; ; ; ; ; 0 ; ; ; ; # # # # ; ; ; ; ; ; ; ; ; = ; y ; ; ; ; ; ; % ; = # > ; ; ; ; ; - ; ; - % # # % % # ; - # # o o X o # . X . .   .   .       = H -.u.m.'.'.~.f.u.u.&.o.K o.#.%.u.u.%.%.K B H %.2.%.#.K #.3.L J 1 - < < ; z K H K %.%.#.%.&.#.#.%.H o.K o.o.o.",
"o.H B B B B B K o.o.o.%.o.H N o.#.%.2.o.K B b b ! ! ) i.O.f.u.u.o.B B N b +.o.o.%.H +.#.N N B B b N o.N N N 0 = ; o # X # ; % # o o . o # % o o X . - # - - ; - - # # # # o # - # # # . . # # # ; y ; ; # # 0 0 = i 0 i z i ; 0 0 ; ; ; $ # . . # ; ; ; ; ; ; ; ; ; 0 = ; 0 ; ; 0 i m G G c i ; # # ; y i i i c c p 0 ; : z c z y ; ; # - ; y i ; 0 y y ; % # # # # X X .       . & & & 9 e r e 5 + + 4 t R g f 9 9 4 & $ + & 9 t R ^ / ' / / *.*.~ g e 9 9 d 9 9 f / 5.5.( Q / / ~ Q W R 9 f W W g g g g R Q Q Q Q Q Q :.6.R j  .| | <.W d f g Q W R W 6.S.n.~ d 9 u 9 u u u 8 5 5 u d g h h d 9 5 & * .   . + & 5 9 e f f d u & + . .         . . + * * & $ + .         . . . . .                     . . .   . . . . . . . . . . . o o o # # # % ; ; # # # ; ; y y ; ; ; i y y y 0 0 ; ; ; ; ; = ; ; ; 0 y 0 y i y ; y ; ; # # # ; ; ; ; y p c i i 0 ; ; ; ; % = ; ; ; ; ; ; ; ; - ; ; % # o # # % # - - % # # o o o o o o . . .     .       p &.i.tX'.eX'.N.a.$.o.#.o.%.#.2.%.2.2.%.o.B H K N K K o.#.#.1.I J a ; ; - < G %.#.2.%.%.%.%.o.H H H B H #.K o.o.",
"H B B B N B #.+.o.+.H H H b N &.%.+.H B K +.+.&.&.! @.) a.,.@.u.2.%.o.&.r.u.s.&.u.u.r.&.$.2.$.+.H N N q z B 7 0 ; X # # o # o # . . . . % . # o % o % % % - - # # # # # # X X # # # - ; ; ; . ; y 0 ; ; $ ; ; 0 0 0 0 y i i 0 0 ; ; ; = ; ; % # = $ ; ; ; ; ; ; # # = ; ; ; ; = = y z c z i ; ; # ; ; y y y i z c c i i y z c i y ; ; # # ; : : ; = ; ; ; # # # # # # o .         . @ & 4 e t 9 4 @ @ & e E R g d 8 $ $ + . . 4 e g R ` *.~ ^ ` *.~ R 9 4 8 e e 9 e ~ 7.5.~ ~ =...R g ~ ..R g R ~ W g f g R Q Q R Q ~ Q ..8.| f h W | <...h f R ~ | Q ~ 6.S.8.~ f d u u 5 5 8 & @ $ @ @ 5 d u u u 5 & + . .   + & & 8 8 d g 9 8 & + .           . . + * * * * * . .       . . . .                   .     .     O O . . . . . . . . . . X o o o # # ; ; % # # ; ; 0 0 ; # ; y 0 y 0 0 0 ; ; ; = ; ; ; ; ; ; 0 0 y i y y i y y ; ; ; = ; ; ; y z c i y i ; ; ; = ; ; ; ; ; ; ; ; ; ; ; ; ; ; ; % % # % # ; ; ; # o X o o . . o . . .   . .       z &._.~.F.#XoXN.q.+.o.K o.#.K o.%.%.#.o.o.B K H B B N H o.#.1.1.J a - - % ; G 1.#.2.u.2.&.o.o.#.o.B H B o.o.K B ",
"H H o.H B H o.+.H K B H o.b H &.+.o.o.o.%.o.B +.B O.O.-.i.O.&.u.f.B o.o.%.o.H $.o.#.o.%.&.s.u.d.&.o.o.b N H 0 i ; # - o . # X . . . . o % o o % % o % - % # # # # o # # # % # # # . - i i # y i c y 0 = ; ; ; ; i i y ; ; 0 0 ; = = ; = = 0 i 0 0 ; % % % % # # . # # % ; = = ; ; ; ; ; # # # # ; ; 0 0 y y 0 0 i i z c 0 y i y y y 0 ; ; - - > % # ; ; # ; ; ; % % # # X           . + & 8 8 5 8 9 4 4 t ^ R f 9 5 & $ + . . @ 8 9 g Q ~ Q t Q *.~ f 9 & 5 9 g g g / 5.7.` ` ;.' Q E / *.~ Q g g R R g f g ~ *.*.~ Q Q W ..W u 9 d Q >.>.| R g W Q Q *.6.n.n.Q d 9 u 9 5 5 9 5 @ @ * * & u u 9 d 9 & * + .   . & & 5 & 9 g u & & X .           . . + * * $ & $ * + .     . .                     . .                   . . X . .     . . X X o # % # # % - # # ; 0 ; ; = % ; ; ; ; ; ; = = ; = = ; 0 = ; ; = ; 0 ; 0 0 0 0 y i 0 y 0 ; = ; 0 y i y i c z i y ; ; ; ; ; ; ; ; ; ; ; y y y ; ; ; ; ; ; # ; ; ; % % o o o   . . . X . . .         i K N.~.m.XXF.q.B &.%.+.o.K B H H K B B N N o.N N B K %.o.2.r.L S a # o % i G #.N #.#.K o.o.o.%.#.K o.N B B B B ",
"K o.#.o.H K H B K K B z %.B o.o.o.N %.#.%.o.H q N ! ) N.i.V u.f.u.2.o.$.N N b B o.N K H +.o.s.p.s.%.2.#.%.%.$ 0 ; o # # o # X . o X X . X o # % # - - - # o o o # # # # # ; ; ; ; # # ; 0 y y z 0 ; 0 ; ; ; ; ; y y 0 ; ; ; 0 ; ; = ; ; = 0 i i i 0 ; # # # # # # # # % ; ; ; ; ; # # # # # # # ; ; ; ; ; ; ; ; y i z c 0 ; ; ; 0 y y ; ; # # # ; # % % ; ; ; ; % ; % # o .           . + & 4 7 e R g t E ( R t 9 5 & $ . . * $ 5 9 9 f W ! f f ~ Q e 5 5 5 9 f g R *.5.5.( / ' / Q / =.5.;.*.~ t r Q R f g ~ ' ` ~ E R g R W f 9 9 R >.6.*.| g g Q ..>.>.6.8.| d u u u 5 8 u u 6 5 5 5 5 u d d e d 5 & * . . . & 5 5 8 9 d 8 & % X               . X + * $ & $ $ $ * .                         . .                     . . . .         . o o o # # # # # % ; % ; 0 ; = = # # = $ ; ; = ; = ; ; ; ; ; = ; ; ; ; % ; ; ; ; ; 0 y 0 y y ; ; ; ; 0 y y i c c z y 0 ; ; ; ; ; ; ; ; ; ; 1 ; ; - ; ; ; ; ; % ; ; ; - ; % o . . .   . .   . . .       ; z O.~.i.N.~.i.p.q.2.o.o.%.N H N B N K H b m K N N #.#.H %.%.K a < X # % 1 m #.H b B N H o.o.#.$.o.H N N B N N ",
"H #.%.&.#.$.%.o.+.$.K #.o.o.o.&.r.r.f.u.u.$.$.o.+.@.,.N.N.,.#.(.2.B B +.B B N N B o.$.o.o.+.&.u.&.u.&.r.&.o.0 # 1 - - ; ; ; # . # % X .   . # - % < - - o o o o # % % % ; ; < y c ; ; # y i z i ; ; ; 0 ; ; ; ; ; ; # ; 0 0 0 = 0 = ; % ; = ; 0 0 0 0 ; ; # ; = ; ; ; # % # % % ; ; ; 0 ; = ; 0 0 0 0 ; ; ; ; ; 0 y y i y ; ; ; ; 0 0 ; = # # ; ; ; ; ; ; ; ; = % ; * # X .             . + $ 4 R ..~ ^ / / R r 9 5 $ + + + & 5 9 d f 8 u R R R Q R d 9 5 & 5 e g Q *.6.5.( E ^ E E ` 5.x.x.;.*.Q g E ( R R ~ =.=./ ^ n g R Q g 9 9 R <.8.| W g R ..<.<...*.>.| h f d u 5 5 5 d d d u u 5 9 d f g g f & $ * . + $ 5 8 9 9 8 & % & + .           . . . X + $ & 5 5 & @ + .                         . .           . . . . . . . . . . . . o # # # o o # # # # ; ; 0 0 ; ; = % $ $ ; ; = ; = ; ; 0 0 0 0 ; ; ; = % # ; ; ; : ; # ; ; = ; ; ; ; ; ; 0 y y i i y y ; ; ; ; - ; ; ; ; y y ; ; ; - ; ; ; - ; ; - ; ; ; ; % # # . o . . .   .   .       y b ,.u.G.a.N.a.p.u.&.%.o.#.H K B N N H b K o.#.%.B 2.%.%.#.K c a - ; ; % < i H #.B H B K o.o.o.#.o.B N H B K B ",
"K %.&.r.u.u.&.d.$.%.K &.o.%.&.$.o.r.r.&.d.u.Y.u._.f.D.p.,.u.H q 7 7 b K b b K N N o.$.2.$.+.%.r.o.f.u.s.r.%.N = i ; ; ; ; < - - % % . .   . # - o % # % - o # # # - ; ; ; ; ; ; : - # . # # ; ; ; ; ; ; ; # = ; = ; # = 0 7 0 0 7 ; ; % % ; ; = ; = 0 0 ; ; ; 0 0 ; ; % # # # % ; 0 y i i y y i i y 0 0 ; ; ; ; ; ; ; ; 0 0 0 ; ; ; ; = = ; = ; ; ; ; ; ; ; ; ; ; ; % * # .               . + 4 g ~ =.' ` / ~ g 9 8 & & $ $ 5 g W R h 8 & f Q ~ | Q f 9 5 $ @ 9 g ~ *.5.7.] ( ^ ( / ' 7.x.5.E Q ../ / *.=.*.=./ *.=.~ g f g Q Q g f g =.8.Q g g R *.6.=.~ ..>...g h g d u & & u h h g d 6 5 d g g R M 5 & & * + * 5 8 8 9 9 5 & $ * * . .     . . . . . * & 5 8 8 5 @ + .                         . . . .   . . . . . . . .   . . . # % % # # # # # # # # ; ; 0 ; = ; ; ; ; # # ; ; ; ; = = ; 0 0 0 0 0 0 0 ; ; ; ; ; ; y = # # # ; ; ; 0 ; = ; ; ; ; 0 ; : ; ; ; ; ; ; ; ; ; ; ; ; ; ; % ; ; ; ; ; ; % # % ; ; ; ; - - . o . . . . .   . .     z K i.p.N.a.w.+.&.&.u.$.%.K K K B m N K o.%.%.%.s.#.2.%.%.N c i i ; ; ; # % i m H K B K K #.o.K H K B #.o.o.B H ",
"%.%.2.%.r.r.&.2.&.&.o.o.z K $.$.H +.+.K $.&.u.!.).+X~.N.i.u.u.b $ $ p B b B N b b B #.o.o.o.+.%.$.r.r.s.2.o.K z c % - - ; - % - < % . . . % % % . # # # # # # # % % - ; ; ; ; ; y # o . . o # # = ; ; = # # ; ; # $ # # = ; 0 0 0 0 ; = ; = = = ; ; ; ; ; y y y y 0 = ; ; % ; ; ; ; ; 0 0 y y y ; ; ; ; = ; ; ; ; ; 0 y 0 y 0 ; # # # # ; ; ; = ; ; ; 0 0 ; ; 0 ; ; % % # .   .         . . . + 7 t / =.] *.*.R e 9 8 8 4 4 r *.>.W g 9 @ 6 R | ..| g 5 5 & + $ e Q / =.7.l.] ( =.' ` 5.c.7.E U / ~ Q *.*.=.C.l.=./ ~ n g R Q Q R g f R ..R g g Y | *.| W Q :.<.R h h h f 5 5 u h  .W W f 5 9 d f R f 8 % & * * $ 5 9 9 f g u 5 & 5 & * + . . . . . . + * & 5 5 5 5 & + .     . .                   . . o o .     . . . . . . . . o # # # o X o # # # - ; ; ; = = # = = = ; # X # # ; = ; ; ; ; ; = = ; ; = ; ; ; ; ; ; ; ; ; # # # # ; ; = ; ; ; ; ; ; ; ; 0 y y y y y y ; ; ; # # # - ; % ; ; ; - % # # # % % # - % # o . . . . . . . .       p #.i.!.N.F.~.a.&.u.s.o.H H o.K o.B H r.H K K %.%.H 2.%.%.H J s v a < ; o - c G H #.B o.K #.o.B o.o.o.2.&.&.o.o.",
"&.%.#.H %.r.o.%.H 2.#.H 7 N &.N N N B +.$.u.u.R.).$X+X#X#Xu.Q.&.$.b q b N b b q p q b o.o.o.$.&.o.s.s.r.u.r.K m i o - - % % o # - o . . o o o -   % # o # # # % % # - ; ; ; # - ; ; % #   # X X ; ; = = ; ; 0 ; ; = ; ; = = = 0 0 0 0 ; = = = = ; # % ; y z z i i i y ; = ; = ; ; = = = ; = ; = ; = = = = # # ; ; ; 0 y y 0 ; ; # # # # = ; ; ; = ; = 0 0 ; ; ; ; ; ; % # .   .       . * .   . 8 r R ` ' =.*.W r e e d 9 7 g >.>.g 6 9 d g ~ *.*...n 9 8 5 @ * 5 g ~ =.l.x.l.5.7.5.E ' x.x.( U ~ / Q *./ / C.;Xx.7.5.` R R R g g g f f f f R W Q ~ ~ R W Q ..>.~ Y M R h u u u h Q  ...~ d 9 9 f f 9 8 & & * $ 5 9 d d R Q R g f f 9 5 & * X . . . . + * & 5 5 5 5 @ +     . . .                 . . . O O . .       . . o o . . X o . . . . o # # ; ; 0 0 ; # # # # ; ; ; # . # # # # ; 0 ; = ; ; ; ; # ; = ; ; ; ; = ; ; ; ; # # # > ; ; ; ; ; ; ; ; ; ; 0 i i p p p i y ; - # # # # % # ; ; # % % % # % # o o X # # # o . . . . .           z $.a.q.`.oX.XD.a.p.g.+.B K o.&.#.%.#.%.o.H #.#.r.#.#.#.K H L L J a % < # - c N K #.o.B #.o.K K %.K %.%.r.p.u.2.",
"2.r.r.#.&.r.&.%.+.&.o.z z p $.B b p o.o.+.u.+.u.u._.@X@X+X&.f.2.p.&.b H b B b p N w b q q N N o.B o.o.N o.K p i ; o # # # # o X o . o o % o o # . # X o o o # # # # % % % % # X # ; # # # # # . ; ; # # # ; 0 p 0 0 ; # = = ; 0 0 i 0 ; ; 0 ; = % ; ; ; 0 i i 0 0 0 ; ; ; ; ; % # # ; ; 0 ; ; ; ; ; ; ; ; # # ; = ; ; ; ; ; $ # # # # # ; ; # # # # ; = ; 0 0 ; ; ; ; ; # X .         . $ * . . 9 g R ~ *.*.*.~ n n g g f r Q 6.>.U g Q ;.6.l.l.6.*.Q g f 9 5 & 4 f Q =.x.x.l.l.l.7.' 5.c.H.l.=./ ~ / >.( ( x.Z.v.7.l.6./ R g g f f d g g g | ..W W Q R | ......Q g f R W h u u f Y Q ....R g d g d 9 8 $ $ * * & 9 f g Q ~ ~ ~ R n g u 5 5 % + . . . * $ 5 8 8 5 & + .     . . .               . . .     . % ; o . . . . X o o o o X   . . . . # ; ; ; ; ; ; ; $ # # # % ; ; # # ; 0 0 0 0 0 ; = ; 0 0 ; 0 0 0 0 ; ; = # = 0 0 : ; ; ; ; # ; ; = = ; ; = ; 0 y i i i i i y ; = ; - # # # # % ; % % # ; # # # X o o # . . # X . . . . . .       p o.i.) F.~.~.i.,.f.u.o.B K %.#.K %.o.&.B B #.%.u.%.%.B H L L L x i % ; o % c H #.%.r.%.H K K %.%.H %.%.&.2.r.r.",
"2.f.f.u.s.&.r.$.o.H o.b u.#.o.H r.#.b B o.+.o.B &.,.~..X[.u.4.2.#.H K N N B N p q $ $ 7 q p b b z b q b q b = ; % . X # # # o o . . . . . . . . # # o o o . X o o # o # # # % > - # . . y ; ; . ; # . # # ; ; = ; ; = ; = = 0 i p p i 0 0 0 ; ; ; = ; 0 ; ; ; = ; ; ; # # # # # X o # ; y y ; = ; ; ; ; # # # # = ; ; ; > # # # $ # # # # = # # # % % % ; 0 0 y y ; ; # o X . .         * & +   & f n ! | ~ ! ! R R R n n Q >.l.l.l.Z.H.;X;XZ.Z.n.<.*.W f 8 & & 5 9 f ~ 6.7.5.5.l.Z.Z.c.c.Z.x.;./ R R / / 5.x.x.7.7.l.8.=.~ R R Q g f R ....| ~ R W Q Q Q | | ....R d h  .j 9 6 d g Q Q ~ W R g h f 9 5 % $ * * $ 8 f E ( / ` / U f g g 9 5 & % + . . * & 5 5 5 & $ .       . . .               . . .   . % o % - o . . . o # % # o . . # # X o # ; 0 0 ; ; = ; ; ; $ # % ; # # # ; p z i 0 0 0 ; 0 0 0 0 0 0 0 i i y 0 0 0 z c c z i ; ; # # ; ; = ; ; ; ; ; 0 y i i y y y ; ; ; ; ; ; ; - ; ; # # # % ; # # # . . o . . o o . o . X X O       p H ,.) w.,.a.p.@.&.&.o.#.K #.K K #.o.o.b B K %.%.#.%.#.s.2.W.L x a ; ; . % c H %.%.r.s.u.&.s.s.$.#.#.#.#.%.&.2.",
"%.2.2.#.&.o.$.K N B 0 &.f.p.s.2.s.&.K z N B H o.@.,.a.i.p.B #.J p z b q 7 N N q w q b N z b b b z b q N q N 0 i y # o # # # o . . . . . . . . . # # % o . . . o # o X # # X # ; ; # #   # ; . # ; ; # . X . # # # $ = ; $ = = 0 0 0 0 ; ; 7 ; = = ; = = ; = ; = ; ; ; ; ; % % % % % ; ; ; 0 ; ; ; % ; ; ; ; ; ; = 0 ; = ; # = = ; ; # # # # 0 ; = ; = ; ; y 0 0 0 0 ; # o X .           + & $ .   & f n W n n R R n n n Q *.6.l.l.Z.;X-X-X;XC.S.6.>...W f 5 @ @ 5 9 e Q 6.=.( ( ' 5.l.x.x.v.x.6.5.~ g E ' 7.x.x.5.=.6.5./ R g g Q Q R Q *.6...R R W ~ Q R R Q ..| | h f W d 5 5 9 f U Q Q W M f f j u & $ & $ * 5 e R ~ / ' ' / Q R R n f 9 8 8 * . . * & & 5 & $ * .       . . .             .   . . . . o o o X . . . . o % - % % - ; % # . X # = ; = ; ; # % ; ; ; % # # ; = ; ; 0 0 ; ; ; = = ; ; ; ; = = = ; ; 0 i z y i i i i i 0 ; $ $ = = ; ; ; ; ; ; = ; y y : ; ; ; ; ; ; ; ; ; ; ; ; - - - - - # # # o o o . . . . . o . . . . .     z H q.f.N.a.D.u.,.$.o.H %.H K K #.#.o.H B o.#.%.#.#.%.2.#.r.t.1.G a ; ; . - c K #.#.2.%.2.%.2.d.&.o.&.#.%.%.%.%.",
"#.%.K H +.H N b b B B B %.&.%.2.#.&.&.B q N H +.+.O.q.-.,.V y G m #.H B q q N K f.+XY.u.o.$.B z b N N b B &.i i v < - # X X . . X .       . o   . X . . o o o # # # o # # o X # . # #   # # # = 0 i y y 0 # # ; $ = ; # # ; $ $ ; ; ; ; % ; = 0 0 0 ; ; = ; ; ; 0 ; ; ; 0 ; ; ; ; ; ; ; ; 0 : % . X # ; y 0 0 0 0 y y y y 0 ; ; ; ; ; ; # ; p c i 0 ; 0 y y y 0 ; ; ; ; # X . .         . & & .   . 5 f g r n R Q n f f W *.;.*.;.6.C.H.;XZ.S.n.8...~ R d 5 @ & 5 8 e R *.` E ( ( E ( ( ( { 5.5.;./ R R / 7.C.C.7./ / ..Q U Y g R Q R g Y ..~ g g Q Q n f f R *.*.:. .f d 9 @ @ 5 e g U R R M g d f u & $ 5 $ $ 8 f E E E ( E R ' *.R f 9 8 8 8 * . . + $ & 5 & * .       . . . .           . .   . X o o o . . . % o % # o % # # # > ; # o o # # # = $ # # # # ; = ; # # # ; 0 0 = $ # # $ # # $ = ; = # # # # # # ; y i y y 0 y y i y 0 0 ; ; ; 0 0 ; ; # # # ; ; ; ; ; # - ; ; # ; ; ; ; ; ; ; - ; % % # # # # o # o . . . . X . . . . .     i o.i.~..Xm.~.f.p.u.#.o.o.B o.H 2.%.o.B K u.d.R.u.%.#.H #.2.t.1.S a ; - . ; c H K #.#.#.u.%.&.2.u.#.r.#.%.#.#.K ",
"%.%.o.B %.o.H d.d.u.%.B $.o.o.$.#.H o.H r.2.$.&.u.@.i.w.O.@.d.(.N p K &.).).p.R. X!.f.).u.&.%.o.N B b N N $.z y ; - ; - - ; % % . X       . . .   o . X % % # # # # # # # # # # . # ; X # # 0 i ; # ; i 0 ; ; 0 0 ; = # = ; $ $ = = $ $ $ $ ; = ; ; = $ ; ; ; = ; ; ; ; ; ; ; ; ; ; ; ; ; ; ; ; . . # ; i y 0 0 0 : y ; 0 ; ; ; ; 0 y i i y y z p 0 0 y y y ; ; ; ; ; ; % # o .           * 5 $     * 8 f j n R n j f f f n n u f M *.l.S.C.l.n.6.....Q M d 5 5 5 5 9 n Q ( ( ( 5.{ ' ( ( [ E ( ~ E ~ ~ *.7.C.C.7.5.6.6.=...| ~ Q R g e g Q U 6 d R Q f f f g ~ 8.8.:.M u @ + @ 4 9 g R g g n g f u u 5 & 5 $ $ & 9 g g U R t t Q ~ 9 $ * + + * + . . . + $ & $ +         + + . .           .     . X X o o . . . # % % % o # # # # # ; ; # # # # # # = ; $ # # ; = # # $ ; ; 0 0 = = # # $ # # * # # ; # # # # # # ; ; 0 0 0 ; ; ; ; ; ; 0 0 = ; ; ; ; ; ; $ $ ; - # # # # # % # # ; ; ; % # % % # # # # # # o o # # o . . . . . . . . . .     i o.D._.'.F.~.^.!.f.u.2.#.H #.K B N B K 2.&.%.2.#.#.#.&.s.t.t.L J x i % . - i m m N B +.%.%.%.#.r.%.K H K K #.o.",
"+.2.&.H K o.p.f.Y.u.r.2.&.H N B +.+.$.K #.B N N o.O.@.-.N.~.tX).#.q q H H &.%.r.o.%.o.&.d.&.s.s.p.s.$.N N b 0 ; . . # 1 1 1 ; , - % X o . . .   # # % - % # # # o # - ; - - > = # ; ; # % i y i 0 = ; # # ; i = 0 ; 0 ; ; $ = = 7 = # $ ; $ $ ; % % # $ % # # % ; = ; # # - ; 0 0 ; ; ; ; ; ; ; ; 0 0 y y y ; ; ; ; = % = ; ; ; 0 y i z i 0 = ; y y i y ; ; ; % ; ; ; ; ; - # .           . 4 5 .   . $ u j n g e 9 9 5 * $ & 5 5 @ 9 ~ 6.6.=.k.n.>.*.| W f 5 5 9 9 9 n Q ^ ( ( { 5.7.x.x.7.( [ t t R / ;.l.C.C.7.7.6.>.>.*.Q W W R g t Y ..~ e f W Q R g g R R <.n.<.| j 5 + * @ 5 f R g f n g f 9 9 5 5 5 & $ & 9 g U t g t e r 9 *             . .   X $ * .         . + * .                 . . . . o o o % % o % % % # # % ; ; # ; 0 0 ; # # # $ = 0 ; ; ; ; ; ; $ = 0 0 ; = ; = $ = = = # # # # # # # # # # ; 0 y 0 0 = # = > # # ; ; ; ; ; ; ; ; ; 0 0 ; ; ; > # # # # # - ; ; ; - % % % % # # # # # # # o # . . X . .   . . . . . .     i B N.!.XX~.i.D.).f.s.p.s.r.%.H B N B #.#.#.K K #.%.2.s.u.2.r.2.L i y ; . - c m z b N N B H K #.r.#.B B B H o.%.",
"%.#.#.B o.%.%.&.&.s.&.+.+.B B H K $.u.$.o.%.H $.o.@.) w.tX.Xu.~.~.H N q b w $ $ w z b N #.&.&.u.u.&.$.K H K 0 0 ; - % - ; < - - < < ; < o . . o # # # # # o # # # # - % % % # # ; - c ; # i i z c z # # = 0 ; ; 0 0 0 ; $ $ = 0 0 = $ = ; = ; = = = ; ; ; # # # ; ; > # # ; ; 0 y 0 ; ; ; ; ; ; i p i 0 ; ; ; ; # # % # % # ; ; y i p p 0 ; ; ; 0 y 0 ; ; ; ; $ ; ; ; y y ; % X             * @ .     . & 9 f 9 5 * + . . 5 f g f 9 & 8 M ~ *.l.A.n.<...R 9 * & 9 e f R ~ *.` ( ( { 7.x.c.;Xx.( t e t R >.l.C.C.l.5./ R Q ..g g M R g f R ..*.~ M Q R W Q g n ! *.n.n.<.M 5 + + @ 5 d g g f R n f 9 9 9 5 5 & $ 5 9 g R U g t e 5 +                     . .               . +                     . . . o % % ; ; % % # % # o o ; ; ; ; 0 y = # # # = = ; ; ; ; ; = ; = ; ; 7 = = = = ; ; 0 0 = = # X . X # # # # = 0 0 ; ; # # # # # # ; ; ; = ; ; ; ; ; 0 y 0 ; ; ; X o # % ; ; ; ; - % # # % % # % % # % # # o # o o X o o . . . .   .       m H N.g.~.XXm.i.u.f.%.%.%.2.%.%.%.o.#.o.K K %.H #.%.%.%.r.2.1.#.G y < %   ; v J z N H N N B H H o.o.H K K K o.#.",
"$.o.o.%.s.#.o.o.r.s.u.&.$.$.o.o.+.&.u.u.&.&.#.g.@.O.q.N.+X#Xo.a.f.B N K +.N w $ + = $ = q N %.N N o.%.#.H m = 0 ; % y i 1 < o # % % % % o     . .   o # % # # % - # # # # # # # # ; i ; # ; i ; 0 ; # # = 0 i ; ; ; 7 ; ; $ = ; ; = = = 0 i 0 0 i i i z p 0 ; ; ; ; ; ; ; 0 ; ; ; ; % # ; ; ; 0 0 0 ; ; # ; 0 0 = % # # * # ; 0 i z z p 0 ; ; ; 0 ; # % ; ; 0 ; ; ; ; y < ; # X .             . .       . $ 8 8 & .   . 5 f R ! R n q & 5 n =.k.l.n.n.>.W 6 + @ 5 f g t ^ =.=.' ' ' ' { 5.Z.x.] E U t g / ;.l.l.7.7.5...R R f d f h g f f g M | ! R g n W n R ~ *.6.C.n. .& + + @ 5 e g g g W W g f 9 d 8 8 5 5 9 r t t U r r 5 +     . .                                 . .                         . o % % - ; ; % # # o o o # y ; y 0 ; = # = ; = $ = # # ; ; ; = = $ = ; = = = = ; 0 0 0 = $ * X # # # = # # = = # # # # . . # ; ; 0 y ; ; ; ; ; 0 ; ; 0 ; ; # # # % ; y i : ; # # # # o # # # # # o # # # # # o o o o X . . . .           m %.a.p.m..X.X&.@.o.o.o.%.B N m %.2.u.2.H K %.B K o.#.&.H 2.1.J v 1 - #   < p J #.N #.N o.b b N o.o.N B K %.#.#.",
"K B %.%.%.H q B +.u.r.s.#.+.o.o.b o.$.o.u.&.s.u.u.q.~.[.).$X+X$.).r.$.r.r.$.H o.b $ $ # $ w q b q B +.o.&.K 7 i c < ; - - - . . . X o X             . X % % % % - % # # # # # # # # ; # . # y 0 # . # ; c c c 0 0 0 0 ; = ; = = = # ; 0 p z p p z c c m c p 0 ; % % % ; ; y ; ; ; # # # # ; 0 i y ; % # $ ; 0 0 0 ; # # . # ; ; y z c p ; ; 0 y ; ; # # ; ; 0 y y ; ; ; ; % # X .                         . & & +   . & d g n R R R n f $ 8 ! *.>.6.n.>.R 9 & & 9 g R Q ` 5.;.' ' ( E E ' 5.5.{ 5.;.~ R E / ' ] 7.C.C.l...f d d h h g g g d 9 M W n f g n R R ! ~ *.k.n.*.8 . + @ 5 d g R n Q Q n g u f u 9 9 9 9 g t r g r 8 * .   . . . + . .                           .                           . o o . # # - # o X o # % # i i z y ; ; $ ; = ; $ $ # # > # = ; = $ = 0 0 ; = # $ ; ; = $ $ # # = # # = $ $ # # . . . . . + * ; 0 i i 0 ; = ; ; ; = = ; ; ; > > ; y y i i ; % # o o # o # % % # o o X X # X # o # X o X . . .             z #.,.!.N.a.~.N.+.o.%.o.%.%.%.H K H K #.K B #.N N N #.N K #.c G G < # o   ; c N N K #.#.%.&.o.%.N H K K #.#.#.K ",
"K #.2.s.%.N q B 2.$.$.o.&.p.u.%.B b N +.r.&.&.u.f.a..X+X%X}.H &.!.r.s.K K H K s.).f.o.K N 0 0 w q K H #.%.s.N i y X X . . . X X . . . .     . . o . o . o o # # # # % % # % ; # # . X .   ; y 0 0 ; y z c c z 0 0 0 ; ; ; ; 0 = = $ ; i c m c c c z p i 0 ; ; # % ; ; ; 0 y ; ; - # # # - ; ; ; y ; ; ; = ; ; ; ; = ; # # $ ; = ; ; = ; # ; ; 0 0 ; # # ; ; y y y ; ; ; ; ; % % o .                         . +     . 8 f g f r n n R n u & 8 n ~ *.<...f 9 d f M R n ~ ;.l.5.' ( E [ E ( ] ] =.7.8.*.R R ~ ' { l.C.C.n...f 6 9 M  .W W | | | | | R f r g W ! W ! ~ *.6.>.u * * @ 5 d W W Q ~ ~ Q W d 9 d 5 9 9 e g r f g d & .   . . + + + * + .                         .                   . . . . o # o . . X o . . . o % ; ; ; ; % # # # # = = ; ; ; = # = = ; = ; ; = = = = # # # # # # # # # # ; # # # # # # # . . . # X # * ; ; ; ; : 0 = ; = = % ; = ; ; ; ; ; ; y 0 ; ; ; # # # # # # - % % o o o o o . o o % # o X . .       . .     y H @.u.D.w.N.a.@.+.o.#.%.&.2.2.B H m z B B b b b N K H m m J i y ; o %   - ; i m N o.B %.s.%.2.2.o.K #.K o.H o.",
"o.o.&.%.%.B p K +.%.H o.p.f.2.+.$.H H o.H B H o.@.,.~.Q.!.(.N 2.o.N B #.H o.$.!.s.B b N N $.B %.q K o.%.%.%.0 y ; # # X o # % o .         . - # ; ; % . . o o # o o # # # # # # ; . . .   ; ; i c N K G c i i 0 ; = = ; 0 i 0 $ = = i z m G N N N z 0 = # # # # % ; ; ; 0 0 ; ; % % - ; ; % ; ; ; 0 ; ; ; ; ; ; 0 0 ; 0 ; # # # # # # # # ; ; ; 0 0 % # ; ; ; 0 : ; ; ; ; y y ; # .                                 . 5 9 f 9 r f r g W M 9 + & f g | ~ d d g W W R f g *.6.6.` ( ^ E E ( =.5.=.' ` ~ Q Q Q ` 5.5.C.Z.S.*.t 4 9 f W W | *.>.*.>.>.~ j f f n R n W ~ *.>.*.W f 5 5 5 9 W | W ~ ~ Q Q f 9 f 8 9 e e f r r d 5 .   . . . + . * @ * X                                         . o % % # # % % # # # X .     . X # ; ; # . . o . # ; = ; ; ; ; ; = = $ $ = = ; = > # # # # # # # # # # # # . # . # # # # # . . # # # $ = ; # # = ; ; ; ; ; = # # ; = # # # X # # # # # # # # # % - # % % # # # # # o o o o o X . . . . o o . X       z #.+.u.a.D.~.D.i.+.K K #.o.#.%.K %.%.H H N N B p N N m p p J c x # . .   % y 0 N H H N K %.%.#.%.%.K %.#.%.o.o.",
"N B K B o.B 0 b K %.N r.u.2.$.+.$.u.$.B b b b N ! V u.g.%.d.N $.H H N #.H B r.r.$.s.f.o.o.o.s.s.q K o.K B K p 0 i ; ; 1 - < - - o . . .   o o % o # # o o % % # # o # # # # . # - # ; # . ; ; 0 i i i i i 0 ; = ; 0 ; 0 0 ; ; # # ; i i i y 0 0 0 0 ; # = ; ; ; 0 ; = ; ; ; ; ; % # % % # # % ; ; 0 ; # # % % % = = ; 0 ; ; # # # # ; ; ; 0 ; ; ; 0 ; . # % ; 0 y ; ; ; ; ; ; ; # .                                   * 8 r 9 r r g g Q ! g $ . & 9 g f 9 d f f j f 8 9 g W ~ R E ^ ^ ( ' 5.5.=.` ^ R Q ~ ~ / ` ' 7.S.S.*.t 4 5 9 j M g ~ *.=.*.>.~ g f f f g W W ~ 6.<.*.| | M h f f g W W Q Q R g 9 5 e 9 r t 9 9 9 5 @ .   . . . + + + + + + .                                         . # % % % % - # # # # o . . . # # # ; ; > o . . X # = = = $ # = = = ; = ; # # > # # # # # # # * # $ = # # # # = $ # # # # # # # # = # # = # = = ; ; ; ; ; ; # # # # # # # # # # . # # # # % # # % ; % # # # # # % % # o o o . . .       . o . .       c &.N.N.N.m.N.N.,.$.K K o.K %.%.%.o.&.2.%.b o.0 K K b m m 0 i J ; # o .   % 0 G H m z N K o.#.%.K %.#.o.%.o.%.K ",
"B N #.&.s.%.B b $.&.B d.u.#.r.%.+.&.%.K N b b +.&.o.i.).4.+.q } %.%.#.&.B p N H $.p.f._.%.s.#.f.o.b B z b #.m c v ; - X . . o X - - % . . . . . . . o o - ; - # # # # # # o . o # - ; # . ; ; ; 0 ; $ = = = $ # 0 i 0 0 0 ; # # = 0 y ; $ # # # # # # # = p z c z i ; ; ; ; ; ; # # # # X # # % ; ; ; # # ; ; ; ; ; ; = ; % # # % ; 0 i i p i ; ; 0 ; o o # # ; ; : ; ; ; - % % # .                                   + & 9 9 r g R Q ~ ~ W 9 $ + $ 8 5 @ 5 5 & & * + * @ $ 8 8 9 t [ ^ ' 5.5.` / ^ R R ~ *.*.^ ~ ;.8.6.*.g 6 6 9 f f 9 f | <.6.<.~ j f j M ~ ....*.>.*.~ W ~ ~ M M ! | | R g R g 9 & * $ & 8 5 & 5 5 *       . + + @ * * + + .                                         . . # # % % # # # o o # . . % < ; ; ; % ; 0 ; # # # ; ; ; # # # # # = $ ; ; # # # # # # # # . # # = = = = ; ; i 0 i ; # . . . . . ; z z i 0 ; ; ; ; ; ; ; ; ; # # # # # # ; ; ; ; # # # - % ; # o ; ; # o o o o # % % o # o . . . o         . . .       z N @.!.D.D.w.q.+.o.o.o.o.o.2.&.r.r.2.2.2.2.2.N B N K o.B p m v % o o .   - y p p H o.#.%.&.#.#.o.%.o.B o.o.o.H ",
"r.+.u.u.R.f.&.%.$.%.%.p.2.u.p.f.f.u.%.%.o.H H B &.&.a.~.[.!.b +._.s.2.2.H b u.N N u.&.%.o.K o.%.s.%.%.z H o.H m v - # # X o % o - % o . . . X .   . X # % # # # o # # # % % % # # . . .   # > # ; 0 0 ; ; = = = y i 0 ; 0 0 = $ = = = # # + . . # # # # ; 0 y i i y ; ; ; ; ; ; ; ; ; ; > # o # # ; ; ; ; ; ; ; ; ; ; ; % % ; ; ; ; 0 0 0 i i y y y ; ; - . X - ; : : 1 ; ; - # # .                                   . * 8 9 r g R ! ~ ` ~ Q g 8 . + + . . . + * * + & 5 8 5 & $ $ 8 t ^ ' =.` Q R n g R ~ / r r g Q | ~ W R h f h h g Y *.6.6.;.~ n f g n | ..*.*.~ g u f W ~ M u n *.>.~ R f 5 * . . . .     . + + .     + & $ $ & & $ + . .                                     . . . X X o o # # # # # # # # ; ; y : 0 ; ; ; ; 0 = 0 y y ; # # # * * # # # = ; # # # # = # # # . . # # # = 0 0 0 0 ; ; i ; #         . # % 0 0 0 ; ; # # # # # ; # # # # # # # ; ; 0 ; # # - ; ; - # - % % o o . # # # % o # o # o . o . .         .       ; N C +.m.q.,.+.N o.o.o.#.%.&.%.r.s.%.%.#.s.r.2.B B K m %.c G # i % ; o   - i J r.r.r.2.u.%.&.&.%.#.o.B #.o.K K ",
"R.N p.u.u.R.f.#.o.o.K r.%.%.u.s.2.s.r.r.K %.o.+.f.f.~.[.[.+X&.+XR.&.H $.&.r.f.%.o.o.s.o.%.K K K o.#.p.&.N H 0 0 y ; o # - < ; - % % . . . . . . . . X - - # # o o o # # ; ; ; ; o o . .   . # # ; ; i p y ; ; i y 0 0 = ; 0 0 ; ; $ # . . . + . . . # # $ $ # ; ; ; = ; ; # ; ; y i i i y ; o o # ; ; ; ; ; % = ; ; ; ; ; ; ; 0 y 0 y y = ; 0 i i 0 ; = ; ; # ; ; ; ; y ; ; % # # .   . . . .             . . . .       + & 8 e r r R Q Q ~ *.` f +       + $ 5 u 9 9 g n W n f 8 $ $ 4 e R ~ ~ R g r 9 9 9 9 $ + * & 5 9 u f h h h W h | >.8.6.*.Q R g g f f g g u & + + & u M h u u Q ~ R f 8 * + $ & & * .             + @ & 5 8 9 8 $ . . .                                   . . . . . X o X X X o # # # # ; 1 y ; ; ; ; ; ; $ ; ; i i ; # # X X . # # # # # # # # # # = = $ = . . # # # = 0 i 0 ; = ; y ; * . . # ; ; # # # # # # # # . . . . # # # # # ; ; ; ; - ; # # # % ; ; ; # % % % o # X o # # # o o # o # . . . . .       .       i G q.N.D.) N.a.&.o.%.%.r.%.&.&.%.%.H H B b N B K m 0 z r.#.2.c L x i % . 1 v L N K B N %.o.#.%.&.%.H B %.o.K H ",
"%.N f.u.&.u.$.o.B b B o.+.B &.&.&.r.p.u.H o.o.u. X!.^.#X#XzXp.kX!.%.#.o.$.s.f.&.&.$.#.+.%.+.o.B B K H %.N p 0 0 # # < # i < ; -     .   . . . .   # X # o o # # # X X # . - % ; ; y # # . . > # ; ; 0 ; 0 = # ; 0 ; ; ; ; ; 0 = 0 = # # # # # # # # # = = $ # # % ; = ; % ; ; ; ; y 1 y 1 ; % # # # % - % % - ; ; ; ; ; ; ; 0 ; ; ; ; ; % ; ; ; 0 ; # # ; i y ; # ; ; ; ; ; % # # X . . . . . .   .       + + + + .     . * & 8 9 8 e f n Q / *.Q 9     . 5 u f g g R ! ~ ..~ Q g 9 9 8 & 5 u d e 9 5 * +         . . . . . + 5 u u f g W ..<.6.6...M f u 9 5 5 & * + .   . . + 5 5 5 g n 5 * * 5 8 9 9 9 5 & . . .     . & @ $ 5 8 8 & * . . .                                 . . . . . . X . . . . X # # # ; ; ; y ; ; ; ; ; # # = = 0 ; # # # # = ; y 0 ; ; = = = > # $ = ; = = ; $ $ # # = ; ; ; ; ; 0 0 ; $ 0 i y z c p y ; $ # # ; ; # . . . X # # X # ; ; ; ; # # = ; # - ; ; ; - # % % # % % o . . # o . . # # o X . . . .     .       c %.D.^.a.N.XXf.u.&.&.r.r.2.%.K K o.B K K %.N N q q p d.K %.L s.c i < % . ; i i 0 b B 0 N K %.#.2.K o.B %.#.H B ",
"o.r.s.2.B K p.s.+.K #.B 2.u.d.&.u.f.d.2.o.B K u.q..XeXF..X).+.+Xf.&.s.+.r.&.&.u.&.$.o.K $.&.N H &.s.%.#.p.&.%.m i % ; # < ; # #           . . . X # o .   . o # # # o X . # # ; y ; ; i ; . # # 0 ; ; = 0 i p z 0 = 0 0 0 = = = ; ; 0 0 0 ; ; ; = ; ; ; ; ; # # # % = = ; 0 ; # # # # # % - ; ; # # # # # % ; ; ; ; # = ; # ; ; - # # # # # # % ; ; # # ; i c ; # . # - > % # # # X . . . . . .           . + @ @ .     . + $ 4 8 9 9 9 g W Q Q Q f     + 9 f R h h R W ~ | ~ ~ R R n f 9 5 + . + + .   . X * $ 5 9 9 8 & + . + & 5 & 8 u g ! *.>.~ f 9 5 & & $ $ & 5 5 & * * + & & + $ * . . 5 f u 9 u u 9 & * * +     + @ + + @ @ @ + + . . .                               . . . . . . X . . . X o X # # # ; ; ; ; ; ; ; - # # $ 0 0 i y = = 0 0 0 z z i 0 0 ; 0 ; ; 0 ; ; = = ; 0 ; ; # # # # = i p 0 ; = = ; z c i i z z i y 0 ; ; = ; ; # . . X # # # - ; - - ; ; ; i y ; - % % ; % % % % - - % % o . o o . . . o X . . .   .     .       l %.a.^.#XxX#XN.u.u.r.s.%.%.%.K B %.r.%.&.o.2.K o.s.d.2.z m 1.t.L a i ; . < m z z 0 7 z N o.o.#.o.o.K B o.o.o.#.",
"N $.%.2.&.s.f.u.r.u.+.%.&.&.d.f.p.f.p.p.f.&.s.f.,.D.^..X@X_.f.).f.u.$.u.u.s.u.%.&.o.K o.K K +.N f.f.p.s.f.f.r.#.J ; - # o # X .       X . . . o o % # . . . # # o o o o X # # # ; i ; i ; # . ; ; ; # 0 0 0 i z ; 0 0 0 i 0 ; = ; 0 0 y 0 0 7 0 ; 0 0 0 ; = # o # # ; = ; 0 ; % # . . # # > ; ; ; % % # # % ; ; % # ; ; ; # # = ; % # # # # # # # ; # ; y y i ; 0 # # ; % # # # # + . .     .               . @ $ + .     . $ 4 9 e r f g R g g g 8     + 9 f R M g R f f R Q ~ Q W Q R U d &         + 5 9 9 e f W R g u 5 @ 5 u d y & * & 8 u f 9 & + $ u j f d f d f u 5 5 9 f j *       & g g 8 9 u u 9 & & & + .   . * . . + + + . . .                                 . . . . . . X X o . X o o X o # # ; ; ; ; ; ; - # # # = i p p p y 0 y i i z i 0 = = ; 0 0 0 0 ; ; = = ; ; ; $ # X # # ; i p i = # # ; i i ; ; ; ; ; ; ; ; > $ ; ; ; # # = = ; ; ; ; ; ; ; ; ; i 0 ; - # # - - % % # - % # # o . # # o X . . . .           . .       z #.D..X#XtX@X!.f.f.f.s.%.#.%.H H &.%.2.%.r.2.%.%.K N 0 H 2.L J S x < % o < J N N b N b B H K K K o.#.o.H H %.#.",
"B o.2.d.u.u.r.u.o.H B B +.+.2.&.+.%.r.&.u.f.f.).u._.i.m.w.g.).).u.#.B %.$.&.r.s.s.$.&.+.b B K B %.#.$.H #.#.K m x ; ; # # # o . o     . . o o # # # o . . . o X X . o o o # # # ; i i i # # . ; ; ; = ; 0 ; 0 i 0 i i z c c p i i 0 ; ; ; 0 0 i 0 0 0 0 ; ; # # # # # # % % ; ; ; # # # # # ; : y y y ; # # # # # ; ; ; y ; ; ; ; 0 0 ; % # # # # # . ; ; ; 0 y c y ; ; ; ; ; # # + + .                       + @ * + .   . & 5 8 9 f e e g g g f 5     + 5 u g g g R f 9 t g R R g R Q R f 5 .     . 9 g W R R W | Q R f u 9 u h  .W d @ * .         $ 9 M } ~ R R h u u j j g Q ~ u .     u W j 8 y 8 9 8 5 5 @ . .   . + . . . . . .                                   . . . . X . . X o o . X o o . . . # - ; ; ; ; ; # # # ; 0 i i 0 y y 0 0 i i y = = = ; = 0 0 0 ; # $ $ ; ; 7 = = = # # # # = 0 0 0 ; = ; y y ; # # # # # # # # # # ; 0 ; y ; ; - = ; ; y 0 ; X # # - ; ; ; ; ; ; - o # # # # # ; - # % X o o . . .   .         . .     z &.D.!._.^.^.N.u.9.r.%.2.r.2.#.&.r.o.o.B s.#.s.#.2.&.r.p.Y.L c c < % . . % z m %.s.%.%.K N N H H K o.&.H K #.o.",
"+.o.s.u.&.%.&.r.&.%.B B B +.H H N K B +.H !.).%X%X.X[.a.u.N Y.%Xf.s.o.&.B #.o.r.u.r.r.o.r.&.K b q b N H o.o.N m v ; ; # X # o X X o . . . # # # # o o . o . o . o X # o o # # # ; ; ; c ; # # # # ; # # ; ; = 0 ; y i p z z p p i 0 = ; = 7 0 p p i 0 0 ; 0 ; # # # # # o # ; i y ; # # ; ; ; : y i y ; # # # # ; ; ; ; ; ; ; ; 0 y y y ; ; % % % # . # ; ; ; ; i c y 0 ; ; ; ; * + + . .                       + @ * .   . $ 5 5 8 8 5 5 d g g f 5     . 5 u u 9 u g g g U g e 8 8 f R R f 8 +     @ f g M R Q =...Q g f f u u j  . .W u 9 5 +     . 8 g M M  .W R M j j ..*.*.*.:.W *   X f M u & * + & 5 5 & + . .   . + . . . + + .                                   . . . X + . . . . o # # # # .   X # # ; ; ; ; # # # # ; 0 i y ; 0 y 0 i i 0 0 = ; = ; = ; 0 0 = = ; ; ; ; ; $ ; ; $ # . . # = 0 y y ; i p i 0 0 # # # * # # # # > ; y ; i > # # # # ; ; : - # o % ; ; p y ; ; ; ; o o # % # % - - - ; # o o . .   .   .         .     c #._.^.D.[.~.i.$.+.%.%.r.p.f.s.s.d.s.&.H K &.r.d./.2.2.%.2./.L F i < % . . ; m r.r.B K o.N H N H m #.o.#.o.o.&.",
"+.b o.&.&.$.$.s.u.$.+.B B B B K o.o.+.&.u.u.u.f.D..XF.tXzX@.).OXR.s.$.&.%.%.#.&.u.o.$.u.&.f.u.o.B o.K &.%.K N m i - ; . # # o X - % o o . % % % # X o o # o . . X # - ; ; # # - # ; # y i . # X . . # ; ; ; $ # # ; 0 0 0 0 0 i i 0 0 = = 0 0 0 0 0 y 0 0 y ; = ; # # ; # ; ; 0 0 ; - ; ; ; - - - - % # # # ; ; ; ; ; ; = ; # # ; ; ; y ; ; 0 y y ; ; ; ; i : : : y p z i i y ; % % # X . . .                   . @ @ .   . + $ $ 5 5 5 5 5 u 9 u &     . & 5 9 9 8 e f g R f 9 4 4 9 g U f 8 +   . 5 e d d Y ..>.>.~ g f d d u d h W W h h h u X   . & f j f h h M M M W >.6.6.<.<.W &   * u u & + . . * 5 8 $ + + .   . .     . . + .                               . . . . . + # .   . . X # # % # # . # . # # # # # # . . X # ; = ; = 0 p i 0 0 ; ; 0 0 0 i 0 0 0 0 0 y 0 y ; ; # # # # # # # # # = = 0 0 ; 0 0 0 p p ; ; # # $ ; ; $ ; ; = # # # X # # # # ; ; y i y y i y i z 1 ; # % ; % % % # % # # # % # # % .       . . . .           ; z ,.^.a..X~.q.+.B %.%.r.2.r.%.p.s.p.s.H #.o.o.H s.%.Y.&.%.Y.L x a 1 - # ; c 1.%.b = N o.N o.&.#.H %.o.K B K #.",
"+.B B &.%.u.&.&.u.!.!.&.o.b b o.+.H &.f.f.u.+.&.q.N.'.pXxX~.kX!.s.2.%.&.$.o.o.&.o.B &.R.s.(.p.p.u.&.o.o.#.#.N z y # # X # - % o - o % .   . . # # # % % # o # # . # # # - # % # % # ; ; y . . . . # 0 0 0 $ # # = ; ; 0 0 ; 0 i i 0 0 0 0 0 0 0 0 0 i 0 0 0 i i 0 = = 0 ; = ; ; y 0 y y 1 ; # # # o . . # - ; ; ; # # # # ; # o # ; ; ; ; y i z i z c i i c i y y i z 0 ; 0 ; ; ; ; - # . . . . .               + * * .     + * $ & & u u 5 $ & 5 *       @ & 5 8 9 9 9 9 9 9 9 9 9 e f f 9 4 .   . 9 e t t U R | ~ R f d d d u u u u d h h h d 5   . & 8 8 d f f j h f h | O.| ! | W 5   & 9 & * . . . * & 5 * + . .             . .                               . . . . . X # + X   . . . o # # ; ; # # . . o # # # = = # # # # # # = ; 0 0 0 0 0 = ; i z z p 0 ; 0 0 i z c z z 0 # . . # = ; = # # # ; ; 0 ; ; 0 y y i i 0 ; ; i y = = # # - # ; ; ; 0 ; # ; y v G v c i i y y y ; - % - % # o o # # # o o . . X o       . . . . . .       > z V f.D.~.D.a.&.o.&.2.&.r.%.H s.&.r.r.#.H o.K H #.K %.%.1.L T.P i - - % i m m K p p B $.%.$.u.&.&.f.&.#.B B B ",
"o.N +.&.!._.!.f.!.).).+X!.D.u.q.$.B &.+.o.B o.B o.q.F.#XtX,._.).p.#.%.K o.B K o.B +.u.o.s.s.r.u.r.&.s.o.H H H c y % % o ; - o # # o % .       . o # # o # o # # # - # - # # # - ; # > # ; # # ; 0 y ; ; $ ; ; 0 0 0 ; 0 y 0 0 0 0 = = ; ; = = = = 0 ; ; ; ; y i 0 ; y z i ; ; ; ; 0 y y ; ; ; ; ; ; > - ; ; : ; ; ; % % # % % ; ; ; ; ; # 0 ; ; ; y z i y p 0 ; ; 0 i : ; ; ; ; ; ; % # X . . . .               + & * .     . * + . + & u u 5 5 5 *       . * & 5 9 8 & 4 5 4 4 9 9 9 9 9 4 $ .   . 9 f g U R f d 9 9 5 f h g d 5 & 5 5 d g u 6 5   + d 9 9 9 9 9 u u 9 9 f u d g g d & . & f & * . . . + @ 5 @ + .                                               . . . . . . X X X X   . # # X . o # - ; % # # ; # # # # ; ; ; $ # # # # ; ; i i p z p i i i z i y 0 i i i 0 y i 0 0 # = ; 0 0 ; # # # # ; ; ; = = ; 0 y i 0 = # # ; ; $ # # # : ; ; 0 y y ; ; ; ; i c i : i y ; ; ; ; ; - ; % # o o # # X . .   . . . . % o % o . . . O       ; z ) 9.q.@.O.q.u.&.o.r.s.2.%.o.s.r.p.r.&.B %.%.%.#.H r.#.2.t.y.L i - - % - 0 0 z b %.r.u.&.o.N N } %.B o.K o.B ",
"o.N &.a..X@X$X+X.X$X.X$XzXzXlX).i.) V q w w b V V @.D.'.XXa.N.f.R.%.K H B B B H B b B b o.r.&.&.&.$.s.#.o.K m z y # # X # % X o % % o   .       . o o . o # # o . . # % % # # ; % ; > ; # # # p z y ; = ; $ i ; i 0 0 0 0 0 0 = ; = $ $ $ $ $ $ # = ; ; $ = 0 i 0 i c c c 0 ; % ; ; y ; ; ; ; ; i i y 1 y y i y y : ; ; # # ; ; y ; ; % # # o . . # ; ; ; ; - - ; ; ; ; ; ; ; ; = % # X . . . . .               . + * .     . . . . . * 5 6 5 5 & .       . + @ 5 5 5 * $ 5 8 9 t e 5 5 9 9 $     + 9 g U R R E R U f d g W R d 5 5 5 9 g g 5 & 5 . . d 9 e f 9 9 9 9 5 5 8 5 u d & $ + . 5 f & + . . . * & 5 @ . .                 .                           . . . . X . . . . X X . . X X . X . . # # ; 1 ; ; # # # # # # # # # # # # $ = 0 p z p p z z 0 i i z z z c i ; 0 y 0 ; = i c c c i = # # # ; ; = # # $ = ; ; ; # # # # = ; # # ; 0 ; y i y i y i i ; ; ; i ; : ; # % % % ; ; ; ; # # - # o . . . X .   o o # # o % % X . .       ; 0 ! @.@.) ) @.q.u.%.&.p.r.o.2.r.2.2.%.2.#.r.#.#.#.K %.s.t.T.3.G i ; % # ; 0 q B f.%Xf.D.i.b B q q N C +.d.f.$.",
"D.!.f.f.^.'.XX#XtX$XlXzXzXlX#XtX[.[.q.D.i.q.$.@.&.N.F.G.eX#XO._.!.r.#.o.o.#.o.o.K B B b o.&.s.r.&.B $.u.%.%.m z i % - # # - o o o X . .   . .   . . . o # - - # . . . X # # # # ; - ; ; ; # . y y 0 ; = = = ; 0 y 0 0 0 7 0 0 ; 0 0 ; ; ; ; ; = $ $ $ # $ ; 0 i y 0 i i y 0 ; # % ; ; ; : 1 y y y ; ; y y y ; ; ; ; ; ; ; ; ; % - - # ; ; ; # . . # # = - # % ; ; ; = ; ; = ; ; ; ; * # # # + X . .               . . .       . . & . * * @ & & @ .       . . @ 5 5 & 5 9 u e 9 e e 9 9 f f $     + 9 f U R R Q ~ Q Q Q ~ ~ E g g e 9 d g g 9 5 5 . . & & d g d 9 5 5 5 6 6 5 5 & @ $ + . 5 9 $ . .   . * 5 5 * .                                             . . . . . X X X X . X X . . . . . . . . . # ; ; ; ; ; # # # # # ; 0 ; # # = ; = ; 0 i i 0 0 i i c i p p 0 0 0 = 0 0 0 0 i c c p i i 0 ; # # # # # # # # # $ # # = = = # # # # # # ; y ; y i z c c y : y : : 1 ; ; - # % # % ; < ; - % % # . o .   X #   . .           . .         # 7 N ! b ) @.a.i.f.s.o.o.%.#.%.&.r.2.#.2.%.r.o.%.2.&.%.t.2.r.L S < % % % N u.~.N.kX@X~.~.@.O.A ! ! @.$.u._._.).",
"zXlXiX[.~.D.^.^.XXiXCXGXvXkXzX[.lXVXBXGXBXXX~.N.~.[.^.^.pXVXo..Xr.2.r.r.u.u.$.%.B H H b K r.f.f.f.+.r.r.%.o.H m c ; i < - < % - .     o o . .   . . o o o o o o     . . o X o o o # % # ; . . ; 0 ; ; = # = ; = ; ; = = 0 0 0 0 0 p z i i i i 0 = # # # ; = 0 i 0 ; 0 ; # # # # # ; - ; i c c i ; # # ; : ; # # # % ; ; 0 ; ; # # # # # ; ; ; ; # - ; ; # # # ; ; ; ; ; % ; = = ; = ; ; ; % % # + .                           . . + . + + + $ & *           . * & & & 5 u u 9 9 9 9 9 9 9 9 +     $ 9 r g g n R Q R R Q ....Q R R g d d d d 9 9 5 + . 5 5 5 9 9 5 5 5 9 e 9 5 & * $ $ * . 5 8 * .     . * & * + .                       .                 . . . . . . . X # + X . X X . X X X o . . X o # # # # ; ; = ; ; ; ; y 0 ; $ # ; = ; = ; 7 ; ; ; ; 0 0 0 ; 0 ; ; = = = ; ; i z z 0 > # ; 0 0 $ # . . . . . # # # # ; 0 = # # # . . # X ; ; - : y i l l y ; y i y 1 ; ; # - % . o - ; ; ; - % # # . . o # - .       .     . . . . .     # = f w V ) q.a.f.f.s.K H K %.2.%.r.p.2.d.%.s.s.&.f.r.2.s.2.%.#.x i ; < J u.^.XX~.q.w.m.m.N.i.q.B @.f.N.!.+X).#X",
"zXiX@X@X[.#X).@X[.@XvXiX[._.p.!._.o.@.i.D.~.F.N.^.D.@X~.lXDX^.%X_.f.&.r.2.u.&.H o.%.$.o.%.o.o.$.&.C b N N N N m l ; ; ; ; < % %     o o # . .   o   # . .   . . # X . X . ; # . . . # # ; .   # - ; $ # # # = ; ; = # $ ; = 0 7 ; i i p i i i 0 = = $ * ; = ; ; ; ; ; ; ; ; # ; ; - - ; ; i y ; # # # ; ; ; % % % ; ; ; ; ; ; # # # % % ; ; ; ; # # # # # # > ; ; ; = = $ ; ; % = = 8 ; ; ; ; % # + .               . . .     . . . . . * * & & *           . * & * * & @ & 5 9 9 9 9 4 & @ .     + 4 6 9 9 9 r U U R Q Q Q Q R g d 9 6 5 5 & 5 5 + + 5 8 4 5 4 9 f 9 6 9 9 5 * * $ * + + 5 5 + .   . . + * . .                   .   . .                 X . . . . X o # # # o X X # # # # # # # # # # # # # # > = ; 0 y 0 0 0 0 ; 0 ; = = = = $ $ = ; 7 7 = $ ; = ; ; $ $ # # $ = ; ; ; # . # > = ; = = X . # X # # # # ; ; ; ; # . .   o # # ; ; ; y y y i y : ; y i c i y - # - - . # % - ; % - # # % o . X o # . o . . . o . . . . . . .   # 7 b V ) O.@.a.u.9.r.%.B K %.&.o.2.r.s.p.&.s.s.r.r.2.&.%.K %.K G c i G R._.tXo.,.! i.@.q.F.D.~.'.^.N.~.).+XiXkX",
"zXkXiXN.$XzXxXCX$X[.[.).).).+X+X_.!.g.Q.%X[..X_.[.~.D.'.'.#XlXD.%XY.u.r.&.o.+.H o.&.9.&.&.o.N N %.N K #.f.s.K K c ; % ; % ; % # o o o o - %   . o . . . . X # # % ; - # o < 1 ; % # . . # ;   o # # # # ; ; ; 0 = ; ; = ; ; 0 0 7 7 0 0 0 7 ; ; = ; = # $ $ = = % ; ; ; 0 p y y : ; ; - # # # . X - ; - ; ; ; ; ; ; ; ; ; ; ; % ; ; ; ; ; 0 0 # X . # # # # # # # # ; % ; ; # # $ % = ; ; ; % % & * . . . .         . + . . . . . . . + $ $ $ * + .         . + * + * @ * & 5 9 9 5 & * & @ .     . $ & $ 4 6 e f f f g U U R U f 9 5 5 @ @ @ & & . . 5 9 9 9 f f j f 9 9 u 8 & & * * + . $ & . . . . . * * .                   . . .               . X X X X . . . X X X o # % # # % # # - ; ; % ; % # # % % ; ; ; ; ; y 0 = ; ; 0 p i 0 $ # * # . # ; ; ; $ # # # # # # # . . # # # X .   . # # # $ 0 i y ; ; # # # # # > # ; y y ; # o # ; ; 0 : i i y y y ; ; ; : : 1 : ; - o . ; - # . % - % % % % % # . . . o o % < - o % .     . . . .   ; N &.f.@Xm.N.!.u.s.o.o.b N H H H K %.r.t.2.r.r.s.d.r.&.K N #.K G c G #.p.[.D.a.).).$XN.O.O.,.m.D.@X.X!.).+XzXVX",
"+X).).f.f.f.Y.)._.D.f.a..X).~.).).iXCX$X).)..X.XXX.Xa.~..Xm.@.p u.r.%.o.K B o.B o.%.&.o.o.B N b N B H s.o.%.K c i ; - ; o ; o o - ; . . . . .   .       . X # # # # # # - ; ; ; ; % . o # y   . # # # # $ ; ; 0 = ; ; i i 0 0 ; ; = ; ; = = $ $ = ; ; # # # # # $ $ ; ; y z i y 0 0 ; ; # . o o # ; ; ; ; ; ; ; ; ; ; ; ; ; ; ; = ; ; 0 0 ; 0 # # > ; ; ; ; # # # # ; ; ; ; # # $ $ ; = ; % % % % * + X . . .       . + . . . . . . . + @ $ @ * .     .       . * + + + * 5 5 9 5 & $ @ & & +     . & & & 4 6 9 9 9 9 e t f f e 9 9 5 @ $ & 5 5 @ . . & 9 r f f u 5 5 5 5 5 8 8 5 & + . . * * .   . + * + X                     . .                 . X o # % % # . . . . # # % % % % # ; ; ; ; ; # # # - ; ; ; ; ; ; ; ; ; # > ; 0 i i 0 = # # # . # # = = = ; $ # # # . . # ; # # ; # # # X # = ; ; ; p z i ; # # # # # # # # ; y ; ; # # ; ; 0 0 y y y ; ; ; ; ; ; ; ; ; y i 1 D 1 # . o o # # # % - ; - o   . . . . o - o % %               ; v u.u..X^.XX).+.u.o.N b B z K 2.&.2.2.2.&.%.2.r.2.r.%.o.B K N m v H o.$.@.+.f.R.R.R.R.~.! ) N f..X).).).[.kX%X",
")._._.+X%.f.s.d.Y.+.+.q.!.!.@.D.$X%XCX%XOX(.)._..X.X@XeX~.i.q 9 +.N K B N N o.r.H o.o.N N B w q 0 H B N r.#.K m y - ; - # - # . % o . . . o # % .   . . . . . . o o # ; ; - ; ; ; ; ; ; - y # . # ; . ; ; ; ; ; $ ; 0 0 0 0 ; ; = 0 = $ = ; ; = ; ; ; ; ; # = $ # > ; ; ; 0 0 ; ; 0 ; = ; ; ; ; ; ; ; ; # # # # # # - : ; ; ; ; ; ; ; y 0 = ; # # 0 y 0 0 0 ; ; ; ; = ; ; = ; % # % ; = 8 = % % % * # X . . .         . + . .   . . . . + + + + . . . .       . + + + . * & 5 5 5 $ * * @ $ +     . & 7 9 9 6 4 6 9 7 9 9 f 9 4 @ 5 5 @ & 5 5 5 @ + . & 9 9 9 & . . . * & $ & 5 $ & *   . & @ .   . + + . .                     . .       O       . X X # % ; - # . . . . # # # # # # # % - - ; - > # # ; ; ; ; ; ; ; # # # # # # ; 0 0 0 0 # # # # # = ; ; 0 0 ; ; $ * # # ; 0 0 0 y 0 y y ; ; ; ; ; # ; 0 i ; = ; = # o . X . . X ; ; - # - ; ; ; ; 0 ; ; ; ; ; - ; ; ; 1 i ; i ; - . o . . . % % % % ; % - X o .     . . % % o X .           ; z q.q.#X@X#X.Xo.o.N B N z N o.%.s.s.2.r.%.#.%.%.%.o.%.H %.H N m N K o.u.f.f.)./.%.r.Y.OX_.+Xf._.).%X*X%X$X!._.",
"!.!.!.).u.&.%.m %.7 $.o.N u.u._.~.).f.+X}.}.(._.p.f.f._.D.i.A +.f.+.B b K o.#.&.+.&.o.+.K B B B b H b B B B c c y ; - - X # o . o .   . o o o o # % X # % - % . - ; a ; - - ; < y i y y ; y i . # # ; ; 0 0 = = ; 0 0 i 0 0 ; ; ; 0 0 = 0 0 0 ; ; 0 ; = ; = # # # # = ; ; ; ; ; ; ; ; = ; ; ; ; ; ; ; ; # . . . # # ; ; ; = # # ; = ; y y = ; # # 0 i i i i y y : ; ; ; : ; ; ; $ = ; ; ; = ; % % % # + . . .           . .     . . . . . . . . . . . . .       . + + . + @ & @ $ * + * * + .     . @ & 8 9 4 $ 4 4 4 4 8 f 9 @ + @ 8 & @ @ & & * + . $ 4 & & * . .   * * * @ & + @ *   . 5 *     . +                                   . . .   . o # X X X + . . . . # # # # # # # # X # # # % ; ; - % ; ; ; ; ; = $ # # # # # # $ ; ; ; 0 ; # # # = 0 0 0 0 ; ; = = ; = = ; ; 0 i y i c v z ; ; # # # > ; 0 ; 0 p i ; o o ; # ; - z c i y ; ; ; ; ; ; ; ; ; ; ; - ; ; ; 1 ; - # # o ; % . . o # # # % % % % o . . .   . . o . o . .           y N &.f..X.X^.i.+.p N p N B N H H %.2.&.r.H &.2.%.%.%.&.2.o.K K H N B N $.u.%.m r.L %.J H 2.Y.s.2.Y.T./.}./.).).",
"u.d.r.d.h.b N B 0 7 7 b H b o.&.o.+.!.!.f.Y.Y.p.$.r.%.f.p.f.q &.o.z q z b N B #.$.u.+.K +.b N B N N o.B N z i i 1 % - - . # X .       . . . .     o o - # # o o   X # % % - - ; ; ; # # # % ; X X ; 0 0 0 ; ; ; 0 0 0 0 0 0 0 0 0 7 ; 0 0 0 0 0 y y y 0 ; ; ; # # # # > ; ; ; ; ; ; ; ; ; % # # # # # # # o # # # # # # # # % ; ; ; ; y y y i ; ; 0 ; ; 0 0 0 y y y 0 0 ; ; 0 ; ; = ; ; ; ; % % # * # + X . . . . . . . .       . . . . + .       . + * +       . + . . + * + + + + + * * .       . . . + 4 4 @ $ $ $ $ & 9 & + . @ & + . . + + . . . 5 5 & $ @ * + . + + . + & & + * . . 8 +   . + . . .                       .     . O . o # # # % . . .       . o % # # o # # # # # # - - ; % ; ; ; ; ; ; ; = # # # # # # $ = ; ; = = ; $ $ = = $ ; $ # ; ; = = ; ; $ # # # 0 p i i c c i y ; = ; $ ; y 0 ; i c c i y ; m i v i v G G v i 0 ; ; - ; ; ; ; ; ; ; ; ; ; ; % X X # # - < i % % % o o % % % # .   . .     X . . . .   .         c %.D..X~.#XD.a.$.b b z b b H H N B %.r.r.K %.%.%.%.%.%.s.&.H N B N z b b B B N N G v c = 0 0 #.K r.t.1.s.t.(.}.",
"#.2.%.%.2.u.7 = N $.q 0 = N K N K o.u.2.2.r.r.u.u.&.&.r.r.r.q %.o.N N B B z b %.B o.K N o.N b o.+.N o.B m b p i ; % # - o # o .               . o o % - o o X o . . X o % ; ; % # # .     # > # o y i i y ; = 0 i y 0 0 ; 0 0 ; 0 7 0 0 0 ; ; 0 0 y 0 0 y 0 ; # # # # % ; ; ; ; ; ; ; - # # # # X # X # # = ; % # # # # # # ; 0 ; ; 0 y i y z = ; = # = ; : 0 i i i i i y y i y ; = ; ; ; % % % # * * # + + X X . . . . .   . .   . + . + .       . + @ .     . * + . . . * * + + * * $ * .             + & & + + $ & 4 4 $ + . + * + . . + * * .   . 5 5 & $ * * + . . . . + & & @ + . . & +   . +   . .                     . X o . . . X o % # # # # o o o . X o % % % # # # # # # # ; ; ; ; # = ; % # ; # ; ; ; # # # # ; ; # ; = 0 0 ; # # ; ; = = # # ; ; 7 ; = = # = y 0 i i i i 0 y y 0 y i y y i ; 0 ; 0 z i ; z p z ; > # ; i c v v i : 0 ; ; ; ; ; ; ; ; ; y < ; ; . X . o # ; i < ; % # % % # % X     .   .       .         . .   . i %._..X[.tX~.).D.+.o.N B B B N N B B &.%.2.%.K K K r.&.%.%.#.N B B b N N H #.f.R.#.c m N s.K s.#.s.d.1.L 1.L %.",
"b b o.r.&.&.%.z b o.B N b z = K o.o.o.b #.%.o.&.&.&.%.&.s.&.w $.+.&.o.N N z N N b N B z N B K o.o.%.o.N B b H c y % # # o # o o   . .     . . o # o o # # o # # - # % # o . . . . o # ; # o ; #   ; ; ; ; ; = ; 0 0 0 = ; 0 0 ; ; 7 ; 0 0 ; 0 = ; ; ; 0 y 0 : ; ; ; # # # # $ # # # # # # # # X # # = # # ; ; ; ; ; ; ; ; ; y y y ; # % # ; ; # # # # # ; 0 y 0 0 i z i i i y 0 ; ; ; ; = = ; ; ; ; ; % * + * + X X . . . . .     . + + + . .   . . * @ .     . * * + . . * @ + * @ @ & *       .     . + $ & + @ & & & $ + . . + + * @ 5 5 5 5 & + * 9 5 & & @ + . . .   . * * & @ +     $ . . . .                       . . o % % . . . . # % # o . % % ; - - - - - ; - % # # # # # # ; ; ; ; ; ; ; = # ; ; = ; ; ; ; y i y ; = ; ; ; = ; ; # = = = = # $ = 0 i p p i i 0 0 ; y y 0 ; ; ; ; y i y i z y # # = y i 0 ; 0 y ; y i 0 = ; y y i i : 0 i ; ; ; ; ; ; ; ; ; ; ; ; i D c % # o # # % % % - - % # o       . .                 . .     i #.(.^.@X#X.XD.N.u.K !.s.s.&.B H H K K o.B K H m K s.2.H H K B K H m N N N 7 p &.K %.%./.d.r.R.t.R.d.2.H H N %.",
"B o.%.%.$.K o.+.w $ w $.f.N q b N N b b b o.+.#.B &.$.$.&.o.= C o.o.o.b B q N B o.N B b b #.9.B N o.o.#.B H m p 1 # # o . . . . % o X . o # % % # o # o o o # % % % % o .         . ; i ; o o -   . . # # ; ; % ; = 0 = 0 ; ; 7 0 ; 0 0 ; = $ ; = ; ; ; ; ; 0 ; y 0 ; # # # # # # # # # # # # X # % ; > # % % ; ; ; ; 0 ; : y y ; # # X   . .   . . # # # ; ; ; ; y i z z y 0 : ; ; = = ; ; ; 0 0 y i y ; ; % * + . . . . . . . . . + . . . . . . + & $ + . . . . + @ * + + . + * * * @ * .         . . * $ 5 4 5 5 & + + + . + + + $ 4 5 9 9 9 5 + * 4 & + @ @ * . . . . . + . * + +     . . . .                       . . . o o o o .   . # # # % % - - ; % # - - % % % % # # # # # # % ; ; ; ; ; ; ; ; ; ; = ; ; 0 y z z i i 0 ; ; ; ; = ; ; ; ; ; ; 0 0 = 0 0 0 0 i y 0 ; ; y i z i 0 0 i z z i i y 0 # # ; i i i y z z ; i i i 0 ; ; ; ; ; ; ; 0 ; ; ; ; ; ; ; ; ; - # # o ; o .   . . # # % % - - % % - o o   X o         . . . . o . .   i L a.!.^.D.q.+.+.u.r.(.R.f.r.#.r.K K B K K N %.r.r.d.2.r.%.&.%.K H K 7 p b m b %.d.%Xd.2.s.2.u.Y.%.#.o.H #.%.H ",
"o.o.#.K K B B &.b !.!.N 7 b u.$.p N b p o.K %.N %.o.&.%.o.o.# o.N B q 7 q $ b 7 q 7 o.o.%.B %.%.K &.o.r.#.N N i ; o - o X   . . % o X X . o . o o . o o o o # % % - % ; % % % ; - ; ; ; ; o # -       . . # # # # $ 0 ; i 0 0 0 0 0 0 = ; ; # = ; = = = ; ; ; 0 0 y ; ; ; ; = = ; ; ; ; % # . # # # ; > # # ; ; ; ; ; ; ; ; y y ; # X . . . .   . # # # # $ ; y y i p z p y y 0 ; 0 ; 0 0 0 ; ; ; y y y y y ; % * + . . . . . . . + + + . . . . + + * @ + . . .   . + . . . . + * * * + + .       . . + * * @ $ @ * * + + . + @ & $ + + & 5 9 9 & . . + + + + * * + . . . . + + + . .               .                 . . . . o .   .     . . X o ; 1 i < o . . % - # o X # # # # % # # % ; ; ; ; ; ; ; # ; ; ; ; ; ; 0 y i i i 0 = # = # # ; ; i i y 0 0 i 0 y ; 0 0 0 0 y i y 0 0 i i 0 ; 0 i y 0 0 y ; ; ; i i y y y p p y : i i y ; ; ; ; ; ; ; ; ; ; ; ; ; ; ; ; ; ; - o .   . o o - # ; # - % - % % % < < o o o o % 1 % o . o o o % o .   ; N @.p.a.q.) b b N s.f.&.f.d.#.2.N B B H K K s.s.f.p.s.s.p.p.r.r.%.r.f.r.%.o.%.b %.r.2.#.2.u.%.r.%.%.b B #.H H ",
"B b B K o.K +.u.B b $ $   $ o.7 q $ B $ B B o.N &.B +.$.+.b 7 b K b q b N +.q q q B C K B %.#.s.o.+.C &.%.%.H c y ; % - # - . . - o X . . . . . . . . o o o # # - % ; i i v D G c y ; # . . # # .     . . # # # # % ; ; 0 0 0 ; 0 ; 0 ; = # ; ; 0 ; ; ; % = 0 0 ; y ; ; ; ; ; ; 0 0 y i y y ; - # ; ; ; ; ; ; ; ; > - ; ; ; 0 0 ; = # . . # # # # # * . # $ ; i i i i l i y i y ; ; y i i 0 ; ; 0 0 0 ; ; i y ; $ * + + + . . . . + + + + + . . . + + + . . . .   . . .   . . + * * . .         . . . + + . + + + + . . . + & 5 & + + + $ & 4 & +   . + + + + + + * + . . . + & + . +               .                 . . . X o . . . . . X . X o % ; - % .   . o % # o o # # # # ; ; # ; % ; ; = ; ; ; ; ; ; ; ; ; ; ; ; ; ; ; ; # * # # * # = 0 i i 0 0 ; ; ; = 0 0 0 0 i z i y y 0 0 y ; ; : ; ; ; 0 ; 0 y y 0 ; : 0 y 0 0 ; : i y ; ; ; ; ; ; ; ; ; % - ; ; ; ; ; - ; # # 1 i x ; ; ; ; - ; - ; ; % % # - ; # o . . o o % % o o . . o .     ; H ,.N.D.@.a.q.&.$.R.f.&.%.2.%.%.o.%.o.B K b s.o.2.#.&.&.r.u.p.r.r.r.s.Y.u.r.%.z 7 = 0 m b B B o.o.H B N z N p ",
"#.o.K +.B %.%.&.s.= q o.+XN =   $ $ b B B b B &.u.$.o.&.p.q b B N q . w b _.&.).&.+.C o.K B o.o.o.B B H o.&.#.c i ; - - ; < y o % . X X . . . . . . . o # % # % # # % ; ; ; ; y < y ; ; ; y ; y # ; v c p i i c ; # ; ; 0 ; ; = ; ; ; ; ; # ; ; 0 = ; ; ; 0 0 ; ; y y ; ; ; 0 ; ; ; y y 0 y i y ; ; ; ; ; ; ; # > > ; ; y 0 : ; ; > # .   o # # # = # # = ; ; i i i 0 0 y i i i 0 ; 0 0 i 0 ; ; ; 0 0 ; ; ; ; ; # * * * * + + + . . + + + + . . + . . . . . . . . . .     . . . . . .               . . . . + * + . . + + @ 5 & + . + $ $ + + + .   . + $ * + + + + + . . + * & * + .                         . .     . . . X X o # ; - % o # o .           X # o o # % % # % - - ; # # ; % % ; ; ; ; # # # # $ ; ; ; ; ; # = = # # # # # * $ ; ; y y y 0 # # # # $ ; ; 0 i i y y y ; ; ; ; ; ; ; ; 0 ; ; i y ; ; ; ; ; : ; : : ; 0 y 0 ; ; ; ; ; : ; ; ; - ; ; ; ; ; ; ; - 1 i x ; 1 - ; % ; < ; < - - % o % - - - o % . . . o o .     .       ; K i.N.^.N.@X[.D.R.p.r.%.&.&.#.o.%.%.r.K #.%.K %.B %.B N &.%.r.%.#.o.#.K o.p.R.!.#.m q 7 q 0 K K %.B 2.p.K B q ",
"N B b 0 z K z B o.B q 7 7 q q B B N B b 0 z 0 N b B b K o.K C +.N w + 7 B B #.B o.&.$.+.b o.%.o.&.&.o.H K B m c i # - # - ; - - o o o o . . . . . . X % - ; % % # o o # # # o # ; i y i x G v c # y i z y y 0 c m y ; = ; y y 0 ; ; # # # # = ; ; # ; 0 ; ; ; ; : ; y y ; ; ; ; ; ; ; ; = ; i i y ; % - - ; # # # # y i i : ; ; # # ; y 0 % # # # = ; i y = = : 0 0 ; = ; 0 i z i ; ; ; ; ; ; ; ; 0 y y ; ; = ; % % % & % * * + . . . . . . . . . . . . + . . . . . .         . . .               . . . . + + + + + + * 4 9 4 + . + + * + + + .     . * @ + + + + . . + * + * $ + + .                           . .   . . . . . o % < ; % % % # .           # # # # # % - ; ; ; ; # # # ; % > = # # # # # # # ; ; ; ; ; ; # = = = = # # # ; ; ; ; ; 0 y ; ; # # # # # ; y i y ; 0 ; ; ; ; ; ; ; ; ; 0 ; ; y ; ; ; ; ; ; ; : y 0 ; ; 0 : ; ; ; ; ; : ; ; - # # ; ; ; ; - ; ; 1 i ; i 1 ; - # % % % - % ; ; < - ; % % - o o .   . . . .   . .     z %.f.f._.^.@X[.D.f.s.2.t.2.%.#.%.&.#.%.r.2.%.N B q b z z B N K B H %.p.%.o.B B 2.d.R.o.H 2.%.B B K K p.o.N p b ",
"N %.&.p &.C B q H %.7 7 7 o.o.o.b &.q $ 7 w q w b N C q o.u.b +.f.!.R.!.p.&.f.r.p.p.R.f.u.9.%.9.u.&.r.o.&.H c i i # % - - ; % - % o o . . . o X X . o o % % % % % # # # # # o o . # - i y i ; ; # y ; y y ; ; ; y p i = = ; y y i 0 = ; ; 0 0 ; # # = 0 ; ; ; ; ; ; : ; % ; ; ; ; ; # # ; ; ; y ; ; # # > ; # ; ; # ; y i y y - . # 0 c c y % # y z z z i 0 ; 0 0 y ; ; ; : i c z 0 0 0 ; ; y y y i i y ; ; ; ; ; ; ; % % * + * + + . . . . . + . . . . + .     . . .                             . . . . . . . + * $ & 5 5 + . . . . + . . . .     . + + . . . .   & $ . + + + . .                         .   .   . . .     . . o % % # # % # # X o # # o # # # # # # # % ; ; % # # # > # # = # # # # # # # = ; ; ; ; = = ; ; ; ; ; $ # ; > # $ = ; 0 ; = ; # # ; ; y i y y ; ; ; ; ; ; ; ; ; ; : y ; 0 ; ; ; ; ; ; ; y i i y y y y : : ; ; ; ; ; ; y ; ; # # % % % - ; ; ; % - ; ; ; ; % % % % % - - < < % ; o o % . .     . . . . . . X O   c &.!.!..X@X#X~.a.f.r.r.&.2.r.K #.%.%.%.&.&.K b 0 z 7 p q q N H N B 2.s.%.N o.$ $ b N u.r.u.u.H b p N %.m p b z ",
"o.!.d.r.*X$.o.H o.$.p p.%Xu.K N u.+.V N f.B N 0 $.B +.o.b &.z B B f.%X_.b q N &.f.s.u.f.s.f.u.s.u.r.u.&.%.o.N p y # # # # - % - % o o   . % % % . . % o o o - - % # # o # # # .     # y ; # % X ; i y ; ; ; ; ; ; ; 0 y 0 ; = ; 0 0 ; ; ; ; ; ; ; ; ; ; ; ; ; ; : ; ; : ; # ; ; ; # ; ; ; ; ; ; ; ; ; ; ; ; ; ; ; ; ; ; y i p y ; ; 0 p m c 0 0 c v c i i p i i y y 0 0 0 0 i z z p z i ; 0 c c v p y 0 ; ; ; ; ; ; % % % % & * * * + . . . . + . . . . . .     . . .                 .         . . .           . + * * + . . . . . . . . . .       . . . .         $ *   . . . . . . . X     . . . .         . . . . . .     . . . o . o o # o # # % % % # % % # # # # # # # % # # # ; ; = # # # # # ; ; ; ; = = = ; ; ; ; = = $ # # # # # # # ; ; ; ; ; ; y 0 y c p y i ; ; ; ; ; ; ; ; ; ; ; ; ; ; ; 0 ; ; : ; : ; : i i i y y ; ; ; ; ; - # ; ; ; c x x % # o # # - - - ; % ; ; ; - ; ; - % # % ; - ; - - % % - o .   . . % o o . . . X .   c #.h.Q.~.^..X_.&.&.$.#.%.2.%.#.%.o.o.o.o.o.B K z 0 0 p 7 0 p N o.#.K p.R.K o.B N z b 2.#.K K B B B b K N ).u.K ",
"B H s.f.u.u.b s.%.s.#.&.u.$.&.B %.B u.R.B p q b B H b b B $.B z &.f.u.f.b = $ b o.+.$.u.p.r.u.u.f.p.p.o.o.B z p ; . X . # # o # # o o . . o o o o % % % # # % % # # # # % # % ; ; # # # # o - o c y y ; # # # # ; ; ; 0 0 ; ; ; ; ; ; y = ; ; ; 0 ; ; ; ; ; ; ; ; ; ; ; y # o # # # ; ; ; ; ; ; ; y y y y y ; > y y y ; y i i i z c z c G c ; ; y i i i i i z p i y 0 y y 0 y y i c c i 0 i c v v c y = = ; ; ; ; ; ; = ; % % % * * * + + . . + + . + . . .       . .     .     . . . .         . . .           . . . .                                             . . .   . . X X o X X . . # # # # # o . . . . . . . . . . . . . o . X o o o o o . . . . # # # # # # # # # % % # # % % # # # # # ; ; 0 ; = # $ = ; ; ; ; # # # . . # ; = ; ; ; = = ; ; ; 0 c m m z i y ; ; : ; y y i 0 0 ; 0 0 ; ; ; ; 0 y c i i i i y i i i y ; ; ; ; : ; # ; - ; ; ; % ; # . X o # # - - # % - ; - % % o % % ; - % % % % % % - o o . # - < < 1 - o X o     c B p.!.[.'.~.D.) +.B B %.%.#.%.%.%.K b H N B B b 7 $ 7 B z q b K B B s./.u.o.B p.K B 7 %.K #.o.d.f.K o.b r.K o.",
"K z N o.o.p.&.OX+.$.$.b N b H p $ = &.N $ $ z z q q # B b +.N q q B &.!._.!.+.N B o.&.$.&.&.&.u.u.r.&.o.o.N K c ; . . . % # o o # % o . X X X o % - - % % % % # # # ; ; ; ; < i G x %   . # . - i : ; % . . . o # ; ; = ; # ; ; ; ; ; y ; ; ; ; ; ; ; ; ; ; ; ; ; ; ; ; ; 0 o # # # # ; - ; - % y y y ; ; ; y ; ; : y y i y i ; ; ; 0 i 0 i # ; z p z z z l i i y y 0 y i y 0 0 y z i i i c z i 0 ; ; # # ; ; ; 0 ; 8 8 = % # * * * * + + + + + + + + + . .         .   . . . . . .   . .                     . .                                                     . .   . + # # % # # X . # % % % % % # o X . o . o o . . X X X . . . . o X X . . . . . o # # # % # # # # % ; % # # # * # # # # ; = ; ; ; = = ; ; ; = ; ; # # + # # ; i 0 0 ; ; ; ; 0 i y y i 0 y y y ; ; ; ; y : : : y y i 0 : ; ; y ; i : y y i i i y : i : ; - # # ; ; ; ; - % # % - # % X . . . X # % # # ; < < ; ; o # # % % - - - - % % % % - % % % - - - o o . o .   z #.i.~..X^.D.a.o.+.K o.2.K B o.o.K N m b z N N N B K K %.K %.&.K b p #.s.o.z b r.s.f.H R.Y.d.d.R.f.d.B s.H &.o.",
"b o.7 N K s.o.z N b K 7 b o.u.u.7 %.b B q  Xp.+.b b 0 N b N $ q q u.+.o.$.).%Xf.r.+.&.$.%.&.o.u.%.%.+.B o.N H m i % % % # % % o o % % % o . . . o o o o o # # # % % ; ; ; ; ; ; ; ; # # % ; . ; y ; ; ; ; ; ; % % % ; ; ; # ; ; ; ; y y ; ; ; ; ; ; ; ; # ; ; ; ; ; ; ; ; ; ; # # ; ; ; # # ; ; = ; ; ; ; ; y c l i y y y ; ; ; ; ; ; % # # ; z c c c c c z i i 0 y 0 y i i y 0 y i i 0 i z i 0 ; ; # # # # # = 0 0 0 0 0 ; & % * % * * * + + + + + . . .         .       . . + + .     .                   . . .           . .       .       . .   .           . . . . X X # # % % - ; ; % # % # # # # # # # # o o o o o o . X o o . . . . . . . . . . . # # % # % ; % # # # # % % # # $ # # # # ; ; ; ; ; = ; ; ; ; ; ; ; ; ; ; ; 0 ; ; : y 0 y i 0 ; 0 z y y ; ; > ; y i ; ; y i ; ; ; y i y ; ; ; ; ; y ; ; ; y : i : i i y ; ; ; # X # # # % - # # % < ; o . X . o . o o o . # % 1 1 - - o o # % - < ; < - - % ; - % - % o X . .   . . .   i K q.!.~.F.a.q.) ) K o.&.%.r.&.K N H m z p N b 2.d.).u.d.&.&.%.o.%.K %.b p $ b %.p.&.(.&.%.&.2.2.&.f.u.!.%.&.B ",
"N K N z K B K K o.+.$.$ z &.OXf.&.kX$.B q f.o.&.o.f.f.u.q = q 7 r.$.r.o.f.).p.r.r.u.&.%.B &.%.o.+.+.K #.K B K m x i 1 i - - o X o o - % o . .     . . . . o o # % - ; - % # - % .   . ; ; i # i ; - ; y y i y ; % # ; ; ; ; ; ; = ; ; ; ; ; ; ; ; ; ; ; ; # ; ; ; ; ; ; ; ; ; % # # % - ; ; i ; ; ; ; ; ; % ; ; y ; ; ; ; ; ; ; i z p y ; # ; z i i i i i i p y y 0 ; 0 0 0 ; ; 0 y y y i i y y y 0 ; ; ; ; ; ; ; ; 0 0 0 0 0 8 % * * * + + + + + + + . . . . . . .       . + * + . . . + .           . . . + + .         . . . . . . .       . . . . . . . . . . . . X * % % - - ; ; ; y % # # . . o o # # # # # o o o o # # o o . . . . . . X . . . . . # # - - % ; ; # # # % % # # # # # # ; ; ; ; ; ; ; = ; ; ; ; ; ; # # ; i c y y 0 ; 0 0 i 0 ; ; ; y y ; ; ; 0 y ; ; ; ; ; ; ; y y : ; ; ; ; ; ; # ; ; ; : : y y y i i i y : ; ; - - - # o # o o % ; # # - - # ; % % o X . . ; % - - < % ; % % ; - - % - - - - - - % % % . . X . o X .   i L i.N.~.N.N.i.) B B +.%.%.%.&.2.%.%.o.2.K o.B r.s.s.#.p.r.o.o.B z o.K 0 7 B p.r.r.s.Y.#.o.&.o.K o.d.%.#.%.&.B ",
"B +.B b z z K s.u.&._.b z B B s.u.u.u.q f.N &.B r.B K N &.b &.!. Xf.).f.$Xr.&.N r.u.&.$.o.$.K o.$.$.%.o.H %.#.G x i i i 1 ; o X . X . .     . . . . . o X X o # % % % # o # o .       . o . # ; - ; ; ; ; y y y ; ; ; 0 : ; ; ; ; ; ; ; ; ; ; ; ; ; ; ; ; ; ; ; ; ; ; ; - ; i # ; ; ; y c c y ; ; ; ; : ; ; ; ; ; > ; > ; ; ; ; ; 0 ; 0 ; ; z i i 0 ; ; ; 0 y 0 0 0 ; 0 0 0 ; ; ; 0 y 0 i i p i i i i y 0 ; ; ; = = ; 0 0 y i 0 ; % * * + + + + + + + + . . . . . .     . . . . . . . . + . .       . . + + + + . . .     . . . . . . .       . . . . + . . . + X X o * ; ; ; ; # # # % # X . . . . . # # o # # # # o # % % # o o X # X X # # # # o . . # # # % % % - ; # # # # ; % # ; # # ; ; ; ; ; ; ; ; ; ; ; ; ; = ; $ ; y y i ; y 0 ; ; ; ; ; 0 0 0 y 0 ; ; ; z y ; # # ; ; : i : - # X # ; ; ; # # ; ; ; ; ; ; ; : ; : ; ; y ; ; : : 1 y 1 i ; ; % % o ; 1 c J G x ; - # % % ; % # # - % ; < - - % % - - < 1 a < - o o % . o o o % .     z #.a.N.~.'.'.@.o.o.#.B #.r.r.o.%.&.&.2.p.Y.2.r.2.%.p.p.f.r.f.%.#.#.o.%.7 o.%X(.!.K +.o.#.%.p.s.B o.o.%.2.&.%.%.",
"N B N 0 K B +.o.&.%.f.&.+.b q b K N u.$.%XB &.+.&.r.b 7 b b b u.o.N N N V o.$.&.&.$.+.o.%.&.%.&.%.$.o.%.H &.K m c ; 1 1 1 ; % . . . .         . o o o o o o % % o % # # o o                 #   . ; 1 ; ; ; ; y i c c y y ; 0 ; ; % # ; ; ; ; ; ; ; ; ; ; ; ; ; ; ; ; ; ; ; : : o - ; i y ; ; ; ; ; ; ; ; ; ; ; ; ; % # ; ; ; ; ; % ; ; ; = i y y 0 y y y y i 0 : 0 y y y 0 = ; : 0 0 ; 0 ; 0 0 ; ; ; ; 0 0 0 ; = ; 0 0 ; 0 i y = $ % % % + * * + + + . . . . . . .       . .   . . . . . . . . . . + + + + . . . . . . . . . . . . . . . . . + . . + + X X X # # % # ; ; ; ; % # X . . .     . . . . o o o % % # # # # # # o o o o # # # # # % % # o # # # # # % % % # # # # # % # # ; # # ; ; ; ; ; ; = ; ; ; ; ; ; $ ; = ; 0 0 ; ; % ; ; ; ; ; ; ; y i i y i 0 ; ; 0 ; ; ; % # # % ; ; # # ; : ; % # # % # ; ; ; : : : ; 0 y i y ; - # - y i 1 v i i v i ; # ; y c a i < c i % % - % < % % # % ; < < < - ; % < 1 < % . . . o . . o . . .     c o.f.q.D.'.D.,.+.+.o.B b N K #.2.r.s.r.r.r.%.&.2.f.f.f.K o.%.%.&.o.K b N r.s.&.&.%.&.%.%.&.s.u.u.2.2.%.%.&.K K ",
"&.N B z OXf.9.o.+.u.r.o.q 0 B $ q V u.o.. 7 K B &.(.+X$X!.o.o.u.b b + w $ &.u.u.$.o.o.&.%.&.o.o.o.K B K #.&.K m c - ; ; ; ; % # . . . .   .   . . . # # % % % % # # % # o o . . . X .   . ; ; # ; 1 ; % # ; ; ; i i y i y y 0 ; ; ; # ; ; ; ; ; ; ; ; ; ; ; ; ; ; y i i i y ; ; ; ; ; ; ; ; ; ; ; ; ; ; ; % ; ; ; ; ; ; ; > ; ; ; y i ; ; 0 0 ; 0 0 ; y i i i z 0 0 y 0 ; ; ; ; ; ; ; ; $ = ; = # # ; ; ; ; ; ; 0 ; ; 0 ; 0 y i 0 = & $ * % * * + + + . . . . . . . .   . . . . . . .     . . . . . * * + . . . . . . . . . . . . . . . . . + + . X + + # # # # # % % ; ; ; ; % # X o X .     . # o o # # % % % # # o o o # X X o % % # # # # # # . X o # # # # # # # # # o # # # % ; ; # # ; ; ; ; ; ; ; ; ; ; ; ; ; ; $ ; ; ; ; ; ; ; ; ; ; > ; ; ; 0 0 ; y ; y y ; ; ; ; ; # # # . : c P J v z i ; # ; ; # ; ; ; ; ; ; i y l c c y ; ; i i y y c y i D ; # . # i 1 i 1 c x i . o o # % ; # o % % % < 1 i - < 1 - % o . . . o o o   . .       i H q.u.D.F.N.,.+.B B o.b b z B %.f.f.Y.p.%.&.o.s.p.%.%.r.#.%.K N o.o.q B b q 7 N o.%.%.%.K %.&.f.d.%.o.2.f.p.N ",
"kX&.B b f.%.u.%.%.u.r.&.b q N z 7 N b B N N b o.u.!.%._._. Xu.f.f.).&.K o.+.&.r.&.$.&.r.&.o.o.o.%.&.$.%.o.#.G m i ; - ; ; - % # . . . . o X .   . . o o o o # - o o % # o X o o % . # ; ; 1 y i i ; ; # # # ; ; ; ; ; ; 1 y ; ; ; ; % ; ; ; ; ; ; ; ; : : ; < y ; < : i 1 1 y ; # ; ; ; ; ; ; ; ; ; ; ; ; ; ; ; ; ; ; ; ; ; < ; - ; y 0 ; ; ; ; ; 0 y 0 i y ; y i ; : ; ; 0 y y ; ; = > > # = # ; # ; ; 0 y 0 ; 0 0 0 0 0 ; 0 0 0 ; = ; % % % # + + * * * * . . . . . . . . . . . . . . . . . . . + $ * + + . . . . + + . + + + + . . + + + + + + + + . # # # # # % - ; ; ; ; ; % # X # # X X o # o # # # # % # # # o o # # # o o # # # # # # # # # # # % # # # # # # # # % # # - ; ; ; > # ; ; ; = = = = = ; ; ; ; ; ; ; = = ; ; ; ; ; ; ; ; ; 0 i i i y 0 y y i i y ; ; > # # # # ; i c c G i i y ; # ; ; ; ; : ; i y ; y i i i i y y i i 1 ; ; 1 1 y ; ; y c i 1 ; i i - < 1 . . o # o - % - - ; % ; < 1 ; < ; % o o o . . . X o .   .       = N w.@.D.a.a.&.f.o.K B N B b p H #.2.s.&.&.%.B r.%.o.B H K H %.#.o.K K K o.B 2.K s.&.d.d.%.H o.o.%.K K u.+XY.u.",
"f.f.N R.K u.$.&.%.r.&.$.%.N o.V 0 = ; b f.u.B N b &.o.B f.#.s.u.K +.f._.!.%.o.o.&.&.%.&.&.R.+.%.%.%.2.#.B K N m i ; - ; ; ; # . X . . . X X X X . . o o % % % % % o # # # # # o % . ; % o % # ; ; % ; ; ; ; ; ; % % ; ; ; ; ; ; : y ; y ; ; ; y ; ; ; y ; y y i y # - ; 1 1 y 1 % ; ; ; ; ; ; : ; ; ; 1 y y ; ; ; ; ; ; ; y ; y ; ; ; ; ; ; ; y y 0 ; ; 0 ; ; ; ; 0 ; ; 0 y 0 ; ; 0 ; ; ; ; ; $ i i ; y i y y 0 0 0 ; ; ; ; ; = = = ; ; ; ; ; % % * * & & & + . . . . . . . . . . . . . . . . . . * * * + + . . . + + * + + + + + + + * # + + + + + + + + # # # % - ; ; ; ; ; ; % o . # # # # # # # # # # # # % # o o o % % % # # # o o # # # # # % % % - % % % # # # # % ; ; % # ; % ; # # = ; ; = ; = = ; ; ; ; = = ; = ; ; ; = = ; ; ; = ; ; y i p i i y y i i i 0 0 ; - ; ; y ; c ; ; = ; ; ; ; ; y # ; ; # - ; i y : ; : y y ; y y i y ; - ; ; - ; ; 1 y D J x i < ; % ; % % o # % % < % ; < ; % - ; ; - - o % . . . . . X . o o o         ; N i.i.D.a.D.~.a.+.o.N m N N B b B #.%.o.K #.K %.K B m m b z N K K #.%.s.r.f.d.r.R.p.!.R.&.o.o.o.u.%.o.o.o.f.f.",
"#.R.u.+X%.u.&.&.o.o.#.B B b N b = N b B z o.B o.B $.%.%.o.&.s.f.p.u.f.u.2.%.&.r.%.$.B r.+.; 7 K B &.R./.(.2.H m y - % - - - o . o . . . . . X X . . X o # % % % - # % # o - - # . # ; # # o # # % # ; y x < ; ; - ; # - ; - ; ; < ; ; < ; ; y ; ; ; ; ; ; 1 ; y ; ; # ; ; y y < - ; ; - ; # ; ; # ; ; ; ; ; ; ; ; ; y ; ; ; ; ; ; ; ; ; y ; ; y ; ; 0 ; ; ; ; 0 0 ; 0 0 y 0 ; = ; ; 0 i z z i ; y i ; y y y y ; ; ; 0 ; 0 ; 0 ; ; ; ; y ; ; % ; % & * & 5 & + . . . . . X + + . . . . . + . . . + + . + $ * + . . + + * + + # * + # # # % # # + + # # # # % % % % ; ; ; ; ; - ; ; < ; % # # # % % % % # # # % % % o o % % % % # # o o o o # o # # # # # # # % % # # # # % - ; ; # ; % % # # ; - ; ; ; = ; ; ; ; ; = ; ; ; % % % * # % ; ; y i i i i y i i y i i y y ; # ; ; y z J c c ; = ; i ; ; ; ; ; ; # # # X % ; ; ; ; ; y y ; ; y i y ; 1 < < % ; # - i < G < < 1 < - % o X # ; # % 1 < - - ; % - % % - % % # o o o . . . . . X . .       : K u.p.q.N.^.D.i.+.o.K N N N K K o.%.o.%.#.%.%.%.K H z N b b N o.%.d.r.R.u.&.r.%.&.d.d.r.s.r.r.r.2.r.2.o.N o.%.",
"$.p.&.#.%.%.#.B B %.f.s.b $.b V q +Xf.$.b b b B N N B o.s.f.u.u.r.r.f.p.u.o.+.&.+.N B N K B N b B r.f.o.f.s.r.G i # % - # - o . o .     . . . . X .   o o o o # # # % o . o o # i x ; # # o # % ; < i i i y ; < # - % - ; ; ; 1 ; ; # ; ; ; ; ; ; ; ; ; ; ; ; ; ; ; # : 1 1 y < # % # # ; # # - # # # # - ; - # # ; < y < < ; ; ; ; ; ; ; ; # ; ; ; ; ; ; ; 0 0 0 ; y ; 0 ; ; = ; ; ; 0 : 0 ; ; y ; ; - ; ; ; ; y y i ; ; ; ; ; ; 0 ; < - ; * % % % & & & & * + + + X . + + + + X . X * & + + * * + . * $ + * . . . . + * # # % * # # + # # * # # % % % % % ; - - % - ; ; ; % - ; < < ; % % % - % # # # o o o o o # o % % # o X o X o o o o o o . . . . . X o # # # # # # % - % % % % % # o # % % ; ; ; ; = % ; = ; ; ; ; ; ; - % ; ; ; y c c c i l y y y i l y ; ; # # # ; i y ; i a y ; ; ; ; % % ; ; % # o . . o # ; ; ; ; : ; ; ; ; ; ; ; 1 ; ; % ; < - # % . - < - ; - ; 1 i ; - 1 ; < - % # % % # o X % % o o % % %     . . . .       . . i B &.u.a.D.D.f.9.#.#.o.H H K o.%.%.#.%.2.2.%.r.d.2.&.&.r.%.o.K K o.K K %.o.H %.%.#.K %.2.r.r.2.r.%.r.%.o.&.G o.",
"&.%.r.u.r.2.&.c b u.+Xf.2.kX$.N q f.o.u.+.f.u.&.$.f.u.f._.u.p.p.u.r.f.p.s.s.%.r.o.z 0 0 N f.r.N b z #.H m r.G G i # o o o # # X O O O   . . . . . . . # # . # # # # o o . # % 1 x c i ; % % # - 1 c v c x i 1 y ; ; y ; ; ; ; ; ; ; - 1 ; ; ; % ; ; - - ; ; ; # ; ; ; ; ; ; ; ; # ; # # # # # # # X # ; ; ; ; - % - ; < ; 1 ; ; ; ; ; ; 0 y ; ; ; # - % ; ; 0 0 ; ; ; # ; ; ; ; ; 0 0 ; ; ; ; ; y ; - # ; ; ; ; ; ; ; ; ; ; ; ; ; ; ; ; - + * % % % % % & % % * + # + + + * + * + * % & & & * * * + * $ $ * * + . . . + * * ; % ; % # # # * ; % # % ; ; % - % % % # % - ; ; ; - ; ; < ; - - % % # # # # # o o . o # # # % o # # # # o # o o o . . . . . . . o # # # # # # # # # # # # # # o * # # - ; - # # % ; ; ; ; ; ; ; ; 1 i y = ; ; ; y i y i y i y : y ; ; ; ; - - # < ; ; i y : ; ; ; ; ; ; ; ; y 1 ; - # . X # - ; ; - ; ; y y ; # ; ; % # o % % % # ; - ; ; - - ; ; 1 1 a < < < ; - o % % ; - # # % # o % X o - o . . o . . . . . . # z B 2.u.f.f.f.i.&.$.$.%.%.%.K o.o.&.%.%.o.H H &.r.%.K K 2.r.d.r.r.1.L K r.#.2.N 1.2.#.H K H K #.%.#.2.%.%.2.2.&.",
"%.K r.2.2.r.R.B b o.C f.f.u.u.p h.N u.o.u.+.&.&.f.R.f.u.p.f.d.u.2.&.&.u.#.%.K #.K z K N K z K N K m o.K K m c N G < o . . . o o O O O . O O . . O . O . o X # % % X # X # - - c S c x i - # X # - < i i i i y i < < y < ; ; - ; ; ; y < ; - # ; - # # # > - > # > - ; ; < < < ; - ; ; # # + # . X # - ; - ; ; - - - - < < y - ; ; > > ; ; ; ; > ; # # # > ; ; ; # ; # # ; y y y y 0 0 ; ; ; > ; ; ; ; # > ; ; ; ; ; - # # # ; < < ; ; ; ; + % ; % % % % % # % # % % % % + + + + + % & & * + + % * * $ % % % % % # # % ; y ; ; ; ; ; # - - * ; % # % # # # # # o # % # # ; ; ; ; ; ; ; - # # # % # o o # # o o X X # # # % # # - - % # X X . . X . . X . X O . # # # # # # # # # # # # # # # - % # > - > # # # % - % - - - > # # - y p ; > # > < < # > > < - - ; ; ; < < ; - - ; i i y i ; ; < ; ; < - ; < ; ; ; ; o . # # - % - - ; y < ; X # # X X o # # - < v < - - - # - - < < - - - < < - o - % , - - - # X o o % , % % . O o o o o . o . # p m &.!.!._.D.u.&.$.r.u.%.#.%.K %.%.#.o.o.B H #.B B N B K H H s.%.2.2.d.t.r.s.2.d.r.%.H N H o.2.2.2.2.r.2.2.s.2.",
"K &.%.%.%.u.r.&.$.B b B +.K f.r.$X+.u.u.f.u.%.$.p.u.r.u.f.&.%.#.N o.s.(.Y.K u.o.o.#.$X!.&.m p 0 N N N m N m K z i ; # # o o # x 1 o .       . o X X X o . . # o % - % - o o o % % # # o X X X   . . . o # # o # o o # $ o X . # o     o X   . .   X X O #   .   o # # % % # o # # # # # # # o X o o #     # # o o #       o # ;     o # ; ; % o o o o o ; ; # X X % % o X . o %       . . . # # X o .   . % % ; ; # % o o % . . # # * # = ; ; $ * * # # + o X # * # + + X + + + * % * # + X X + * % & & & # ; ; = ; 0 i y p i y y ; - # # ; # o o X X o o X         . o o % % % ; ; # X . o . . # o o o . X ; % o X     .   . X . . X     # % o   o o o o X X c i # X % # # # o . . . X X # # o %     # X X X           O X     o o         X X o o # # X X o # # .   o X       o X X       # o X o       . o % # # % # # #     o # # o o   . X X       o # % ; # o o X o o O .     O o # X X .       . . .   X O o # # o o # X O # .     # % 1 p p o.&.u.f.u.u.&.o.u.$.o.B H o.K 2.%.#.K K #.o.H H z K H K H 2.s.(.d.2.u.%.2.s.#.H K N #.%.H %.2.#.K K %.K 2.2.",
"K R.r.%.%.r.2.%.H b +.b B o.p.$.J %.2.u.f.s.r.#.p.u.p.p.s.u.&.r.c N d.%XR.s.OX%.2.f.f.r.%.K p.r.L z 0 m H 2.#.c m z i ; < ; c K p 0 % < . y i 0 ; : i i # 1 y y i i c i y i u p i ; 1 1 ; ; % o . 1 i 0 y y ; 1 0 : 0 i y ; 0 p i 0 : ; ; ; 0 0 y : 0 ; b 0 i y 0 i p 0 0 0 : 0 0 0 0 0 p i i : ; 0 0 : ; 0 i 0 0 0 0 0 0 0 p i y 0 i m H m c i p i c H #.J i y i s i ; : y i y 1 ; . ; y i p s p y y p m #.B m b i p y ; p p i i 0 i p N p b b i i y y 0 i y y < ; ; % ; ; ; ; ; 8 0 % % ; ; i y p y y y p i p s p m N H H N m c s c i i p y ; < ; < i i ; ; ; ; ; ; ; ; ; ; 0 s c ; ; 1 i i i 0 i y ; # ; c c i ; ; X . ; ; ; ; ; ; ; y i p 0 ; ; i : : ; c H p p ; i i i i 1 < * 1 1 y 0 i p p i i y ; 0 i : : ; ; : ; - # y 1 : : o . ; ; : 0 y ; : ; ; ; i i y : i : ; : 1 0 ; ; -   : y : ; i 1 ; : y i p p p p i i 0 : ; ; 1 y : y 1 1 : ; : : : y i c p y 1 ; 1 i i i 1 i i < 1 i 1 ; 1 ; ; 1 o o o ; < 1 < y y y 1 y < < y 1 i a i l c B H N o.&.q.$.#.$.+.%.K B N N N N K %.%.%.2.s.r.r.u.R.d.r.#.%.m #.2.2.2.2.r.%.1.#.#.m K 2.%.#.r.%.#.%.H N G K H ",
"%.2.2.H %.o.#.%.K K %.%.%.+.+.&.u.u.u.+.$.%.%.o.m N p.&.&.2.&.f.B N K %.u.r.H N b #.r.Y.p.p.K B N K z N 2./.r.%.(.H N p p m 2.o.B N B c #.o.o.) C o.K o.C o.B H o.+.+.@.o.+.o.o.o.%.%.H N ; N r.b o.%.o.) o.o.K o.) ! ! ) q V B ) B N N B V ) ) ) ) ) W 9.) B ) ) ) ) ! ! ) V V ) ) ) o.+.o.+.) B ) ) ! B B ) ) ! ) B ) ! &.u.%.! %.d.u.g.,.o.+.q.o.r.9.2.&.! o.N V N o.b V ! V V b V ) ) ! o.&.o.B ) @.s.r.g.g.u.&.o.B ! $.o.) o.o.o.~.g.$.&.+.$.o.H K K +.K H G m N N H N N b N N N N N N K K o.! B K B ) C K +.o.o.+.%.o.#.+.#.#.#.B o.#.B H o.G K +.o.N B N N N B K o.%.r.Y.s.r.%.#.r.1.o.} o.+.o.m ; y.y.t.N b % z m i N V b z b C o.o.C B ! N o.V 0 N r.+.) o.+.B 9.+.+.) B o.o.o.C +.o.o.o.o.! o.o.+.o.! o.+.0.B N ; m r.N B ! ) B o.o.K o.B V V ! 0 V V ) B N B ! B ) B B B V b %.) b o.o.! V ! V ! ) o.O.+.o.) ) o.o.B H o.+.o.o.H ! B N B B B ! 9.g.o.B } B #.#.o.H o.&.o.B H K o.B #.m m N N p m N z N H } #.K H K H B B H +.o.N %.#.o.+.$.%.u.&.u.&.&.&.%.o.o.b N b N H #.%.d.u.Y.s.r.t.d.Y.s.r.2.m z p N K K #.#.#.#.K o.o.#.%.H #.#.%.2.K K N N m ",
"&.#.s.%.d.K #.#.%.#.#.r.&.$.o.r.&.B &.q K r.!.h.N f.+.&.K +XY.s.#.o.B %.H K $ z m s.%.o.o.R./.&.#.#.K B H H %.r.%.2.%.u.N !.h.q.k.i.'.a.q.D.N.m.m.G.p.q.m.m.q.q.m.m.F.'.~.N.i.-.m.N.D.G.q.q @X$Xb.q.m.F.N.G.m.m.N.w.b.m.m.m.m.B.z.-.-.e.e.w.G.m.m.e.w.` J.M.m.k.e.e.e.w.<.<.e.m.G.m.F.m.B.m.G.e.m.m.e.w.q.w.m.a.m.m.e.m.F.tXpXF.G.XX.X'.N.`.M.B.B.w.^.[.m.b.J.w.q.+.,.-.-.-.e.,.-.V.m.D.w.@.i.i.N.b.w.P.'..XpXyX{.{.a.e.a.m.k.k.m.F.oXcX5XJ.`.N.m.N.,.w.m.'.m.w.i.,.,.-.w.i.i.,.+.o.@.w.&.O.i.F.b.e.q.w.q.w.q.e.G.'.[.'.N.i.h.N.f.N.a.G.m.q.) a.m.+.O.i.,.i.a.N.f.q.w.f.u.D.lXDX$X~.!.!.#XD.u.4.m.`.a.#.m $X_.)._.).%.s.q.z @.u.q.B B w.,.@.q.q.w.^.#X'.-.[.^.w.m.M.[.G.m.F.N.m.N.m.w.q.m.D.m.m.m.m.G.'.F.m.a.@.k.G.G.m.,.q @XeXm.w.M.F.m.G.m.a.m.q.w.e.a.i.D.D.m.-.-.k.m.e.B.m.m.e.@.! m.m.e.m.e.q.w.w.;.w.e.m.G.m.M.m.m.m.M.w.N.m.w.i.i.f.a.e.i.a.e.m..XyX6Xi.m.m.a.f.p.V.g.D.Q.i.a.i.w.i.F.u.r.$.%.,.$.O.u.&.u.F.N.~.i.,.q.@.f.p.q.F.V.q.[.Q.a.d.u.u.4.u.p.u.s.d.f.u.&.&.r.%.o.o.o.o.%.&.r.%.%.%.%.K %.s.f.Y.#.B B B #.%.s.u.2.%.s.&.&.#.H %.r.u.#.H H m N o.",
"#.o.r.%.#.#.H N B o.B +.$.o.+.&.&.r.u.p B u.%X!.f.CXd.%.B !.#.d.&.!._.R.N q b p 2.#.2.o.f.(.p.r.&.&.%.%.#.B m N N s.2.R.N &.D.i.m.a.'.6XO.i.F.~.XXD.a.D.J.G.m.,.b.'.F.J.G.G.m.q.XXaXrX{.'.} lX'.b.e.G.N.m.B.G._.F.m.a.m.w.m.F.m.G.G.m.m.G.B.G.G.G.z.k.*.L.L.z.G.m.m.e.k.e.w.k.G.].G.P.G.G.L.F.G.m.G.M.z.m.m.m.m.M.m.w.G.aXpXpXeX5XXXJ.m.e.5XF.G.'.D.'.XXF.G.J.k.i.i.f.u.,._ G.D.b.{.m.~.m.a.i.pXBXi.-.J.oXeXBXBXpX5XJ.m.m.b.F.w.m.oXrXcX5X].'.B.P.oXD.a.F.].M.m.F.F.m.,.q.a.m.F.w.o.,.m.q.-.m.'.F.J.G.B.q.m.m.m.6XpXdXcX[.[.[.[.Q.a.i.oX'.q.$.&.N.&.@.N.m.D.`.XXD.a.,.D.D.N.#XBX{.~.~.'.yX#X+.$.J.XXD.$.H +Xf.Y.^..XeX|._.u.p.a.i.i.B ) +.o.) ,.m.'.rXm.+.a.^.m.G.M.].7X-.a.F.~.oXm.D.^.'.F.G.w.k.L.G.J.M.G.z.,.5XaXrXoX{.} xX'.z.z.P.m.m.B.G.F.F.m.e.m.w.N.J.G.F.^.G.G.F.G.G.G.B.m.w.O.J.oXG.P.m.m.m.z.m.w.m.L.].G.P.J.G.L.P.G.G.F.B.G.G.^.J.D.F.~.m.F.eXeXrX^.'.{.~.N.i.XX~.~.XXD.~.V.F.F.F.V.a.i.&.&.+.O._.!.N.@X~.XXm.@.! tXcXg.&.F.'.~.tXtX).D.u.u.i.u.&.$.$.u.u.&.#.#.u.u.f.u.r.&.2.&.r.%.%.2.d.2.%.2.#.u.s.d.#.%.2.&.%.u.&.&.u.2.%.} o.r.f.s.r.K m B K %.",
"#.r.#.2.#.N b o.N m N B N B $.s.u.u._.o.o.$.%.p.!.f.f.B !.B u.o.p.%.&.o.p.H 2.!.).s.(.f.%Xu.&.+.&.%.%.#.s.f.H N m %.N m z %.H o.o.+.,.i.p.c z 2.N.i.9.p.q.q.@.@.$.u.&.u.u.q.&.q.D.^.D.w.q.b +X&.O.O.q.q.&.#.$.$.0.$.$.q.&.O.%.,.@.&.O.K o.+.@.@.q.,.@.B u.q.-.i.&.o.o.o.@.O.o.,.q.,.,.@.-.w.-.,.@.@.@.+.+.-.&.O.@.&.s._.D.i.F.N.m.q.,.O.$.@.,.@.O.q.!.i.q.,.@.@.H u.R.%.o.b z +.,.i.@.F.N.P N XXD.m z @.f.D.F.w.`.XX!.p.4.o.$.-.$.a.u.,.u.4.O.&.p.u.p.u.i.,.@.,.&.a.i.+.H H +.,.$.o.&.#.N m +.i.p.u.q.q.#.o.o.o.u.N.~.'.u.#.%.%.u.H $.D.u.K m L 2.$.%.E.h.d.i.D.&.&.u.r.$.$.f.~.f.H 2.f.f.p.B N K #.%.m u.r.y.2.i.i.u.u.).%X}.}.(.).}.%XT.u.p p m o.i.$.c +.K +.$.@.,.w.a.m b 2.m.i.f.D.i.w.@.,.&.u.&.q.q.q.-.w.D.'.G.e.q.m @X,.O.$.,.q.&.#.@.$.,.$.$.q.q.&.&.i.u.q.@.o.+.+.@.@.w.q.$.) g.i.q.a.&.O.@.$.@.O.O.&.q.,.q.@.,.i.q.q.p.p.q.&.&.w.q.,.$.u.o.u.i.q.i.m.N.i.u.#.%.&.u.2.&.q.f.,.9.u.&.@.K $.H c H G c #.u.f.q.D.q.0 p [.N.m i @.f.u.p.&.a.f.p.u.u.&.&.&.$.u.+.o.H o.+.o.o.s.2.%.%.r.r.%.2.s.f.s.2.d.%.2.#.K r.2.%.2.#.2.o.H &.r.r.2.r.2.&.%.&.&.2.r.r.r.",
"s.d.2.&.%.K H #.H B N N b +.$.$.%.q.f.i.u.&.+.B $.+._.u.%X+.u.%.s.d.K b B o.H u.+.K +.$.i.a.f.u.r.%.K o.%.&.$.B &.b H N $.K N z i m o.B $.} L 3.+.H m K C B $.%.c z c N H B N B L &.&.+.N 8 Y.J B N G #.H H #.N B B c c N K z z b G N m m m m N o.C N p H K o.K N m B N m B B H B N m N N B N B N N K B m B d.R.d.r.u.Y.&.o.o.+.O.) B B B B B N B s.u.K B o.B B N %.2.J $.m . i o.) N u.p.i y O.o.i % z &.&.H N ,.q.&.u.&.H c m N C u.r.9.G y m o.#.&.%.G N o.H H +.o.o.m i c H J B K N c y 1 N N o.&.#.N N K K #.H $.@.%.s c J 1.c G #.o.K I I K #.#.r.i.o.H N +.o.L K B m B K &.m s.u.#.H m H b c 0 K 3.1.T.B N o.H B b B N %.T.t.d.E.E.(.s.W.1.p p m 3.L l c i N o.B O.K L 3.+.%.#.%.K C %.&.m z c m G B N B o.&.2.+.m = E.H B N G %.K J #.m N N c c K #.c N N K m N c c z G o.C N m #.o.o.K m m B H m N N N H B B B B C N H K K K K N K K B H N %.2.L B K o.$.o.K H N N N m H #.#.m H o.H N c J l 1 K G # x K H b o.%.; ; o.H y % z %.L J N %.&.$.u.u.&.$.$.q.$.$.#.B #.o.#.o.2.s.s.%.#.2.2.s.2.s.p.%.%.r.K H K 2.&.%.K o.%.o.B #.%.&.%.2.#.%.#.%.%.2.2.2.u.",
"u.u.#.#.#.u.H N N B b V o.&.$.&.&.u.i.u.f.!.).&.%.o.f.#.#.o.f.r.!._.).(.f.u.$.u.+.+.+.u.u.a.h.a.r.%.B z m B f.r.!.s.p.u.p.&.K l G G c c z G x a z c z v i z o.H p - # i z N b i N C o.C z * T.m z c y L H z m m z N z y N G ; 1 i m m p c i y i p z p 0 b z N b z z p z J J G G N z z p c z z z p z N z G t.r.r.#.H %.H N B B N B N b m V c b p K %.K i i N N N m B P 1.2.N ; I 2.H G H B ; v 4.p i ; p H m m c H o.} #.$.c c z m H %.K H i < i z H o.#.m 0 J L v v N m c v m z < i N H N y % i c c N m c N G x v v m B u.c x 2.3.i : c G G a < i G K m m c z o.H N G v m G x c H G t.L c p z #.z z ; L P I t.c i m B m z N z m c m G G S G K I T.E.T.1.#.G c 1 G G c m m H c x z L K G i z #.J z ; # y z b z i m K K N z # T.m z c i L H l m m z N z i K K < y p m G i p y ; i p c c y z z m z i i p z z p c v G c z z v z z z c x m z p c c z z m %.B c m N N H N c c m c c i v G G 1 1 m m v c c < - L G - I 2.H v c N ; S 2.i i , 0 H m c c H K o.&.u.u.u.f.u.u.u.f._.f.d.&.2.H #.%.K B #.2.%.#.r.d.%.K #.r.%.#.N r.%.%.%.f.r.o.&.H H H K o.K %.2.$.%.$.4.u.",
"%.%.#.%.&.+.H B B N N o.$.O.&.s.+.o.$.O.a.f.f.f.+.f.o.%.+.u.&.u.u.f.f.f.f.s.u.u.u.u.u.q.u.q.u.$.&.&.H #.H o.B o.C r.f.u.u.%.L c G i : y i G z # y i z y i N B m i o - a i z i z z m m m v ; T.i z p < G p ; i p b H N c m m ; s G c G z c i 1 ; ; i i z i y p z i i i i z c m p p p p i b z i p p s p m t.2.2.N p H N z z z B b b z p z b p 0 m H #.c y < p p c b c a x H z X D #.K G J K i m 2.r.%.N y p N b p G H m c m m z c N K c m z i % % ; N B N p l G c i i c c i c i i < < i m K i o ; < y z z i m a i s c y #.f.m P 3.L c i a i s 1 ; i i v p p i i z p c N v z K G s m p m i < i c H z K L 3.1.L L y y z B z i i y i m m J x y 1 y 0 v L #.H c c J c G i : y p G G ; i m N i y m N m p # - a i z y z p c m c c - W.y z i < G p ; i i z K V v m m < c K v G i a i < ; 1 a y z y 0 i i i : y i i i z i i z p i c z 0 p s c z y i G G z 0 J m z i z N p b z z z z i i c m G c 1 ; i i a z p ; - G z . P #.G G J K a v 2.r.1.v y i c c p m N H o.&.u.g.p.f.f.f.f.!._.f.g.2.o.#.2.%.2.u.&.K H %.2.K J G 2.s.Y.#.!.R.f.f.(.(.Y.%.&.K %.B K B o.o.+.&.%.&.&.",
"&.%.2.&.&.&.&.&.9.i.i.u.u.+.@.9.@.$.+.+.+.u.u.D.g.%X!.!.D.!.u.u.s.f.f.f.f.f.&.$.+.o.&.f.!.!.&.u.+.$.o.!.f.&.B N o.&.&.o.o.o.K N = p ; y z N c 0 p y c 0 G B b o.z ; a c i b b z p N B N i i t.a z b i z p i l m N ! B z V m i m o.b N b N m z z N b B K K p p z m z p z i z p p p z z z N b p p b N z N &.r.%.N p N m i p z m V V b m B ) m b $.@.H B b i i p c N m b p B p . 2 +.B m ! ! y z B N K #.z z p p c H G N z z K N B o.K N m i p i # y o.+.} N 0 G i i p N m i c m m c c < i $.B ; ; % ; m N z m i ; i i m #.q.%.N L #.H c i c m z c m i p z c p 0 m N N N z z ) m i z b ; c p c m B H c J 2.&.K z ; i N o.c p N m N K } z i y ; ; i H z z c m m m c ; p ; 1 m K m i z s N y J N b o.z ; a x i z z p i N B N i y t.i z b 1 c i y i c z B B z N c i m H z N z m c p z G m N K J i p z z i i p i p z p p z z z N m p z b m z z z K m m 0 G N i i z z b m m c m C m z H H c m m i i i z G m v a G i . x } N b H H i z B m J L z p p p z m J K %.$.-.p.a.f.u.u.4.4.&.u.f.!.}.f.!.u.r.u.2.r.%.2.H K J H %.d.d.}.u.s.p.f.f.!.R./.R.u.u.H o.K K o.o.$.$.&.&.",
"u.,.u.&.p.f.u.&.u.f.p.&.&.f.&.q.&.&.+.q.+.+.q.f.&.+.f.).f.f.s.2.,.f.p.f.f.a.i.$.q.+.O.N..XD.f.).$.&.$.#.+.+.K $.&.@.+.N +.0.@.@.@.+.N b B o.B N p p H r.r.o.O.B.w.0 c m ) O.@.O.O.-.q.@.p d.!.H o.) i z N ! o.@.@.-.k.@.B B N @.-.) ) ! O.@.! O.+.) @.-.,.@.! o.@.! ) ) ) o.) V B ) ! ) @.@.) B +.O.N B ,.q.) ) -.O.! ) @.@.-.<.-.@.O.-.,.@.@.m.N.O.-.w.@.N +.&.-.O.,.} O.b . y.Q.@.,.b.M.V V ! W ) ,.$.,.@.! O.u.$.} ) O.G.w.q.i.4.,.@.K m } N z @.L.m.,.@.$.H ! ,.-.$.+.} o.o.&.&.N o.e.M.O.#.c i B $.&.o.H c v c s.&.N.~.i.f.,.4.} } H H o.@.O.o.B ! +.O.o.@.@.o.) ) O.m.&.K N V H u.K H o.! s.$.%.).N.q.) p B B @.@.O.a.N.K o.w.+.K m c m C @.@.o.N o.@.O.@.O.o.N B #.o.B N p p H r.r.C O.M.q.0 c m B +.$.+.) -.@.O.p d.R.G ! ! y z V B o.+.+.-.w.@.B B b ) -.) ) B ) O.B +.o.! +.@.$.$.N B ) N B o.B o.B V B ) B ! @.@.B B o.O.B B o.) N B ,.+.B B +.o.@.-.@.O.o.+.,.@.@.q.,.B O.q.O.N K &.4.$.@.H $.b . x } B @.i.V.N m B N ! @.%.&.$.! B &.$.,.i.u.i.a.N.p.u.u.f.f.p.u.f.d.!.f.).R.u.u.%.H s.2.H K o.u.u.p.Y.(.u.r.f.s.&.r.s.s.p.u.f.!.r.&.$.+.+.+.&.$.$.",
"p.a.a.u.a.p.u.f.i.a.q.f.~.,.@.@.q.,.q.&.,.a.i.u.q.i.f.f.q.&.q.a.&.+.o.p.f.f.i.q.D.i.q.i.i.D.D.,.@.,.u.+.@.u.&.+.e.G.e.&.m.'.'.F.'.`._.G._ @.m.w.#.i H q.F.@.F.yXJ.) N O.e.k.<.a.F.].7X].N.[.iX'.a.,.@.+.@.w.e.w.m.'.oX-.-.-.-.i.G.b.w.-.<.<.G.z.-.z.w.M.M.G.B.-.z.e.z.e.e.-.-.w.q.m.M.m.J.J.k.w.e.w.-.G.m.m.@.m.P.w._ M.G.M.J.<XP.z.w.z.M.-.B.{.'.-.z.3XP.q.e.XX'.J.A.,.i.b.m 2.).i.m.].oXw.k.M.-.b.A.A.].{.5X{.pX7Xi.J.B.dXdXaX].J.].oXN.@.,.i.@.,.5XuX'.M.m.i.q.L.J.b.,.O.M.m.e.a.@.@.m.5X`.F.N.B.6XF.'.m.&.o.o.$.~.i.G.oXtXN.M.V.a.-.i.w.q.'.F.G.m.q.-.i.e.a.w.e.k.e.m.8XF.m.&.,.o.a.w.@.i.5X'.p.,.~.'.J.w.@.N.w.e.m.m.~.[.F.a.`.@Xw.a.~.9.@.e.G.e.,.m.J.F.D.J.`.'.'.,.-.m.i.+.i K u.F.@.F.5XJ.) N O.w.k.-.w.F.{.7X'.N.[.tX^.a.,.O.+.@.w.e.w.m.'.XX,.,.,.,.a.M.b.w.-.-.w.G.z.-.e.e.B.m.M.m.O.m.w.e.w.e.e.q.,.e.m.b.m.B.G.w.q.w.m.w.e.q.q.O.i.J.w.O.m.m.m.F.{.F.a.&.a.G.e.F.{.`.-.m.oXJ.q.f..X'.~.B.,.m.,.i c +.} q.'.{.w.i.a.,.i.B.F.'.[.pXXXpXXXi.D.a.D.f.a.a.p.N._.).N.f.!.g._.).+X_._.f.u.u.f.f.#.d.).!.(.f.f.d.d.f.)._.u.f.f.f.d.u.f.f.u.u.@.u.+.@.4.u.&.",
"a.i.i.q.,.&.i.a.w.@.,.a.,.,.@.@.&.q.,.@.q.i.i.a.u.u.&.u.o.&.N.f.a.o.&.u.p.i.^.N.N.p.i.a.e.F.~.,.O.q.u.o.f.N.q.e.a.e.q.w.F.XXm.G.m.F.6XXXoX'.,.m.i.% B e.m.+.@.f.B.+.V ) q.-.-.q.J.rX{.{.m.@.'.i.w.,.q.i.@.,.m.q.m.J.'.i.w.,.a.q.q.b.e.G.e.e.w.z.-.w.B.B.m.m.G.w.-.k.q.-.q.w.e.q.e.-.-.m.m.,.w.q.@.-.q.m.m.*.e.e.;.w.e.e.e.q.m.z.-.-.w.e.e.q.G.].w.-.-.P.L.G.,.'.F.k.<.w.i.F.q.f.s.i.m.m.G.e.m.e.<.b.M.J.G.J.5X'.rX'.w.B.J.5X5XL.m.F.J.B.F.i.w.V.-.w.G.M.b.k.m.q.,.m.M.O.@.m.'.i.-.V.G.-.-.D.-.-.a.i.5XN.,.i.i.$.G H 4.%.q.F.'.i.i.i.i.q.w.i.m.J.m.w.F.i.,.D.G.e.w.m.m.e.<.e.i.'.,.i.u.&.+.&.^.~.N.o.O.f.`.J.k.q.m.e.,.w.e.F..Xi.i.^.N.o.'.'.e.m.e.w.q.w.J.oXm.m.a.~.aXyXXX'.,.M.p.% H i.D.+.@.N.B.+.V ) q.-.-.q.L.aXoXXXm.&..Xa.w.q.q.i.@.w.m.i.m.J.'.a.p.q.m.w.w.b.e.F.m.w.w.M.-.i.G.G.m.m.G.w.O.m.,.-.,.w.e.m.i.w.q.m.m.w.e.w.&.q.,.e.w.) a.i.-.e.w.w.e.q.m.M.-.q.e.m.m.a.'.`.,.@.@.'.^.F.u.[.~.m.i.a.V.m.O.%.N B q.m.G.a.m.i.,.b.V.F.G.F.5XXXpX`.i.N.~.~.N.i.f.D.~.Q.!.Q.f.N._._.).f.u.f.d.u.2.u.,.%.f.f.f.Y.Q.!.R.f.Q._._.!.~.).).!.f.f.u.u.#.&.u.r.i.u.f.i.",
"g.p.q.,.,.,.q.a.i.q.N.u.@.&._.p.q.,.q.-.,.@.a.w.q.u.u.u.+.&.i.i.u.o.f.).u.,.f.,.a.i.i.q.w.e.m.a.+.w.O.&.f.a.q.w.w.o.%.&.m.e.w.q.w.w.G.m.a.G.F.a.&.= u.,.@.N B G.q.@.+.O.) V ! m.w.oXoX'.-.p -.$.-.o.&.i.-.) ,.q.w.a.m.,.q.q.e.@.@.,.w.,.,.@.,.w.-.q.e.w.-.w.w.-.! G.O.O.@.O.,.w.q.O.O.q.,.@.@.@.o.+.O.p.p.*.q.-.*.-.-._ -.-.-.=.=.O.w.-.-.@.'.M.-.O._ M.z.e.w.b.w.-.-.,.N.~.w.,.o.H o.@.O.O.w.w.m.m.w.-.-.w.B.J.B.m.q.b.m.F.oX<.q.G.F.N.m.o.$.V.,.,.w.a.,.,.D.m.p.b.*.} o.,.m.q.O.w.N.O.-.-.@.) @.@.&.$.N o.@.K m m H K $.q.a.q.$.,.w.,.,.q.w.a.q.q.a.q.O.@.@.-.,.@.w.q.@.) i.m.,.%.u.&.$.i.B.,.q.N N.@Xf.,.q.-.q.@.-.@.w.q.i.a.$.&.O.@.G.m.&.w.w.K 9.&.w.q.q.i.a.m.J.G.i.F.F.a.%.; r.4.@.N B G.q.@.#.O._ N ! a.w.oXoX~.&.p @.$.&.o.&.a.-.) q.w.q.e.m.,.q.w.e.@.@.i.w.q.q.-.w.i.q.w.w.w.-.e.q.-.B F._ @.@.O.-.i.q.,.O.w.q.@.-.&.@.@.@.O.@.O.,.O.@.@.@.@.q.@.-.-.-.O.q.q.q.e.J.i.$.@.! m.N.i.q.V.<.-.@.q.i.@.$.#.N m o.&.@.O.w.q.a.i.q.,.,.w.~.{.N.a.,.i.a.N.F.-.u.D.^.!.D.f.u.!.f.f.f.!.d.u.d.u.u.i.o.u.$.@.&.2.u.f.f.f.u.f.f.).).h.f.f.r.f.D.u.#.o.&.d.a.!.D.u.",
"p.g.u.q.$.&.q.u.q.i.~.u.,.@.i.w.,.,.i.,.o.@.@.&.@.&.&.u.$.q.@.) &.z %.!.&.@.,.q.q.u.,.O.q.w.m.N.p.a.w.$.i.i.q.&.$.o.o.+.q.w.a.e.q.q.N.i.,.@.@.B.,.p u.f.!.&.+.a.i.a.u.o.O.o.+.q.w.m.XXeXo.z B 2.,.O.B @.@.) O.,.@.q.q.@._ q.-.@.,.u.@.O.O.) @.o.-.@.q.w.) @.-.-.-.-.O.@._ -.q.-.O.O.) -.O._ +.-.O.o.w.!.i.-.O.) ` O.@.@.@.@._ -.*.-.q.w.-.G.G.e.} ! ) m.M.-.<.N.-.C @.b.~.~.q.q.o.N N @.@.+.q.q.<.M.-.O.-.m.{.'.i.w.e.B.J.G.F.B $.a.N.m.i.o.O.B.i.O.} i.,.q.m.i.m.q.,.&.w.w.q.-.&.i.'.+.O.B V } } +.V @.H %.$.f.#.J #.B H &.i.i.,.u.i.q.O.&.q.0.@.,.i.&.q.&.q.w.O.-.&.@.N +.@.O.o.+.$.+.o.q.,.! &.p %.!.-.O.-.,.@.,.O.} -.&.&.u.o.o.&.O.i.e.q.+.+.o.+.%.@.w.D.!.D.m.D.m.,.&.,.N.,.p p.f.!.%.+.a.p.a.u.o.O.o.+.q.i.m.5XyXo.z H r.,.O.B @.@.) o.@.O.-.q.@.O.,.-.-.,.q.O.O.O.O.,.O.,.O.,.w.o.O.-.@.@.-.@.@.O.-.-.@.-.,.) ,.O.O.&.@.@.+.O.@.O.+.o.} -.O.@.@.@.@.+.O.@.-.,.q.w.w.q.,.} o.+._.G.-.u.N.@.K $.i.4.&.! &.H N B &.@.+.q.q.<.m.,.O.@.m.'.`.,.,.e.m.F.G.B.o.,.a.N.N.f.2.&.N.u.u.%.u.u.&.).}._.Y.}.}.Q.&.u.u.p.f.).!.f.r.s.u.u.&.2.u.2.s.u.f.2.#.s.%.2.f.f.a.",
"a.q.&.$.,.u.u.&.,.i.w.,.w.q.$.u.@.O.F.i.$.i.O.O.O.$.u.,.,.@.@.o.&.o./.).&.i.q.q.i.q.i.-.w.,.G.B.,.u.4.q.i.i.i.0.q.w.+.B @.w.m.w.a.m.N.m.q.&.i.q.@.o.W D.!.i.q.O.a.a.O.} w.f.+.-.,.m.pXyXH p #.f.i.@.+.q.-.B @.-.O.e.O.O.<.<.e.,.,.q.q.,._ a.-.,.w.,.w.w.@.,.-.-.w.) -.-.O.w.w.-.@.+.o.q.-.-.+.-.@.&.!.m.O.a._ @.-.-.O.-.@.@.-.-.w.@.m.z.w.[..Xm.O.-.-.G.L.B.Q.N.o.o.w.F.N.D.O.4.,.@.K K &.q.m.m.k.w.,.+.>.J.B.`.,.q.m.J.m.m.m.) O.,.f.G.e.B H m.m.+.@.m.w.@.i.e.,.i.,.u.i.N.i.,.i.,.N.@.O.) O.i.u.,.D.$X(.).$XiX_.Y.L B c q.-.a.i.a.u.&.u.a.i.&.,.q.i.N.D.a.,.w.@.+.F.F.s.i.O.o.+.o.&.@.@.@.,.} &.B Y.).,.,.q.,.,.,.i.@.w.,.m.q.} 2.q.&.i.w.i.%.&.q.+.} &.D.'.!.m.m.B.m.q.,.i.q.2.%.o.D._.u.q.O.N.f.@.o.e.f.+.-.,.m.pXrX} p #.T.i.@.+.q.@.C ,.-.O.e.O.O.,.w.w.-.,.,.@.-._ a.,.O.,.,.w.e.@.,.@.-.q.! -.-.-.q.w.,.,.O.@.,.-.@.@.@.,.@.@.@.V q.+.O.O.,.o.q.@.@.-.,.q.O.w.m.a.w.w.w.o.q.q.D.'.N.Q.Q.o.o.,.B.w.u.B &.@.+.o.K &.,.a.a.e.w.,.+.<.J.~.'.,.,.N.J.N.V.m.o.$.,.g.B.e.o.#.m.N.%.q.q.2.d.+X.X!.|.%X(._._.(._.).!.%X).Y.s.u.p.f.f._.$X).).@X$X).R.1.#.o.D.i.i.",
"D.f.&.q.f.a.a.q.w.G.G.a.G.i.i.G.D.N.[.G.m.i.a.$.q.N.q.i.m.m.D.N.a.+.+X+Xi.i.a.w.m.N.D.a.m.m.[.eXi.i.F.a.N.F.m.i. XoXu.@.&.N.P.G.'.{.XX'.D.a.D.j.K %.p !.%XD.m.O.@.,.w.-.yX^.p.G.m.J.xX#Xo.$ f.N.G.N.a.F.G.q.q.a.,.m.w.q.m.m.G.m.m.m.e.i.-.m.^.^.^.~.B.w.w.N.m.k.m.,.a.w.m.P.G.m.i.@.N.N.m.-.@.w.i.^.Q.m.i.e.-.e.a.,.w.e.m.G.m.z.e.G.m.F.F.^.^.G.z.P.J.C.5X5XJ.B.9.+.G.oXN.~.&.^.F.q.@.@.f.m.G.F.m.m.m.G.m.#X#X~.a.q.'.J.~.F.N.O.-.w.F.eXXXa.u.G.'.B.a.G.m.m.i.N.i.G.q.m.'.eX^.N.G.m.G.4.g.,.@XXX@.D.xX).'.).oXdXtXD.f.%.N a.i.F.J.D.q.w.N.G.m.w.i.G.'.F.'.m.w.G.f.N..X'.D.a.f.f.!.(.&.q.a.i.D.D.a.+.@X.XN.i.w.w.e.m.a.N.m.w.^.^.u.u.N.w.N.F.u.p.F..Xu.9.!.^.#XF.J.{.[.'.m.a.D.D.K r.c (.$XD.a.O.$.w.i.q.tX[.f.D.a.J.xX@X#.& f.f.B.m.a.^.G.q.q.a.q.m.a.i.D.m.F.e.a.a.w.a.,.m.m.m.m.N.m.m.a.D.e.w.a.-.w.m.m.'.D.w.q.&.m.a.b.,.&.w.m.m.,.q.q.q.@.&.q.&.,.w.a.D.m.m.q.m.m.G.G.i.i.~.F.'.`.B.[.XXF.G.u.L N.[.i.N.K _.F.u.+.+.i.a.a.N.i.m.D.D.G.@X#X^.m.w.XX`.^.D.p.o.O.q.N.#XoXf.f.F.^.N.u.i.!.)._.).!.*X)..X@X#X~._.%X%XkX}.).D.+X.Xu.D.lX)..X).XXpXtX!.!.f.f.[.F.D.",
".XoXa.!.'..XD.G.F.oXeX#XpX.X@X#XiX+XpXyXF.'.oXa.D.XX[..X'..X^.XX+Xq.$X#X^.D..X.XJ.XXXXoXXX#XpXpX'.'.oX~.^.eX[..XVXBX@Xf.p.F.rX.XBXDXDXxXoX.X'..X[.^.i _.iXiX[.[.q.a.J.pXGXoXN.XXaXtXVXcXu.2.$X$XaXoXoXrXoXG.^..X'.oX~.G.oX'.'..XoXF.'.J..XaXeXeXtXXXXXP.P.oXF.'.P.L.G.m.oX5XoXP.oXD.'.J.'.G.i.'.J..X~.^.F.F.J.oX].F.F.J.L.8X5X{.J.5X6X6X'.eXlXeXrXdXoXoX5XpXeX'.F.F.@XpX~._.a.eXeXoXD.a.).@X`.aXtXF.pXxX#XBXBXeX{.'.pXeXoX{.'.D.{.'.pXDXpX4.N.BXDXpX6XeX.X[.#XyX^.oXF.oXtXlXBX~.oXpX~.f.N.+XxXxXF.xXxXf..XlX#XXXiX.XD.D.f.).lX#XiXXXD.F.~.oXF.D.G.#XxXpXcXeX#XXX@X.XpXpX'.'.XX_.^.@X'.XXzXxXzXpX#Xf.iXeX.XG.oX'.oXoXeX@XeXXX@X.X+X.X^.N.'.@X!.D.xXBXtX X X@XaX'.xXZXDXpX'..X'..X.X).p _.iXiX[.[.u.f.L.cXKX5Xi.XXaXtXVXVXu.r.%X$XtX.X{.aXoXF.^..X.XoXoX^.6XoX'.'.'.J.'.J.oXeX'.'.'.'.oX'.'.oXP.L.L.J.G.B.6X6XL.G.G.G.oXJ.'.m.i.'.G.J.i.D.B.F.J.XXoX^.^.'.'.5XXX{.~.'.'.5X'.'.tXtXpXBXXX'.XXtX#X.XD.N..XkX).^.u.#XtX.XD.u.N.'.D.tX#XD.pXBX#XBXBXiX[.oXlXtXoX[.F.i.`.`.xXDXpXi.!.xXzX@X#X%XOX$XkXvX#XzX$XeX#XiXxX+XiXzX%X}.[.$XzXkXD.iXzXY..XzX#X#XiX#X@X$X%XlXiX^.",
"eXxX'.).XXeXXXXXpXxXcXpXVXVXeXXXiX)..XxXzXtXxX'..XrXpXpXcX#X.XBXkXf.lXzXeX#XeXeXXXxX#XoXcXBXxXxXXXlXeXeX'.eXeXlXLXLXBX+X4.i.rXBXKXKXKXBX.XlXpXxXpXpXo.Y.+X$XxXpX_.r.eXKXGXpXN.^.[.rXBXLX!.).zX@XaXpXxXpXXX.XXX#X#XXXeXoX#X.X6XtX6XXXeXeXDXDXBXtXpXpXrXeXeXeX5X6XXX6XpX6XoXaXrX6XaXeX'.J.F.'.F..X.X'.eXaXoXL.oX#XXX{.oX6X6XaXxXpX5XdXaXtXlXBXBXpXBXZXxX].aXBXBXxXtXtXtXxXXX^..X#XpXxX[.g.f.tXXXBXcXoXGXKXBXDXLXzXiXzXeX#XcXxX_.#XDXDXyXxXxXQ.~.GXGXGXDXeXtXpXxXpX@XyXyXaXVXGXVX+X6XBX#Xu.kXVXDXKXlXBXiX(.iXVXDXyXiXxX[.^.).kXiX!.oXlXeXXX'.eXoX.XiXBXVXlXDXVXeX'.@X^..XxXlXtXBX@X[.eXeXpXKXVXiXBX$Xi.xXpXtXeXeXeXeXcXeX.XBXBXpX#X#XzX.X.XD..X).zXLXKXBX$Xf.D.pXcXKXGXDXxX'.tXiXcXlXlX+.!.+X%XxXpX^.9.eXLXGXtXi.^.oXpXBXLXD./.zX#XrXpXxXxXaXXXeXeXeXaXpXtXpXXXeXpXeX6X#XeXDXBXpXoXeXrXtXaXpXpXrXeX{.eXpXyXXXaX6XoX#XXXeXXXoX.XF..XoX'.eXpXXXoX@X#X#X'.XXXXeXeXpXpXoXpXeXtXlXBXVXzXDXGXVXoXpXDXcXlX#X[.#XzX#X.X$X$XxXlX[.u.u.6X#XBXBX.XDXKXBXGXLXzXtXlXyXyXVXxX!.@XVXDXlXBXxXY.[.VXVXKXDX$X#XzXCXVXzXvXlXlXVXGXVX%XiXVXzXY.vXVXVXKXtXxX$X_.eXBXVXtXxXzX@X&X)..XxXzX",
".X^.D.a.N.~.!.+X.X#X[.N.$X+X).f.f.2.&.^..XXX.XD.q.f.'..X#XD.w.~.).%.%X+XXX.XD.h._.!.D.N.oX~.^.^.i.{.F.@X~.D..XXXDXDXpX@Xu.&._.XXpXpXpXtXXX@X~.~.`.[.u./.R.u._.@X!.f.(.eXaXXX!.!.u.N.!.pX[.(.}.i.D.^..X'.^.a.a.f.N.N.a.N.D.D.^.'.^.!.~.F.eX'.F.F.'.'.'..XXXXX.X^..XG.'.F.D.m.'.G.G. XD.f.q.i.D.i.f._.F._.D.a.w.N.~.D.F.N.m.G.F.'.F.F.G.~.[.'.'.'.oXsX3Xu.G.^..X@X).).^.XX#X~.~.@X^.[.D.K H D.D.^.[.'.].'.'.eXcXcXXXtX).!.eX{.u.f.eXyX'.u.u.u.F.eXaXBXpX)._.f.).~.[.^.N.p._.tXeX2.D.eXu.f.vX$XF.#XiXkX!.&.u.^.iX.X_.@X X^.%X+Xf.L o.p..X.XD.D.D.[.+XeX[.N.#X).D.i.a.&.&.^.XXXX$XD.&.u.).#XzX+Xw.D.!.#.#X.X[.[.D.f.~.D.a.f..X'._.~.i.'.^.+X!.f._.@XVXVXiX@Xd.d..XtXxXpXtX#X^.XX_.~.'.[.d./.R.u._.@XD.u.!.6XpX'.g.f.i.!._.iX[./.).i.F..X.XXXXXF.D.D.D.F.~.^.'.~..X'.'.F.~.'.iX'.D.G.F.^.'.[.XXXX.XJ.J.J.'.'.D.F.^.m.D.^.'.'.i.e.D.i.N.^.^.'.'.N.N.~.^.f.f.N.p.N.~.'.^.~.~.+X$XtXtX@XeXBXaXf.^.@X5X'.f.N.F.#X$X)._.+X^._.N.H m f.!.#X+X^.'.^.XXpXDXVX[.XXg._.aX.Xu.a.tXpX@Xf.g.d.!.#XxXKXVX).Q.T.%X+X%X$X(.f.).lXtXt.h.#XR.Y.zX%X_.@XtXtXD.&.r.~.#X[.)..X!.h.s.r._.^.",
"K K L K o.#.&.%.o.i.s.2.u.#.&.o.H G z N %.#.%.%.K H m +.e.#.L K G z s.r.&.%.o.L &.,.G L p.%.&.%.o.#.$.q.%.C #.2.f.D.p.u.J z K &.u.f.u.D.&.u.$.&.u.%.G p L Y.L d.&.K m 0.N.u.9.o.N o.c 9.u.T.L H %.$.@.&.+.K o.B H B o.K o.o.o.$.$.#.o.%.&.C C +.+.o.,.@.+.@.@.o.$.$.+.+.&.$.B ) o.o.K N C H L %.f.R.u.%.o.B N K K K K #.K o.+.O.$.H o.o.+.o.) +.-.w.M.+.N #.&.2.#.c H &.,.9.%.Y.$.&.H c x %.%.m C q.i.f.&.C @.f.p.N.#.K a.u.m H p.!.f.J i m #.%.q.a.N.u.2.%.#.#.&.#.K K L u.f.K K u.#.(.Y.2.#.L K 2.#.m L m %.,.%.f.p.d.s.u.2.J c i J %.$.#.$.r.%.u.u.2.2.K #.H G v z N %.%.$.%.G m N o.w.@.L C G v s.r.,.,.&.3.%.#.c N &.%.%.%.K #.$.i.#.H K 2.j.~.i.s.L v K &.u.a.u.f.&.u.%.2.4.&.G z L Y.L d.%.G c &.a.&.&.H N L c &.u.t.J B o.%.q.u.&.%.o.B o.K %.o.&.%.%.@.+.C ) @.u.o.K o.o.o.&.&.$.&.$.o.o.o.+.$.&.$.o.} o.%.$.} o.H #.%.&.,.$.#.} C N o.o.L H H B H o.#.+.o.%.u.p.%.$.&.q.p.F.&.L $.%.#.N i H &.q.u.%.d.#.%.o.c x &.r.K o.q.i.f.r.L q.N.u.p.N J f.p.m H p.(.R.L p K p.d.}.%X[.d.#.2.T.t.p.2.2.y.2.f.N.K H %.#.E.f.%.#.K L 2.+.G L v %.&.%.s.$.K J c G L ",
"c a c i p H K p y m K G #.N m c p m v c H m G H N c 1 i m p i m 0 a 3.J i N v J G K i l K s v N p i c z m p z N H K N N m c l z G N #.o.m m c G &.o.c ; J G y m m c ; z o.G p v i i < s H 1.; i c m m B N G c i z m c p i z z m N N N m b i i m m p N N p p b i z z m K %.1.%.p N i 0 0 P I #.c c K J m z p i v z p m G N N m z b z z H #.3.1.H $.o.B ) N i N J J i c s p p G %.c c y i y i a ; c H %.a.B % i o.$.u.N y m b z %.2.1.H c a i p p y b @.o.B b z b z z b b < c o.m c 0 K f.o.H +.J < i c G #.m c c z c G #.1.m m #.m < 1 i p J K c y N H G #.G m c c J S c G m v G m p ; i c c c m l a L c i L J P G m y ; N c c G i i c z m L L G K K c m m i i z c m #.o.m N c K #.o.c ; J N i m m c ; z H m z m i y o 1 N P ; i z c N B N z p i z m m z i b z m N m m N N i i N N p N V p m N c z p z G G K L p N l p 0 G %.L m z m c z z i i i i i c G m v c z b c p m m G m m %.+.} o.H b m p i 1 c c z p G L z v i i i c x 1 c G %.u.K ; p o.O.&.z 1 m m z #.2.1.K x I t.J L J #.&.K G L L L N v K J 1 c o.b c ; y.E.K m o.J y i c G L c c x z v x m J x c H ",
"c ; ; - ; p z i i G v a m v c i i G m c c i z c c b ; c D x x m < P W.G z x x c p N z - i 1 ; v y ; a p p y y m o.K i i m c s G m c m c p i i N K N z l m L l v i 1 y p c m p c i % o < y %.y : c i 0 y p c c 0 i z p y ; z z z z m z p c i i i p i p z 0 0 0 i 0 i p c c c N c 0 x v J L v y ; y c G m v p G c v c c c z i 0 z m s z c L #.c c z m H H o.H y.#.G a a < ; 0 H H y p i < i p ; - i G L q.B ; i m H &.o.c i m J K N N N i < c b 0 ; ; l c i i p i ; % y c - ; i c N < G J z m $.r.m y < a G G c i m c ; i m < l G v - - - < i z p i G S v G G m z p m N c c i p c c m ; < P S i i , F L y y c a x y N z % i 1 < P a < i i m J G G K J i y c z c c z c m m p i i m N N z z m L x S i 1 y p c m s c p - o ; y %.y 1 l i 0 y i i 0 0 i p p y ; z i z i i i i c i x i p i s z i 0 z p i i c J G c H G v P P P L v i : z J z p G i a x v D J m i i 0 v G v z i c c i i x m o.J #.H v m v a a < ; y J G i l i y i p < - y c K g.K ; i m B +.B p i G J K m G m P P P L G D y z c i G L v < % y c ; < i c m i I L l c #.u.G y 1 x G G c i v c 1 i v i z m ",
"p - ; - ; p y 1 H &.c ; p N m i i H o.H c i z c m B m G G s a z y 3.W.G c i a i 1 B N 1 x < c c z 0 c p i i x %.f.#.y s N m m o.H v N c c y y a z i 0 z p c N i y = i ; z z p z y - o # = %.c p N z y i s c c c c z z i ; c m p z b i z p ; 0 0 i z m p z 0 i N z z i p z z z z 0 L G c ; : ; < J H G H c p v m a i i i p i z m z i i p c z c i 0 z N m o.s.L N N b p y y < G m y i z m m s % % ; i i o.b ; i G G o.#.B m K } B m c m m c 1 G B i ; ; m y ; 1 1 p < ; i 0 p ; i H H J v c i c %.o.1 1 i c m i c +.+.; < c i y z p ; ; ; ; p i y K u.S < c H N i p } o.H z i p c m N p c J c c z y I L i x c a a ; m c y x 1 x c p ; c p c x i L s.#.; i m c v m m c m c z i < c z 0 0 z p c N i y # i 0 z z z c i ; o % ; %.c z N z 0 i z z s i z z z 0 ; i z i 0 z 0 c i 0 ; 0 i i c p p 0 i N z z i p z z G G l 1.L G v v c J L c z m G c i l S c c i p y p J N c z p c z p y 0 z m m #.#.i p m c i y 0 < G v < i l m v s - % - : z +.m ; i J G B o.B c K H N c c J %.G F L L c ; ; c y < a i p ; = i p c ; i H H L v c i c %.o.1 1 l c c i c +.+.1 1 m c i c ",
"c - p i y p % < w.a.z < ; N B i c } ,.o.B N H H o.o.H N N m z l p 1.2.H c i i v c B o.i i c G < 0 z c p z G G $.i.+.z z m m N K o.K $.B m i i N N p p K H z N q y # G - y z p m c ; % . - m N N B O.N p c z z m N B B z m z z N b B N o.b z p z p B H z V z N Z z b c N z N V N 0 K m i p y z c #.K K z z p i p p p z i N N N p p z b b B N N N b N N m H u.H N $.#.H m p - c B m z m m N K m i : y i b N c J J H H H $.#.K @.O.K H B o.o.i c K #.G m B p s p G &.H i c L &.H x 1.r.#.K m i - y N 1 i z c c y ; o.i.v % N m a B m - p i ; s % i a.!.N i ; N B i z o.w.O.B N H m B B m H 1.L c l u 2.3.%.L x a y : B o.i 1 z v < y z c G G L m %.f.&.m m J J m B H J J N c i < z m i p H H p N p i # G - y i p c m i - . - z m N N +.N p z i z i z B B z z p p b z B N K c q p z p m N z z z c N p z z b p N N N ; L G p z c v P m v z N m p i p z z c z m m G c c z N m B N B m c c N m m &.z m #.%.H m p - x H c z N b N H s y : c p b N z G J H N M $.L K $.O.H 2.#.%.+.z m o.#.G v B p i c v &.H i c L 2.K x 3.r.#.L P p - i m : i c c v i ; o.i.v - B m p K ",
"g.B } B m i % ; m.P.$.i ; N m i m o.a.V.i.D.f.Y.p.~.@.q.e.a.o.#.8 f.t.B o.H N G z &.i.b c m B p i o.N B $.2.o.O.a.a.o.H H H H o.$.m.J.i.$.$.B N B N C ,.+.N u.[.d.T.T.N i 0 o.O.$.m z o % c b V O.q.q.O.o.H #.o.o.@.@.o.+.O.B B &.q.q.@.B ! H H ) $.$.@.@.&.o.o.B o.H +.) B -.) N K o.b N z m N K r.u.) V z B } b +.C +.&.+.B N B o.O.) O.@.#.&.w.B o.$.,.a.O.W B.m.-.$.,.y c $.@.o.o.! +.&.o.B m m B ! O.&.K #.} %.} i.u.w.m.e.m.b.,.w.m.B K %.,.K a.F.4.&.G J i.$.m b i.N.&.c K ,.q.-.$.B i p N c c m H H < 0 o.`.u.y #.%.%.!.g.G o.N m J a y D.oX,.p < N m i m o.m.N.w.B.p.4.-.m.q.D.D.N.o.#.9 f.r.B &.H B b i &.q.m c c B i < L 1.r.d.s.o.u.^.D.Y.u.%.o.H B %.i.N.d.o.J m c %.L %.&.o.B &._.s.t.t.m i 0 K o.$.G z o % z z N +.,.@.O.H c N N B @.O.C K ) N N o.@.,.O.B N B B B H B ! ! ) B o.B ) H +.! ! @.o.b K +.V N m N N m B ! B B c N H b o.K +.%.o.+.K o.o.&.+.+.,.o.2.,.B o.o.+.w.+.B f.i.$.#.&.1 x $.O.o.N H o.K H N N K B V O.$.o.#.o.o.! u.u.,.a.!.~.~.q.w.m.B K %.2.K f.D.2.p.t.%.i.%.c b a.f.%.c #.u.i.,.u.L i p N c c m H H < y o.^.u.1 $.&.%.~.",
"N.F.{.o.$.o.0 z G.6XM.O.) B H C %.i.'.'.'.yXpX'.F.m.m.F.XXcX^.o.a.@X'.a.e.i.%.2.} D.XX&.q.@.@.O.B f.a.@.N.q.w.{.XX5X5X[.N.&.O.,.N.'.yXoX~.XXi.@.+.N +.G.N.-.rXlX@XlX#X_.q.b f.m.m.-.o.z s.).u.i.G.e.e.m.i.i.i.m.m.G.G.a.m.q.,.q.i.m.m.m.-.-.,.w.w.a.a.w.,.m.w.q.e.e.@.@.e.m.m.V.&.B @.,.) B o.H s.N.m.e.@.q.u.u.@.i.a.a.@.@.-.-.&.@.w.w.m.b.i.).`.-.,.w.O.F.M.-.eXrX{.F.F.H i F.6X'.b.m.e.i.w.,.-.m.@.@.<.i.q.i.m.N.w.`.B.F.pX3X5XcXi.F.yXJ.V.a.i.@.G.G.F.m.u.u.{.w.$.,.J.5X,.+.o.,.F.m.m.D.q.u.F.~.F.p.N.u.p H q.xXiXo.&.L a.).g.N.!.o.T./.K z F.rXM.O.B N B ) $.q.'.'.F.XXrX'.D.u.m.'.6XBX^.$.N.#X'.a.a.i.&.%.} m.~.&.#.K +.H B E.f.o.u.p.u.@XpXlXcXpX).f.p.i.j.[.kXtX.X@Xa.!.}.r.u.^.p.@.+X%X[.+X+XY.9.m u.a.D.9.o.p t.(.u.i.m.e.m.B.,.&.&.w.m.B.G.e.,.@.@.@.,.w.a.e.O.-.-.q.w.,.,.-.-.e.q.q.w.q.-.,.m.e.m.m.e.! -.-.O.o.O.V ! ,.q.q.-.@.&.i.q.,.m.i.&.@.a.f.u.w.e.m.w.w.,.~.`.@.,.w.O.N.m.q.rX5X{.i.N.N i F.5X'.&.m.i.&.f.f.w.m.@.+.,.i.,.i.i.i.,.F.N.F.xXeX5XcXi.G.yXF.N.a.i.@.N.m.G.D.(.(.'.q.+.&.J.5X,.$.$.u.F.N.N._.u.u.F.F.F.a.f.u.z G q.pXtX+.&.L a..X",
"F.dX`.,.i.,.} o.w.5X'.,.,.H G $.m.i.N.'.i.F.F.B.m.i.'.J.oXcX'.N tXpX'.q.'.5Xf.'.&.F.{.w.D.,.,.-.+.,.w.w.m.m.a.F.G.M.'.XX5Xi.q.m.^.G.G.D.'.eXN.m.D.m.O.`.'.q.aXF.i.{.XX'.a.B Y.m.w.w.$.b (.}.,.'.7XG.q.,.N.m.N.J.F.m.'.F.'.m.w.a.D.F.G.D.m.G.a.e.e.e.w.z.w.m.m.a.w.w.q.i.i.i.,.N.a.b @.w.,.O.r.f._.F.q.w.m.w.!.F._.D.a.D.D.&.+.@.,.@.a.w.m.i.,.2.m.a.q.m.i.a.B.'.~.'.5XXX{.q.H ,.5XrXF.`.M.q.m.m.w.^.B.,.i.m.@.&.F.F.V.~.{.7XxXF.m.cX'.G.6X{.J.F.F.a.B.G.F.e.~.rXrXw.i.q.rXDX{.a.,.F.F.N.i.m.eX~.D.D.6XeXJ.&.m ,.m.BXBXa.%.N u.i.F.eX)./.+X).2.$.w.5X'.,.,.B m o.e.,.M.'.i.G.F.N.a.,.[.'.5XdX).B @XyX'.w.'.#Xf.N.@.N.'.@.i.&.%.u.R.).q.@.a.&.q.i.~.^.XXlXrX^.N.m..X.X).!.~..XN.).[.~.2.'.'.q.pX[.N..X@X+X_.%.)._.m.i.@.b ).+Xu.'.aXJ.e.,.i.i.m.J.F.G.{.J.J.m.q.w.i.G.F.D.N.G.a.k.m.m.w.m.w.B.m.m.m.m.m.m.M.J.F.oXF.! ,.w.w.O._ @.D.G.k.m.a.m.a.q.q.N.).[.D.q.p.D.D.f.F.G.F.~.i.f.F.~.w.m.a.m.`.{.{.{.XXeX'.2.N &.5XtXp.F.f.%.^.'.N.[.N.,.i.N.,.4.N.B.m.~.[.rXBXJ.N.cX'.F.eXoXF.F.F.a.m.N.N.i.[.pXeX,.i.-.aXBX{.N.u.^.N.N.i.m.eX~.D.F.eXaXF.,.m ,.m.xXBXa.#.G j.D.",
",.F.$.} q.$.$.H $.,.i.,.@.o.H &.@.O.O.,.@.,.e.e.w.@.w.<.m.m.+.K $Xp.a.$.q.N.,.p.,.&.u.,.i.p.w.O.+.K q.@.q.,.m.q.@.q.D.'.G.w.f.f.a.w.q.-.m.i.,.a.m.B.O.w.q.,.) u.i.G.a.w.u.H %.p.@.+.o.p !.Y.$.a.a.,.,.u.!.a.w.q.w.,.,.m.a.,.,.&.a.i.-.@.&.m.-.-.O.,.) q.q.q.-.q.@.,.q.q.&.+.o.&.@.b &.o.O.+.q.f.a.2.+.i.i.f.!.D.f.i.i.q.q.r.&.f.a.! $.&.@.+.H N @.,.+.@.@.+.q.a.@.u.,.a.m.O.@.m M.].G.m.O.:.w.,.a.a.,.o.} ,.,.H a.b.i.,.q.m.'.a.e.'.N.G.F.N.m.m.i.q.q.i.i.w.~.F.F.m.a.O.N.oXJ.a.a.N.N.,.i.a.'.F.9.i..X[.p.K H ,.i.lX_.9.#.N $.&.&.i.2.u.).u.&.H $.,.i.,.O.H B @.@.O.O.-.@.,.e.w.i.u.N.e.m.N.+.K +Xu.a.$.u.M.q.u.$.&.$.q.!.!.f.Y.R.u.$.+.+.@.u.+.&.u.G.'.J.a.2.q.i.i.q.-.a.,.,.i.f.N.$.i.0.,.+.N.N.^.^.).(.%.s.f.q.O.o.p _.!.&.m.m.q.@.O.w.i.w.w.w.q.w.a.a.-.-._ a.i.q.@.&.D.-.-.O.q.@.w.,.q.q.q.-.w.w.w.q.e.k.a.a.V i.O.O.,.w.m.!.N.q.i.u.@.,.N.i.f.i.q.+.&.f.f.i.,.N.i.q.,.$.H e.m.u.,.,.@.w.~.,.i.w.N.N.O.2.c N.'.a.u.O.4._.f.a.a.q.o.} w.q.#.f.a.i.i.a.F..Xa.w.'.D.G.~.N.N.m.i.q.q.i.i.f.).^.F.m.i.+.N.'.~.i.a.D.N.q.w.a.^.N.q.a..XXXN.o.K ,.i.pXD.q.%.N q.&.",
"H @.o.H $.} H N o.+.O.$.o.H N o.o.) ) +.o.O.@.,.&.&.q.-.,.$.i r._.$.-.) @.,.o.#.,.4.2.i.u.u.O.B @.+.o.o.$.q.u.+.H @.w.q.&.f.u.&.q.&.@.) @.-.-.i.i.@.O.V +.+.$.2.#.u.O.&.&.+.= K C B i ; +.O.$.q.-.O.&.q.a.&.+.o.O.@.@.,.q.! o.$.q.@.) ) o.a.O.@._ O.o.+.+.C +.+.@.@.o.N ! o.p././.N %.K B N B +.o.K o.u.p.f.i.&.,.@.#.$.N +.&.f.&.K C o.o.B p m o.o.K H ) &.u.u.&.@.$.+.,.O.o.N $.V.,.$.o.O.O.+.$.o.o.H B N O.%.2.,.-.@.} -.q.,.$.m.a.u.m.i.u.-.@.+.&.,.&.,.N.a.@.o.&.$.,.F.m.u.$.u.a.i.O.f.!.N.2.d.N._.q.H C $.f.~.#.&.L N L J G o.H H $.} H N ) o.o.$.} H m o.o.) C o.o.O.@.,.&.u.p.,.@.$.i r._.#.-.o.-.q.o.#.,.&.2.!.R.d.,.Y.f.&.K o.E.d.%.r.r.q.,.q.q.&.$.+.&.%.@.C @.@.$.&.u.$.$.B O.+.2.f.2.f.Y.Y.g.9.0 o.K B i ; +.$.$.w.,.@.@.O.-.@.@.O.@.,.&.,.q.) ) +.q.,.o.) o.D.O.@.O.o.O.+.o.o.+.o.@.@.@.O.+.@.q.@.&.z p.O.) ) O.,.@.@.} &.%.,.f.,.,.$.+.+.N o.+.$.+.+.@.O.-.o.z N O.@.+.o.O.+.@.,.q.&.&.@.i.O.H m @.N.$.r.2.s.u.+.&.+.#.B B b $.2.r.,.u.u.o.,.w.,.@.M.a.u.V.i.4.-.@.+.$.,.&.g.~.f.@.} &.+.&.G.a.4.$.u.a.q.o.u.Y.a.&.r.m.^.i.K o.&.D.^.%.&.#.N %.o.",
"H o.o.H o.H N N B o.+.o.+.B N N } o.B ! B o.$.@.+.@.@.@.q.o.z f.&.o.@.C ! $.o.u.p.q.%.u.,.+.} B +.K o.+.q.9.+.} @.q.@.o.$.q.q.$.+.+.+.+.&.,.u.u.,.$.N +.H s.f.Y.f.u.#.$.,.&.z G p c 0 . p o.+.9.@.+.@.@.&.o.) +.$.+.o.+.@.+.o.@.q.+.+.N 9.a.+.o.O.) C C B C +.) +.o.o.+.s.(._.(.E.H o.o.C N K s.d.r.s.r.$.@.$.O.! o.o.o.N C 9.&.B N K &.B K c v #.H B K K &.&.O.q.$.&.C o.g.o.N H u.K %.K O.$.K +.o.&.#.o.H #.L r.&.@.#.} O.@.$.O.q.w.,.,.$.,.@.$.%.@.&.O.f.f.,.O.$.%.+.m.^.u.o.$.#.u.$.N u.a.q.%.%.f.f.u.#.2.r.u.2.#.+.#.N #.%.L #.L H o.m N b N ! o.o.+.H m B } H B } B o.$.@.+.u.u.q.u.o.p f.&.o.@.) ) $.+.$.&.+.2.u.&.#.s.f.h.o.o.&.)./.s.Y.R.u.+.H K o.&.K K o.L H &.&.u.d.u.o.N o.H t.d.Y.R.f.f.u.i.,.m G p c y . p o.+.@.+.+.@.#.$.o.) @.&.@.O.+.+.+.B @.q.+.o.N 9.f.+.+.O.+.! C C C o.) O.@.@.@.+.+.@.o.H p $.o.) B o.@.+.B ) o.o.%.&.+.o.) o.K N N %.o.K B +.@.+.+.i z +.N C K o.+.$.+.,.$.&.o.O.g.#.b H 2.H %.H #.&.o.+.#.#.o.o.H L #.#.$.@.$.o.+.O.%.O.q.q.,.,.$.,.$.+.#.+.$.#.R.(.u.$.@.%.o.a.!.u.o.$.#.u.$.N u.u.i.%.+.u.f.u.o.H $.p.u.%.&.#.N $.o.",
"$.o.B O.o.o.u.$.K o.O.+.o.o.o.@.+.o.+.o.+.+.) +.H @.@.@.) +.p &.) ) B $.q.q.4.q.d.u.u.R.a.,.+.+.$.H H C ,.+.V ) q.9.$.O.f.p.a.q.%.9.&.,.&.i.p.%.u.$.o.B K s.s.&.r.p.u.$.-.@.f.(./.J c . c B +.$.C @.+.} +.) O.@.O.+.O.@.$.O.o.O.@.$.%.C p.+.) _ _ ) @.) B ) $.u.+.@.o.q.(.!.d.u.H 0 #.p.!.s.$.p.f.p.s.r.$.o.B ! ! W o.B B &.d.@.o.r.f.d.r.r.&.1.s.&.%.h.s.R.f.o.@.f.Y.r.u.g.$.H o.%.B +.$.,.,.o.&.r.%.%.H L %.I %.&.@.&.@.#.q.&.O.q.m.$.,.u.i.q.u.q.q.,.p.Q.i.,.$.$.2.u.m.F.&.+.+.+.u.&.o.u.N.,.o.o.j.i.u.%.#.%.i.u.K o.H K %.K #.2.%.+.K B &.o.B B +.+.o.+.o.O.o.o.o.o.O.@.) O.K i.u.&.o.o.p %.) o.) $.&.r.4.&.s.r.u.s.r.&.R./.u.K o.$.p.d.r.!.).u.o.+.u.2.9.+.L +.+.%.%.u.u.2.r.&.H o.K 2.r.%.0.p.p.&.i.&.h.}.}.J m O x B o.o.C @.O.o.+.+.@.@.O.+.@.@.+.+.B ) _ o.o.B p.@.) O.) ) @.C N B ) ! o.@.+.o.+.o.o.) H q &.@.O.o.O.@.@.K o.K $.o.} ) _ ! +.o.B 2.d.&.O.$.@.o.+.C K r.f.#.o.@.o.@.q.o.$.u.u.$.i.g.%.H K 2.B o.o.#.%.%.2.r.%.$.H K r.2.%.&.+.$.@.o.&.@.$.u.a.&.&.&.q.@.&.&.&.%.u._.!.p.$.$.&.r.a.N.&.@.+.#.2.r.+.u.g.4.%.#.h.p.u.+.H %.N.f.%.&.o.+.2.J ",
",.@.o.o.o.,.f.h.$.2.q.#.,.u.u.4.q.@.@.o.q.u.q.@.@.m.u.q.+.B C &.u.i.u.@.O.i.i.u.i.a.D.!.h.a.i.$.,.K K u.a.%.+.a.!.i.i.f.N.N.j.w.a.a.f.a.u.f.i.,.r.r.O.,.h.h.d.&.m.D.f.&.w.@.@.&.r.R.Y.J 3.K K K +.q.$.&.@.O.@.-.@.+.0.,.q.i.&.&.+.O.C B q.o.N +.O.+.@.@.N.f.u._ @.,.@.p.f.q.O.-.V b d.).).s.u.u.i.u.q.@.&.+.O.! ) @.@.@.i.f.f.-.i.i.f.f.u.q.@.r./.}.).%X X.X[.f.s.!.!.d.p.i.2.t.r.u.g.u.i.p.&.@.@.f.r.$.#.#.L #.&.&.a.D.Q.u.&.u.q.a.N.d.a.f.D.N.D.a.D.m.a.a.u.i.q.a.a.&.m.~.q.$.&.4.!.u.q.f.D.i.&.} ^.N.N.q.&.u.f.u.%.$.H %.r.#.o.4.+.} o.f.Y.r.H %.$.o.&.u.u.&.@.O.@.o.q.i.q.@.,.N.a.u.+.H B %.i.i.i.,.@.a.f.(.f.a.f.u.h.).OXf.i.O.$.i.N.R.u._.}.f.f._.!.N.u.@.9.d.R.f.f.f.u.&.r.r.+.&.f.s.1.%.u.f.f.u.f.u.q.i.t.R.E.P y.m N B ) q.$.@.@.@.-.-.q.@.&.-.q.q.@.+.o.o.B B q.o.N +.@.) O.O.i.q.@.B ) q.@.+.@.@.@.q.C B a.q.,.$.,.i.a.f.u.0.&.+.@.} O.,.,.,.i.f.).h.p.9.&.-.@.@.@.p.R.f.f.f.q.e.m.q.&.i.f.u.r.q.2.#.%.%.%.R.(.}.f.Y.g.f.u.&.2.s.t.#.r.u.f.D.f.u.&.u.i.N.D.u.i.u.i.u.a.u.p.p.i.f.f.f.u.a.f.&.a.~.2.$.&.4.!.u.q.f.D.i.2.#. XN.N.@.&.u.D.D.2.&.#.s.f.#.",
"m.i.,.i.f.D.a.!.m.N.f.u.p.a.m.q.a.a.i.w.V.m.m.e.w.m.a.f.p.%.) f.).f.a.a.a.D.j.D.^.~._.~._.~.N.&.a.9.u.p.D.).!..X.Xa.i.a.m.N.F.D.D. X_._.f.a.i.i.i.p.q.q._..X!.f.F.D.D.p.i.q.a.u.+.q.!.).OX}.K q -.D.i.!.N.w.q.a.q.m.w.w.b.m.m.u.i.0.p.&.@.O.@.f._.~.!.^.F.D.^.D.q.w.i.).N.i.,.@.&.f.$X%XN.f.!._. Xh.a.q.D.i.m.i.u._.q.q.a.D.m.w.w.a.p.a.i.p.a.R.%X).@X)..X^.'.~.f.+X}.f.!.!.!.!.4.Q.)._.!.D.g.p.b.^.D.u.s.%.&.+.u.f.F.D.~.F.i.F.m.F.F.D.Q.).^.).^.^.[.[.V.~.m.~.4.a.G.p.D.J.D.q.i.~..XQ.g.!..X^.p.u.).~.^.i.i.a.'.).OX/.u.s.d.r.u.$.,.p.}.*X)._.!.R.2.r.a.i.!.u.q.q.i.q.V.m.m.k.e.m.D.D.w.! C p.).D.a.D.D. X%X+X).N.f.f.%XvX*X!.N.d.!.h.^.+Xp.N.+X).). X_.N.j.p.u.R.j.!.h.N.f.f.u.r.@.&.!.f.d.r.i.D.F.!.D.a.D.p.#.p.).%XOX(.N q @.G.p.a.m.i.w.N.a.m.w.a.V.a.m.,.w.0.p.&.@.@.@.!.)._.~.N.D.i.D.D.&.w.q.i.N.i.w.w.O.O.!.D.m.i.N.D.^.!.D.q.f.q.a.q.4.).i.w.a.!.)._.D.i.i.D.m.p.i.q.i.i.F.f.a.m.B.N.i.^.(.f.D.f.s.u.s.}.%X*X%X%X(.d.u.~.~.!.h.f.d.9.u.f.D.D.N.D.q.F.m.^.D.a.d.~.D.!.Y.h.F.~.p.~.f._.u.m.D.f.a.N.f.9.i.^.+XN.g._.+X'.!.a.).~.D.4.u.N.@X.Xj.u.u.R.R.a.",
"D.F..X).D.D.D.^.^.D.f.f.i.a.N.N.F.~.D.a.F.F.G.m.F.J.N.D.!.f.j.f.$X+X~.^.^.~.D.G.[..X%XXX+X.X.X~.(.(.!._.).$XXX.X'.N.f.J.D.G._.'.oX.X.X^.h.D.h.f.m.D.i.~.+X%X@Xf.~._.F.F.a.!.D.f.p.D.j..X$XCX$Xo.+X'.N.'.G.G.m.G.G.G.D.D.m.G.G.a.$X_.).N.i.e.(.kXtXF.'.^.'.G._.F.^.G.).'.^.F.i. X&X$XkX+XG.^.XX+XvXCXiX$X%X^.F.'.[..Xm.w._..X~.G.a.f.m.D.w.)..X+X+X%X[.tX'..X'.F.)..X@X!.D.!.~.).i.^.^.D.!.^._.Q.[.lX_.).h.d.r.Q.%X@X_._.+X).'.[.^.oXXX~.!.oX[..X[.XXXX@X^.$X~.D.u.F.#X[._.XX^.N.a.oXiX'.!.~..X.X^.p.%X'.[.(.~.[.@XtX%X}.h.f.!.p.u.D. X).!._.!.D.F.!.!.)._.%X%XD.N.a.a.a.~.^.^.m.G.P._.D.w.,.p.f.iX).D.@X#X$X).^.'.V.D.^.zXvXiX[.).)..X)._..XF. X#X).%X@X%X[.D.D.!.D._.~. X%XOX X!.D.&.~._.!._.u.D._.^.tX@X.X^.p.p.j.D.oX*XCX*X) +XD.N.F.G.G.m.G.m.G.m.G.G.F.G.w.$X)..XD.q.q.OXvXkXJ.J.J.F.m.D.N._.D.N.G.G.D.m.a.f.!.$X#XF.G.^..X%X^.F.D.m.G.G.a.~..Xm.w.f.%X[.D.D.N.D.F.G.D.G._.D. X~.@XF.^.F.F._. X$Xf.D.(.$XvX%XkXzX*X*X X!.u.^.tX).)._.f.p.N.%X%X!.~.^.~.D.'.J..X[.~.D.[.'.[. X'.[._.!.$X_._.i.'.eXXX_..X'.f.m.@XtXJ.!.^..X#X.Xf.#X~.N.u.N..XiX$X^.f.R.!.^.!.",
"'.[. X~.F.G.'.F._.+Xf.a.u.w.i.'.^.F.D.D.'..XJ.F.G.J.m.Q.D._.-.O.[.^.~.^.F. X_..XkXeX@X@X$X[.^.[.~.%X.X+X.X.X.X XeX`.D.D.).^.~.J.oXXX)..X^.[.^.D.N.~.f.$X#XXX@X^.!. X.X'.XX+X).D.G.F.^.oX[.#XiXF.+.N.p.~.'.'.G.P.G.~.^.'.J.G.G.m.eX.X)._.).iX X#XD.G.#XeXeXJ.^.G.D.^..X@XoXG.&XzXpX!.XXF.G.kXvXiX#X$X$X*X.X_.P.'..XF.G.m.'.zXiX@XiX#X^.F.m.)._. X$X.X#XlX^.'.~.XXoXXX+X_.N.q.F.[.Q.tX[._.'.@X+X@X#XpX@X'..X!.u._.%X(..X.X#XXXXX@XiX@XXX~.J.oXoX^.'.eXXX.X.X#X^.D.F.eXyX'..X.X.X_.!.6XlX#X.XF.XXXX'.).+XiXlXzX)..XeX#X.X%X^.R.!.Y.[.).#XD.D.D.G.N.N.[.F. X).).'..X).G.~.~..X.X~.F.G.^.N.D.a.F.@.o.^.^.@XzX#XXXF.~.[.'._..XkXiX.X[.!.%X.X).^.F..X&XzX+X.XtX$X#X'.'.@X&X%X+X^.). X).D.a.u.).).!..X(._.%XiXiXtX.X!.p.a.G._.XX.XiXzX^.$.j.i.^.oX'.G.G.G.D.B.J.J.J.P.m.#X.X[.~.!.&X+XlXP.P.XXXXoXF.G.G.D.^..X.XG.G.m.G.F.q.#X'.^..XXX.X^.F.G.N.m.G.F.D.~.D.a.i.D.$X.XG.F.J.F.J.G.D.G. X@X.X6XpX).^.~.[.XX@X+X X+X*XkXzX%XvX*X#X.X|.~._.$XtX.X^.[.!.a.+X+X).^.@XXXoX[.^.'.'.[.~.`.eXtX@X.X#X[.~._.%X.X).'.pXpX#X@X+X.X).D.XXrX'.^.F.XXtX.X).).'.).[.^..X#XtX'.).~.!.~.).",
".X.X.XD.N.^.'.D.G. XF.!.~.u.f..X^..X.XG.G.'.P.~.M.F.m.D.N.).).o.~.D.m.~.F..X#X$X$XXX#X[.[.)._.!.D. X~.+X+XD.F.oXoXF.).'.!.~._.'..XF.F._.oX_.^.^.~.G.XXXX'..X@X@X_.^.oXXX.X^. XD. X.X^.P.G.oX[..XQ.n #.D.'.XX'.'.~..XF.F.J.F.oXB.oX'.^.^.tXtX[._.a.D.eX'.'.'.~.D.~.'.#X.X~.XXzX#X'.*.N.F..XvXBXXX@X[.).).g.^.XX~..XF.F.m.'.vXiXtXlXiX.X`.J..X.X_.&XlXvXiX[._.~.~.^.~.[.[.u.,..X^.~.lX_.F.'._..X@X#X#X$X@X[._./.$X[.g.).XXtX$XzXpXeX'..XF.^.'.XX~. XtXXXXXD.^.D._.[.XXtX[.XX).OX).@X6XtXrXoX'..X[..X!. X&XlXiX+X[.eXoX~.+X%X_.f.!.$X#X_.f.u.'.'.G.D.~.{.+X$XD.~.@X'.'..XD.F..X'.^.m.^.m.i.i.!._.B D.D.G.[.[.XX@X[._.^.@X).[..X.X^.^.%X_.^.^.N.).#XeX+X%X@X.X@X^.XX$X$X_.D.D.D.h._._.a._.!.!.!.#X.X^.^.XXoX.XG.j.u.D.F.F.^.P.XX@X#X/.n o.m.F. XG.G.D.m.G.F.'.'.oXN.[.'.^.D.[.+X)..XG.'.eXoX^.'.F.G.F.'.iXkXN.J.m.m.V.-.D.'..XP..XP.~.N.F.!.m.[..XG.F.m.V.i.f.[.D.'.F._.F.F.F.J.G.j.'.#XzXtX'.~.^.'..X!.%X*XOX).kX#X+XzX.X+X#X_._.[.#X%X.XXX#X).(.kX+XN.!.XXeX.X@X6X[.G..X'..XXXaXXX@XiX.X^.p.).)..X.XyXpX#X#X[.OX X[.oXoXXX'.'.@X#XXXD.!.!.^.^.[.^.oX@X.X.X.X_._.).",
"tXXXXX'.'.XXXX^.~.xXtX,._.d.u.'.XX.X[.^. X'.'.m.[.pXiXoXm..X*X$X_.a.~.F.i.F.6X'.`.XXpX).N.^.N.[.$X[.^.#XlX#X~.XX#X^.^.'.'.^.'..X^._._..X.XD.XXXXoXJ..XXXXXtXiXiX#XXXXX#X X!..X.X).'.G.e.XXXX'.XXiXzX@.,.D.XX'.'.'.^.'.'.~.'..XoX^.oXJ.'..XoXJ.P.~.~.'.#XXXoXD.F.oXXX.X'.'.@XkXiXF.-.^.'.XXtXiXeXXXXX#X%X!.oXF.'.^.oX~.'.zXzX#XeX#XXX.X'.].iXpX#X%XDXVX#X#XXX@XoX)._.^.'.u.).@X^._.+XF.^.^.Y.D.+XeXzXlX$X@X_.+X[.(.!.+X.XtXiXxXxXVXtXeXeXrX'.5XXX.XeXeXXX.X_.F..X#XtXcX6X#XXX).f.@XpXlXlX{.XXXXXX.X).'.#X@X#XXX'.@X[.~.~.).+X@X%XvX$X).g.f.[.oX~.N.cXpXw..X!.a.oX@XoX.X'.'..X'.N.[.xXiX.Xw.~.+X%X!.Q.~.~.N.^.eX^.~.oXtX[.D.'.'.tXlX[.D.J.eX@X^.XX#X[.[.XX#X.X#X$X+X_.D.^.D.N._..X'.N.N.[.%X$X#X$X X.X.X+XD.f.j.G.N.D.G.e..X6X.X@XkXzXO.,.a.^.D.F.F.F.'.^.'.'.F.oXG.'.J.F.F.^.F.'.^.'.5XXXoXoX^.'.'.XXeXXXF.F.D.~.F.-.'.'.'.'.P.'.{.'..X'.^.XXJ.'.D.~.D.^..X[.F.~.^.'.F.^.'.XXoX).).xXlX'.oX.X@X'.!.).$X@Xf.$XiXXX(.#XP.$X%XY.!..XeXlXlXkX@X}.@X#X).!.^..XtXeXtXpXBX$X@XiXaX#XaXiX#XtX#X'.^.!.!.+X#XpXBXtX#X+X).Y.[.eX#XpX'.XXXXXX).~.!.N.D.eXeX.X[.BXlXN.|.(.!..X",
"iX#X.X'.a.[.+X.X).#XtX4.&.g.2.F.#XoX'.`.a.'.^.vXxXxXpXiXeX).lX&XlX).N.D.i.G..XXXXXrXlX[.!.!.%XVXBX^.).pXVXxX'.tXoXN.'.@XXXXX#X'.D.~..XeX#X'.eXBXlXeXxXDXaXlXxXxXpXiX.X#X X X.X%X#X+X^.j.tXeX#X~..XkXVX}.O.N.!.'.oXG.oXXX'.XX{.6XoXaXeXXXoXXXXX'.~.F.#X#X#X@X.XD.oX#XXX[.$XtXXXXXoXN.@X@X#XXXeXpXtXiXeXXX.X.X#X'.^.'.F.oXcXxXpX#XoXoX'.oXXXaXVXBXCXVXDXxXeXtXpXeX)..X.XtX+X+X#XtXtX).&XiX.X&. X).iXVXvX$X).).[.|.Y.%XvXVXVXzXBXBXxXXXyXxXpXoX5XpX@XiXxXiX#X.X^.eXtXaXpXeXtX#XXXu.h.lXcXBXeXeXeXXX.X.X!.D.oXaXBX#XeXtX~.[..XxXKX*XvXtX.Xd.!.@X[.~.).@XlXu.,.N.r.^.tXoX'.J.a.'.`.zXCXBXpXtXXX_.$XzXVX+X~.F.a.!..X.XXXtXzX~.[.+XkXDXBXF.D.XXcXaX'.tX.XD.^.#X#XeX#XkX XD.)..X).^.#XBX$X.X%XVXlXkXiX&X+X$X_..XD.D.!.)._.~.^.a.iXtX#X~.XXxXDX).@.f.N.'.'.G.oXXXXXXX'.XX[.eX6X{.'.'.oX'.'..XtXpXtXeXtXoX6XeXtXXX[.^.F.'.oXD.XX[.'.J.oXeXeXeX#X.X.X'.#X'.'.'.D.^.5XpXeX[.'.J.^.'.oXiXBXCXzXBXVXlXXX#XeXtXOX@X@XiX+X%XtXtX$X).&XCX#Xu.^.XXiXDXVXlX+X@X#X@XY._.tXBXcXpXcXBXcXXXeXcXzXeXtXxXiXzXxXtX@X.X^.eXtXpXxXeXeX+X#Xg.a.aXxXcXXX#XeXXX.X[.Q.f._.#XtX@X%XkXzX!.f.|.OX.X",
"'.~.N.N.q.p..X@X_.~.^.f.+.&.%.D.F.D.i.a.q.u.pXiX#XeXtXaXeX@X).N.[.#X#X).).,.m.m.'.[._.N.a.^.iXVXBX.X[.XXeXtXXX@X.XD.p.[.BXpX).D.f.f._.'.'..X[.#XeXXXpX{.XXpXzX@X#X XN..XD.!._.!. X^.D.9..XD.D.h.D.^.iXlX).B o.p.N.i.f.~.f.D.a.F..X[.'.'.D.'.G.F.f.a.i._.~.[.'.D.p.G.+XtX).~.N.G.F.m.XXpX#XD.oXoXeXXXD.f.D..X.X!.i.N.i.~.'.'.'.G.m.m.G.J.'.^.lXvXkXBXcXBXXX'.'.~.a.D.F..XeXs.f.).f.+XlXGX%X/.r.R.%X#XOX@X[.f.).!.d.f.)..XtXxX[.F.#X^.[.tX{.[.~.XX.X[.eX@X.X.X#X@XXX'.[.'.'.f.[.f.&.~.#XpXeX@X'.`.[.'.Q.#.N.^.pXtXQ.[.~.s.^.vXDX+X%X).~._.kX%Xf.'.f.!.^.f.$.,.#.N.D.N.D.D.i.d.pXtXeX#XeXpXeX@X+X%XtXtX$X).).u.a.a.!.[.~.f.f.'.rXBXBXJ.F.oXtXeXoXXX).N.f.~.iXtX^.).!.D.h.'.F.).iXlXzX$XkX+XtXzXCXzXkX$X).%X_.j.f.f._..X_.q..X^._._.^.#XvXBX).H o.f.N.a.F.J.J.'.m.^.XX.X'.'.G.J.'.'.F.F.J.XXyXiXpX'.G.^.'.'.N.N.a.F.P.D.@X#X'.a..XoXtX#X^.F.F.'.G.N.f.N.i.F.[.'.'.F.!.~.J.'..X.XiXlXiXVXVXVX#X'.#X.X!.^.^.#XiXp.D.[._.%XVXGXiXf.#.!.#XiXtXaX#X!.@X~.E._.^..XlXcX#X'.tX^.'.rX5XXX^.#XtX@XeX@X@X+X#X@XXX^.'.{..XR.[.a.%.F.@XtXXX@X'.'.oX'.(.!._.).).$X|.[.@X(.u.).!.^.",
"u.%.K } f.R.d.u.@.+.g.&.K c c 2.q.+.H B f.(.!.i.&.i.i.a.N.!.f.p.i.D.!./.R.f.o.C ,.o.u.K &.D.(._.^.a.a.N.e.i.a.D.a.u.&.N.D.^.a.f.f.u.R.a.q.9.&.j.0.D.D.p.F.F.!.!.a.u.f.a.u.u.#.u.i.q.$.N %.0.%.%.+.#.&.i.!.!.c l @.%.%.u.H 9.$.!.f.u.&.&.@.9.q.%.%.o.p.f.&.q.q.u.}.).D.f.r.&.&.,.@.O.f._.OXf.q.q.m.i.,.+.%.&.q.o.u.K +.&.$.,.,.o.C +.q.&.9.u.^.F.m.F.G.F.'.D.i.&.K $.9.a.u.K %.&.R.R. X#X%XE.#.H 2.s._..X^.2.Y.u.L L #.2.f.N.&.&._.).[.^.~.~.a.N.!.u.u.f.f.s.Q.Q.u.4.u.4.a.#.r.u.m H p.D.f.p.f.u.p.f.u.B $.K u.'.D.Q.4.c u.iX$XY.R.R.u.T.}./.d.f.%.%.R.d.t.L G s.u.&.#.+.R.}._.s.@.w.i.a.~._.h.f.a.N.!.R.Y.f.L N &.H r.H 2.a.D.i.G.i.a.N.i.i.a.F.a.q.#.u.f.N.a.a.q.r.u.p.f.!.).+Xf._.!.p.+XkXtX$X)./.).!.s.r.r.s.j.a.&.N %.p.p.p.s.p.D.^.[.).c z @.0.u.i.+.i.,._.!.a.u.q.&.q.w.u.&.9.i.N.N.a.N.i.q.a.q.u.&.@.&.i.q.@.i.p.p.q.,.w.G.m.q.&.&.,.,.@.p.$.+.2.u.u.u.#.t.q.i.,.u.a.~.G.m.'.J.'.'.).!.u.%.u.s.D.a.K %.&._.R. XeX[.p.#.o.%.u.[.@X.Xu.f.4.3.s.s.s.!.~.u.&.~.'.'.F.F.~.N.N.~.d.p.!.N.p.!.!.g.4.u.4.a.#.p.u.m H 4.D.N.p.f.f.f.D.R.%.u.i.s.f.i.2._.p.2.r.#.p.",
"H m m #.T.%.G N G G H H v < < b N z z #.Y.2.L N C B ! N K H +.H K +.+.o.B K r.o.2.d.y.G %.2.#.#.o.B o.K B K o.$.N H B K %.u.$.$.o.L o.K K H G #.o.9.$.H q.i.u.&.9.$.r.9.L L m N H G m i z N m N G m L H K u.L 1.0 0 c 1 m p s.#.K N m v v m G N K m m H B B r.R.(.d.1.N N N m N m z 2.%.%.@.H @.O.o.B G K K H o.#.i v B m p N p z G N N B #.#.K o.$.,.u.!.f.&.#.#.H G o.K m N m 2.G %.D./.r.1.H J K #.%.L r.2.#.%.J c G K H m K r.2.%.#.,.u.%.u.u.+.#.#.K N K r.o.H G #.$.m m K m i c #.2.+.$.H J #.&.N #.z v +.s.&.K < r. XR.2.%.%.K #.t.1.L y.#.I 1.K J 1 y b m b m 1.!.r.K N N B B B +.o.&.o.o.$.+.} N K 2.H L s.1.G %.2.o.H C B o.K N K o.+.B H N B r.s.s.&.%.B K o.t.d.s.R.r.s.%.L !.).f.&.p.f./.d.#.3.%.L %.%.N l v K H K %.L #.$.i.f.%.3.z 0 N c H b s.9.o.K B B N N o.o.B H H @.O.o.@.o.o.+.K H N B K B B b 2.+.o.+.B $.@.+.C H K B B o.$.c c K H z B b K #.H B o.o.o.o.+.&.u.a.'.!.&.%.%.K J #.o.G K H r.G %.D.f.#.L H #.#.%.2.%.#.H o.2.#.H J #.$.H K 2.2.o.+.&.q.#.q.u.#.#.%.o.N o.r.+.H G #.#.m L #.m i c #.&.O.%.G G #.2.L 1.K G H L L #.#.K H N H ",
"L 1.1.%.J c c p i y i p c # y G L 3.2.2.L m c i z m p z c c m z c N H b z N N m J 2.i i m N H m z p i i i 0 m p m %.H %.K N N m m p b b m c i G K K B v N +.o.N K H +.K m N m z H c i ; v G i i z i c p c m v J J c ; % I 2.T.L m z K m G K L r.v i z z z L t.t.1.%.#.c i i p i p i H N m N N B H N G G N H K z b G I #.z G s.#.G c i i p m c c c H H H r.+.K b v c x z p i i 0 G v L u.r.K K H J c c K #.y.L N J L c c c c K N c H H z B B H +.$.H H H c i N o.H m x c G c c c c i % N G K o.H m m L N L c a z m H p y d.R.2.K c p c J J c p G P P c p c # 0 G L 1.r.r.o.N z y i b p c N z N z N c B b z b z N G T.L i z m K N z p p i i ; c z z z m 2.T.2.1.L H z z N o.t.L G K o.N H %.!.&.z +.%.s.%.G K H N L J z < G K z z c c c c N K K I L J y # y L s.c N c b z z m H H z p m B N m m N m c H p z c z p p p H N z N N H K N N v c z z i c i i K G J s.#.K m p p z N m p c #.%.L u.@.o.m c c c c z z l 0 G c K &.#.c B K H c c O.K H c N K H v N m G o.H c H m i B B B #.$.H H B c i G o.H m c c N v c c c y % c G G B m m I %.J J v c c c c c c G z c J ",
"J G c c a p i i < y ; y y < % J L L v z p z i i i c p c i i i i c m c i z z p i c m c i y z z m G J J J L c ; i i m c G i 0 i z c y N v i : : i v m c c i B N i c K K H c m G z N G y 1 x G i y y z i i i t.1.x J P W.y.E.E.2.L G J G c c G G c 0 < i #.t.r.3.K m I L z c c i i i i c y p m z z N m G N z c m i c c P y.G #.#.c z 0 ; ; i i 1 , o < G a G +.c i i c c < ; i 1 ; v x v &.L y y b N c c r.1.#.b z L L c c P G o.H v c c v G i z o.#.o.m H < 1 c m m m c a i i i < i i % 1 x c m m s 1 z p G G i i 0 i 1 x o.#.G v c 0 i J J c p L J x i y : - o c J L m z i z i 0 y c z v i i i i y i p 0 z z i l J y.1.c l K L J J J I I %.c ; c p z L %.1.t.N N c y c m K J G y c N N J J &.#.c L #.o.) z G K c H J i x P H i i i z c i z H c J L 3.t.v P r.m z c m l l y p m m i y c m m c i z i p m i y 0 i p i c c i i m b z B m m z p z p 0 i i i L N #.%.v c i < y p z i < # i H x G @.b i c c x < < i y ; v y c %.J < y m H m 0 #.m B z z H m c z s c +.#.N c c v G i c o.$.o.G N ; < b m m v s a i i i < i y o ; i c J #.1.L N v v c i i y i i i m c i J ",
"v i p i y i i c c i i y 1 i ; P L i i 0 0 z c l y l l 0 i 0 y 0 i c 0 0 i i p i v m i 1 i z c c p c m D G L x s y i 0 ; 0 ; ; y 1 0 0 c i i % ; c m z a 1 c N G P L K N a c G z N i % 1 i c y i z i p 0 z %.v c G y.E.3.I W.G i v m c i 0 y i y y ; 1.%.y.L 1.m J 1.G i P P c i 0 ; i i p p z 0 0 z N m i i 0 c G v c m c z i i p 0 ; ; i i , o . G J m i B H z 1 p c 1 < ; y < l < z N z y - 1 m S 3.t.G J G J 3.1.J P I G o.N m m c z i 0 p m o.m m c ; a c a z p i i i 1 i ; i y % ; y i < i c i i a v m z i % - y c L S v v i a G J G c S L L s y 1 < ; % x c i 0 y 0 z c l 1 l p 0 y y y ; ; i i i J c v L 1.1.1.x x 1.L K m K 1.y.1.%.D P G L J L L K s i 0 : i v P v - - c J J G v L H z J L K K v L L c N a ; i i c i x i p p 0 i m i i ; y J i a 1.z y c c s i y D p i y 0 z z z i s z S G c 0 y y i i y 0 p i p p z 0 i p m c i p 0 i c c ; c p z i i z y y ; i i - . O J P m i B } b y p c i 1 ; y ; i ; v N c y - 0 N p m L z m m c m c v i < z +.B G H c c i i z m o.N N b ; a m c z z i i i ; i ; i y - ; 1 P I P L S G a c c c c < < i c c c c G ",
"c p y a i i y i y y y y i 1 - S 1.m y 1 i c c z y y p 1 i i i i i z c c z y i s c a y ; c c z z i i m m G v c i y 0 0 G L J c y ; ; ; ; i : : i G x y i i i L G m v c m i c N z z 1 ; 1 i i y 2 i i i z y p y 0 J I W.P c L G i i i y i i y 0 ; ; 1.I c L L 1.L L G c x v c < ; ; ; I J c p z z i i z i i y y v J m l i i z i i y ; y ; i < < 3 I y.c c H H o.H i y p y % % % i < i c s c i ; % c L t.L z m L t.t.G G G G N } z L N p c i z i p m N N i i v G a G c i i c i i : i y < - 1 i ; < p z i i i 1 i c < i l z i p c i i c S P G G v L c y : 1 y ; - a G c i : i c c l y y i y i i i z c L L J m c p G J P J i v I L m p c G c c v c c c J m L t.1.J i ; ; ; ; c v ; i G J c c l z m c c P m K c v m p v i ; ; y z y a i y z p i p i 0 ; # v 1 ; J G i 0 y 1 i z J v ; ; y i p i z i G J m a : : ; ; ; < ; c p p p z z i i z i i y i z c v x i p z i p y < i 0 i < %   I 3.F v H B o.N i y p y % % % i < i v s c i ; - v z m G p c N m c c c y i N o.b H m m m c z p p N B N i i v G a G c i i c i l 1 i y < ; x L D c m c p i i i z c y i z z i i z D ",
"i i y p i 1 1 1 y 0 y i y < - S G c a x c y y y y z i y y y i l p i l i y i z c i y 0 ; i c y i z L y.%.L D i y ; c L K c y i c c J x ; ; ; L P D v y y l K J c c a c m z i c m m 1 1 x L c < y y < i z i i y a L c t.v ; F L c y ; : i p c i y t.t.L c 1.m L c c c i i v < ; ; y y J c c c J G N z 0 i i y i i c l z p i i c c i 0 ; ; : < o O W.I x m N i m o.m m c i - % o c 1 i c ; y ; y l L y.t.1.z y H 1.i i v i l m H N J N m z i c z p i p m p y N m a a ; ; v N l i < i i ; % < p y < y i y p i i y z y c z i i z m i y i c G P a i c i i y i 1 < - v m i y ; y y 0 1 y z i y G G N G G m P x y i p z c m z ; i J p i i i c i i x z m m L 1.L G i p G G J v ; ; ; L L G G c i c z v c c J G G c i z m G 1 1 2 L c 0 y y y i z i p i ; : ; I y - < c i ; ; y i z m c i v i y p 0 z i z i y y 1 y 1 x i i ; c p i y c G G p 0 i i i y p z c p z i p p l i c i ; ; ; o . W.I v G N i B H m m m p ; % o c 1 a c 1 l 1 y l c G K %.c i N m < ; i 1 y N H c m N N z z c z p i i m z y S G x a ; < v N v x < l p ; ; I L i ; y i i z p y i z y v z i i z c c ",
"c y 1 z i < ; 1 y c z z i 0 ; c c x i ; 1 ; ; y y p i y i y i a c i i 0 1 y i i y < i 0 1 c c J L y.t.P c z z < c y.t.G y 0 y i m 1.t.t.L L L i 0 m i i c G i i c c c v m m z N z l ; J L x y y 1 ; 0 i y : G 3.1.J W.J i i P i i y i y i c v 1.t.3.L m L m L z i y y p i i 1 ; ; i L G c J G c i v L G i ; y p i i i i i c N c i y y ; ; - X % D D c G G y z H K H N m p - o a a i 1 ; i i 1 L J L v m i ; a N i y s ; ; m m z G N c c z m c c c i b i i K H < ; % % N o.c i ; - y ; % ; i p c i i y i z < ; i p c i i 1 l z v v J P m c s ; : i v z z i 1 - c z y 1 ; 1 y c v G G z p S S p c c i 0 0 1 y y c J J i ; i x i y c m z i l z v S G 1.L z i y i c m L 1.L L P J y i K v l p i y y c m G m m b z N G z ; J L x i y y ; 0 z i i i ; i v 1.y ; X z i i y i y z m G x c c z y < y i i i i 0 p i a x < ; < G p p s c z i p G m i ; y z p p i p z c b z x l i : ; - X # D J c G G y z H K B N m p - o a x i 1 < i l y c i c c G i ; i z < ; i - ; z c p z z p i c m N m x i c y p J J i < % - G o.c c < - y < i S G p l i i y i p 1 ; i p m i i y l c c ",
"G x i p i i < ; z K c z z y ; i p y i i i y v l i i y i y ; : z < p y i y i i i y c z 0 ; c i y c m N m c p i 0 l m G c c v c G I K G m z c c y i J J c c c i l N m c p m c c m z z v J m i z c x < y i i y L I L P t.G s i < 1 i z y ; i z y.t.L v m c G m G c c c 0 i i y i < D G L m c z z z i i c G m i i z p y i i z z N c i y 1 i i ; - O x x i v K i < p c m G m m i % i c i < y i x L H m c p c z ; x K c l 1 % ; z l i J H K m m z z H m i c i m H m z ; % o c G i i 1 1 ; 1 1 < i p m m i < y c 1 < m y c i i y z c S 3.1.D p c i < ; p G c c z 1 - i p y y G P J D c m z z i y y i i y y y i i 0 y J K c z 0 ; c i a v v z c c c c m c c z i i i l c i c l z z v c y l z z i i l 1 i z G G z c z c m z z v P v i p c l < y z i i i y c D L p y % < i i z i ; i m c y i 0 i z i i i L L J c z p i i y l v L m z i i i y y i G m i p z p 0 i p z z m c a y y i y ; - . x F i v K i < p v N H N N i % a c s y y i 1 y m s i p c p ; i N i i y % ; z v p 0 m c p c z z H G y m i G K m i ; % # m G i x i y < y 2 1 i p v v i y y c 1 y N i c i i y z c c ",
"m c i y i i ; ; i G z z z 0 : m z a c p y c c c v c p i i z i y x 1 i i y i i : y y v i x G p y i m z c z i i y y m K c p z v v J G z i i i x i v P P G L G i c K J z l z z m K b i G c i y c i 1 : ; i y 1.K J G G G G y ; # ; i p i ; x #.s.y.L c l i l c z z p z i i i i i : l v L c i p z p i y y i i p G H z 0 y i p z m c i i 0 z x v ; o D a G i c p ; p p z c m p p ; y z ; - i J 3.I G m i m B N y c m i y 1 - - i y p 1.%.N m m i z B a i m m G m i m c % - z l i i p p ; a 1 - i i c G z i i c 1 z N ; J c z p y x G #.L c y i i ; - y v z z z i : N z a i L m v c v G c i 0 y i i i i i i l i y i K G i c p i G i y i c m G L G m c i 0 c i i i i i i i i i i y c y i c v z c z y y N N G c z c m K m i G m i i z p y y y i p z p c v c c p 0 < # ; i p i 0 l m b i i i i y L 3.K L 3.L m z i i i < 0 i m z i i z p i 0 0 y i p m G p 0 0 z p p N c c z 0 z i c ;   D x G x c z y p z z c m p p ; y z - - i G v c z z 0 N N H i p c y y 1 % ; i c c c H c p c y z B c i m G L P i c c % ; c c a c z c i D 1 - i i c H m x x v 1 z N < P v c p i a v ",
"i p c 1 y y v y i c c m m y i #.J a c i i c i c m z p i y y y 1 ; i < i ; i 1 : i i x i ; i i z c K v m v c i z c %.1.m c c c c c z z y i i v m P v c c L 1.G l c z z c m c N B N y L i y l i z 0 y J y.t.y.L z c i p c c i o 1 v m G v K L r.1.H z c p i i i i i y y ; p p z i y G G N m i z z i i 0 ; G m z p i H p i z c c G s 1 ; z z m i o 2 < i c y z m m v p z m i i p y i y ; ; v G L c i ; p z N v L G m y i - % ; 0 s #.G c N N i i z G i m N #.G N B i - a v i i ; i i 1 c - - s 1 y i z z z i ; N B x G S c z c x v J m c 1 y i 1 ; < c c m m y i 1.L x c z c c i z N z p i i i i i p z p l i i 1.K z l c i y i z i y c N m G m z z i i N c c c v i z z p i i z i z c i m z c m i z c z c N G c N B N 0 #.l i i z p y i i m c l c i i p c c m i # 1 z i p y m N m p z z c N 1.K L L G c v p z p z i ; ; i b p p z i i y 0 ; G m p p i G z i z c z G c i < z z v i . 1 < i c 0 z m b v i z m p i p y i y < : i c z i y < i z N c c m b y i % % : : i m p z m N i i z m l G 2.Y.#.m B i ; i v i l y i i a c < ; x < y i G G m x 1 N H x G D c p c p z ",
"z c c i z 1 G c y s m m m y c #.G i i m c m i i N m c i c m y ; y ; 1 ; - i : v i i z i i P G L L K G K L c p N N K %.z z c c z z z m c m m v N m i v G L %.c i z z z N N c v N B H %.i z z i 1 z 1.t.t.s.r.J c c c N c i c ; P T.t.r.L c b N H m z m b i m c z i y ; y p z z i m L o.m m c b p i i a G 1.#.z i l G m i z N N c m y l i z z z i % , < l G %.B N K z i p c = G 2.J i i c P L N N i ; i i m B G N m c v 1 1 ; - ; G z m B m i < G #.G c G 1.L o.K c i i i y z - p c a z ; ; c z < p i i N i ; B o.c v m K S 1 i z H G z i i ; c p y a c m N i m t.L c p z c G i i N z z i z m y 0 z z i i i N %.G z z z i 0 0 z i L L m m z p c K N c L z z m c z z z m c c N i m G v G c z N z i z z z N N c N N B B %.i i z c i i i z N N c c z c c c c z N ; F J p z c v z p p z m K J K 1.L G p x S v s z z z i v N z b i z z i i c v 1.#.z i i G N 0 z N N c m y a p z z z y o < y z J %.B N K z i p z = G r.J p ; ; y z m m i ; i i N B c N N c v 1 1 ; - ; N i m N N y ; i N m N y.T.%.K K a y i i < i - a i c c ; ; m z < i p c B i ; H o.c v m H c ; i z ",
"m N m z p p c N i y z N m y i K c J K N v G i p m b b z c c i i i y ; y J E.t.m 1 i y i K #.#.J N z c z m z N z c i G z N z z z z N K H N #.L G z i c L K K c i m N m m c N c c m o.o.z p i i c m J v N L K m z z l z z z N L y.t.L H N z z z m m m z m z K H N p y i c c N N z c H N m z z N c p z i s z m N i v G v c c m m m N z c z z m c #.I E.t.L K K B N N z z i p 0 2.3.G P a c J m N N z 0 y z o.4.K H i i m c N a y i G z m o.o.G i G L t.H z L H %.o.N v c y y c l L G c c i y z i i z y z B ; ; N o.N c m L c i m L #.B m z p i c m i y m N m y z #.G m N c L L i p b b z z m N p p z z z p v m m m c i p c i i m 2.T.1.N N m c H m m i H z m m z z z m G G m m m m v z z z z m b z N N c v c N c c B K o.p p z z i m c c m m z z z z c z z z N J J P c z m b z z b J H N N H s.1.N z P P 1.N N N z i m N m z z N z z z i s c N N i v G m c z b m b m z c z z m z #.I E.t.L K K B N N p z p p 0 2.2.G G ; 0 y z m N z 0 i z o.,.p m i i N c N a < i G b c +.#.m y s G L J L 1.K %.#.G v l i 1 i i J L a m 1 1 z i 0 z y z B < ; N o.G c m G l i G G ",
"m m c c v p c H p y G B z 0 z m z r.L m G G c p m p p N c G p i : i i L T.(.T.L 1.1.K L #.J %.L H z c z N c K N N z c G H N L H G K L L L K L K z i N K K N N c N m v c m N m N B %.%.c c m G G G m z z N p z m c z N J #.o.%.L i c c z z L K N z z z N m B H B p z m N m K #.G m z m N b N N b z m p p z p m p J P N N H p N p B N m p i N G #.s.E.T.L G H B z H m m c i a T.r.c S J P #.H m b N 0 ; z L N.4.f.m p z z o.o.m p i i N K #.m p p o.%.H m L #.#.+.H N c z i s i D J G o.m i p i p m p c m < y c o.H m J G i i #.t.H N m c m z z H z y G B z y N H z N m b K L c z m z z z N H N b c N N v z N m J m z z z p p G &.%.m m N G m L N N z p z z z z z H K K N N N K K c z N N m z z z N H N z c N N N B q.+.N z G H J K N m N m p z z m z p p z N N z % p z z z m z r.1.m z m b H H N v L 3.#.H H #.N p p m N b N N b c c p p p z m p J P N B H p N p B N m z i N B o.s.E.W.L G H B z H m N c p p T.t.c i v i m N m N N 0 ; z +.q.O.u.m p c b +.o.m p p i m N N c i i H H K m K o.o.#.K m c i 1 1 y G L G B m l c i c N p c m y i m o.K N m m i z m L ",
"K N c G N c z B N N o.N z p H K z B N c m H c m m N c v i c p y i L y.%.P G L s.E.T.E.Y.T.T.E.u.#.H H N G #.s.2.#.&.#.r.o.L 1.%.%.#.#.L o.K &.B N H t.K B H N K L %.G i z B N N N &.C o.B B K G G c G G c z m m N o.t.r.L %.N m p % N m +.f.2.B z p z N N B o.H m z m N z o.H B N c #.B B K B B N z m b N b m z J K H B H G N z N B b z c K H B ! b y ; z B o.N o.B c z i J Y.#.c c J c 8 c N z b i y N C q.i.i.H b z i N +.$.N c c K #.s m v c 0 K $.z L %.K K B m H H i c i < m m O.o.m c i z B b N N z c N B H K H z z p L #.B B m N N c m N N N o.N z z #.L p B m z N H m N N H N N B B N N N N c 1.L K m H b m z m c m s.2.N b N N N K %.K B H p K N c N K K N B m N H %.N N K s.H N N m N N K H i z B N N N $.) ! B B L K L B N c m z m m B B N m N G b c z % G m B %.+.B b p z N z #.o.B m c K r.K r.o.b z p #.B B K H B N b c b N b c b J K H ! o.N N z N N m z m H o.B ! b y ; z B o.N o.H m z i J R.2.b y c i 0 c N z b p y B o.,.u.u.} m c i N O.@.B c c H #.c m m c y H #.z K 1.N H N v H G i 1 I I 3.L Y.d.y.t.I 1.o.b c N i c N B K B N i z i m G ",
"#.2.T.s.#.m N m H C &.N z p 9.L m B c z m N c c N N y J 2.s.t.2.t.T.}.s.%.%.y.s.d.E.}.R.!.Y.Y.f.#.B H K 1.r.p.s.&.r.s.r.u.B o.%.%.%.%.#.o.&.&.! N B &.o.H N B o.o.o.H c v N H B K %.N o.B b z m m m #.#.r.1.K B r.R.u.%.%.o.N N m 0 v K r.&.9.K m m B N b B o.@.N z N m b N o.N H #.%.B B +.H B K ! B V B N B B %.H N H ! K #.L z z c N z B C +.O.$.z ; c ! H o.+.o.b c ; y.R.2.1.G J z = i N B m c p #.#.K H B H B N y i N @.-.H H o.#.#.3.L S +.+.H B N O.#.H K o.K m c c - < z m o.,.o.m p z o.N z z c N N N H o.&.K %.#.L G B H G K H N N N H o.&.m p z 9.K m B N m m B B B B B m H B N m m N c %.s.&.&.K N z z m H N K s.s.K K #.K %.o.+.o.B K +.K #.N N o.B B B K o.%.&.o.N B 9.o.N N N K K o.G x L o.K B H &.C ) ! V N N B B B N B N B B o.o.o.C N B N N N 0 v L r.+.) N b m B m 2.2.o.) z c L #.#.r.%.m N o.%.B B +.H B H B B V B m B B %.H N ! B B o.L b c c N c B B ) O.@.z ; b ! H o.+.K b c & s.R.2.c i m c ; p N B m c l #.#.o.H V H B H y i N @.,.H K K 2.%.1.P v o.+.B B V +.#.G m o.K l c I W.1.#.r.R.).Y.E.r.r.Y.H z z z m m z N N %.J L J G v ",
"d.s.R.d.t.#.K B &.u.&.N c N t.K N o.N N c c o.m N B #.OX/.#.#.L K s.OX/.Y.E.t.2.t.d.p.f.t.+.i.@.} K %.&.2.r.u.&.&.&.u.&.f.K N +.u.+.+.o.B &.+.o.B b +.+.o.B B o.o.o.K B B N o.H o.%.C m o.o.z z m N o.K %.%.+.o.&.p.u.&.o.N B B G B i r.#.$.O.) N N N b N o.+.o.N B B N N ) C K H u.+.) ) +.! H ) o.@.+.B B N H @.B N +.O.N b o.b z b N b N N H +.+.#.v i o.H +.O.,.H p 3.T.^.!.s.J B N 1 G o.o.B i 0 #.#.%.#.B s c b z c m o.,.%.$.@.$.#.%.%.C @.i.) #.b o.%.%.$.o.z c N m - ; m c N q.$.c c N +.N i m K H B B K &.%.o.&.o.N L o.K H B H B C C %.q.&.N z B p.K N +.H N N m C B o.B N B B N p B B %.u.u.+.#.B m b N K B N N o.&.@.u.r.r.u.%.O.o.o.+.@.+.i.N b ) o.C o.o.K &.@.+.K b +.o.o.B N K o.o.B N %.%.K K } &.C B &.O.b b B O.B B H N B N C B +.+.B N B N H #.c K o.o.! B V b N N s.$.@.! N B K o.o.+.+.H N u.+.) ) +.! ! ) ! @.o.B B N B @.N N +.+.V b o.b z z B N N N B o.#.#.v p o.H $.O.,.H z 3.T.~.f.#.b B H i J o.o.B i 0 &.#.o.H m s c m c m m o.,.@.#.%.%.%.#.K C @.9.B #.c o.#.J o.K v c c E.y.J %.K %._.Y.#.1.t.p.L i m 1.#.H 1.T.f.r.J o.K m 1.",
"(.R.R.T.r.%.+.0.s.s.&.N z r.2.N N #.L H c B B t.p.$.s.f.!.%.i m N E.*X+Xp.s.2.K H +.&.r.r.o.o.B B o.&.u.&.+.&.&.0.u.+.) ) o.N 9.$.) ) B &.+.+.K @.m B +.+.o.K $.o.o.C K o.o.m z b K o.&.@.N N c z s.s.%.#.B o.K %.$.@.+.O.+.+.+.K $.m 1.&.) +.) C K B N B O.,.o.K #.H V N o.K K y } o.) @.@.! B +.) O.&.B B o.+.+.B B +.@.o.o.! N &.u.u.&.%.&.f.B o.H B z o.o.o.O.,.N m d.L i.[.f.H o.$.c s m H #.#.N $.,.!.4.o.m m s B %.K m B ,.w.@.#.&.o.o.0.@.+.o.H b #.$.%.w.-.i c N K y < m m B &.,.K K G m m m G %.+.B H %.&.+.+.&.&.c K +.o.o.H C B o.o.9.u.@.N p &.9.B K %.&.o.N N K K o.B B +.o.B b K B &.f.w.$.O.C N N H K H B m o.+.$.$.&.u.&.) +.+.@.$.+.o.) ) b +.o.B C B &.&.$.%.&.b B o.o.o.C @.o.o.B B o.%.K B b o.) &.@.+.) N B B o.o.o.) o.o.$.o.O.O.O.+.o.r.&.u.0 N ) ) +.! C o.B K 9.O.,.o.C #.H B B +.%.K c H +.+.@.O.! B +.) O.&.B B B o.+.B B +.@.O.) ! N &.t.p.$.&.2.m.V o.K B z o.o.+.O.,.B N f.K q.~.i.H o.$.c s m } #.#.N $.-.i.$.o.m G s H $.K m C @.<.@.#.#.H K &.@.K } m b J H s.D.R.1.G G /.1.G L G #.u.g.f.t.L %.N m L r.&.#.d.f.R.d.r.f.R.t.E.",
"s.u.f.f.&.&.s.u.u.a.r.z z u.o.B B H K K s.R.h.!.!.&.s.u.#.B m B N (.$XN.#.+.#.N c H H ) ) ) &.$.K K u.0.@.+.&.q.i.u.&.o.N ) o.u.+.C N @.0.o.o.+.9.q.2.K N @.%.@.o.&.+.9.+.&.+.m b #.2.&.K K z G %X%XR.&.K +.B o.+.+.@.@.o.&.&.O.@.+.o.i &.o.+.) +.+.) ! o.+.@.$.o.$.B N N N B N 0 +.+.@.-.@.O.o.O.+.@.q.+.) +.$.&.} N O.-.-.,.C &.#.@.u.a.%.s.N.!.o.N p m K O.N N b p #.f.%.D.m.M.O.i.i.#.} o.! &.&.-.V ,.^.~.u.+.m N o.i.u.i y @.b.-.o.B N N o.$.+.o.O.N L 2.#._.!.c H m B v c m m N ,.w.,.+.K N m N H %.%.o.o.+.o.+.o.u.i.B N H o.&.o.K o.N C q.q.o.z z a.&.N ! +.+.+.K ) ) K +.) ! o.+.) o.H B K i.q.O.+.o.+.N o.o.o.C +.R.u.N N &.&.@.o.+.@.-.,.$.o.N ) o.u.+.B N $.9.+.%.+.9.u.&.C N @.+.+.o.@.+.%.&.u.K N b @.a.q.+.o.@.+.$.o.+.o.B o.+.o.@.) @.) o.,.q.q.&.@.B ; $.) +.) ) +.) &.+.O.@.o.) O.B m N K B N p $.@.@.@.O.+.o.O.o.@.,.+.) +.@.9.o.N O.-.<.,.o.$.#.$.u.p.%.s.N.N.H N z m o.O.N N m p #.d.B ,.b.m.O.i.i.$.H o.B &.&.@.B ,.B.B.u.#.m G o.i.u.i i @.b.@.+.K m K H $.o.} o.N L %X/.kX%X1.K K /.E.W.I G N $.f.N.9.K N m G K &.$.+.$.2.t.s.%.q.f.t.s.",
"u.,.p.%.&.d.p.$.&.u.#.b f.p.,.L G H $.p.!.).).R.i.&.+.&.o.K H m 1.R.f.a.@.2.%.N z +.@.o.+.+.&.f.w.9.a.$.,.q.,.,.q.&.,.@.B +.&.i.@.o.+.9.&.@.@.C &.u.f.a.B &.p.u.&.2.&.+.@.+.$.i K #.f.o.H p B OX}.u.K o.K @.o.o.+.O.) +.+.,.q.-.@.@.,.B #.O.) B +.! -.@.o.&.,.@.} +.N N N C B 9.Y.m O.-.q.-.O.! o.O.@.-.@.@.+.+.q.O.B O.,.-.@.&.&.O.,.-.&.+.O.,.i.F.f.u.i p q.N b p 8 s.R.f.p.w.@.O.i.`.w.q.,.) u.,.,.H u.,.~.[.,.m H &.m.i.< % o.i.i.,.N c B i.,.,.o.$.H #.u.#.N.G.N +.H m P v N N B &.w.a.q.$.K +.C +.o.+.+.@.&.+.+.+.u.w.$.K @.$.u.o.o.&.%.) &.,.B b f.f.q.+.K ) +.@.+.&.%.9.@.@.+.@.+.) K H H %.,.q.q.q.o.C B +.@.+.o.@.p.h.q.q.f.u.,.,.O.@.q.,.@.,.N +.9.i.@.) +.&.9.&.0.C 0.i.f.f.B $.i.q.&.2.$.O.&.q.@.m +.D.D.q.O.O.&.@.,.,.@.O.) @.+.+.+.@.) O.9.p.w.w.q.-.,.m #.O.) B +.) ,.a.@.,.,.@.B +.N N N o.B 2.Y.G O.-.q.-.O.o.o.O.-.-.@.@.+.o.q.O.B @.,.-.-.,.9.@.,.O.q.+.+.,.i.F.!.u.p p q.N b p 0 s.f.2.,.q.&.@.i.`.i.q.q.) u.,.q.o.i.<.{.{.u.m H &.m.i.< % o.i.i.&.c c N u.%.%.H o.J Y.%X}.%X[.K o.#.T.s.t.3.B B &.a.D.q.$.H +.K o.o.+.0.q.t.+.+.K u.q.s.2.",
"f.u.p.u.2.q.u.,.$.&.&.f.R.u.u.r.d.!.f.u.u.f.f.i.O.@.$.u.B B o.%.%X).(.f.f.D.f.o.t.T.&.+.@.@.&.q.+.o.@.,.u.q.,.@.+.@.q.N.i.u.w.w.w.&.a.i.f.p.w.&.O.&.@.q.0.K a.&.&.@.q.+.o.&.&.b N L K B N m 2.2.$.B B B +.+.N H o.O.o.o.o.q.-.,.q.e.q.p.%.H ! V V O.O.@.,.@.,.O.B o.V b N o.&.).!.B B } w.-.-.-.@.@.@.q.@.@.,.@.) @.B +.@.@.p.u.o.@.O.,.e.@.O.&.q.i.,.N.f.H ) M.} B y t.f.w.m.@.H #.u.N.i.i.w.o.i.w.,.@.u.f.N.@Xi.i H ,.yXB.1 o b w.{.m.o.N +.q.+.m.i.o.} 2.s.+.i.q.o.o.o.H G N K K o.@.@.&.@.@.B q.K C B o.@.q.u.&.#.o.i.f.m.r.u.u.,.+.+.@.&.+.O.@.@.!.).f.a.+.B +.,.@.@.q.$.&.@.@.q.i.@.o.K +.H u.,.,.i.e.-.o.o.o.o.O.O.O.2.i.$.o.,.i.q.@.-.-.+.,.,.q.@.&.q.e.w.&.p.q.f.a.i.$.@.&.&.-.@.o.a.&.&.@.,.+.o.&.@.b $.f.G.w.@.,.i.,.@.@.O.O.,.,.o.$.,.O.@.,.,.w.q.q.q.e.q.i.&.H B V V O.O.u.,.@.,.O.! ! b b N +.&.(.!.B ! o.w.-.-.,.@.@.-.w.-.@.,.@.o.@.B +.@.@.m.f.+.@.o.&.i.@.@.&.q.i.q.N.f.H } m.o.H y #.w.w.m.@.H #.u.G.i.a.e.o.i.e.,.,.a.N.N.#Xi.p H ,.#XN.< o m q.`.u.+.c K %.+.u.4.H 4.E.(.f.j.i.K L K L #.#.#.K o.&.i.q.-.+.B q.K C C #.&.i.p.&.O.} &.f._.f.",
"a.m.&.o.O.} O.,.o.u.q.i.D.D.f.R.s.d.i.O.@.@.q.&.,.,.+.%.%.o.%.d.}.}.).).N.~.a.o.r.R.9.$.+.+.+.,.@.@.u.p.m.i.@.,.@.@.i.m.m.o.i.,.w.,.a.i.a.a.e.q.@.,.&.&.m.@.@.&.+.o.+.+.+.&.+.u.g.2.o.+.N o.R.d.o.N %.K &.&.+.f.f.@.@.+.O.@.@.@.q.-.w.,.q.!._.q.m &.! 0 o.O.b ) ! p.,.u.f.i.s.!.q.+.! p.N.,.@.e.e.w.i.w.w.,.o.+.B V p o.) O.^.a.+.@.-.-.q.w.,.,.B.V.-.w.G.o.V i.&.B %.d.f.m.m.@.H #.&.w.w.G.e.-.w.q.w.-.$.g.yX{.&.p H <.{.V.p o i `.5Xm.q.&.%.q.i.XX[.@.H H i.m.q.0.K o.+.H K $.+.+.+.w.&.) +.q.@.u.+.$.o.&.a.a.&.u.+.N i.G.m.w.m.N.q.o.O.o.+.,.O.u.w.a.e.w.q.o.B ) @.,.,.q.@.&.,.-.w.q.@.@.%.%.f.u.q.-.w.m.e.) ) @.@.} o.@.u.f.,.q.p.a.e.,.-.q.+.@.-.w.w.B i.q.w.&.i.i.f.D.a.&.@.,.q.-.a.@.@.@.+.+.o.+.+.q.+.u.Q.a.a.e.,.w.q.,.q.,.-.O.q.w.q.i.m.,.,.&.w.q.-.q.e.,.w.,.,.!._.q.m &.) u O.O.b ) V u.&.u.f.q.u.!.q.+.! p.m.,.O.w.e.w.i.w.w.q.o.+.B N p o.} O.[.a.@.@.-.@.-.w.,.,.B.V.-.w.F.o.V m.q.B B #.u.m.m.-.H $.&.w.e.F.k.-.w.,.w.-.,.p.eX{.@.p B ,.~.N.c % i N.).a.%.2.#.+.q.!.~.#.#.#.u.a.&.0.o.H H m #.&.K o.+.f.u.o.@.e.+.u.+.$.o.&.m.p.9.i.+.N u.'.).D.",
"q.N.&.C @.+.@.,.b D.&.f.@XD.i.s.&.+.O.@.u.f.a.&.@.+.&.q.@.+.p.a.OX}.(.i.D.~.F.,.d.(.Y.u.+.o.O.,.@.q.N.a.N.D.w.@.+.q.m.G.m.q.w.a.q.q.m.w.a.q.a.e.w.,.q.q.m.a.q.@.o.p +.u.q.) &.h.H $.B B $.}.%XOX_.).(.,.&._.+X%X.XN.i.w.&.&.,.f.m.-.,.,.@.p.f.e._.^.D.a.O.@.@.!.!.).u.$.&.,.w.i.,.N.q.d.N.,.,.w.m.a.J.m.,.+.+.! $ 9.d.s.u.&.F.@.w.q.O.O.&.N.q.$.F.m.-.B.].@.z O.$.q.&.#.f.[.~.O.b B i.q.w.'.G.m.,.w.q.F.,.$.aXcXf.#.%.'.pX'.z % c `.N.@.G.N.0.w.q.k.~.} } K f.5XN.@.+.o.H B $.q.&.,.$.e.e.H o.q.q.%.o.@.&.i.a.a.i.&.u.&.i.N.~.a.,.G.,.o.@.$.@.,.b D.O.@.B.w.@.+.B B -.q.q.@.i.i.w.@.q.i.@.,.f.).N.D.u.-.i.m.G.q.&.@.+.@.%.u.i.i.,.w.e.q.e.e.w.,.O.@.,.m.m.q.i.w.q.q.p.i.D.e.a.w.q.@.e.,.m.m.q.@.+.i +.f.i.) a..XD.i.i.w.w.,.w.w.w.@.-.-.O.w.@.q.m.w.-.,.q.-.e.m.w.-.,.q.@.i.f.i.^._.D.m.O.@.@.~.N.).i.$.,.,.w.i.,.N.w.g.N.q.q.w.G.i.'.m.,.O.+.! = &.f.s.q.@.F.@.w.q.@.$.$.N.w.@.F.m.-.B.].@.z O.,.&.o.N u.XXF.O.m K i.q.i.'.G.m.,.w.w.~.i.+.rXcXg.o.#.[.tX'.z - L [.f.$.a.i.&.$.+.&.u.o.} K f.XXa.@.+.#.H r.f.a.0.,.o.i.a.K o.q.,.%.o.$.&.a.a.a.i.q.u.%.a.!.).a.",
"B..X@.H o.O.&.m.$.).a.!._.D.w.q.B B +.@.N._.w.q.,.$.,.,.&.!.).D._.).i.q.p.F.D.a.!.).D.N.u.O.+.@.,.@.D.N.m.~.N.q.!.!.~.F.F.G.i.0.0.D.D.e.q.w.m.a.i.q.a.m.F.D.N.f.q.b %.#.&.&.p. X).).q.B f.$X%X_.u.f.p.a.).).#X.X[.[.).D.D.f.~.+XF.q.O.,.V.D.q.q.w.q.F.m.i.,.$XeXD.a.O.o.-.,.w.p.w.G.F.,.f.q.w.<.a.q.i.i.,.@.b w..X+XXX_.F.N ,.o.q.i.a.q.w.a.w.,.a.m.-.B.].m.N o.i.D.f.c !.'.i.,.o.B O.q.i.B.'.oXi.,.w.F.N.N.5XpX'.Q.F.{.@XM.@.; z rX'.-.N.p.$.w.w.@.V.$.H L f.pXeX&.o.2.K +.,.p.w.a.a.w.w.&.+.@.o.H N +.q.a.j.p.a.#.$.w.N.N._.D.B.oX,.+.o.&.,.m.o.D.,.a.N.w.w.q.B B O.@.<.i.@.q.w.q.i.e.,.,.q.p.f.D.f.q.u.m.G.w.&.&.O.$.,.u.q.q.,.,.e.<.w.N.N.w.i.i.N.D.G.G.w.0.q.a.D.i.q.q.a.e.w.q.m.i.G.D.G.f.w.b @.D.a.u.).^.e.w.m.e.w.e.e.e.w.q.q.a.@.q.w.w.k.w.-.w.e.w.e.G.k.w.-.w.m.F.e.w.w.p.^.N.m.,.tXtXD.a.@.o.,.,.w.p.i.G.~.,.f.q.w.w.m.q.i.i.q.@.b i..X+X.X_.F.V q.+.q.N.a.q.u.a.q.q.i.m.-.G.].m.N B q.w.q.0 !.'.i.,.o.B O.q.i.N.'.XXi.u.i.`.i.q.{.pX~.!.F.XX{.p.&.y L pX~.@.D.f.2.u.f.4.&.o.G L s.tX#X&.o.2.K s.f.u.q.q.!.f.i.&.+.@.K B N +.q.a.D.a.f.o.$.q.f.!.).D."
};
