/* XPM */
static char *_15fd3a07c8d4cab860a1e0e19a6fb8a[] = {
/* columns rows colors chars-per-pixel */
"512 512 256 2 ",
"   c #050302",
".  c #0A0604",
"X  c #0D0905",
"o  c #0D0B09",
"O  c #070808",
"+  c #120605",
"@  c #120B06",
"#  c #1A0C06",
"$  c #130E09",
"%  c #1A0D09",
"&  c #1A0606",
"*  c #151107",
"=  c #1B1207",
"-  c #16110B",
";  c #1B140C",
":  c #1E190E",
">  c #1D1A09",
",  c #161312",
"<  c #1C1611",
"1  c #1E1913",
"2  c #1D1C19",
"3  c #191519",
"4  c #110F11",
"5  c #230D0A",
"6  c #270B09",
"7  c #22150D",
"8  c #2A140C",
"9  c #23190E",
"0  c #2A1B0E",
"q  c #241306",
"w  c #33190D",
"e  c #221611",
"r  c #2A1611",
"t  c #241B13",
"y  c #2A1D14",
"u  c #251E19",
"i  c #2A1E19",
"p  c #321D14",
"a  c #331E19",
"s  c #381814",
"d  c #350D0B",
"f  c #262015",
"g  c #2C2216",
"h  c #26211B",
"j  c #2C231A",
"k  c #2E281C",
"l  c #2E2816",
"z  c #322316",
"x  c #3A2515",
"c  c #342916",
"v  c #32251B",
"b  c #3A261B",
"n  c #34291D",
"m  c #3B2B1D",
"M  c #3A2A16",
"N  c #3C311E",
"B  c #393119",
"V  c #2F220E",
"C  c #252422",
"Z  c #2D2621",
"A  c #2D2923",
"S  c #2C2B29",
"D  c #322721",
"F  c #352B22",
"G  c #3B2D23",
"H  c #342E29",
"J  c #3A2F29",
"K  c #3A2621",
"L  c #3D3124",
"P  c #35312B",
"I  c #3D322A",
"U  c #393326",
"Y  c #3C3833",
"T  c #30302E",
"R  c #221E21",
"E  c #461915",
"W  c #4D1512",
"Q  c #422D1D",
"!  c #45271A",
"~  c #43321E",
"^  c #48361C",
"/  c #55291C",
"(  c #422E22",
")  c #482B24",
"_  c #433325",
"`  c #4A3525",
"'  c #453925",
"]  c #4B3A26",
"[  c #43352A",
"{  c #4A362A",
"}  c #45392C",
"|  c #4B3B2C",
" . c #523B26",
".. c #523D2C",
"X. c #56392A",
"o. c #453A32",
"O. c #4C3D32",
"+. c #443A34",
"@. c #523E32",
"#. c #5A3D33",
"$. c #572B25",
"%. c #6A342C",
"&. c #62251B",
"*. c #4D412D",
"=. c #4C4127",
"-. c #53422D",
";. c #5A432D",
":. c #58472A",
">. c #4E4134",
",. c #4D433A",
"<. c #45413A",
"1. c #544334",
"2. c #5A4534",
"3. c #554934",
"4. c #5C4A35",
"5. c #54453A",
"6. c #5A4639",
"7. c #55493C",
"8. c #5C4A3B",
"9. c #5D513A",
"0. c #5E512C",
"q. c #624634",
"w. c #624B35",
"e. c #624D3C",
"r. c #6A4E3C",
"t. c #674838",
"y. c #64523D",
"u. c #6A533D",
"i. c #685639",
"p. c #73583D",
"a. c #6A4930",
"s. c #67562E",
"d. c #4C4843",
"f. c #554B42",
"g. c #5C4D42",
"h. c #554B46",
"j. c #5D5144",
"k. c #5C534A",
"l. c #56524B",
"z. c #5B5753",
"x. c #624E41",
"c. c #6A4E42",
"v. c #645243",
"b. c #6B5443",
"n. c #6C5A44",
"m. c #64554A",
"M. c #6A5649",
"N. c #65594C",
"B. c #6C5A4B",
"V. c #665944",
"C. c #725643",
"Z. c #735B45",
"A. c #735C4B",
"S. c #795E4B",
"D. c #785946",
"F. c #6C5D52",
"G. c #655B53",
"H. c #735E51",
"J. c #795E52",
"K. c #794C41",
"L. c #6E614A",
"P. c #75614C",
"I. c #7B634D",
"U. c #786547",
"Y. c #6D6154",
"T. c #6B635A",
"R. c #746253",
"E. c #7B6453",
"W. c #7D6954",
"Q. c #74655A",
"!. c #7B6659",
"~. c #7C6B5B",
"^. c #75695A",
"/. c #7E7158",
"(. c #796D62",
"). c #7D7266",
"_. c #78736D",
"`. c #3F413C",
"'. c #86503A",
"]. c #89584B",
"[. c #84684C",
"{. c #826653",
"}. c #836A54",
"|. c #836C5B",
" X c #8A6E5B",
".X c #896B55",
"XX c #84725C",
"oX c #8B735C",
"OX c #8A7456",
"+X c #94785B",
"@X c #906E52",
"#X c #856E61",
"$X c #847363",
"%X c #8B7463",
"&X c #8C7A64",
"*X c #8C7B6B",
"=X c #86776A",
"-X c #917663",
";X c #947B64",
":X c #937C6A",
">X c #9A7C67",
",X c #887C72",
"<X c #947C6F",
"1X c #A77768",
"2X c #AB6356",
"3X c #AB6358",
"4X c #98825C",
"5X c #94816D",
"6X c #9B836C",
"7X c #9B8566",
"8X c #8D8275",
"9X c #948473",
"0X c #9C8572",
"qX c #9C8A75",
"wX c #9C8C7A",
"eX c #958879",
"rX c #998B78",
"tX c #A3876A",
"yX c #A38B74",
"uX c #A38D7B",
"iX c #A78A75",
"pX c #A4927D",
"aX c #AA9479",
"sX c #AE9475",
"dX c #AE996E",
"fX c #C48677",
"gX c #9D9283",
"hX c #9A8D81",
"jX c #A49483",
"kX c #AB9A85",
"lX c #AC9C8A",
"zX c #A99784",
"xX c #B39C88",
"cX c #AD9B8F",
"vX c #AFA18D",
"bX c #B3A28D",
"nX c #B9A48A",
"mX c #B4A593",
"MX c #BAAA97",
"NX c #BDB19D",
"BX c #ADA293",
"VX c #BCB1A3",
"CX c #C4B39C",
"ZX c #C7AB96",
"AX c #C7B9A6",
"SX c #CABAAC",
"DX c #D5A493",
"FX c #D3C4AC",
"GX c #D6C9B6",
"HX c #D2C6B5",
"JX c #E3D3BB",
"KX c #DAD1C4",
"LX c #E6DAC7",
"PX c #E4DCD2",
"IX c #F1E7D3",
"UX c #F5EDE0",
/* pixels */
"O.V.4.aX7Xi.p.' ] sX[.3.W.W.I.4.[ 8.8.2.1.1.L 1.y.} g l c 4.V.3.4.=.] { 1.Z.}.} | 5.y.y.-.t ; @ ; @ o X . . . .     . . @ : ; o . e e t : @ @ X $ ; 1 g g t ; % $ = ; @ @ X . . . . . - - 1 m ; g L G L 2.G g j n c _ L j ' 5.| } [ e.@.4.e.[ L k e $ j h I y.l : g f u n n c L 8.y.4.m y j c u G I k u u u v c L 1.3.O.c u _ [ [ | 1.5.A.P.4.[ L e.oX0X%XC.I.2.A.A.] ] L 9 y m m ;._ ` n.b.e.1.2.E.E.E.B.R.2.N.b.1.B.b.v._ G G y x.v.A.b.w.` f 2.A...Q y.G 0 0 f z _ ] 9 * * N @.e.4.] x e ` m n ] 1.5.1._ j | ] z m 0 0 n 0 m [ [ G n m b : X f G c g n L [ U k t f g 7 1.[ f n n _ G n } g g ] [ ` m L m ~ ] 2.` ] | 2.Z.u.] y _ ...._ 7 9 z y v ;.;.;._ ; e k [ Q _ m n b @.5.I n n :.*.l c f ; t p v w. .m ] n 9 | ] _ -.3.g ; c _ G  ...r.w.X.b @.6.| ; * n t g ' y.4.[ g c t | | n : z g 9 ; e | ] ] n n _ t ; @ # ; X * 9 | 8.' O.G $ : e g _ 5.z 0 7 7 y j j : e f e f L | 5.m j e X X @ . . - X $ X . . - u j 9 @ g - @ ; g g g @ $ ; e f F ] ~ 9 * m L y.n.v.8.| t j j n u f U u f k f v n G I n F j U V.%Xx.O.8.@.n e t l n j L - ; t y = @ X .     ",
"} O.i.;XyX@XZ.] Z.Z.U.8.U.}.OXu.3.V.P.v.4.*.-.n.1.' B t g u.v.4.n.4.' | -.4.] U L O.] 3.L e 1 - e ; @ @ . . . .     X ; - ; 9 @ . 1 j l t : @ X : ; e g l t 7 @ $ : e + X . . . .   . @ - f n 9 ; n N _ | c t i n 9 f L g l L [ 5.v.} Z.5.} 4._ n e u 1 t G L 9 : 9 g u n j n _ | 2.4.n z l c u G U U F u j _ n b | @.>.j t n [ | | ] ' v.A.8.[ F G O.b.v.w.E.1.{ 2.[ m | @ 7 ' ] ' ' _ 2.t.2.1.2.e.A.x.5.8.R.B.B.8.O.| ] 4._ [ b _ ` M.E.q.2.;.E.n.e.6.2.Q y ; f g y.@.c 9 g n G | r.-. ._ z Q m ( ` m { G L 1.2.Q ` m z m _ 8.O.I F k i ; : - L O.m j L n y : @ e g l l g l t u i n | | L G c _ ' _ z [ { -._ 0 m ~ m -...w.5.v _ ` ] ` g z g t 7 ..` m n t : L ' c 0 9 y m ] _ L n | ] 3.] L g t ; p z ` 2.` m c - e L ' -.G e 1 j m m | i.C.w.X.@.` ..{ = = ] f ; m 3.[ L _ c L G _ n t y c @ ; l m ] | 9 n f 9 @ X @ ; @ + . 9 _ ' | G t 9 | g n _ 8 8 m ` _ g g 7 $ ; j f g v L n } U u @ X . @ . . . @ X @ z n c j : e @ ; ; c j t @ X ; g e 2.b c 0 c n 0 P.y.n.v.1.v n [ 7.} 1.v.U n L 5.G G [ f F f F 5.O.| 8.>.1.m | t ; ; n ; 9 - . $ ; 9 = @ .     ",
"G >.L.oXOX:.3.+XU.p.u.y.V.}.p.I.P.n.I.W.w.L =.| ' l t 1 u N 4.4.8.4...4.] -.4.L G F L 1.z ; ; ; ; $ X X . . X .     . : @ $ ; : ; i ; j t : ; ; @ ; : t f f ; $ @ 9 0 @ @ @ $ . @ .   - ; ; $ : ; f *.l v @ : j i t : l f n e c 5.*.G ' L 4.4.n e t f j u g u $ t 1.L t ; j F j y u _ e._ t g t _ m j L [ U j ~ n n c G f v v [ 1.1.[ O.1.A.W.e.} G _ [ F [ ] | n g ( L _ @ e c  .n g f _ 2. .w.2.2.1.| 4.@.V.v.B.7.G G _ .._ } 8._ | ..b.r.y.e.}.8...3.-.` Q G | G n 3.f - ; g _ m | _ ' q.Q ` ` m _ Q _ ' =.| 8.8.e.8.8.@.5.6.6.| [ O.} f - t e g n c n t ; ; X - u g u u e t j n k 1.[ v m _ ` [ ' m ] ` ] ` c Q ] ` w...] ] [ } ( { ] z z 7 : ; -.] z 9 : : n _ m y z 0 { ] t n n n U | ` c c f ; 7 _ ^ w.| n n 1 c 1.i.-.f - g l b m _ i.Z.b.w.4.2._ ` y ; g f g G | n F _ L n 7 n t j ' m $ : m z m i z t f f = @ ; - = * . . t y g c g i _ } g y b | x.v.8.| | n e @ : e e ; g G [ n $ o X e ; @ . . . $ : c n _ j l c . . X : : @ $ . ; t 1 n y 0 7 9 } : *.2.2.u.4.| L _ n.W.W.B.O.| b.}.1.F B.Z F n n U ' n } ' } ] ..L * y g 7 t : @ X X e ; X .     ",
"n | V.oX}.=.i.dXp.u.I.b.n.W.y.n.n.v.y.I.m ] ] 4.n n e t i n e.y.i.u.*.4.-.' V.| U U L =.m t : ; - ; . . . X $ .     . o ; ; ; t e t t f t : : @ @ @ $ 7 ; - : $ . 9 t : $ . .   @   X X : @ ; t - t [ L t * @ e G n ' u k n F [ F n g } | } U g u F I j [ F i e f n j * X g n m y z _ _ :.i t - } L c G 4.G j i 9 f _ ' i L m G [ } [ 8.v.v.P.r.v.1.} j i I [ b 7 ; c G c N f u f j t c z [ r.2.] ..| | 1.1.5.5.6.7.L n | 8...| b.A.....w.b.m ..r.-.m m ..L L c ` m e t 9 _ ~ : n ] 4.n c 8.2...] ..` 2.e.1.1.| '  .4.e.e.8.5.4.e.5.1.6._ j e g t L n n u v j : $ g n G L j 1 ; j n n L F j n _ c j y j 8.-.` ` n  .] _ q.w._ m G b v m ` _ ] y : : :.w.~ m : : y g m m ; t { -.| L e f t m t j ; e * 7 ;.w.w.m g c u j _ 4.1.j - 1 n m _ ] w.Z.y.r.@.2.] ~ _ g 9 l i n 2.1.j } _ _ e @ - 1 _ | c L ..] ; 7 e v _ ..n @ m z . . : : @ $ : j j F | G 9 n G | O.O.x.>.O.| F e 1 u @ @ g j k t 1 t u 0 u : - X X ; ; f c m n j 9 @ X . . t g : @ - o 9 j ; g z g n n N j i.*.| F *.5.E.6X%XH.V.E.|.I.6.O.F h X u ' V.l n i m m 8.q.m y i n c ; : ; $ - : $ @ .     ",
"_ 4.OXOX7XU.I.[.U.p.Z.XXy.b.2.P.W.n.4.y.3.' ] 9.N G j n L ] j ' _ _ ] 4.4.3.4.] } 8.U | _ t e 1 @ X . . . . o $   . . X @ e : ; : e e t t u % @ ; @ X . . X % ; @ e e y : $ @ . . X 1 @ @ 7 t f - t 9 k v . X * n L ' u ; } [ L _ c u ; e f j j l n F u t ; < f j U [ 1 1 G [ L = 3.] ] -.m t X j [ m ~ m v f e 9 -.5.O.L N z e l | O.8.b.>.E.%X|.E.V.g.H.v.| O.v % g _ _ 1 u ; t j 9 : j G 1. ..._ 5.2.b b >.b.c.x.m F O.8.5.@.r.r.` # Q ( 1.-.w.` G n G c | c G ' y ; u m F y 0 _ | t 1 ' ` { _ _ Q ] ] { ..4.| | G 1.v.5.v.g.b.v.O.*.c i L n t n f j L c g e 1 n n [ L k 1 1 9 g f : u f n j g u i y ] -.-.m c Q _ q.2...G y b L _ [ ] ] ` c ; : c y.w.*.m 9 1 j ; : ; t ( 2.b.| F g N n < u : @ 9 9 m 4.Z.n f j : l ] ' m m : ; m ` _ w.4.;. .@.1.1.b.` | m g z z y ] | i ] m n c : t @ : i j ] 5.1.y 9 j O.6.5.[ t g z @ : n f ; ; * : n _ ..c g n [ G u g | U G G u 1 - - @ - ; : j u l 1 ; G u ; - X o 7 1 G _ m { j : * % $ X ; t : - X $ e n g t * L c z : t y.P.' l 2...P.W.B.e.8.e.b.b.v.| I u , f ' e.H n j u f G ] G t 7 9 g 0 ; @ - @ @ @ @ X .   ",
"v.B..X7X+XU.p.tX+Xw.i.n.| 8.V.L.n.R.V.Z.w.] ..] ' :.L c ' | =.i.] n G i.i.' 1.| >._ [ G ] g e 1 $ @ X X . . o $   . X ; @ @ ; @ 9 e f - 1 1 @ $ u : @ o $ ; ; : 7 y y y : ; - X . o - ; t t z 9 * - : o - $ o - = G _ e f L | | } f : - - f v t k L F 1 - g h < ; k U f 1 L L ' g ' _ L G L L $ k 3.G c m k g g m 5.B.8.L n n t g 1.8.v.v.1.n.oX%XR.E.R.|.v.1.M.| c -.b.w.n e g n n U z G 8.b.X.` c _ _ _ G G v.| G G v G 5.e.x.....b.A.b.e.2.2.2.] G  .{ n L u ] | z y ; g j n 0 z ] 9 - m -...1.8.8.A.x.1.8.| _ L F @.2.| -.8.I.6.L n b g e c n L j j G j g t j c c G v h 1 g : 1 e t u g n n f j g n N -.4._ z ` ] ` ;.;.m i v | _ _ N m | c ; - c -.u.2.[ t - ; 9 0 * y y  .u.8.U ' u.| L g 9 ; t l n 4.b._ 1 f ; y ~ c f n g ; g f t -.] 3.] ( ] | 6.v.x._ ' c = m ..@.] O.g j n f i _ * 9 n N ] 1.y e c G 5.x.[ j 9 : _ _ ] ] c t @ t j L O.j e m L j f - t e g k X ; u ; $ ; j ; - - g : ; G j ; @ $ X 9 : g j i j 1 @ : $ X - : t u f ; ; - e f ^ * y t m z f 1.g.9.L _ ] 5.4.1.`  .] Q m _ 1.I u h : n 1.u.| _ m j c G j z j g m j : $ ; - ; : @ $ .   ",
"B.P.+XaX+X.X+X}.}.y.w.1.G L 3.>.9.P.b.y.r.4.2.' _ L u j ] -.*.l ] _ -.w.y.4.| B y.| L l ] n e : 1 t $ $     . X     X X @ - - - X ; ; ; - ; * . ; : 9 9 7 : : * @ ; t v ; ; ; - . . h U n 9 9 1 ; ; ; $ - : * @ t j G I [ [ 5.O.L e g e $ ; U L F F j ; u u - - u n k f g L g L | ] 4.` 2.1.G ; i >.| v G k j n f [ 4.4._ G N j 1 } 8.v.7.1.V.oXE.n.|.|.A.x.8.%X!.b.b.r.4._ c u.1.] } | ..@.t.` m c c n z b n } L i U D G 5.] ..x ~ ` 2.r.e.c.w.b.{ m 6.] _ G v { m z i ; t n n g g m m t ..>.8.v.4.b.B.V.b.5.F L 5.F 5.4.| 8.2.4.m U c n e - v v j c F i : j n n G L n h j k < u t t 1 e j } j u G U z z ` y.w.2.| w.^ ^ r.m : v G m ] m | ..z : u Q G D.y._ f - : j y $ t c ;.w.' n | n.| _ l t ; c ;.m 2.A.*.t : - t t l g m g ; l f t _ ] 2.` { ..( ] 2.2.g _ n n n | 1.| L : ; n N e n * ; ] g G ] L c G z z @.] j 7 : ' } 1.-._ c @ ; ; n _ j ; n G G : e 1 - - ; $ $ ; e : ; 1 n v : - $ ; i j : - X . * : ; 9 : j - @ t e . @ = ; ; u ; e ; e g -.m - 9 9 7 M 1.Z.' y._ 3.1.x z 9 Q w Q z m [ F I j h g | ] } | m _ _ i ; t j v y t : $ ; - ; ; @ X .   ",
"B.XXOX7X7XOX+XZ.b.y.:.L j j U U j >.>.3.} y.3.*.y.u.n e t j -.f f ' | 4.Z.4.| m 3.4.' l ' c e 1 1 e - @ .     .     X X @ . : @ @ . . X X @ X X . @ @ ; : $ @ @ @ e e i : : : ; - o 1 l n g t ; 1 * X X ; t * @ t n F | [ j [ 1.L I I < $ ; G | v.O.k ; j v h t n n m U 8.1.1.U ' _ Z.8.L 5.G < h 5.4.I U F } U c G e.4.| n c j y } b.B.m.v.Z.E.5.O.I.W.|.4.8.A.M.A.b.n.4.] 3.3.G 1.[ : X c m 0 V m _ G v i F F v F j F _ ..b.v.u.b.I.b.2.` 2.w.Z.v.5.b.b.8.| i n G m z u i ; : e l ; @ : G 5.B.8.[ 5.v.v.N.g.>.x.7.L O.8.7.n.}.y.G L j n u - t y e g n j f U f n j j g g g G u ; 9 t u f f n n F j j c z m ] b.I.E.I.I.#.` _ j _ L L G G | ] ' : j ' ] w.-.| z ; 1 g f 9 @ y ` ` m L v.Z.| ' z t ; c 3.g Q 4.*.n : : e c = L =.7 9 0 0 e -.3.:._ b m _ ..b.] g :.-.m n | 1.n n - - j n t 9 : ; ] 4.| _ c G { m m _ m ] L z c -.} b f n $ : t g ' g * * n : n : e 1 ;   o ; X @ ; - i t ; : . @ @ ; t 1 t @ X @ t m n ; - X . n j ; e i ; : 1 i j t i n Q 9 9 9 V y t *.] m | r.3.~ ; @ 7 x ! p m 5.} F G U L L } _ n ' G ' ..c - ; i b m 7 9 ; ; # = $ $       ",
"m.P.oXtX7XL.2.*.1.2.>.L u j k u < f k F [ 3.3.| | y.-.t 9 e n N ' l 3.4.e.3.3.j ' V.3.} | n t e t u e o .   . o     . @ o o ; ; t ; e @ . @ . o X . . : t f * @ : $ e u : t : ; - O X t c 7 g j l > 9 @ = ; * . . 9 n n F >.' L u : m c : g c _ 4.n n n j e k k L U l | 5.3._ L c L w.5.3.G f 1 Z >.V.>.1.>.>.G F L v.B.8.U b n m O.R.|.E.B.P.n.e.3.E.|.E.B.x.1.O.A.A.A.2.4.7 b | O.] t - 9 c 1.r. .` Q G m i F I F v z | Z.E.M.b.E.;X-X}.A.w.2.' r.x.8.5.[ G 7 0 c c ] _ y c 9 9 t e @ : G m.%XN.I n G G [ I M.&XR.7.R.E.R.b.|.Z.G | j g j u t c z l c U G n F n g t t u f _ t - ; g j n c n U n n m g L _ 2.I. X}.A. X|.w.2.n _ } | _ G ] .._ 1 k _ 2.8.4.3.c : u j g 9 = 9 m ` c L b.b.| L _ l : 9 -.t g } 3.n 1 - ; f z N -.j : -.m g _ *.:.4...] | 1.A. .m -.5.] ] _ ' i f - @ v ' c z c g ] w.| 1.G >.8.{ 5.| ] } ' c c z m y f j t ; X 7 l e ; o ; t l 1 t G ; @ $ $ . ; u : 1 1 $ : . X X @ . e ; * $ - e t ; g - . X ; g 1 z b g e u 9 f i i m m n 9 y 9 * : i.n.' n  .u.n ; 1 t p 2.b.2.4.| [ 5.5.O.j n L L g e [ O._ : u G | _ c i ; ; 7 @ X .       ",
"U 8.5XCXaXi.*.G _ } [ u e u f k h h } | 1.G m ' n ` u.g ; - t n N n n L *.9.*.' >.w.y.3.U j t - ; ; ; X . . . .     X X : - 1 ; e $ - e . X . . . @ X : f g ; @ e : 1 u c g f e $ O - m g : j F F - * 9 @ - @ . . 9 9 F k 5.' } G j m n 9 f 0 c n j c 4.L g f F [ L v L | n z -.G n 4.n.b.x.U < F x.8.5.>.J O.b v | 7.N.y.k n [ 1.O.8.A.e.r.XXP.} 4.W.|.&X|.B.5.b.b.E.A.L ' n * _ v.1.n : y _ e.A.Z.u...` z L L O.n y c 8.%X#XZ.V.-X.XA.E.I.w.r...w.b.| n L l j g L 1.b.8.5.O.L c _ L L g c U 1.5.G 1 y j i g y.v.P.|.0X&Xv.g.P.A.v.1.c t ; t u L m m v L 1.| _ } u : t u ; F n u f l j j t l [ n g L l ~ m [ A.>XoXI.{..X XZ.G 1.1.I [ n } ' G ; ; c G 2.e.e.L : - L G g ; 0 y N f g n  .p.` n j t e c m 9 n *.L k 1 e b _ n ..( 9 :.| j | N m w.e.] n -.e.| ' l 8.1._ @.| ] c $ - G v.] .._ ` Q 1.6._ G | 2.b { 6.5.1.G } O.L ; ; n _ _ k g g @ : u - ; u 9 n e e F L ; f ; ; - $ t f ; . . X 1 @ . X @ . * - 1 ; - c g - X 9 : g j u e $ ; ; @ n j L ' z f f g   y 2.P.| F | :._ ` 5.r.b.|.:X6X%XH.b.H.B.| : e | | _ t u u c t i _ | ] _ j ; e t - @ X .     ",
"F } V.dX7Xn.' _ O.' 1.F G L n v j F I 4.1.G L e.n m -.w.l g l n m n n f 9.4.8.-.*.P.y.1.] e ; - @ $ e - . . .       . @ * - ; $ - X . ; X @ ; . . o ; : 9 f : @ o - ; u j j u ; $ o k j : g g | n g t 7 = X X - * @ * f f t L } *.[ n e 9 t -.m N f ; 4.l e u u F G | | -.n m | L | [ v.|.E.O.< u g.5.F b L G j L G v.V.8.L j | y.O.1.1...{.}.n.4.9.XX|.%X|.E.B.A.I.b.r.c | n y ] b.1.j j g  .] Z.I.D.A.4.u.| [ 5.| ; ( 2.v.b.H.m.E.Z.e.b.w.u.q.2.` ~ L n | L 2.| i L | 5.5.} V y g t n n n n | y.O.n e n i g G >.1.~.0X$X>.,.R.B.b.V.O.f f g t n c f : } b.1.4.L f f : 1 9 g g l l ' n F g n 4.1.{ ' t f y | E.;X6XA.A.oX{.A.O.1.5.L n u b y n - : e u } O.1.O.- @ j 1.| m c 7 ] n t ..C.q.w.n 0 - 7 c t 0 _ n g c j u m ` z n m 7 n m g ] r.4.b.b.-.| @.1.G ' c -.5.] ` 1.5.b ; : j B.b.8...w._ ] | _ | 8.1.n m 6.} 5.[ @.5.1.| L G O.m g t t : - ; u ; e g 1 f ; F j i l 1 f - . o e * . . - t e . o . . . @ : - ; u u t g g g F n e 7 * - : - g n f g ] I 9 l ; f ' 8.[ f e L 1.5.b.R.|.5XqXyX:X|.g.b.!.1.u 1 _ 8.' c i ; G ' n m ' m G b ; j j 1 e ; X     ",
"Z k n OX4XU.` :.] y.U.u.U ] _ L n F [ 4.5._ ' *.L m ] Z...m n _ B e.1.n -.*.' b.3.5.b.w.1.t $ $ @ - - -   . .         X ; : ; @ @ X . X . ; : X X X . $ ; t e @ * ; ; : u f 1 ; $ - n h j n y U L G j : . X X . * . X ; t L I 8.8.O.| G G [ | f z f L 5.n @ $ 1 j _ } 4.] n n G U | ..| 8.8.| - i 5.{ n n G v j F ' _ 1.' ( ' _ O.O.1.>.3.E.Z.3.y.>.B.#X|.|.E.A.E.b.` u.n.z ' ] *.4.B.G g g g ] w.q.Z.A.5.P.b.1.@.2.9 ( | _ ` &XE.] C.y.v.8.r.4.G z m m _ G O.v.5.G g _ _ j : t ; 9 m f v _ >.b.%X!.O.g L k g j [ 7.M.~.N.o.,.!.B.5.5.v.5.4.b f - c n u j L 3.e.5.L g ; k j j n L L | F i j [ 8.b.@.| c t ] B.|.-XyX.Xb.E.E.E.8.e.5.U v u t n : $ c g f [ I | 8.F 1 [ v.2.w._ ( A.5.] U.I.r.` m g y y y t y f m n G L g m 2.y g c 9 7 9 u 8.p.;.r...m _ ] G _ 3.m c v ' { @.8.n e : e 2.8.5._ -.n | 5.O.1.6.| F F O.| ] | [ | 3.1.2.8.] @._ t - 9 o ; l - t e u : ; g i c L l f o X X ; .   X . ; y X   . : ; ; g $ - ; : g g G n i n _ [ t $ $ ; : L i 9 U L L l ^ g l >.2.' f ; : F B.:X%X5XqXpX0X|.S.A.%Xm.G - ; N 1.e u e G G _ _ 5...( j e e u e f t . .   ",
"h Y 3.U.7Xi.3.p.u.U.I.y.=.y.-.| _ ' 7.*.8.y.y.' 4.N w.w.-.` y.] ] 4.5.3.>.:.y.3.8.y.}.3.L t : ; - $ X *               . X @ X   . o . . . X - X . X $ e t 9 t ; ; 9 t @ * e 1 ; ; 1 n G n U L } -._ j : X o . - X X X - - j 5.8.8.| } ] v v -.| ' c n p.m : - f G L _ ' L F U c L 5.1.y.' L v , f 8.1.G c j g j k G N g m n n _ ] [ | *.e.b.Z.v.7.' 5.H.r.A.H.b.e.w.` Q _ ; z _ ] ' y.} G m c ;.w.u.w.] ' r.b.@._ b.w._ ] n o.E._ b 2.u.4.A.I.b.m e t n n 9 n 5.O.t c u 9 ; : g ; g n L u : t 5.r.2._ u j c _ n 1.b.b.m.,.5.g.Y.B.o.} 8.e.5.j u ; : u f n n _ 1.} F j 1 F >.F F N n L L G f g | | v ] c 9 5.$X-X-X XE.|..X{.M.B.B.} j v G ' _ 9 ; _ m n 3.O.O.6._ f | 8.y.w.L 8.tXn.6.:X-Xr..._ g g c n m m ~ g c F L j m ] n : G _ 9 9 t v.oX.Xb.] g y b y _ -.l N 7 m Q `  ._ v : e @.O.L c m _ O.5.O.O.| g c L -.*.[ f c } ] | 4.8.2.@.n F f : : @ i - @ n ; - f : $ e l g j ; X X X @ . .   e c % . X g f 1 g g j * @ g t n G k O._ ' 0 ; ; 1 ; c B m g t N y c m m } 5.g n c u ; v.|.%XuXxXxXuX;XoX X*XE.o.j $ : n u c i z g _ ] 5.2.8.| c i ; % : e @ .   ",
"1 F 5.OXtXL.u.Z.OX7X+X+Xi.p.Z.3.| ' n L 3.8.}.1.*.:.' _ c i ..2._ n c L -.9.| N L y.n.3.n : ; - - $ X .               . . . . . . @ @ @ . . * . . @ ; v F g : * @ * * $ ; $ $ X - j L G L n | | | | L ; . . ; e = : . - ; j } U G L ] u j n -.| e.m l 3.] c g n L _ _ _ ] } ' m L I v.Z.e.L t $ j 8.5.L i j u f c c | m t n | U O._ _ | 8.8.P.|.B.I o.z ..A.b.5.v.2.w.b.] m 9 ~ N -.' m G c ] N -.y.1._ w.' m ' g ' C.4.{ ' n [ 9 c m -.3.8.8.w.l 0 V _ L n G n m j g g u e ; t 9 V n n n t 7 n [ } v g : j [ 1.E.|.N.,.I j.R.m.f.I G O.8.v.} e $ t v t ; ' n L L f - - : g c n F [ j G n t : : j z L ( { u.%X%X0XoX{.E.%XuX XZ.4.[ F L 8.r...t @ t 3.| 1.Z.5.1.F j 5.b.v.] -.w.b.v.v.E. XA.}.y.c c m _ c y j e c G _ L z m c [ 1.m ; 9 $ [ Z.{.E.| = : ; 7 _ | t t 9 ~ u. .` ` G e ; | _ g c G 3.5.1.} | 1.| G | _ n m G n t ] | 5.@.8.[ [ [ F @ . . ; ; @ ; $ 1 e e e : e j j u e * : o . X . ; n = X @ . : ; : t g ; ; t z L f v [ | 5.O.f ; g k G ] ` l $ [ ~ =.I.3.l L f n *.t : 1.B.%X5X0XkX:X-X:X|.F.5.F : t e y t t e : $ ] | _ 5.@.{ n G j 7 @ % $ .   ",
"1 F 3.OX4XOX[.@XOXOX7X+X4.p.p.4.4.L F n O.n.:XXX8.4.] ] _ m j i l L L h [ ] ] 3.| 8.9.5.m t : ; - $ . .                   . X . X . .   . . X . X ; X ; e t * ; ; ; ; $ ; @ .   o m 9 c N n g _ L ] c 9 : ; * . . - ; $ X t g I n L [ G L _ ] ] n l l n | L | G _ ' L n z | | ] 4._ 3.2.b.c e $ F 8.x.G j u 1 u u L _ -.| G @.G m L } 1.4.A.n.Z.~.g.o.` w.E.x.O.] ..Z.w.4._ n _ m _ _ _ ' n f 0 p.] 3.L ..:.` ' n z ' n L f z i l m N c L | -.m c @ t n c m m i g g 9 g f @ = 9 9 : 9 n n g f n _ g F j j n @.e.b.n.g.O.7.N.(.m.,.I k U 5.8.[ ; ; G L @ : e 9 n F u @ $ 9 e e L 5.8.| I L j e t t n _ ` ..Z.E.{. X.X-X:X%X6XyXb.n n [ } M.}.q.g ; F v.I.w.b.| 2._ F | 5.} m -.]  .| 1.e.r.%XW.y.m n ( _ c m j G g c G g g _ G | 1.G t L X y 5.2.1.F f = i u L L y t t L Z.-.:...2.F 1 [ l c _ r.e.1.G k G I 8.' L F u : n y ' n | 8.@.| c n v n 1 X . - 1 e @ - 1 - 1 $ $ : 1 g v g o t ; X ; . @ ; 7 @ @ . y f : - - - * 9 m F t [ g.5.8.1.j f g n L =.3.g $ c 3.Z.oX$Xn.} g ] @.1 t I Z. X%X|.%XE.E.:X X3.L j m m m m m t - X t @.6.G j _ [ @.| G b t @ X .   ",
"A H V.7Xp.4X4X+X7XnX7XOX' p.i.] 3.' L k L P.:X:XP.] y.4.L ;.2._ y f n f G 4.' *.' *.i.} m t : - ; - .                 .     . . .     . . . X . X $ - . . @ ; - - ; ; @ X . . . X g n t n f ] ' ` ' [ b i - : ; @ * @ * t ; u n u j j 9 U } } m c l ; l ' v.v.L n -.v.[ b } | 1._ j F 1.e.c ; 1 G 5.[ j i u u t u v [ ] 5.{ | [ ' m G 8.8.n.E.v.b.V.>.5. .}.A.O...y.Z.q.w.2.e.] N u.3._ ] | [ N 2.w.C.' L -.m L } L B ; y e 7 : : g -.z c 9 m c m z : b G g g n u 9 u g : ; ; * ; f t i n : n | U u f [ m c O.v.v...| O.7.j.Q.f.+.+.A h O.7.F 9 : t n ; - - ; g u t * $ e n n N 3.8.O.I G n f c n ~ -.` N | {.oX%X|.E.H. X%X-XA.| F } [ 8.{.b.] g } A.w.6.m m @._ U I } G ` 2.' 4.F F | b.b.R.1.G c m .._ m G G G n G F v j G [ G I F f o f j G [ n G } = * n n j n f G ] ] 9 ] b.O.u m ] _ ' w.x.6.k - t F O.1.L t : y | n n n } | 8.1._ | m n j ; @ . l g : $ $ : - X ; v @ - $ ; i g g - - X X @ @ @ * ; u j @ : - . $ l t j f o.5.5.O.G n F G n _ 2.V.f X 0 =.P.XX;X}.[ t l 9 : j n 8.%XyX X|.|.|.;X&X| v n i f m | c n - X = G G G ; c i 5.e.| { z 9 .     ",
"h L 1.sXi.w.i.OX;XxXsXOXU.i.-.] c } >.U } y.&X0X*Xn.w.] n 2.y.5.N i j j c @.| G } _ -.} n : - X X - X .   .                   . .   . . @ X . . . $ ; @ . X @ ; ; ; ; $ X X X . $ 9 c z ' _ _ L c g L ' g v j : t @ @ - k : i t n G L e g o.4.| l n n l  .L G n 0 n | ' 1.G 1.c j j z @.[ i 1 < n F j j t u h 1 f f i G L } O.O.| m [ 2.b.E.E.2...m | R.A.q.w.1.4.m A.I.b.1.c | ' | } ] | 1.| m c w.D.-.G ` | 4.m | N : g c t 9 1 n _ U m L f t j _ g g m l n v c : ; ; : @ : @ i [ _ m G t m } m _ N _ m _ 5.A.B.v.4.>.5.4.7.I O.O.G u F F g e 9 ; : ; - X 9 f g g : g n [ n | 3.` } n v j j _ ] ` -...[ O.E.5X:X*X#Xm.~.R.:XoXg.O.5.} j.N.u.2.t | A.e.} L m ] m _ | G L G 2.| [ F G { 2.w.B.O.g y y -._ g c _ n g G [ F t F k L G 1 t ; - g y m G F G z i t F c c 9 0 g m ; n 8.| _ _ _ | G ] v.8.I u f G F [ j 9 @ c | g f _ | 6.w.| _ { [ j f f X . f : - @ ; ; - $ ; : . . . @ j c t - ; . X 7 z y u e u j ; ; ; : g n i k I G G [ _ g j G 5.V.E.5X=XU . V ~ i.!.E.R.x.h ] L t l n 8.B.|.E.%X6X:XW.B.3.| } g _ n L n n ; ; ; ; m c z n y n | @.G _ y ; .   ",
"L O.U.4Xp.n L >.9.nXsX7X[.U.w.` =.' *.L | } 4.-X%Xv.y.w.L ' 1.*.F L m n g b G -.| y.' i g - @ $ $ . X     .                   . .   .   X . . . . X . @ X . X $ @ @ @ X X X ; X i i c m m c l ] } e U n n n n : @ X X * - f e f k v } g 9 _ ..n f n l _ n ' u f | m c L *.3.4.3._ m c L y i ; - F [ j u 1 u t h e 1 : t v F } _ ( _ | y.I.A.;...b...` w.e...2.c M x 2.b.w.2.L g w.{ | 1.c L | ]  .:.;.' ' m 3.| [ y.1.1 n z t t g >.5.[ L m m g n n t ; : i e v z : c ; - g [ _ | Z.b...' z n | 8.y.n.1.g G 1.e.A.}.Z.x.v.B.5.k I O.I h F F L n n U k : : t ; 0 7 e n | 5.G _ n 1.j n _ : m b ] m | E.Z.8.y.XXpX*X!.R.m.M.>.R.%XB.8.B.m.8.9.e.| u 5.b.e.} | _ m c | 4._ n | 1.| G f L 1.2.e.5._ 9 y _ ( n 7 0 m n F [ 1.5.m : 1 ; e j v u j 7 l f ] L # G O.G j n n m m n _ m l _ m ~ 3.e.>.y g 8.| _ F n f f _ g t c _ ` g _ O.4...2.[ m _ } j 1 ; ; : ; @ $ $ $ X ; * . : g f X . 1 n G f ; . . c b b v ; : t 0 7 : F _ j v k b m 5.4.1.f h F ,.$XzXBXlX,.> M ~ ~ 4.%X:XE.>._ m N ' 3.1.t F | b.}.|.e.I.&X|.v.} m | A.B.c c g g 9 9 t c z = ; i G j G m $ .   ",
"| 8.U.U.0.t j | OXdX7XtX+XU.p.` n -.*.n >.U _ v.A.v.3.w.3.' _ 1.L n j n g f n U F N F n - @ * @ . . .     .           .           . . . . o X   . . . . X @ o @ @ X @ X . X : - : * ; N n z g ] m t n ' n f U n t < X @ - u : ; e e e g : e - u c t n : ; [ v j 3.L g n j | 4.4.n.| G >.L u 7 - f c f t u t u 1 : ; - e f F i n { 4.e.2.1. .w.w.r.2.2.......@.] m 1.2.1...r.L c e.Z.V.5.n n L -.` 4.-.| ] n _ 4.2.1.5.g m f 9 e i 1.6.*.] L | g g g t - - i g m b j _ y i b 5.4.x.B.B.w.5.[ | v.A.H.|.V...| 1.6.x.e.| >.v.n.| k v J I j F } L G l [ L j 9 e 9 : - L m _ 4.} : g *.] g n n | 5.4.[ A.;Xb.4.R.|.0X*XH.1.O.' L V.B.7.b.B.E.m.P.A.O.t 5.C.|.j.b.} g f | r.@.m ] 5...z 0 m 1.2.` ( z y c Q ` m ; n G G [ | e.n.~ g $ : y v t t ` g f ; _ O._ 1.O.} n i z ` -.7 ] m z m c ;.` b.6.f m O.| | O.G k I _ j e c } ` m _ | ' ] 1._ v b F h , o - : X X . : @ . X * : ; t l ;   $ f L u @ X @ f ( c j @ ; f F n X f n ; 9 F 5.4.g.8.*.Q y f >.R.wXmXzXA.F y i.` n.%XoX8.t L  .z -.] 1.y ; *.p.4.y.5.;XyX;XE.| ..n.;XE.| ; t c g g ; t 9 0 9 i f j i b t X   ",
"[ n.+XU.:.g < L V..XsX+XU.y.i.U.` _ ' U U U F } 5.3.| 3.-.L G n ' m n j g g j n L G F n ; . ; $ . . .   . .           .           . . . . - .         . ; X . @ @ * t X . o ; . : t 0 n N n n } 4.( m v G G U j g e ; X $ $ $ - ; t i t g e t t t ' t g z -.w.| ] m u ; t G | ' 4.G v 4.L g c ; e n t t e f f u : ; $ - e v n } 8.e.y.' ] -.I.}.n.y.y.b.4.1.8.4...] { 2.8.-.g t 3.8.{ _ G O._ c z ` ] _ L : | _ m G c h 1 y z j e b L L c 4.[ : 7 9 : ; $ t c m m u ' m 7 m m ..1.x.b.4.[ 6.8.e.B.V.v.5.G L O.} G L j 4.8.b.| F F F F F I O.G f n j j g L L L c 9 L *.$ } n t t m ' ` G L } b.R.1.oXuXM.| E.tX;X:X!.8.2.8.-.5.e.O.O.4.g.1.} 5.{ i 2.b.b.B.A.g.[ F _ ] | -.] ....X. .y m ..` ' m c m  .^ z t n i g m G [ U.-.t f e L ] G f m 0 9 n g G G ..-.| F t 9 ' ] u c -._ z m m n 2.| 3.2.O.5.x.@.G m ] } j y @ g c m ] O.O.{ ` _ G t f i 1 - $ g 9 X . ; u - : t ; $ - : .   $ g g u : $ g e 9 j 9 - : j t ; 9 : y . ; F 5.b.g.8.} | j m U >.|.wX&XB.U q 3.i.y.m W.>.9 ' | n n ' | } ' ` y.3.n.W.uXuX%X%Xv.*.v.R.n.1.n e t t m L y @ @ - ; i G c i j $   ",
"b.XXdXaX0.] 1 [ E.+X4XOXi.] n p.] L _ | G u 1 A I | =.*.3.4.{ j F G _ G j u g u e g j f - . @ @ . . . . . X           . .       . X X . . ; @ . .     X ; o . . . * e ; . X ; ; t n ; n n f n _ m L j l i ..I [ n g F F k @ $ - - ; - : j G u - j >.L n n | 1.j G G L G g n L ] L j _ [ v n j 1 1 n f f g z F G f ; - * 1 f G I } 8.8.| 1.] e.E.b.2.2.1...@...v.w.6.1.@.8.[ l t m 1.} [ [ } _ t g L N f g m  .g t g - $ ; g n j u z v | 1.b.F.8.m e ; n l ; i c y t m ( n : i i z ] 2...G e.b.8.e.8.4.} c n F c g t g _ O.x.1.} G F G F [ 4.G e f n g 9 n G l n n u F ; n L l | _ | N L n [ 8.O.F $XuXQ.[ 1.&X|.H.7.[ e.I.n.v.j.e.c.6.A.4.} 2.6.L c.E.c.8.c.1.I n i n ` r.2.] 4.r.] c z 2.2.m m m z #.X.N n t l g 9 g n V | e n j L 5.@.j _ m t g ; n e g ] _ 1 n g c -.t ; : z m _ c y g ` e.y.@.5.2.2.@.] | ] i g ; : v b O._ b p z z _ G G f h 1 h j n @ . $ f g < L - $ - . @ . X ; j f u t c c i t e ; G j * X @ = y X @ F | 8.5.1.c f n ] g L P.A.B.g.} l 9.=.t n v.v ' c g u v -.N y._ 4.y.5.B.yXlXqX~.E.n. . .5._ r.8.g.8.G _ @._ 0 ; ; 1 u v n z i @ . ",
"L.5XmXaXU.i.' ' 7XtX4X4Xp.w.c z N i z L L u - 1 I >.m ' c F n L m -.8.-.` i f e - f t 1 X X . $ @ . . . . . .         . X     . . o . X @ ; : @ .     . . X . . . X : * X $ t % i 9 - g ; B G 8.l t n g i _ | G G G F G b X 1 g ; $ . @ @ l n f ] n l c :.-.| t n n j z g t B { n g n m j k n 1 < j L g f j G _ F 1 - ; e u F v n 2.8.O.7.8.1.b.@._ ' ' 8.w.w.w.2.b.@...8.| N 9 m i L [ U G t z L ;.| f G c t ; 7 L u $ - g -.1.4.e g @.P.A.&X|.4.n u f n n ..] c i 0 9 y : 7 7 7 c m ;.b | b.A.8.8.8.O.| } _ m n g j | | 1.6.g.5.I F F } 2.3.m u L n : t v c G U : f n _ ] j N ' n n _ G _ G ] n O.$X~.5.I v.|.g.[ u 4.I.I.E.V.b.A.1.5.2.V.b.M.O.A.Z.M.F.A.5.U G [ _ | t.c.r.[.D.' L `  ._ 1.] z q #.C.m N ; : t t @ # c _ c n ; n >.4.; z 7 g - - - ; y c g e _ ~ t 1.] t f c m n j . * 7 -.2.1.8.8.e.e.@.6.| z c } ' c m [ b c ( 0 [ O.| I G k n [ L } g X @ $ ; - g j g j e @   o * : e t 7 G n v i 0 g : c n . . @ ; @ $ k [ 1.5.1.n f * l 1 l b.%X{.A.O.N y z g j U f j | n 4.v.8.3.y.| E.%XA.&XxXkX:XB.1.1.;.] q.x.|.E.!.|.g.@.e.1.t ; ; t i G v u e .   ",
"V.}.lXMXkXOX3.y.7XdX+X+X@Xi.:.c f t j *.n 1 1 1 F >.m G v u g m G | y.O.U c t e - f f f < - . - @ X . . . $ .         . . . X X . @ . . @ $ @ ; ; . . . X $ $ X X . X X O o @ ; t % @ g c l [ G m : n n i ' O.L m j G } I G [ 1.O.k X @ f : e j n F F n 2.4.N n % G L t L U L L G n u n f j G < $ F G n G v L | G 0 : f f k n n t ] O.} L 2.5.2.3.] _ | r.n.v.2.v.b.b.b.2.~ n e m n 9 b F v G _ L _ ] g f n u = i n c u j G | _ | i 1 _ -.-.w.A.3.L k _ [ 8.b.4.| n g g 0 = z g 9 t l c i v | e.g.b.e.b.B.B.N.O.n g g _ { 5.1.5.v.7.G G { 1.] _ m n n t n L ] e.4.G l t n U n n _ _ c j L _ j ' m i m.%XB.[ O.R.R.G F B.}.E.B.8.v.8.O.I ..y.|.n.1.&X.X8.N.<X*X5.I O.' G | _ t..Xu._ m -.` z u.2.p 7 b ;.c z ; @ t f - ; ~ w.y.' f c m ' - c m c 9 ; @ - i : ; ; n ] t | | ~ ` q.| 2.L ; 9 ; ' ~ } | O.8.5._ { { G ..| _ c [ [ 1._ b v F _ 8._ v F [ | @.| G ; o X ; 1 ; t t G * @ . $ $ ; u G z c m y u e 1 : 1 t : X @ ; = ; g G @.@.| g ; 9 n e F A.5X|. X7.` ~ e $ h i n i V.| b.0X~.3.O.| %XkXpXqX0X:XW.Z.m 3.-.G y.A.-X|.E.B.1.[ @.[ 0 ; ; u v G t ; X .   ",
"1.n.0XbXnX7Xc.+XW.dX4X[.@X4XU.~ L c n ] ' v f h F g.*._ v f : j n ' ] L L u f u 1 u f k j : $ - ; X . . . . .         . . X X . . X . . . $ : 1 $ X X . . @ X . . . . . . X @ $ G ; ; t m n n l y ; t e 9 m _ c } } G b g | L | [ j 1 - @ ; g f v n G b 1.} n c l | F ; n n n | 4.4.n t t g g < , D 5.| Q m [ m n f f U j f g u t v L n G _ { ....5...[ A.E.1.4.1.2.B.b.b._ g 9 m m c 5._ L _ ..' b c f G G | 2.4.| { c j w.| -._ g : l _ 2...4.| n j c G v.|.b.c g m f t 9 9 9 9 : 9 g c c b ` 1.8.b.~.|.~.R.8.v c _ | @.6.1.[ } >.L _ | [ | 2.>.n 9 n =.*.8.Z.b.1.G u f n L n t c v n 6.| j ; : [ O.5.| _ V.!.#Xm.Y B.6X}.V.4.g.5.>.5.V.v.A.J.O.|.uXR.7.!.:XM.O.O._ F _ Q X.[.4.l L r.x ` u.` m p z r. .` 0 @ : ; ; L w.u.7.9 l f ] m ; c N _ | U ; e ; * 9 * 9 9 y _ 2.8.] b x ^ m 7 z f t z ^ | ] m 5.O.c n m | @.m | @.c 5.e.` 4.I [ 1.5.I I 5.6.1.( 1.t f - - . - e $ k : ; - . X . $ h n = t t - X - $ X : t i ; @ X @ l L 1.| _ c _ y L N _ 5.P.E.B.8.' 4.z ; j n L n y.3.8.XXA.g ' ' W.%XkXpX~.y.| ' 3.4.4.m [ b.|.!.8.n 7 g g g y ; : f v v ; ; . .   ",
"1.B.}.tXMXxXI.4XtX[.+X[.+X+XOX-.-.m l L n u l 1 h 7.v.n u j f t y _ } c _ v u 1 t F F } j t - ; - $ . . . . .             . . X . X - . . o ; - : 1 - o . . . . . . .   . X = 7 G _ 9 ~ ' L l t j 9 e @ f b p | g.g.1.B.O.F } } >.| U u : : : t e : n ' | n G n t c F t _ 0 j -.b.3.| e y m u $ $ G [ ] ' | n _ } n _ ] k u f u u g t n _ ' 2.] ' -.1.5.w.2.Q { x.M.~.A.v.5.h g g u ; F L _ ] 2.x._ F F 1.x.2.b..._ 8.| _ -.| L m g 7 m { u.2.1.| G u e g _ e.5.y g g 9 7 7 f 0 t - ; 9 c f z z z [ b.|.$X%X~.B.[ y _ 8.5.5.O._ [ | [ } [ L | M.v.F n f n _ r.A.B.e.U f t n ' | | 5.1.@.[ } F f k v.v.O.| 5.~.:X*Xm.I N.uXtX~.R.v.O.[ o.B.n.8.u.O.A.0XQ.j.E.b.5.5.o.I 2.` ` ` p.-.g f 2.^ ! ;...y y ( ;.u.r.m ; ; t t :..XiXE.v y y ] n @ z m 9 G v - t @ ; ; n b 0 g x 9 ] ] c V  .` ; 0 : c z ` 2.1.~ ] { g 7 m ' ] z ' g.} _ ] ~ c n [ 3.2.@.O.8.{ @.1.] n k i : . X t ; v u @ ; e $ @ X . f u y t ; . $ $ $ $ f f e . X X 9 b ] | G c m g G _ _ j V.4.5.1._ | 5.f f L L U ' -.N | y.n | *.*.| A.|.4.L m n _ ] 1.m L b.|.H.5._ g z j g y = : f j e @ ; X     ",
"*.8.I.OXtX6X|.+X6X+XsX+X4XU.:.-.=.c g N n : : , 1 G 3.' m n n n : l } g G j f 1 j L n L j g : - ; $ . X X X X .         . @ @ $ - @ - . . . X . . X X $ $ . X . . . . . . o @ ; } 1.n L _ ..' : _ n j : t m ( v.x.x.1.x.m.7.O.g.5.} } u ; ; - t ; c I G l u c ; : f n 9 n f g 2.XX8.} j F [ i - - F ' ] ] } G _ | b m ] G n L j u - - t v [ | 2.| L b.5.| | z 7.g.8.!.r.B.5.F G G u t ~ c | b.P.b.n.| u c 1.e.S.v.2.5.O.1.1.4.G e _ ] _ m 4.r.4..._ e e e z ] G m z l m z e l z m t l t g f j l m m O.~.%X|.$X|.g.n n 3.O.| O.[ | 1.| O._ G G x.e.4.O.[ F m 1.b.A.b.1.[ k g 4.4.n. X|.e.-.@.[ F f 5.8.2.O.x.~.:X%Xv.I B.yXyX|.|.v.o.| O.B.A.6.2.] |.%XF.m.R.m.7.,.@.>.b.[ c L  .m g z ` X. .b. .z y m ` ;.u.z = i y _ 3.[.}.v.i ` ~ m 0 @ ; g : G n $ u ; 0 z ] ..2.i n ` ] x ' ] Q m f * 9 =.= y ' { 2.m _ M 0 _ [ | ' 1.e.[ [ c m t ; L 2.3.2.@.8.' _ N G u 1 ; j ; $ g ; : - @ 9 i m e ; ; ; F G i $ X o . o o t f t : . . 9 e G D f j : _ j l i t g } M M ` y B n ; 9 B ..c n n g 1.m ' } i G ' I m j c e  .g ~ c n | n.W.E.6.L ..e.e.( X 7 t e ; : : .     ",
"-.e.;XmXMXyX%X5XbXaXaXnX7XZ.;.n -.t e j t g e e F L | ' ' -.] _ t e ( ] n [ h t L L j n c u X @ o $ O . . . X .       . . . o - - X X X . . - $ $ . @ X X . X . . X X . . . @ y O.1.O.g L L ] ' n i @ t g _ 1.8.O.x.A.M.H.H.V.B.v.O.O.F : g t 9 g g n t j g e e j n t g g y z L =.*.>.1.L } F $ 1 F | _ G m L ] G F n L ' _ j ; - - X - t j | u.A.b.2.| _ n j O.>.o.N.x.x.m.[ - G n } n _ e.b.Z.4.e.| v L 2.1.u.b.b.c.6.8.@.8.G n m ` m m m 2.2.3.] g u e i L y l t y y : 7 i i n m m n g c 9 t c ; j 7.H.!.R.B.8.G t ] } O.1.6.e.4.O.O.I G o.B.E.B.A.H.8.*.3.5.x.b.g.8.1.j | B.|.;X>XE.b.8.[ j e _ ' ] { b.E.%X$Xx.O.R.yXyX0X6XB.8.q.c.E.|.{.}.[ |.:XR.(.#X!.N.b.5.x.V._ y n m g u _ X. .;.8.| _ _ y Q w.;.0 9 i n y  .u.Z.2.c 9 ] c % ; y @ ; ] 1.t c 9 ; g m Z.A.G n v.A.e.{ ] ` Q g z X Q y ; 9 z 0 Q z c 9 _ 5.| 6.@.5.O._ c O.L t } ] 5.8.2.b.c.0 Q _ v u ; F c : : f t @ . . c n G e u . : f k 1 $ - $ $ o < t < $   @ % ; 0 ; - 1 y g u z g j -.m t y -.z N g j f | w.' z m n L _ -.| j n _ 3._ g g t N G m m m m 7.E.-Xe._ 8.S.S._ 0 = : t * 7 7 X     ",
"V.v.wXCXAXnXaX:XyXZXAXxX7XW.y.n g t g e ; n 1 u F e L *.f | 4._ g t c ' | L G j 5.O.h f : - - * . . . . . . . .       . . . o $ $ . . . X @ X : X X . X X @ ; % ; * @ $ . X % : [ 5.-.L : t L [ ' g ; 0 ; ; G G y ' @.-.8.b.V.2.| { | | c 7 ; n j e u F G A F 1 t u e c z g j y _ O.| G g L L , ; m ` ' c e g c v j L ] 2.e.| f - - * - ; j ..w.A.B.G m _ _ _ } } F O.B.H.g.5.| F L _ t | 8.2.b.6.2.1.| 8.A.E.w.2.5.@.} 1.[ ] c g y y 0 j j m m l g 9 f = 7 y ( G _ ] g u l c y g _ m m c t c b f z y v } 7.5.n.b.y.g m [ O.x.B.A.v.8.6.} } 5.m.R.~.$X$X|.V.| ] 5.6.x.b.8.L | Z.}. X.XA.b.b.| j f f g j | A.Z.W.P.A.M.I..XoX7XaX~.R.A.g.m.R.>X5X5.b.6X%X:XR.B.H.m.v.R.B.} l y =.N u 5.;.X.;.| [ G m m b @.] 0 m | z : f ` ` z ; : g m - e ' % i 2.A.L t j m _ n | w.c y -.7.e.[ m m z z 0 0 ^ ; X f ; * f g _ ~ y ' ..@.@.m { O.v G _ [ m m _ | 2.2.1.2.( e.F u F n L e - n j : . . b n j t 1 . - . @ e h i 1 1 $ t t - X X . . @ ; $ X X F n u g e Q 4.` N B m c : t m t L e.' g | F n n L n F F L u k n z ` :.;.m z 0 5.1.7.m.O...| 8.e.G 7 b g 0 = = ; .   . ",
"y.y.qXNXAXnXkXaX6XZXAXpXI.y.1.L f 9 t t t n < 1 h h L 8.G 3.u.} j 1 u G U F G >.L 3.*.n : X X * $ . . . X . . .       . @ @ - ; $ X X @ ; X X @ @ X X @ $ ; @ 7 : ; @ X . $ @ @ f >.] n 9 - c n e.n N e ; * F g n G g c i c _ _ ' | ..-.w.g t f k < o u j h 1 e e y t n g 9 9 7 i m ] G n n 1 $ - u z G g t b c t n y.4...] O.G : : - - : n 3...r.g.F } 2.| 5.} O.{ ' 1.x.@._ g.O.f y g L .. .1.....4.8.b.b.b.2.1.1.>.j g t c c g m Q m _ | | ] L z 9 y g y m -.( G 2.] ' m m m n c n G c 9 t i 0 t c 7 t G ] 8.I.u.n ` | 8.P.E.W.E.E.E.8.8.b.5.O.R.:X:X&XA.8.1.O.8.c.v.4.G 5.A.%XE.b.6.x.n.1.L t z y m 5.A.Z.A.A.{..X;X}.D..X|.B.R.E.M.8.7. X>X] _ 4.P.*X|.O.b.7.H.$X%Xm.L m ;.m y | b.D.` g j F ..Q b ..4.m j ] L z m t m n : 9 t g ; i ..m z _ y.z 7 l g :.4.| 6.L @ ' c y L n c z y ] 7 ` 7 X X - N : ] m _ ` G | 5.m 0 c { ] | ` | m n n | 1.m m _ m b g i z { ] U m F j u @ . j f ; - @ @ :     l U ; ; - ; < < - . X X . . X $ $ - c n : g c ~ U  .-._ 2.B B c n 9 y ] L L U j n G N G G n f j f e g z :.U.0._ 5.V.A.5.O.8.| m ..G t ; c z 7 @ $ e . .   ",
"| Z.6XbXZXCXMXbXpXbXaX7X}.|.| _ g l f g g : ; o - t c u e *.4.| L j h L g k j G G f n _ F - . . X . . o . . .       . . . @ X . X @ X X ; $ X : ; @ X - % : ; $ ; * t o . . X : : g g 0 g - l = n N n G g 1 n c c N m f n ; t n m m Q | 8.[ L j n j < $ 1 u ; - l G y l f y 9 y v n } -.n : ; $ $ t t ' _ y { G F _ :.4.4.1.` 5.j t 1 j u G ] ` 2.[ j n y.b.8.2.r.8.e.2.O.} O.1.} n i i j ] 2...] r.b.2.2.2.8.2.r.v.L j L u e n _ y.b.e.w.2.b.v.2. .G n _ -.2...] w.2.] G n n G n m n e g i e g _ y g y : 9 g ~ | r.` g ] b.B.|.|.B.E.%XA.b.M.[ n 8.|.:X&XB.4.y.6.r.e.1.L G 4.A..XE.x.1.>.6._ z z m _ -.8.B..XI.I.oX-X>XtXoXP.S.4.v.v.8.x.B.{.;X[ G -.5.g.!.5.5.} !.%XE.R.g.m w.m j |  .I...0 u n 6.@.Q ` X.-.m ` _ 4.y l 9 | F ] m ~ u ; ] m z k i g : _ ] y.-.B.A.O.t m ] x ; y c ' L ;.] ] g . @ @ m 9 ` X t g i m ..' 0 g c c y N m _ n t G | [ p m c z y y 7 ( 8.| | _ f ; @ . : t . . ; ; ;   . l t 1 1 ; $ $ - . . X . . . . X @ @ t z ; t -.' 9 ;.P.w.8.| :.-.N b c L U _ n n G -.g G ( m F j i u t n _ w.| ` L 2.8.g.8.n.5.m Q z 7 = f c 9 ; @ % @     ",
"c n.oXaXZXCXMXxXqX7X7XP.OXoXV._ j g 9 g j g ; - 1 u k _ j ' [ 4.' } k n L L | >.] j c ( n e - X . .   X @ . . .     . . . . $ . . - X X * $ . ; X $ @ X $ e t = ; f t $ . . @ 9 n *.U g c g t e 7 L i n n n j c y ' | 1.G e t c { ] ( _ 1.m n ; n L f < f G e : : n n i u e g 9 n [ G n g : ; ; X - g | _ _ _ { [ @.w.i.Z.b.y.| L n y L G e.b.] n.4.m ;.-.1.2.2.b.b.v.4.{ F i O._ n m i u n *.6.e.y.u. .| | 1.5.A.v.L [ G n : t L e.Z.b.e.b.Z.M.u..._ m G b.r._ m e.8.| m n n g ] g j G c i t t m z e ; @ 0 n _ { q.r.y b O.| A.2._ ] r...( b y t G 2.w.b.A.v.8.e.b.b.4.F G e.E..XE.b.5.I n m g m _ O.2.1.4.I.b.u.{.oX>XsX|.u.8.| O.8.5.O.e.S.S.G 2.] O.I x.c.5.O.v.B.b.|.|.} z n i | ` u.` g c g _ @.#...Z.;.` 2.` 3.' y._ n j m N z m ; m ] t : g j t : c ;.N Z.E.| t 0  .; ; 7 ` 1.' b.~ _ ; X @ = t e @ . X : g j | n L ' n e e z ` y c f g G } _ b m _ m [ _ 1.6.| _ F n ; $ : ; - X @ ; $ $     t v f 1 - $ $ 1 X . - . . X X @ @ : n n : t @.-.t ~ 4.b.n.3.y.-.m n m G | ] _ _ | 2.G | 5.' F L u 1 u n ..c -.Q n j G j.8.5.@.b g m c 7 9 y 9 7 : @ X     ",
"-.' W.xXMXaXaX>XZ.v.5.L | 5.| n.:.n 9 : F 1 - - ; L m L ' j L G n G O.f ' L L _ 8.L L ' j ; e ; X . . . o . X .     . @ X @ X . . @ @ X X X X @ X - : . : y t @ $ g g $ O X X e L 8.| L ` m ] 2.| ; ; m l y j u v _ G 1.4.L e | | G G _ @.L L F t n e u F ' i k e f : ; 1 t 7 n j F f e : : 0 t $ X t [ 1.1.` ] @.A.4.2.y.b.4.} _ G n 2.n 8.A.2.|.v.1.r.] 2.-.L 2.` ] 2.1.| | 5._ L ] n g u m 5.b.8.i.w.| _ m _ ..| G _ G | n e n 4.Z.b.v.r.y.b.w..._ n L 2.;._ G 2..._ ] ] G m c n c ..e.G Q t : g y 9 ~ ;.` ] u.r...j m j _ 2.e.w.b.B.A.b.{ z e y m 1.w.2.1.2.8.b.Z.6.n n | E.oXE.Z.5.k u m m n G 1.@.L } e.8.2.b..X.X+Xw.' 4.| [ @.} U 4.C.8.G _ 2.G L O.v.5.5.e.6.n.A.|._ 7 g j 8.u.` z z n g c ` #.w.;...2... .m .. .0 : j G g y 9 $ -.0 g e ; i = m n | m | e.O.c 9 = i : ; @ t i G n ] t m c z _ j ; = ; - m y c L } G y ; 9 = z n e - c G n | O.[ [ _ _ m 6.5.} n n n ; X $ - - u 9 - o . . . j v e t - * u ; ; @ X X X $ . X @ ; y e t : b c ] ] 3.E.E.R.@.{ ( 7 g g G 4.u.y.u.] _ L -.5.e G G u c L _ n n...m t t F L j t y m 0 0 7 z g = : @ X .     ",
"| | *XxXZXtX>XoXn.4.*.k j U | n.y.n t l G D j f g _ _ G _ t m c j _ _ L } ' G | 1.1.' L n t ; t @ . . $ X . . .       . . . @ . . . X $ X @ $ * . ; : . ; e 9 $ f c i @ O $ $ : | 5._ G b.| _ @.[ - $ t n c u 1 g j n *.5._ n 5.[ c m G ] n L n f v 1 j F n l ; - $ @ @ $ f ; i n j f : 9 g j j ; $ j _ _ 4.6.8.u.b.4...4.4._ L c L _ 1.n L y.e.A.E.b.b.` b 1.} _ z G ` ..5.4.| z l m c e g G @.8.1.w.| | 1.' i m G j L _ 8.' g t ] y.e.e.u.b.;.` _ G G 5.n.e._ m ] _ z Q w.4._ c n m 2.-.] 1.c y g e t c ^ ` 2.I.b.[ m _ } O.5.1.4.8.v.B.E.B.{ g 7 z 2.A.b.1.] ` r.A.8.n n | b.|.P.x.| u g L m n G } F F | 1.@.{ r.I.b.u.-.m 3.| _ ' L n 1.r.t._ _ 2.m m ] 4.4.5.e.8.r.b.E._ 0 ; t 5.E.;.` 0 c z v ( { c...` | _ 2.b Q 2.{ c i G n _ ` t w.4.c ; t k t ( n ' ' G O.8.m l i : ; e @ ; t 7 9 z l G _ 7 c } n - 9 - c t n G v.L g @ 9 . z = y n c I G [ [ _ O.| 5.6.[ @.O.n n g 1 X o $ : : $ - X .   . v j : e : ; : ; f ; X . X ; - + @ @ 9 9 e e j _ ] ;.V.5X6X%X3.N j 7 ; - i L 5.3.| 3.{ } B.H.5.c ' j | ] j m i.2.' g u t G G g * y m g ; c m 0 y # X       ",
"n 8.9XmXxXsXaXaX6XU.y.O.U U [ @.9.' g t e g n n n n v g n u t u _ n U n n m l L } G | F g g @ $ @ . . . . . . .     . X . @ . . @ e ; @ $ @ - @ . @ $ X @ : ; : g f t X X u ; t G F n | b.1._ 1.F 1 : : ; 1 1 ; e t g L G n u | _ } n k | _ L i 1 u 1 e u g k t @ : ; $ - v _ [ } j n j n U -.| j , Z O.y.Z.e.S.Z.e.b.y.;.f e k g L _ 8.' z ] y.Z.n.b.M.b.5.O...n m c m } 5.| c 0 g m G g y L ] | | | g G ' 3.z c m n n G L L t n | 3.b.e.e.2. ...Q m G @.1.] G G 2._ c Q ..2._ n c m ' 2.1.] 2._ i g m ~ m ..e.2.] m { 8.4.e.1.n n G { 1.b.e._ z = y ] w.v.8.2.2.A.E.E.4._ [ x.H.v.5.*.c n G v F [ G G O.g.@.{ { 4.A.C.C.] _ 2.| _ n n c O.4.C.5.3.N c m m ] 5.1.1.4.r.C.u.] ; j t L e.;.~ ` c G ( { X.b.b.m m m ` ` w.b.2.G t ' | C.I.v w.Z.b g f n F = ; ; f G 3.>.n _ c @ . . @ : ; @ ; @ ; y c t u ] f @ e l ; m ] _ 5.1.| m f l 9 y g n L I U _ [ O.O.O.8.b.6.8.@._ L j u - - - ; X . . X X   . u : 1 ; X o e t t f - X . - ; e @ X : ; @ @ 9 n b N ~.oXqX:X:.m l t u g j n _ I L  .%XiXaXpX|.[ ] N 3.v.9.N 2.] g i g - t m c y 0 c 0 7 y _ g = ; @       ",
"I B.wXMXnXnXxXxXaX;XZ.4.b.} | 9.V.*.U G *.[ 3.N L n ' n g z g j G n n L v n j t G 3.| ' c ; @ @ - $ . . .     .     . . X X . X @ 9 9 : : X $ ; . $ @ X @ : t ; 9 t e - $ < $ : t 9 t 4.v.c { O.L G v e - ; e u e 1 t ] | g ; j } L m k | ' c L ; - e f j n j ; t : - - ; v n f G ' 5.[ _ | } [ f 4 h ] v.r.u.b.S.w.r.e.4.n 1 h F G G 8.Q m | 6.1.r.1.` ..G z m n n c i n _ n f 9 z l c y g z G m _ c m m L ] n G m m m y y t e L 2.B.b.e.4.w.w.2._ c z | 1.~ [ ] 2...m ( ..` _ Q n c _ ..] @...| ` m ] ] _ @...2.1.z G O.` m n y : t ' [ 5.| 8.O.c c ] 2.b.B.e.2.2.S.E.A.8.' 1.g.>.G _ f F j j k [ o.O.v.B.c.5.q.r.A.E..Xw.] 1.2._ n j v O.v.b.| 2. .m l n m [ } 5.b.B.y.Z.C.1.e @ 7 N _ z @._ [ { ( { q.Z.2...n Q r.A.` ..3.m _ 2.I.A.F | 2.c 0 : < $ z ; ; 0 ' *.F u j ; . @ . X . @ j z 7 t m n | | Q 0 z ; ` 7 8.8.8.M.|.M.G 9 B ' - n n U F F L _ ( { @.4.v.] [ ] [ F i f ; e e ; $ . . . .   . t ; ; - - X X $ : f - $ @ @ ; : @ @ : @ - : : 9 N z 4.R.*X$X3.g y j f t u g u u u G ~.kXkXpX%X5.` m 1.{ j f l 2.` m L ; ; 0 g 9 g c y n z u y $ - .       ",
"g N.jXmXxXxXxXnXuX7X+Xe.2.1.] 3.L n.| >.4.4.3.| } 9.i.' L u i u e g n I _ b c l c c j i t : : @ X * . . X   .       . . $ @ @ . . * ; $ ; ; ; @ X ; % @ @ u e 9 t 0 g - $ $ ; F U G G | | F 8.1.G 5.8.U 1 u g g e i n j c * : : 1 f : g ' ' [ | G f j _ } 1.3._ g t : 1 ; k n L | 1.5.e.5.2.4.2.f 4 u 5.v.w.b.b.Z.b.1.:.y._ j u j c m 2.] ` ] b.8.' n _ _ g t n n G ] | 3.*.n L z z m z y g G m G G G  .w.2.m N c g c .._ n ( G ] @.2.w.` 2.b.5.2.1.' y z ` ` _ ] 8.M.5..._ Q 1.] ' G ..8...] ( ` ` -.m ] 2.1.] 1.' y p z c i : ; ; y n c _ 8.8.5.5.2.w.c.v.n.4.b.A.|.%X%XA.3.1.1._ | | [ G n g u [ O.b.E.A.b.6.b.S.b.e.D.p.' ] [ _ j j m 3.r.w._ ] i.| n j g j n | w.e.r.b.}.U.F f @ V ] M 8.@.G _ K b ..t...Q c ' E.r.i 8 | | _ 2.I.r.t b _ z ; ; G n 2.0 % g = @ ; $ e ; @ - $ ; . ; [ 4.G i m n 2.2.z M y @ t [ 4.e.B.B.b.8.F ; 9 - ; n e f : t v z G | _ { | _ [ 1.| G f - t e t 7 - o $ . . @ . . $ t t $ $ . . ; ; $ $ . X - $ X @ - @ ; t - ; ] | _ ] 4.i.;.` n ' f h U _ F k 1 t >.E.%X|.A.w.u.[.2._ - $ e _ | [ _ g : t ; ; 9 @ n G z : @ . .         ",
"~ 5.9XlXxXxXyXyXyX-X}.I.4.e._ [ | y.*.L L 7.' n ' Z.Z.w.| c j f e u y _ ' L t G n c n t l ; @ . . o . . .           X @ X @ . . @ @ % ; ; : u ; - ; % $ - t f ; g l t $ . - ; j G >._ | c j _ L L g.8.O.g k b g ; L L c j t $ e n ; @ 9 7 j [ 3.| G n j L 5.4.3.m _ m e ; F } 4.5.>.v.b.2.4.;.2.F $ H 7.b.Z.8.y..Xb.1.;.w.2.j g g m ]  .` w.2.2.1.-._ _ ' z f z j | 4.| 1.| ] | 8.n.2.1.L | 6.2.b.b.E.t.....;.4.1._ -.1.@._ G b G | w.u... .v.....2.( m Q  ...` ` _ 2.m.c.| @.8.2.2.m 1...] { _ ' _ ] ] ` ..4.{ ` X.m g z z ; @ ; * 0 m c _ [ } L g.E.E.A.2.2.8.w.w.A.{.%Xb.2.w.2.` ' _ G G c i e I 7.E.|.}.b.5.M..Xb.@.2.r.] c v G k n [ 1.2.2.L m -.n.} g 9 u f 1.A.b.e.b.S..Xv.G @ 7 i....._ _ _ G b Q 2.' [ G ] }.oXp ; n 1.y ` Z.2.e b ' n ; g ] b 0.c $ @ $ @ $ f L g : @ e @ g g ( } m f :.2.L 1.0 5.F . ; n 6.b.8.6.8.e.G l @ - z t 7 @ @ - * # m } c c _ L { | ] | F ; e : : ; : ; @ X @ - * . @ f u 1 : . . $ $ . $ . X @ @ @ - ; @ : g - e g c f *.m Q ^ L u m o.I 7.j.7.5.G u 1 u [ | 1.3.b.W.y.m < $ ; i 1.A.v.G % ; 1 u t ; v [ b 1 $ X - X   .   ",
"3.5.Z.kXnX7X[.iXiXZ.}.+Xi.8.4.U m 8.U [ j } F c 1.Z.p.b.L j c f u f l G n n e t g _ L t : $ X . . o . .     . .     X $ $ ; @ @ * X ; 9 t t ; t - 1 e - : - : y e c 9 $ $ : $ j } ' ' _ [ L g _ 1.| 8.4.c L G : : n G G L | j g c g f f g n e.8.] | 8.' _ ] 1.5.] ' n u u L O.b.v.-.| 2.2.| ;.2.D < o.B.P.[.n.y.{ 5.4.m =.n g j G ' ` _ ] V.] _ G G m ` 5._ _ m L [ | v.5.| ..| 2.Z.A.A.b.8.B.E.b.E.oX2.x ` X.;...2.-.Q m z y t y m c.A.2.Q ] 2.1.( m _ w.r.b.Z.r.| O.5.@.G { 2.e.5...4.2._ 5._ G | ] 2.2...w.2...2.w.-.m x 7 = 9 ; t c z _ m m i F 5.M.b.5.2.1._ ..4.8.r.b.r.w.y.w.{ m c b n g t m | b.A.A.b.5.e.4.O.J I O.[ j f F v G } 5.u.8.[ n -.b.8.I t f v 1.A.A.v.w.C.{.{._ y m -.;.q.n [ @.| | 1.1._ n c 1.-X|.# z G 8.i c 2.5.G 2.>.F t : ( | g $ . X y y ; c _ j $ - L t :.] ; m m 2.: y *.@.c e.c . ; N L 1._ ] [ _ g g ; : 7 @ @ = l g c j ' ' y c [ [ | ` m L L ; : : $ $ - u X . $ ; - . @ n g - $ $ X X $ . t @ X $ @ @ $ $ @ $ 9 t e : y ; z 9.y.y.3.1 G 7.c.A.$X*X#X5.v f 9 8.5.b.B.v.3.} -.G f e u v. XE.5.G m f f 1 e i G F e - $ 1 - .     ",
"R.V.y.yXxX7X+XiXuX;XXX+X}.i.9.7.[ ] } L n j n y.| w.i.w...v G u t f l j n k t ( n _ v : 9 $ .   . . . .     . X   . @ - : ; X X X X : t j c 1 e o - 1 @ ; ; g c g z t $ $ : $ i _ 1.2.1._ _ G 1.3.n G v._ _ @.u ; n [ | [ n j F ] ' ` j j _ | [ [ ] r.4.1.O.8.5.>.[ j u u F | 8.y.1.1.8.| 5.w.1.f 2 O.H.E.I.V.4.5.-.y...m L ] } _ L Q 0 | 8.2._ m y y j ] { ' @.O.O.5.b.A.8.4.8._ ` 2.2.6.8.e.H.A..X.Xw.` ` b.b.2...` z ( a 9 9 y b _ ] _ ..2.e.v.G G 8.y.;.D.I.4.| G y b p G ..Q ] ..2.e.1.5.{ m ..2.2.2.w...c.4.e.r.-.` ` _ i 0 ; 7 0 9 g 9 : 9 z _ ..] _ _ Q _ ` ..4.4.b.v.v.b.C.{ G v G c 9 t n ' r.r.e.r.4.2._ G v G [ [ _ | } F F [ 5.w.1._ _ u.b.8.] c G O.x.b.r.r.2.2.q.r.` M :.] 4.2.j I 8.@.#.| | _ c c b.%Xu.m ` m | : 9 G G G 8.G : g L n n - - : e y N 9 b 0 ; ( [ L m ' e.y m z t g c 7 p @.v.n - y _ 7 n g z | m t j ' t ; . X X ; t n ` { ` | n L b ] m ' G ' k - f ; ; - 1 X $ - : @ . o g l * $ . ; $ $ $ u - $ ; ; @ @ ; : * e c n c c : f V.V.P.8.L L g.B.|.:XqX9Xm.k g 1.B.E.-X0X%XB.} _ L n 9 F b.|.|.|.B.] G k 1 u u j j 1 $ $ : @ .     ",
"g.5.C.nXCX6XtX0X6XuX7XaX7XU.4.| >.U U 3.5.n F U _ m _ 4.O.| 1.G v I } f | f i L m [ _ i i ; X   . . o $ . . o ; . . @ @ @ ; ; ; @ @ ; ; t t u 1 - $ : . ; g n m u f e $ $ X $ j _ 1.2.b.e.] m _ G g t n _ | } ; - n L O._ [ G t G _ _ L | | m [ 3.8.] c c m >.O._ ' c j g | >.3.B.y.y.| 2.| -.-.k 3 O.N.x.| -.4.L 1.*.5.] | ..1.| | 1._ m 5.B.8._ c _ _ m 4.| 2.c...1.e.2.v.1.8.e.( ( _ 2.8.8.2.b.A.C.r.q.X.E.|.2.Q x x p e 9 7 7 p z 0 b ..] ] { F c 1.r.2.b.2.Q ` { | 5.8.8.A...` { ( _ { ( { m @.c.2.-.r.e.....e.r.u.u.` z y ; e : % 7 ] t : ; g m m ] c ` ` Q ....2.( 2.e.e.Z.y.| m G | c t n  .`  .w.u.c.r.e.1.[ [ G [ 5.v.y.1.n j F _ ..@.[ | ` @.1.} i G | 2. .Q ` ^ Q w.Z.8...u.] ` } F O.e.O.6.x.B.5.n [ E.Z.] ` ' l n t c 7 - D O.h - g i m n $ G ' @ - : 9 n L ; . z 0 N 9 ` _ : 9 ] -.z t G >.| j % y @ - ; t f ; 7 9 m { c : 7 e ; _ y : c m ' 2.| j L i ; c G _ n - - u 1 ; $ ; $ $ - ; . - n f ; $ . $ $ - ; ; : : f u i : ; - e z c -.>.5.y } V.L.v.v._ 9 O.Q.:X:XoX&X5.n n.b.%X%X>XuX:X X3.' c c G >.A.I.E.%X;XB.-.U u i u t 1 $ X X @ X X . . ",
"F F P.xXsX>XyXlXpX5X0XkXsXW.2.2.F j n ] 1.U _ n z c c ` | _ n } I ,.>.n *.c t n m 3.| ` n ; .     . X - X . $ ;   . X @ - 9 t ; X X - ; 9 g e 1 1 : u X ; g g n g g ; $ X @ ; j m } | x.v.6.| _ ' i y L | _ [ g f v G @.[ 5._ j n m | ] 1.w. .] :.w.=.g g g G } [ n F g n L | 1.1.8.1._ 3.4.| ' g 4 A 5.3.| y.1.3.] | @.' L ..y.1.O.8.` ` ` A.R.e.2.@.m m 2.8...` -.;.-...b...' v.8._ 2...` Q ` 2.u.q.r.I.e.b.C...` ` ` ( m 0 y 7 % 0 x ..r.2.R.M._ _ ] ..2.r.2.2.` @._ _ 2... ... .{ { _ _ _ _ @.4.| 1.#.] ] ] 1.2.] ....2.G ] n c t 1 t 1.] t 9 y g ~ m m ` ` ( | ....-._ m Q ;.b.6.G 5.| n n ] | ] ;.` 2.2.w.b.v.{ O.1.5.;.w.n.| g j j k ] | 5.E.5.1.1.] t c ] .... .! g ^ S..XA.4.8.] G F v } c.@.A. XoXg.[ | A.r.-.2.1.t g g f ; . i G - : @ @ : @ j ..] | c = y g ..@.| 7 t : c 9 y t t m 2.m ' } t g c = ; o 9 - ; ; @ @ z c G G t ; 9 @ c m : t 9 z ..L f n g : l ; v g : f 1 n : ; e $ $ : t $ ; c n * - $ $ - ; ; 1 ; - t u j t t : : g c m ~ *.' O.A.{.R.A.' 1 F 8.&X;XoXZ._ N 6.v.~.%XuXpXuX%X_ G n e L 8.A.A.J.{.E.c.3.L G k i t t - $ - @ . . . . ",
"u f 7.+X[.+XuXkX0XuXOX6XyX7XP.y.} n F v _ >.G 2._ n c _ N y c u f O.7.G l l n n b ' ' m t e @ . X .   . . . . .   . . . @ e g t . @ ; ; 7 v k 1 t 1 i u e t i j n c e , $ $ u } L n n } 1.O.| G n G n [ L [ [ 1 9 j G @.1.8.| b | 2.v.1.[ | | _ _ -.| g 9 j m G L G n v G } | 4.5.y.b.L m *.| ` t 4 u | ' 7.} 9._ *.4.| 3.` 3.y.y.8.2.( { ..-.E.P.E.b.' ' ] Q ....r.r.2.2.1.1.` ..x.c.A.A.m x 2...` r.w.w.r.r.2.! ` | @._ v p G G G ` _ 2.w.e.E.R.@.( { | _ ....{ ] _ m _ ` ..( ..2.{ { G b m [ 4.@.5.b.b.2.` 2...` 2.] ` ` ] Q z c u u i m N n m n c y n j m _ ` 6.| ` ] m y z ` b.M.5.| m G G | ` Q `  ...e.2.2.1.G [ } 2.b.i.w.' t g L L [ 1.b.;XZ.r.1.m z z -.] ` 2.Q p g w.{.A.w.7.m O.G v { @.@..XsXoX8.G m @.1.m ..m - 9 g e - X 9 y t G j t j t { A.{. Xc.m m _ 8.v.v.M.} n : 7 ` g 1 c | ] ( m 1...L i 9 ; f t - @ ; . $ m [ [ j ; @ o . ; @ @ y @ < . - ; g m u c ; 0 : ; e j G t ; $ - 9 0 9 7 i G e : $ - ; : $ o ; $ $ e n e t u : k n c g n f c v.A.:X&X| g j O.A.b.[.u.L ] 5.V.N.H.0XpXkXoX} n n j y 5.v.b.E.|.A.e.@.L u u 1 : : $ : $ $ . . .   ",
"u u I Z.[.{.6X7X;XI.+XtX7X[.I.2.] L I G G 8.' ' -.1.G w.N L m L j I 8.1.n n N n c c ~ N y : @ . . X . .     . .     . . X $ e : @ @ ; : : v k u e i c i g @ 7 y g i j $ X $ f | | | e._ _ Q n f j n G [ | L G e - j U | [ _ ' G ..5.1.@.c _ G 5.A.y.*.g t ; f u g g f n ' >.1.1.1.3.[ n t *.n m F 4 1 | e._ ] 4.| L L 2.-.| 1.u.e.8.@.| { b.b.u.E.e.r.2. ._ m ;.] ] 2.2.b.r...1.8.{ 8.E.|.b.q.q.` ` w.2.w.b.b.q.! ` [ _ b _ @.g.g.8.r.` ..1.4.` | | 5.2.| ] ` m m _ { Q _ Q ` ] 2.2.{ _ ( G m [ 6.2.5.2.` _ ' @.` b b m ....@._ c m e $ e e 1 u ' _ ..y i e j ( ( @.@.Q m g g g ..b.S.8.` G n _ L m | ....` 2.w.1.' [ [ { c e.Z.u._ 9 j _ -.G | u.D.u.2.e.` _ ] | N ` Q ..` c t.Z.b.y.2.G [ c i c G @.A.tX}.| f t ` n G m : : ; M _ ; $ ' n z ( L y * m m Z.6XD. .; 0 g | b.r.Z.2.L @ l 9 f @ t b } m _ _ L m L f g $ - ; - : $ . ; i j 0 @ . - ; : . X * @ X X . X e j t j - o $ X - t n f $ $ - ; ; 9 y n k t u t - ; $ $ o - % ; f u ; : f g n j n N g g ] 1.~.uX*X5.t f n @.U.D.p._ | 8.H.8.>.|.;X6X%X8.] 4.-.n  .| c.{.J.b.4.O._ f e ; e t ; $ ; ; % . .   ",
"1 f I j.E.b.D.I.}.4.i.U.L.+XW.8.' } | G [ V.7.L *.3.3.2.3.L _ [ } 1.8.y._ e n 5._ m ' m t X . . . . . .     . .     . . . @ 7 X @ : e e : g f 9 ; e 7 : t t t : f t j 1 $ $ - | 1.4.} [ [ G L n n n | G n e j j 1 L u F ] 1.| _ @.-.e.` g L n U 3.1.O.n g 1 t g f j c f | 1.1.4.2.2.| g g G l m n $ Z 2.r.2._ { m f ' | | _ ' m 4.2.@.G m 8.E.u.r.Q r.y.| m  .;.m t z n 8.b.1...v.A.A.E.{.|..Xb.w.` ~ Q 2.A.#...2.8.8.8.@.| | 8.x.b.A.w.2.6.A.2...5.] | _ ` ..] m v _ ' ( ( ` Q Q _ _ ..@._ 5.6.{ ( ..@.] 1.m ` @.[ | 1.u.1.2.[ G G j e j t ; u ' c m ( 9 : g n ( _ ` m g c _ `  .q.I.;.c m c [ G G ] _ m ] ..2.v.5.| } | G _ ;.4.m e c m c c _ w.Z.i.-.2.-.] 2.4.' _ m ] ;.u..XS.B.E.4.' c j ; i u m r.oXb.' _ ] -.i.U.p.c t t N m ; - _ m n l j L n c m | e.-._ % x j r.{.H.G c y @ ; ; @ $ ; ; m m n y g e - G v ] m . $ : ; ; ; ; ; @ - @ : n n j 1 X t : ; . @ X . @ . X - X $ : _ t u ; : $ . $ * : t t : e L n $ $ - $ $ $ - u e ; u g v | m j j [ f | w.E.<X~.G m l g 8.8.+XU.P.e.e.A.b.| B.:X0XE.Z.y.r.y.u ..[ 5.b.b.b.6.5.@.L u e t v u $ X $ @       ",
"j I 7.XX;XXXXXZ.w.b.Z.u.U.7XP.v.1.[ L L ' L | ' ' y.3._ | ' L _ | | n.b.m 9 c 4.y._ 4.:.g ; X . . . . .     X .     . . . . ; X @ t G : $ - e g : n t 9 g i g 9 7 y v u o $ ; } | 1.L L L [ | [ } _ -.] n : : b j F v U 1.M.n.[ | 2.b.2.G L F U m k L G n u j j f n U L O.] | 2.O.O.[ G c _ 9 e t $ F I.U.B.2.3.| m n _ ] L m j O.8...m b _ E.r. .m u.b.....-.Q b 0 z y [ e.b.2.` 4.b.....b.E.A.w.w.2.2.] ] ] @.5.5.1.c.e.2._ ] ..1.M.b.v.....5.4.8.` ` _ _ ( ] m z _ ` ` ` ` | _ m _ 5._ z ( @._ 9 b @.2.1._  .1.O.5.2.5.' m 7 7 y g u D f e n -.] g m m z m b ( { ( b Q _ _ ] -.2.u.] c g m | _ _ 5...1.] { ..2.w.O.} @.1.Q _ ..G g m ^ z v ] q.r.2.w.b.b.c x x ] ] ] ..#.t.{.{.Z.}.A.4.n g : n e i e.-XA._ m i ;.w.p.Z.| t _ _ n ; X n m n @ ; v G G g g j g m 0 ; y 4.' { u ; @ t z $ : ; - * : m : t t t e k m 1.n @ $ f : @ t @ X ; : ; ; n g F u t : n 9 X o $ X X . - - X @ g g g c b @ X X X X $ j j j G G 7 $ X e e - @ X ; @ : t F O.7.| 3.' n n P.W.n.E.A.] ' c j -.} ] Z.|.}.x.b.A.A.|.0X6X Xb.n.I.u.F } | _ 8.E.A.8.c.8.| _ f n v f 1 @ @ 7 .     ",
"} =.P.;X+XaX;X+Xw.P.n.Z.p.U.n.' 1.4.' n f n G 2.} 2.4.3.| n n m n G | _ y c G m _ _ z ` c @ @ . . . . .       .   . . . . . . . X @ ; t : @ $ 9 j f 7 ; u v v g : t m 1 $ ; t t G L B n u L | O.1.L ' ' n t e | L n u k O.M.v.F F [ 5.b.1.[ L j.8.m v n n n k f t j _ [ | | | ' c L G G 5.| j 9 * $ D y.{.E.2.*._ n L | -.' m m | 8.1.1.2.j b.Q ` b.b.c...;.;._ c g y 7 G e.B.8.2.m ......q...5.2.C.|.b.@.| e.[ _ 1.@...x.c.@.z ` ....e.v.8.] ] ] 8.2.5.O.] { m 0 b ' ] ( ( ` | 1.] _ m Q ] ..` _ v z b ( .._ ] m m G ` m _ 0 7 i c v v g u t n ' ] ~ ' m g N ' { @.5.` ' ..@.| r.i.2.m m ~ l j n ' w.w.2.w...` ..e...{ 2.e.w.{ G c j y z m n -.u.C.w.w.u.r.;.` m m x ] 2. .~ [. Xv.r.P.b.[ ; e t : ; G r.u._ c c _ ;.q.C.G i e z n u i j e i $ c g u c g ; 9 _ z : y ~ $ t y f y 9 g ] @ 7 g X @ @ ; ; @ @ X g | I m v g $ $ @ X : @ : : c ; f t L _ _ ' ' c l n m @ . . X $ ; - $ X ; c [ c - X . . * ; t : L } } j . X : t X $ o X @ $ i F V.b.8.n.8.' n P.}.v.A.A.v.*.n n -.` ' 4.W.6X|.v.B.|.yXzXbXzXoXA.%X;XH.Z.A.[ L x.b.| ..5.5.| b n v u 1 ; t : X . . ",
"*.y.}.7XnXtXaXt.[.u.p.u.i.-.y.:.A.1.5.j n v ' n } ] 3.5.| n c ] w.' C.u.m _ G G m i c _ c @ $ X .   . .   .       . X . @ . X @ @ ; @ g - - @ ; _ m 9 : t j y c g e b $ - u t @ j n ' n c L G F L N ] c g e 1 [ | f 1 u n 1.| U L l 4.8.| } 8.Z.P.L L G L l j f t u j G } V.4._ L G I } } ] ] t - 4 Y b.Z.%X2.' } | _ | 4...m n _ v.M.w.w...Z.w.;.e.t.r.2.3.` m m ` z y G 2.b.e.2.` ;...Q _ { _ ] 8.e.6._ | 8._ b ] 2.8.e.e...( ` e.2.1.e.4.r.......@.1.| | | m y z | 4.@.@.8...] ] ` ` _ @.c.e.6.| O.@.] [ _ | m j [ 1.z b m j j G G j i y g m _ ..] -.3.N m ] 8.v.4...` ' [ | x.w.;.;.2.Q i m G v.b.2.2...2.w.y...Q _ 2. .X.1.G g j g ` _ G .. .C.u.r.w.b.b.e.2.2.x ` w.` ..q.t.b.b.n.b.5.f ; e 7 t g ` y.1.G v n ..w.Z...j L -.1.G t : : t X g c i g ; $ c ` m t ; $ - 7 . . @ g g } ; 7 $ ; ; @ X ; @ - 1 G v.| t j e @ . X . @ ; : ; $ t j n m n } j F u t t n t @ . $ @ $ X e @ t n n e e : o X : e @ : j G k u - . $ ; @ $ @ @ 9 : : e m _ { 4.4.e.c u.V.A.Z.u...` n m w.;.r.i.I.%X>XoX X X0XkXpXuX%XE.-XuX:XE.A.b.m 1.5.1.-.| w.5.O.G n j t : : % . . . ",
"| F.%X+XdXiXiX@XtXL.4.U.V.y.' n I x.y.8.U m G c _ ' L | ] 8.1.3.' _ | | -.m [ 8.y.c g ~ _ $ X X o . .     .         X $ ; X @ $ : g t 7 @ : ; g c b L g ; ; u g g 9 j $ $ j n t ; c : m ] _ L F G G G n y : - F n h e u F [ F v v v 2.| G n [ 8.V.| O.1.U f k v : u n m | R.P.4.2.] j j G 1.2.| u 3 P n.2.E.b.L _ ' [ ] ] m g m ] @.2.8.r.Z.Z.C.r.2.w.;...]  .] | ] ] _ | v.B.b.b.2.2...( z ( _ ` _ m b m O.{ G G ..e.8.b.A.2._ ( 8.....b.b.b.r...] @.1.[ _ ( [ { ' { 6.8.6.8.` m Q b _ ( { @.2.2._ G | x.5.>.| | j G _ _ { 5.| c c z # ; y t y m _ G 4.] _ 2...8.1.[ | 1.` _ { @...] u.u.-.` ..| E.S.2.2.` Q _ e.2.2.q.t.;.;.2._ z c _ m c _ @.~ r.Z.2.` ] 4.5.8.e.] x ;.;.q.w.X.v.n.H.B.1.v e : ; f _ ' n.8.F c n c ` A...G | ]  ._ D c _ 9 n : * 1 m n * ; i @ ; i 9 ; @ X . y g g f -.t . ; t t t n t ; e i L G t : ] t X X - - X + $ t t 1 ; $ t j G F c n ; - - - . X - : X - - ; e ; X ; z f ; 9 1 - 9 j n n F t X < u ; $ @ $ ; t : t j G ..A.R.y.-.w.8.5.b.P.E.n.-.u.4.[.P.Z.r.b.|.%X0XuX:X0X&X|.A..X6XyX:XE.A.A.v.v._ | ' O.2...6.@.G v f ; ; ; . .   ",
"3.8.P.Z.tX7XiX+XOXoXu.u.Z.P.8.j ` 3.e.8.V.n g n ' _ c _ ] { | { n j _ z z ~ -.y.| ` c Q c 1 . . $ . . .   .         . X ; - ; @ ; n n y @ ; t i t c n f : ; : e 7 9 : @ - G l g : 7 g c L L j j b j G _ G ; : v k n f n I j k j v k @.U f g t | } m } o.F G _ j f 1 g ` ;.b. Xu.2.L e ; G g.e.} k 3 Z ..w.v.4.' ' G [ ] -.] n G _ ( 5.v.4.u.e.t.t.w.Z.r.] G ] ] ' | 2.2.2.8.A.A.A.b.u.q._ z 0 p _ m p y g n _ I G 1.4.2.r.b.b.5._ @...` 2.b.Z.E.b.2.@.1.[ { { 2.M.6.1.5.5.5..._ G b _ { b m @.8.5._ m @.m.v.| G _ G F f v 1.O.{ m G j t m { ( ....G g n ` | 8.| | | ] | 1.[ _ ..` _ Q ..4.] 5.2.@.2.w.w.q...Q ] ....t.q.;.w.r.r. .m b ....c G ` 2.r.q._ ] .._ L _ 1.8.2...y.2.2.r.e.b.v.8.G n f ; $ G A.b.b.6.c y z Q ' D.r.1.w.y.8.O.D e m [ 7.I F F @.c @ 9 @ * @ 9 $ t : $ - e : $ 9 3._ ; ; @ ; f : 7 1 t : e : c i n _ - 1 F n @ - @ 9 e : - e t n j n j g : - X $ - X $ 0 o X $ - @ @ X 1 j u g e : : X n n n n : - : ; - $ - @ t 1 : u F >.m.%X&XI.4.^ B.g.E.$X|.4.-.e.3.[.I.E.{.C.A. X:XuXjX&Xx.5.5.b.{.;X:X:XE.b.e.e.5.c j 1.6.| { { ( g v i ; X X .   ",
"' ' Z.U.@XOX+X2.I.E.b.n.[.I.y.4.:.| | y.y.v. .' G v j ' y.y.*.] 3._ N j t 9 t ;.` m ^ ] j $ . X . . . .   . .       . . : ; : : : t j I f u G c t @ : : : : ; : ; @   O < j g g g t n n g n _ v L L G [ L ; e F n f h n F U [ G ] G *.n t z ] } L c g G F | _ [ L t z m ] b.}.u.S.5.t : U I [ :.f , u | 4.| 2.| L } _ ] ;.3.] _ ` ` ' ] ] b.e.t.Q ..A.Z.` L  .] ` ] 5.8.b.e.8.8.Z.b.b.2._ m m p z 0 F G n n j I 1.@.| 5.@.5.g.| b _ 5...F A.{.y.2.4.@.{ _ ..` 1.v.6.1.{ { { | 5.} _ G G _ [ 6.1.| V.v.M.B.8.m [ | 5.>.k : j G G G z G G G 1.b.b.A.b.v t f n _ | _ O.8.e.8.-.1.e.2.` b z | O.5.y.r.{ 2.b.4.` Q _ ` ..u.r.u.2.u.w.2.Q m ] 2._ { ` C.u.m z _ 2._ c G { 1.3.m ` Q ..r.2.r.1.' c L F 1 e 2.;X.X2.` g j L u.w.D.r.4.e.b.E.6.< 9 c g.XX_ $ _ ..Q y z : - $ ; 9 9 9 g X ] g 7 9 z t : : 7 ; X ; i - @ @ ; - @ @ : ; 1 1 L U $ @ 9 f i ; @ g c 7 ; e n l t i $ @ $ $ X . X . . $ @ . . e 1 l l ; ; e - 1 g n f ; < ; ; $ $ ; $ : 1 1 : e *.9.4.Z.&XB.-.5.8.5X0XE.' ]  ._ i.b.E.yX:X-X0X0XuXuX0XA.{.!.|..X%X-X%XJ.M.8.b.@.n _ 1.8.| [ G ( G g 7 ; ; .     ",
"L *.n.}.u.[.S.e.OX&XZ.;.3.n.4.4.:.m ' 8.8.v.4.] c v f ] 1.4.-.] 4.L B c g 9 u n n M :.~ j $ . $ o O . . . . . .     . X @ ; u e t 9 t n F v F v t X : - : e $ ; - X . . 1 n c n g - n N m m ( G G [ L _ U u u c L i u u F L } ] L ' | g e L v.>.g g e k I I 5.4.5._ _ 1.8.2.w.2.w.5.g u G m _ | g $ 1 | ;.5.b.2._ n L | ] -.3.' ] .._ ' 1.w.b.A.w.Z.r.t.w.2.8.] ~ ` _ r.B.A.M.8.r.b.C.` ( c c m 9 g G [ O.| F v } 1.1.1.8.g.@.y G @.8.@.B.|.b.` ..@.| ( | @.( m ] @.2.@.{ _ [ 1.G v j k _ | @.] | x.g.M.R.5.c ] 1.8.e.| _ n L [ G v F G _ O.O.6.b.e.m g c c n 1.x.5.g.B.1.] ' e.2.2.e.{ _ O...e.6.G _ e.2.]  .Q ` 2.t.b.I.b.2...w.1.( _ ` _ _ ..r.I.` 9 g ` G c G ( ..-...`  .` x ` ;.;.m c [ G j i 5.-X Xy.n n n -.u.r.w.u.r.n.b.A.| @ g ' 8.B.' ; G m z n m G I @ f n n : g ' : y c g b n : - X 9 @ 9 c u $ @ @ - @ - @ X : X   = . . @ ; @ : * e : - ; - f l i t ; X . $ $ @ X . . X . . . t e : : @ $ ; @ ; t f u 1 1 ; 1 $ $ ; $ ; : u e n | L e.n.}.y.2.*.[ U.I.b.8.] | b.oX>X0X;X0XuX;X-X;X;X%Xm.H.%XuXpX;XE.%X%Xb.g.B.} u 1.e.c.6.@.| G G j t : $ X     ",
"*.` U.4XU.p.a.t.U. XU.3.P.v.v.8._ c L ' | 1.y.4.-.n u t n w.i.4.3.y.^ ] z g l g g z g g n < ; $ o O . . . .           X @ 9 t 1 t ; e i j j z i e - - ; - @ X X @ X . $ ; n b g t @ 9 _ } ; m _ L n L [ F G j c f u n e f G | m _ [ ] ' m F [ [ e 1 u F n 5.6.1.1.1.O.4.b.y.8._ _ m L g n ] 5.' f o u 3.u.b.] 2._ j n L L 2.4.| O.2.2...2.w...A.e.v.2.2.;.e._ 2...m L 6.B.E.H.x.6.b.b...b m b c c b G o.5.5.G G L _ @.8.5.1.O.F F { M.M.c.e.` c e.8.@.b { x.m.x.5.x.4.8.2.5.O.[ c v F k G | @.1.@.G O.8.R.` ' 1.O.4.b.r.e.G L O.} J I o.[ O.| ] e.v.2.[ 4.z G b.R.} L 8.v.] L >.2.2.4.O.O._ ] | 2.[ n ' ..2.2.` ] r.b.b.A.r.Q ~ _ _ ( m b ( | 2...C.b.Q ~ m z v c ' ....` ` ;.#.Q z  .q.m z z ; t j | |.-XA._ G m ..;.r.i...i.S.Z.I.5.$ y m y c m g 9 y  .` | E.5.| g 2.z ' L } ' ` L t $ l l - : - c [ F : ; - $ @ ; g ; @ t e j i : $ # X . . X $ 7 _ $ X : : 1 u : 1 * @ - $ . X @ $ X @ X $ - 9 ; - @ @ @ @ . t g u ; < $ X $ $ ; : - g e j L | e.|.&XZ.P.-.O..X XA.v.| r.%X6XpXzX>X.XqX%X.X;X5X:X|.B.N.|.yX>XA.A.A.8.8.| G c 4.b.e.} m n G n f g i - X .   ",
"8.' i.i.[.a.#.t.Z.;X6XXXoXv.v.8.O.L n n _ 1.Z.y.4.l i g ( -.4.[.U.Z.;.i c c y e 9 0 m ` c $ @ - X . . . . . . .       . * ; i t t y g i v G b u g i : ; ; ; ; $ - X O 1 t t g l 9 : - y _ 9 n m n n j F F } j f e 1 v t u f _ y u L ' ] n F _ L j t i j F 1.| ] G | | 1.w.A.u.3.3.9._ m z ] | L 1 o i 5.8.8.O.} n m L n c ] 3.| | 4.-.' 1.b.u.w.| [ 8.2._ ] -.2.2._ m F [ v.R.b.[ 4.n.b.] G _ 8.| G [ } [ _ F F G L ( 6.1._ { | G _ @.@._ ( ..] 6.| _ m O.@.| 5.1.5.@.b.c.1.O.} _ v v L | | 4.5.@.| 6.4.6.@.} _ [ 6.c.b.2.F j ' | b b O.8.e.8...b.w.y.2.} G b | ] y g ..M.b.v.1...6.( b G G G } 8.-.n n _ 2.C.b...2.b.b.2. ...z 7 b ( _ @.| ` X.2.u.w.] Q m c b i [ 1.] ! ^ ^ #.Q z x X.1.` c @ ; z O.{.>XE.} c G 2.u.u.-.3.2.8.e.A.O.j @.*.e 7 z g 7 c w.` e.E.Z.B.V.4.G n _ 3.*.' 9 = ; } m 9 : @ h L @ @ 9 - . . @ ; X ; % @ i @ e ; X . @ . X . 9 c g e ; : t t : : ; : * $ - $ X @ @ @ X X X ; $ % % X $ . X ; u t : - * . . X X - - ; 1 n n | E.:X;XZ.I.-.1.E.&XE.y.1.e. XqXpXuXyXuX:XB.A.#X X:X*XR.N.I..X>XE.x.8.| L | m g | 4.1.G z j b u 7 e t ; $ . . ",
">.8.y.tX[.;.w.D.*XuX6XXXXXn.v.y.5.G | L m ' w.i.y.8.} L 4.u.L.9.v.OX4.' N g m y ` ;.c z t @ . - o . X . . X   .     . @ * : g 0 g t e f c G _ G G G i j j t f e $ X . ; c u c e t t f 9 n n y t t G n u 1 G U F h t k f u f : t e n | | >.U } 1.G 9 : j } } 1.-.n j f } e.b.r.e.2.2.' n n ' L F , o e | 1.>.[ G v c c f g L ' } x.| ' ..| 8.e.3.j e L m n G 1...v.| c u G v.w.2.[ _ e.Z.b.8.2.e...{ _ _ G [ F k F O.{ 5.5.5.x.{ G O...] 1.2.2.5.| | [ O.| O.[ _ @.5.5.2.5.G F G n v } | | | @.| G _ 6.5.1.8.x.O.L @.B.b.} j j L o.[ c n 5.F.8.{ ( | v.5.} | _ y 7 $ i | v.~.|.e.4.[ G I U I i G | ] m j m 2.v.A.8._ 2.b.' ~ ;._ _ j y _ 5.{ G 2.2.C.I.e.2.` m n j ' | | X.2.q.Q 0 m 0 b 2.Q m 9 ; c 6.E.}.b.G j G | w.n.-.=.4.1.' ` b F u.' 7 ; ; 9 b O.[ _ m n.|.E.B.G 9 g 3.' m j 9 : c m ` @._ e c G u t $ @ @ g $ @ . X e y X t @ @ X . X @ @ o X . @ @ : - e ; ; ; : e * X X @ . . X $ $ X . X X $ X . $ . * ; e g - ; - @ $ . X $ - ; e j _ 5.W.:X&X:XE.I.A.|.~.I.y._ 4.I.oX>X-X0XyX;XB.x.H.|.%X|.|.~.oXyX6XE.5.8.4.] G n g _ m g : - ; t t f @ X @ $ .   ",
"3.9.U.7XU.:.'.C.$XyX6Xu.V.b.v.9.8.U L L m _ ;.Z.b.Z...' U.y.U.P.y.n.e.:...w.z c  .-.c f - $ * $ X X X . . .         . . ; y g c 9 = ; i c v G L G G i u j t t t $ X $ t L n L n j f y t n z m ; v _ G e 1 f t L k 1 h u j ; e g n u 1.e.| L >.| G c j G I [ ..| } G u v 2.b.A.A.r..X4._ } 1.L k , , j ..] U j u g 9 f : e f ] ] 1.O._ 2.5.1.] m j ; j j f F [ ] 2._ i u G B.e.2.1. .` 1.I.Z.b.b.` | 5.8.1.O.F j G 5.v.b.b.B.M.@.@.6.4.e.M.A.8.5.1.[ | [ _ { 1.( O.g.O.[ | G F G v F g.B.1.1.1._ G G O.| ` 1.6.[ G | v.8.j h g f G | m y I B.E.M.b.8.4.x.6.1.5.L t : t m ' 1.b.v.v.O.F G [ | j v _ 2.| c _ 2.8.A.' _ e.1.( ] .._ m t g [ 5...{ w.b.S.|.8.-.Q c i t G Q Q ] q.w.] y m p ( 4.{ m y y ( v.E.8.| j f f c [ | ] m w.2.5.8.F F b.' m u j n G n G c n 2.E.8.8.5.O.n ' n : e g m n ' a m y c G ( n b ; 1 e g g ; * 0 c i @ @ @ t X X X $ @ X . X @ X - e t e 9 $ : t : * o . X . X @ X $ @ X . . X $ X . @ 1 1 - $ $ t - - $ @ - ; - e g } b.oX%X&X:X<XuXqX%Xv.Z.n.g L b.oXoXI.I.{.A.5.o.8.m.E.~.#X|..X-X|.M.5.1.6.5.8.| g g G t ; ; @ = t y = . @ . .   ",
"=.8.}.OX+X.XI.E.|.~.6XA.Z.b.y.>.| j | m c c Z.w.U.y.e.w.4.-.w.:.5.2.e.w.p.] ' l m N ~ m ; . . . . . X . . .   . . . . . X 9 e y t t f e i u j c v j j u i 1 ; ; ; $ 1 L e.} L L G n F l j c G g e } O.F k f u j t 1 t u f k t L m n ] 8.] L ..5.>.I _ | G [ [ 1.1.F u G 2.t.b.b.S.I.y.:._ ] G f , Z O.1.' L g t t n n g ; t n m ' 1.] 1.y.y.y.G t e F L G [ 5.| | f 9 i m y.A.M.8.| -...b.b.b.w...H.E.b.5.{ G F I >.8.6.b.A.|.e.x.8.4.e.H.b.@.O.@.@.5.[ | | 5.| m [ _ | O._ I F F } v.M.4.] _ ( G _ | _ ` 2.e.| L v n c e u t k v G L F F g.|.!.~.m.x.x.8.5.| [ j i e G @.1._ ` m G F G [ >.F F O.e.e.8.b.5.1...` 2.r._ G _ | m b t e m @.] | w.A.I.B.v.e.` G t e y b { ..r.r...m m _ ] 2.2.| y y G O.8.| _ c t ; 9 f c n 0.] ` 5.4.I G 2.m m t _ G t t m n m ;.2.O.8.Z.V.[ c 9 ; $ : n *.1.y 0 y t g 9 j g j z i n y 9 ; j m y 7 ; # ; @ X . . . X @ . @ . . . ; : X @ ; ; $ * - X X X . . . o $ @   . . : $ $ - 1 1 ; ; < 1 - 1 ; - ; - : g n 5.I..X6XqXqX0X:X%X%XP.I.E.O.j 5. X:X.X X{.b.[ F I } 5.8.M.A.S.b.x.O._ } x.v.b.v.[ 9 g n u t : 9 e : . ; X . .   ",
">.8.5X;XxXsX6X&X{. X;Xb.b.P.4.8.} _ *.*.g m y.u.I.p.Z.w.r.` -.:.| -.b.4.3.] n g t c ~ m 9 X . . . . . . . . . X . . . . X $ ; 7 0 i j i t t u i D F j e u t 1 e : 4 u [ e.O.F G G L [ m G ; n g ; F [ L L i j k f u i f u f f _ } L O.5.1.} 5.5.*.| 3.G _ F L | 2.O.F O.b.u.2.8.Z.I.b..._ _ b 1 4 F 6.y.| ' n j 9 c } c 9 e j c L O.4.2.b.b.y.@.v _ | | 1.| 1.| G t t ] m { w.8.5.1.b.e.e.Z.b.) 2.S.E.b.] 8.>.k F O.x.B.~.%X|.A.!.A.e.5.v.v...@.5.5.g.[ | @.O.{ b z b G | [ z u F >...5.4.| ] O.G m G m _ | x.g.} v f F F G F i G | | O.G 6.R.B.B.B.6.@.M.M.6._ L j e v 5.b.8.] t e g F I } F U O.e.v.b.b.@.5.| 2.b.2._ _ _ L F G G F _ 1.8...2.A.|.~.|.b.4.O.F G ( { ..c.Z.2._ m c ( ` 4.2.] G i j _ w.A.P.} k 1 t n 4.w.;.] ` | | [ J O.c 9 : t g t v ' Q O.b.y b  .1.| f L e - . : 1 ' _ g _ f t @ $ n 1 } O.L c 0 y g g G i 9 7 t - X . . . o @ @ o . X . . - ; X $ $ - - ; - X $ $ X .   X - X . . . o : - $ ; 1 : ; ; ; @ - ; : : : : y m ] b.oXpXxXjXqX:X%XB.>.8.E.x.L ] .X>X:X-X XA.I F J I G [ @.e.w.2.5.I G @.v.e.e.b.5.k c l m y 7 ; : i ; : . .     ",
"8.b.W.+XZXMXnXnX>X.XI.Z.u.y.L 4.4.y. .L O.| | 4.D.i.y.b.w.| m -.4.u.n.[.+Xw.i. . .9 ; y 9 : o . . . X X . .     . . . . X ; 7 e 0 g e e f u t t f f u u f v v t e , i n } L | | 1.O.} | _ j t - ; ; g n I n t f u u 1 e v f n | b.4.5.5.5.F O.n.8.y.1.>.n n [ [ -.b.5.} 1.3.-.| U.Z.y.b.5._ n ; 4 Z w.4.] N f n 9 m ' j g m F n L _ | 6.v.n.b.u.3.] 2.2.8.| ] ' L j m ' -.3._ c G 8.y.A.b.n.A.w...A.E.b.@.5.5.F v [ e.R.$XE.$X$XE.@.y m x.v.@.x.M.| 1.| 1.5.O.1.[ { ( m G G v i v O.8.5.| { 5.[ _ ( @.[ 1.B.N.g.5.G g n j f f f G [ [ 5.O.1.5.O.@.5.5.8.A.M.e.| m t t u [ @.G y : g c k F I j j m G _ c ` | 2.x.@...c...{ [ v F G _ ' ] ` ..` ..] e.E.E..Xv.] _ ] | 2.2.b.r.w.` b m b Q ` 2.8.G j n | b..XoX2.n t L r.A.{.| -.e.| | } J O.U ; = $ @ ; F ] z ` | m _ n ' _ n n g [ g ' ; $ 7 | ' n X 7 X X * n } G b G n : t y y $ t - o . . . . . . . $ . . . X ; : : X X - t : - o ; ; ; X X $ $ - . .   $ $ * $ X X t ; : $ - ; e e ; o 7 j j n | e.:XyX6XE.E.g.| f H 5.} z c b.;X6X6X XB.I F L F Z F L | r.b.x.| O.c.b.x.e.c.r.G j g c g e : y z t u - X .   ",
"g.b.u.tXnXxXAXZXiXu.+Xu.P.I.y.b.8.y.Z.1.8.] ' 8.w..Xw..._ -.] -.y.4.p.[.@Xy.4.i.:.g ; ; : 9 @ o O . $ ; X .     . . X @ @ ; : j g ; : - t e ; 1 1 1 ; e c n c ; ; 4 u c m G [ 1.1.] ] } | m g : ; - ; f G g : u u e t n [ I } 6.e.6.5.v.2.} 5.5.y.' | [ j j G G ' 2.3.:._ L ] -.b.y.e.8.5.L b < , D | 4.] n m m l L _ m m n c v n n L >.v.A.u.w.r.m _ [ 1.5.' ] ] G Q c  .] c 9 L 2.8.y.1.G | v.e.x.8.4.6.O.L [ O.e.b.R.:X$X|.*XA.@.( G b.8.| 8.N.m.g.g.g.O.| { O._ _ } v i f k G 5.v.8...5.6.' O.[ @.@.5.H.g.} | G f j n t t e f n m _ [ [ | 5.@.O.g.M.8.| 5.G j j f g j j e ; e n L F U [ G F _ O.6.| ` 2.b.b.4.r.2.] { _ [ 6...@.@.@.` ] ..e.2.` r.W.|.w.2.| ] @.e.8.w.r.b.O.b _ _ ..` m G c [ | b..X.XA.] t e } |.-Xb.O.c -.5.8.5.Z } n.I f ; @ $ j ( c 0 k u _ ' _ _ j g g m : - : ; ; g l $ o l f - 7 z I { G 7 % @ 7 p p 7 e @ X @ X . .   X X X X . . X - : - $ $ - e - X X ; t ; X X $ % X X . . X * * ; $ @ 1 f ; ; ; ; < u ; @ ; j j j ' ;.B.W.&XE.n.} L j h H ; t ] | }.6XyX;Xb.[ I } F f F [ m ..t.A.x.6.A.A.8.M.M.8.O.j y c g f 9 ; i : i ; . .   ",
"N.V.-XpXtXtX>X@X.XZ..Xb.I.n.n.y.3.3.U.3.] | 1.` Z.Z.u.e.2...2.2.2.` _ i.p.w.-.w.p.-.g : ; @ . . X X . $ $ .       . X @ X ; ; i 0 9 ; ; ; ; ; - - 1 ; 1 f c t ; $ o h n n j n c g n 1.| [ m m j j e 1 j j e e : 1 t v c >.g.N.8.g.>._ @.{ L | _ 1.=.G n G n G G n n t n m ' } L _ 1.' ] ] | m 1 , G >.3.;.' { | } | | G m t c n j j j | 4.y.C.e.8.m j n L | ] 2.2...G z n _ ` y g | 2.[ m t c 4.8.O.} 1.v.5.} O.8.B.B.A.*X%XE.B.8.b.M.6.8.| m G 1.6.v.N.m.@.| | G c _ | F j k F } 8.5.| 1.1.e.8.O._ | 1.G 1.g.7.8.5.[ F j g g : j u i j n } 8.v.x.x.B.M.8.| @.j 1 e g g t n j g j j U G } } } G L [ [ { @.6.e.8.b.b.c.x.8.6.[ 1.2...5.{ _ ....2.t.2.Q  .2...8.| ] ` ` 2.E.I.r.G b ` ` ` ( p 9 y b ( B.oXb._ G c t n e.E.b.@.i L @.2.8.D } }.O.j : ; - t *.[ L y t @ X ; @ g t : : @ - o ' : 7 . ; t G c n L L _ G n t @ % = t 7 @ @ @ $ @ X   . . . . . . . . X $ $ $ - ; ; - X - . $ ; ; X X - e @ X . X . . 9 j n e j t n : ; - : ; t - ; t v L U Z.:.i.Z.V.7.i j k j u $ e _ 4.p.Z.-X%Xb.} L [ O.[ | O.m 0 x x q _ @.2.v.A.2.1.n m c n y c 9 % ; @ @ $ X   . ",
"~.*XqX7X>X@X{..X.X{.A.` :.e.| 8.:.4.] u.-.{ 2.w..XP.W.Z.A.E.r.w.q.m ] w.p.p.-.] p.4._ : ; - . . O * 1 $ $ . . .   . @ X @ e $ y j u e ; 1 ; ; ; - : 1 1 j y e : $ o j j L j g u g y m n ' c g v j j t n j F e : v v e b O.8.H.R.M.5.F n G L G | ' _ u n F [ n f g j g n m n _ n l g m ' 8.-.G 1 3 I 8.2.w.4.b.v.1.O.1.m m c j n n f f } y.b.b.r.r.1.g f A U ' 2.....G c n ] ] c z -.L G m t n n.v.O.[ 1.x.8.5.4.b.b.b.B.!.#X#XM.[ G 4.v.5.1.2.@.| _ G 5.F.b.| @.| G G z j j k } 7.8.| @.5.1.5.8.8.| | [ m G { 5.R.~.1.n F L n u j e < 1 h [ 5.x.x.8.x.8.8.8.g.F : g n e g n m j : u j G 5.n j m m c z ( ( G ] ] b.A.w.b.8.4.[ e...b _ [ { ..( ` r.w.` ` #.w.| _ | { ` _ b..Xb.5.O.B.A.r.] 0 7 c { @.x.E.b.5.1.n j 9 j 4.A.5.j j [ _ L H >..X5.b t - - t | [ G b u ; ; ; ; ; ; ; : + . . u f : e G [ m _ 1.y X @ n n e $ t ; ; = ; X @ @ : . . . X . . . . . . . X X X $ ; ; : - - X $ $ $ @ @ @ 9 e o . X X . i e ] j g j F c - ; - 1 1 $ - : e g N 0.w.8.V.n._ c g f j 1 o e ' ..] ] P.b.} 3.G n L O.b.A.e.2.2.w.] ( @.c.A.w.2.3.L G ..' v G j t 9 e t $ @ .   ",
"B.XX6X7X+X[.A.C.S.Z...-.e.A.Z.5.n.{ 1.-.2.] b.E.P.U.Z.b.|.%X{.}.Z.;.w.p.u.] ] y.u.w.]  .g X . X   . 7 9 @ X     . . $ X X ; e g v j i i 7 ; : ; : 1 e t v f : ; @ O Z G L G n j i : e e y j t t i : : k G >.F j _ _ [ F } 5.H.E.E.g.} c G *.G @.| L F G v L G j L | O._ _ 1.v.5.} _ m 8.r...b u R ,.A.E.I.C.E.A.5.O.1.[ _ _ L n F F n | Z.b.r.e.Z.e.} v u u c ` ] .._ ' g g m g 9 t 9 n G ; g 4.v.1.5.O.1.4.| e.A.R.B.!.!.R.M.6.G b m Q m [ 5.{ m _ _ _ O.g.H.m.[ G _ [ b v [ 5.1.O.G | @.6.x.v.5.[ [ 5.8.g.1.| 5.8.1.1.O.t u u f e e ; < 1 j G | @.@.@.5.v.8.L F f F i g g l l e u < Z [ e ; c _ [ { | { _ @...] b.A.B.O.G | 8.| m G _ @.1.....r.r.1...w.b...O.5.@.5...4. X X1.5.b.r.2..._ n L L O.8.8.c.|.b.m y f 9 c m _ G g ' 3.j u } e.3.U t ; - t _ L k 1 < ; j g ; - $ 9 9 @ . X H ,.j L 1.g._ G 6.g @ j @ X ; ; c e $ @ @ $ % . $ $ X   . X . $ @ X . . X . . X - ; ; : ; $ X - ; @ : ; - t X . - o . : ; m j 1 - n j @ ; 1 ; ; ; ; ; : t G _ u.u.y.3.1.G h U ' F - u L ` 8.n w.u.' | } 1._ _ e.|.}.b.1.b.8.O.x.M.A.A.b.O.l _ { { G G G z t i t $ X .   ",
"v.^ p.dX+X>XS.I.E.b.u.;.E.}.4.E.n.| n | ] I 5.y.Z.Z.e.n.J.J.Z.I.S.b.r.}.U.3.] -.3._ | m z @ . . . - ; y ; X .   . X @ $ X $ ; t n n j u t : 1 e : : t i g i : $ @ X j L L F c f u u u u i y e e i i ; u L 1.I L | 5.5.G m >.m.B.A.B.g.} [ | 1.[ 5.G v L f j F F G | 1.5.[ b.A.1.[ n [ b.r.] ] j R d.$X;X X}.I.b.O.[ [ _ _ | L n F L } ] 4.w.2.e.}.v.5.F ; ; c g c ` ] _ c 9 : y 9 : t n g > t ..5.| 8.2.v.| 5.n.V.R.F.B.M.x.8.6.O.[ 1.1.[ _ _ _ z m O.O.1.O.5.v.g.>.1.1._ m | 8.1.v u L O.5.5.5.' ' g.B.R.F.5.O.O.c } 5.F 7 t i t t u < * 1 f G } | | 5.@.| O.1.7.I n ( n % : g t e * t n : e n G [ _ _ | ] @.2...2.A.v.( m { { { { } | 5.2.4.r.b.8.1.] 2.2.( _ | 8.x.e.r.{.E.G y ..b.b.2.m v [ c b { ..J.%Xb._ n t 9 z m m G c z 2.1 ; L ~ n L n G : e n n ; ; 1 ; k - f g l l ; : @ @ F 7.O.G _ | G t | z e o ; @ % t ; ; % + X @ = $ $ $ @ . X X @ . @ @ . . . X . @ $ ; : $ ; $ $ @ $ @ e ; ; : . . e - ; @ 1 _ } F ; j G $ ; g ; e ; ; : j e j m -.y.3.[ O.n n n | 5.g n c n ` m ' p.r.2.>.v.Z.1.-.A.-XA.8.x.5.O.x.P.R.}.E.8.G G { { | _ _ G t : % $ . .   ",
"N.W.@XOXaX>XoXoX.XC.Z.0X:X}.y.4.n.m m U L G } ] e.w.:.-.2.2...2.r.v.8.Z.w.w.;.4.y...2.L m ; X . . $ t g 9 @ . . . . X X . X ; y t u u u e : t : ; - 1 u f u ; $ X X f F j n n f v e e e u i i i 7 : : : f } F v | 6.5.F L _ [ 5.b.P.g.5.>.| } | [ [ n G : g G v F | 8.8.| 8.-.| n j L 6.8.1...j R +.R.;X;X-X}.A.{ L _ _ m | 1.[ G L } -.e.8.4.-.r.8.| n ; : t t i G ....[ c c n F 7 c g g ; t ] 3...2.w.b.5.5.4.O.F.#XB.@.5.8.M.m.8.8.x.5.1.| _ ( z c G _ O.] L } g.m.M.v.[ m [ [ u 1 k L 5.8.@.1.| { 1.8.O.L | 4.4.7.v.5.u f f * 1 h t f l c [ 5.8.8.x.b.6.8.x.x.5._ _ G : 7 f t $ $ ; t g n | 1.[ G v _ | O.8.r.2.4.e._ L | 1.@.8.5.} O.` ] 4...| [ | b.e.| _ m ] 5.4.2.{.b.z z ] u.Z...c j L z _ 2.e.E..X5.} O._ t ` u.5.[ i g 1.v u 1.U.-.U L I f e e e - u e ; ; ; U } ' ' g : : X ; G 7.F i g h e G j u $ @ @ 9 ; X . .   . $ 9 ; @ @ @ X @ $ ; * . $ X . . X o @ @ $ ; ; $ X $ $ X X : g : - . X i g ; . 9 m | _ j j g $ ; g e 1 e u g e j n z ] 9.5.L _ v I o.>.O.5.n e n ] 2.m L j ` 4.9.y.4.w.}.-XE.M.g.} O.5...2.b.A.v.} O.6.5.5.{ _ G i : ; @ . .   ",
"} w.Z.;.[.+X7XS.Z.b.E.yX:XZ.b.e.y.8.-.m m ~ ] [ b.Z...[ @.2.w...4.b.1.e.4.r.2.;.L | ] ' L ; - X . $ ; 9 ; X . .   . . . . X t t t : 1 u 9 ; g t - ; 1 u j u t 1 X X g G f c j j j e u g u f v g : ; : ; t F F n } 5.e.1.G n G G } b.8.1.G L L n G n G G k f f 1 f F _ } [ 6.e.} G n G | 1...4.k 3 H g.oX.XI.S.A.1.G L _ ] { ' { G L O.| 8...2...w.5._ n i y z g i c { | n n _ j n l b n c @ ; n 1.5.8.e.5.*.5.O.[ 7.F.~.m.5.8.V.B.B.N.B.j.8.4.1.| O.O.O.| ] | n G [ 1.b.b.] m m G i ; 1 G @.5.6.8._ | 6.O._ O._ G 1.v.>.L L ' G ; - - 1 f n F [ 2.e.v.8.x.v.8.1.5.m.1.[ j ; : y : = : : 9 - e m ] } I g [ @.| 5.2.4.y.v.G } c.5.1.8.5.{ | @.1.@...1._ c [ 5.' _ _ 6.M.E.E.A.8.c z ` 2..X{.2.j j G 5.c.w.t.|.8.1.1.} G O.n.v.| L j _ u A n.I.e.] L L t t c t u j e e v n t n z 9 ; @ : X - G 5.I e e j v G ; ; 1 * $ X . $ $ - t ; X $ $ $ @ ; @ $ . ; $ $ $ - $ . . X $ ; ; ; - $ @ $ - $ @ - e j ; - @ g n c @ t t c G [ I I v f v e t ; i v u n F z m 9.| ' n G } 8.B.R.}.U y u _ _ n n m -.:. .2.| | I.>X-XA.5.O.b.v.c.b._ v.c.6.5.2.5.@.@._ F e @ = ; .     ",
"Q -.}..XI.u.A. XI.A.;XyXoX2.b..Xv.n t j n g ' n e.b.1._ 2.u.r.| b.E.r.b.y.-.4.` m _ 2.3.n $ - X X t j l ; . X .   . X . . X ; e e ; ; ; $ $ t e e 1 : e n k g t X $ j n f n f u i t e i u i c g : ; ; : u b f G G 5.8.8.@.} L G } G o.} G [ L ' 5.} U o.I v n n F G n j F 5.6.L f f _ e.w.w.r.k , C g.}.OX XE.e.O.[ _ ] | ] ( ..] } ] 1.r.b.c...1...] L G | m m m _ _ ] n m G G G | ] [ n 9 t g _ 8.b.5.@.>.| [ k I m.^.F.8.6.M.B.N.v.m.B.V.8.6.8.1.>.v.M.} F F O._ } 5.b.R.8.Q m _ G g m | 1.5.6._ O.N.m.@.[ O.I j F F f F } O.G - 1 j I O._ c G | _ L 8.v.5.M.F.H.m.4.| j $ : ; 9 : ; ; X @ - - : e j O.b.5.]  .2.w.g.5.O.] ( ` 8.@.G _ O.6.A.2.5.O.F G 1._ [ 8.b.A.{.&X|.b.G m ( w.{.b.4.c G | @.w.w.A..X1.[ | | | _ _ [ j f g f 2 P |..Xe.G I j t t g i l L l j } ] m 9 ; : e 1 e e 1 _ } I j i F 5.[ ; X $ ; - . $ < < ; ; $ o . X ; : @ ; - . X @ ; @ X @ . . X X $ $ . . - ; - * $ : e : i ; : 7 ; m 9 g m 9 ; z z L O.[ I F u t : : 1 g n g ; ~ 1.Z.y.5.O.t.{.-X:X|.2.g j _ N m m n g | _ p.C._ c.oX|.8.O.5.b.1.8.b.O.8.e.[ O.8.5.@.O.G b 1 @ ; % .     ",
">.B.&XqXoXb.2..X2.4.U.6X XS.c.E.v.N e n N g _ w.-.2.2.Z.i.2.y.e.v.2.2.2.Z.r.2.| v G -.=.n @ $ X X t c z ; @ X .   . . . . X @ ; 1 - - - $ @ ; 1 e u e t g c t : X < k L _ G n j f f : e u j g t : ; e e g n u j G 6.M.v.1.L _ } 4._ I >.6.| y.| 3.| U G F G G [ } G j j n O.1.G f j [ 2.q.e.r.F , u 5.Z.[.P.{.v.5.5.1.| ' ] ` | -.] -...b.b.r.2.2.1.] _ ' 2...( _ ..' G i g L L j j n ] G l G t v } O.G _ } I J G O.g.N.m.m.b.b.b.v.g.v.B.B.8.5.5.1.} 1.8.7.5.5.@.1.1.5.v.B.B.b.1.{ _ G c m [ O.5.O.c _ 6.5.O.O.F F F G | n v } I < ; t F U G y n n j G O.8.F.!.g.>.v.B.V.c 9 ; ; 9 e % $ @ $ 1 : 1 ; j { 1.5.] ] ' ' O.5.[ n ....] m O.| [ 5.R.e.v.5.v n O.} G @.H.&X>X0X.X.._ ( 2.E.r.g _ I >.4.e.w.r..XZ.Q m ] 3...n e g t g t t 3 F R.Z.1._ m l ; ; t j c | m U L | F t ; 1 t e i e v Q y _ O.G j 1.7 @ $ $ ; $ $ 1 u u ; $ @ @ @ $ $ $ . $ $ . $ g * $ $ @ X . . @ : X . . X @ - X @ : j t n ; - ; ; L g c _ | z j g y G | | I k ; : : t n } j : ] V.P.W.A.x.C.-X6X;XI.L t g 1.-.m n c n m Q i.[.r.4.1.v.>.} O.8.@._ [ 1.b.x.1.| @.[ { _ G j : $ : ; X .   ",
"5.m.R..X@X.X[. X XE.-XaXaXE.e.r.=.| i ] ;.4.i.;.u.:.;.4.u.4.P.Z.4.] | 2.2.u.b.| [ | e._ e X ; $ X ; l g g - . .   . . . . @ 0 y - : ; ; @ @ $ e e t v F g e 7 $ X 1 f G L F G F F n e u j F G u ; j G L j i t n G 6.B.6.} n v L } O.' | _ e.1.1.5.*.} G F G v G G j f i k G [ _ m _ ] ` 2.t. .u 4 u 8.U.A.y.8.1.5.5.| ..' | ' ] | _ L ` 4.2.2...2.1.@.O._ 2.r..._ | _ _ c y c c t y c [ [ c | | | L n k g j f D [ O.,.8.N.F.B.B.v.5.8.B.b.8.O.G } 1.| F } v.8.1.1.5.4.8.8.v.R.~.b.] _ G z G z b [ | { { 1.1.{ [ I F } 5.>.g f L } _ Z t u g L O.5.I f n [ g.m.x.G G v.H.x.m ( m 7 ; ; : ; - $ e 9 9 9 u g z G _ 9 ; i G G f j 5.A.Z.e.g.O.[ | ..@._ _ I L [ } L 7.H.%X&X&X|.2.c _ e.A.Q ..| F } 2.b.b.2.Z.w.m c ] r.' 4.g ; G ] j j - h e.A.5.c l l : u 9 9 g n F L F G n v 9 t v 7 i e m ] | 0 ( L j O._ y @ . X $ $ t t 1 X $ - 1 : - ; ; ; $ $ $ X - : $ $ - $ . X $ - $ . . @ ; ; @ @ ; : 7 y y t t t m n m c G G t $ n G n j L F L t G f G j e _ ..n.n.A.E.S.D.-X0X;Xu._ e - ] G n.OX_ z G =.[.+XI.D.| ] L I [ } O.O.O.5.M.c.e.@.{ _ _ [ _ G t % ; 7 $ .   ",
"g.v.A.C.@X+X>XD.2.E.jXpX>XI.e.' _ *.y.1.u.i.:.` -.;.2.w.Z.[.Z.e.e.*._ ] w.3.n.1.' e.:.1.e @ X ; $ ; : ; ; - . . . . X . . @ 9 ; @ @ 9 t ; $ ; i i e f F u : : @ X < u j F F n F G F j i f j L g e v | [ G [ n G G [ _ G L n j g m _ v 6.[ 2.[ G _ } G G f k G G G j g k f i G | 2.| 1...-.#.] u 4 u 5.S.2._ 4.2.5.2.2...1.| } _ _ c ` q.2.....] ` ` ( [ [ @.2.2.G ] _ _ m z c c G j e i n L 5.1.L n g j n g u f F I O.g.7.7.8.M.M.7.B.E.B.8.I k I >.} k F >.g.8.5.5.6.8.8.g.b.B.M.g.| _ m n b t 7 } 5.[ G O.} o.} n j O.5.j f c m G U n u h I 5.8.| c v O.O.} v.v.x.m.g.| _ ] .._ ; % : t $ ; : u j n c : i m G f f t t g - e [ V.A.H.4._ 6.O.{ { I @.O.L ( O.G 7.F.|.%XA.e.{ c | 1.A.r.P.} v | b.A.b.2.2.2.G n 4.r.| U.j f n ] O.k , h 1.C.| u : t n n 9 9 g t n L n L j f f : L { m f t 1.b.( m ( [ v I y t . X - @ $ 1 $ $ ; : t ; - - ; - - % @ X - ; @ X - X . X X X . . . $ u ; - X @ y t i n n @ ; L b @   X L u y _ [ t : n ' [ F n n L u u c | y.V.4.b.c.#.A.A.P.V.:.u 1 G ' 2.}._ L L _ U.I.[.3.] G l n [ o.5.O.5.5.8.6.1._ L _ G _ G v t t ; - X .   ",
"N.g.n.D.].+X+Xq.r.}.uXlXsXOXw.| L :.y.Z.B.U.:.y.u.U.4.4.2..XZ.w.u.r.*._ -.| 8.1.4.i.;.4.c $ X @ $ $ y 1 @ X . . . . X X   @ # $ 9 = 9 t t g : 0 e e : g f 1 e $ $ e f g n F v G L _ n u t v U j u j } L G F G O.o.L G L _ g n y j j u I 5.' ' _ | | _ G f u F _ G v j j v F [ 2.8.] b.2...` _ t 4 R 5.I.e.1.-.5.r.8.v.e.y.1.| ' -._ _ 3...| ] @.] ` _ [ ] 5.@.] _ | 1.{ G [ _ _ | _ c g i U O.| G L [ [ G - : f F I O.g.5.} 8.x.b.8.8.B.R.v.G u F L F u u n >.8.g.b.b.b.g.g.v.v.x.m.g.O.| [ _ G b _ 1.5.5.O.L [ } G G I i i L [ b v f j k h n F U F n n O.g.O.6.Q.$XQ.x.1._ @.b...v t : $ $ ; : 9 t t g i j c n n } f g : - - u O.M.M.5._ O.6...| o.8.1._ { O.G 6.M.R.A.( 0 z F 5.v.A..Xb.[ F O.A.E.E.A.2.2.[ G 2.w.` ] ] L G -.2.G - ; _ 1.[ f j L G n e c g l n u 9 u j i e $ i { 5 g 7 0 0 y c b G t : G ; . . - @ $ - - ; 1 e 1 ; ; $ ; ; - $ $ t : ; e $ . X . . $ X . - $ @ ; t : g y ; : ; z f : $ F @.0 . c m m n m ] j g y j L v n L u t t : L 4.W.9.L [ [ 5.1.| 1.] f t g | ~ ] ` n N i.V.p.y.3.2.| U F U 7.g.O.5.O.} O.I F G G G G b j u i e ; X   . ",
"N.V.A.D.C.[.t.D.tXyXuXpXbXU.u.:.m 2.b.5.n.y.4.3.Z.+Xi.w.w.u.E.U.i.i.i.L | 3.5.v.y.4. .w.c $ @ ; $ 1 - ; ; @ . . . . X @ . $ ; $ : = t : 9 t 7 t 9 9 : i i u g $ $ u f n n j f v G L c u t m n g i c _ _ L j [ >.[ [ [ I [ F n g v G G I >.O.} | 5.B.g.| j u h I n g j j j b ' 1.2.4.w.8.2.2._ e 4 2 O.Z.2.*.` [ 2.] 2.E.A.8.| ' :.] ` :...] _ { 1.2.@.1.| | .._ m _ { ] _ O.O.[ | [ i t e G O.| L O.5.U F $ 1 k t k o.8.O.O.x.b.v.g.8.7.8.4.} I U u $ 1 u k | 1.5.H.Q.N.b.v.v.g.g.F.Q.m.6.| [ O.O.G _ [ _ [ ' | 5.[ G } I L | [ G G j F U U | v F U G [ 1.7.m.j.m.Q.Q.N.| _ @.2.4.O.c i $ 1 u f j t u g c b m ] m n e t ; $ - 1 F >.8.g.O.[ e.2.| 5.M.4.} [ @.g.H.E.H.M.( 7 7 j 8.r.2.{.r.| i b O.r.S.u.2.r.| _ w...] n | | >.@.1.L < - j -.} G n F g i y  ._ n g g t 7 n u e ; t G y 0 L y # y q q ; ; @ ; @ X o . @ @ - ; ; ; ; : $ $ : t - $ ; e g $ ; ; . . @ .   X o . - ; $ : ; l F [ j - : : : X X u _ n # i k j i ; c g n f j n n m c : $ 1 ; n | 8.8.c L ' 8.e.8.O.G m i t m _ j m t j ' _ 2.w.L 3.n 1 F 5.8.g.O.I } 5.| F v v G ( G _ v i i : @     . ",
"n.n.E.I..X>XD.>XaXyX-X;XxXU.] n ` 2.i.i.4.y.r.2.b..XA.....w.P.Z.i.n.4.3.N =.2.5.3.r.r...b : : 1 , 1 @ ; l @ @ . . . @ X . $ @ $ $ ; 0 9 ; : e e t e ; t u : t $ 1 u e f j j j u F G g e e j j v j L _ n I F L [ L 5.8.[ 5.>.} [ } _ G [ @.5.8.6.B.XXE.4.F f u v g g u v m _ | 8.b.r.2.2.w.2.` t 4 2 O.1.| 3.m | ] L 2.n.b.5.L m |  .]  .{ ..` _ ] m ] 1.{ | @._ m _ @.@.m _ [ [ | [ j g u G _ | L G [ n i 1 u 1 $ : I 5.[ I O.8.4.| I U >.V.8.7.>.1 ; 1 e L 5.@.5.F.Q.m.5.v.N.m.N.(.=XH.5.| G _ O.O.O.O.1.8.x.x.g.j.k.,.O.N.F.5.[ I [ } ' } 5.>.F G } @.| 5.B.g.O.8.@.{ [ _ O.8.5.| _ 1 1 F } G n f j g j i g c : j j j e $ - e u v G _ O.g.x.] @.2.8.6._ | 5.M.~.~.R.B.| 7 y u 8.A.r...r.| j i G @.t.2...e._ G ] ` Z.-.p.L G _ ..5.h , t m } _ t 1 e j n c y n ' _ -.i 9 9 1 $ - e 7 c O.k f 0 } = * f - @ . $ @ * - X - - - @ X - @ . X $ . $ $ @ $ $ @ - X $ $ @ . X X X @ - $ @ 1 f | L n f : - - - @ 1 u n j : u F j t t u t l c L m 9 - * $ t e ~ ' } 1.' L 4.B. XE.B.b._ _ _ L U u u e f u j _ w.3.m n L n | O.| 5.1.| @.| L G F G { _ y @ : $ . @ . .   ",
"n.P.XXyXiXaXiX>XtXzX;XE..Xb.-.y.-. .8.4.:.L r.A.w.u.y.e.| | 2.I.|.}.b.4.' 5.e.b.y.4.] ..m t ; ; - ; @ @ u ; @ X . X @ X . X @ $ $ 9 t t ; @ ; ; t g : t t e e ; t l u j u i i u G G g c f i g k j G | } L F F F n ' 5.} | } [ [ [ o.L ] _ | v.B.H.E.E.A.| v v _ G j e n _ ..| -.r.w.....r.-...i 4 3 G _ i m m ' .._ -.w.4.] _ ] | w.] ] ..2...@._ b { O._ G G O.[ { 5.| z m m c G _ G L F L L O._ _ [ L F F e 1 $ ; k U G } [ O.4.5.U I V.A.V.4.| ; ; j j G | m t F | _ G @.Q.^.F.F.g.O.| _ G G { | O.7.g.6.8.m.N.F.F.f.O.f.N.m.O.I } [ G _ | _ j } 7.} | b.8.5.| O.8.8.6.[ _ 8.5.| I u j L O.O._ G v k t t i t m -.>.L : o $ - ; ; f O.1.O.8.b.w.1.{ 1.L U | v.R.H.~.H.@.y z j e.P.2...b.} v i { 4.w.e.] 1.' G 1.2.u.8.w.c n m b.8.H 2 f n L g - - 1 g L ] t g G | L G e 1 e 1 u u k t i $ j f t e $ ; ; e ; ; e ; 1 ; 1 t ; - - - $ . . ; - $ X @ - - * ; - - ; @ @ @ X ; $ $ $ $ : u v _ F t u $ e t ; @ $ ; f e @ v v : ; g 9 c t n G j ; $ ; 9 y s c m ' | *.U.E.6X>X%XE.[ j z m _ v i _ 5.1.g ;.n...' L _ m L | | 6.M.6.6.| [ } L F _ G n z v j i : $ .   ",
"8.P.9XxXnXnXxXtXaXzX<X%Xb.p.r.Z.P.y.y.Z.p.] 2.H.}.r.| ] 1.5.5.e.S.XXZ.3.-.V.b.e.2.] -.` z ; @ X $ e 7 ; e @ . . . X X X . . @ - $ $ t t 7 ; ; 9 i i : : e 7 : $ t i i i t f t u n v F b f k F k i | 1.O.F L t n f n L 5.| O.I G b G { [ [ O.-.M.A.e.1.Z.8.G G | [ n j F | @.1.4.r.2.2.#.e.8.| f 4 3 F c m n | | u.2.5.E.b.-.c _ 2.t.2.w. ...2.5.{ ( _ _ m m b | O.| 6.8.O.G n G G G G G e e f [ 8.| n F G k F L F f ; u G O.} [ 1.V.g.U 7.B.g.>.I ; h k g j _ G z G 1.5._ } g.g.O.| _ [ | | G G _ _ } 5.8.| _ 8.H.Q.F.f.o.o.f.m.,.G F n G | } G } 7.m.g.5.b.8.{ 1.F.Q.N.g.5.O.8.5.5.5.F j n G | 5.} v _ L _ _ c n G | | : - ; - $ - u } 7._ _ c.A.A.r...t l } 5.g.v.R.N.1.G b G 2.e.{ B.v.} F j | 4.r...2.2.{ n 5.R.}.w.] m g c e.8.H u | :.u - - : 9 e n b z t 9 j n _ c u e g L G v u - ; j L n L F t i t 1 u j g i j j j ; - - $ ; ; X o $ $ - ; ; ; $ - ; ; ; : ; @ $ - 1 $ $ $ ; ; c n n f f k 9 $ $ @ $ - - t : 1 u ; $ j ` l t n G m t ; ; j ;.t n 0 7 ` _ y.I..X|.}.E.[ n c _ ..' G 8.E.Z.L ] 2._ m n c ' L L | 5.e.1.O.[ v n j c G z c G z v j e $ .   ",
"y.n.wXbXnXxXiXiXuXaX0X-XI.XXr.C.E.W.b.u.i.e.8.b..XS.1.-.5.5.4.c.b.}.P.r.y.v.M.e.' ] ] -.z ; .   @ g g g ; ; X . . X X X . . . - $ - g 7 ; 9 7 t i u t e : e - $ t i g j j f g u n n L n j j j j f _ | n t y t f L G L 7.8.,.} I F v _ [ _ 8.8.4.2.8.] 4.b.4.| [ _ [ _ [ 5.2.y.u.] ..2.` ` ..` Z , 4 f c | | 1.*.3._ [ b.8.O.m G 8.b.w.n.] _ ` [ G c c b y z } 5.| g.m.6.O._ m G G t c n j ; i O.v.6.G F I I 5.v.} f ; ; u } 4.6.2.v.B.1.>.>.5.o.h 1 j F v u m G _ | [ _ b n n b m G G ( | [ n y y z G } 1.{ z 0 [ g.N.F.m.,.g.m.o.u t m >.1.O.O.| >.m.v.2.b.M.@.8.m.g.5.7.m.m.5.>.} I j k L ' ] *.[ } >.O.} G m n _ _ G i t u ; 1 ; 1 I 5.O.6.M.e.b.b.1.t k _ L [ >.7.7.| | ( F 5.8.r.A.8.O.k j O.2.2.2.r.2._ G _ r.{.S.] n g j r.5.C h 5.Z.g ; ; e L u g g 9 = ; g c _ j n t j F F j v - - n F F _ k g j e t f v n k v G j ; - ; < ; @ * @ ; t ; t 7 u - - @ : ; e - - $ - ; $ o - ; - e i u L } O.g ; X - ; ; j g ; $ * o - n z y 0 m _ G n i f n 4.y c V 7 p n ;.2.I.w.v.y.v j c c w.5.N 2.b.I.B.w.] ` m m ' ` =.| 2.e.1.G J } k u L m c v v v v i i : $ .   ",
"V.u.&XnXZXMXiXaXxXaXaXyXOXoX5.W.P.W.v.n.*.y.c.6.b.w.b...{ 5.5.4.Z.[.I.A.e.v.A.Z.] m ;.] 9 : @ . @ y g t ; t @ X . X @ . . @ @ - $ : ; $ ; $ ; e : 1 e t 7 7 : - e f g y i f u i G _ | L G } n j F _ G e 1 j n : n ' L 5.x.5.' c i i v G _ 2.c.c.A.b.e.2.8.B.4.] -.} { | @.[ w.y.2.....1.{ ] m u 4 $ f j | 2.-.m L | ' _ n L z n 2.b.1.| | ( ( ( z t b G 7 u _ O.O.5.8.5.' m b G b i G _ n n G O.1.O.F D F j O.5._ _ G ; $ h [ 1.6.8.5.>.5.O.} G j h f f u f } 4.5.5.| G c z b c c _ [ G _ _ G c m m z G | ..m } | 0 v O.g.N.Q.m.k ; i _ 7.>.L ' n G g.m.4.v.b.6.O.5.m.N.N.F.#XQ.7.[ I G c v f L 2.4.5.g.g.| L [ L L [ | _ G j e 1 : t A J I 8.R.8.L ' _ G G n n [ } F | v.O.G v _ 5.E.b.x.[ f v O.r.w.e.4.5._ G ( ] r.C.| u t _ 2.' 3 u >.b.L : : m 5.| i c g t - 9 l t j e i e < 1 : u u f n v L | I >.n g u u U v.G n F _ u < ; - : t ; : % t t j 9 ; $ $ @ ; e 1 t 1 : ; - $ $ - ; ; - e e } 8.4.j 1 $ : e u F 7 ; - ; - * 0 n G G g n G G m ] g m t 0 m 0 ( N z L Z.{ ' 2.j c n n -.3...;.;.r.[.u.-.-.4._ Q i.e.3.5.2.8.I G J Z f L _ v t t i y e < $ X .   ",
"R.~.7XxXCXCXxXaXaXnXMXMXxXoXP.&XoX|.n.4._ v.N.b.8.M.H.b.e.1.O.b.2.oXoXI.A.A.E.-.N z ` 2.c % @ . e g t t : : $ X . . . . . - ; @ @ : ; @ @ * : : : e e t t e e ; t j g 0 y i j i b 1.| m L } j j F G v f i G n g m U *.| _ 1.} c e t F G _ 8.5.@.w.e.v.v.8.8.8.v.| ] m F _ n 1.2.2...2.8.| L c 1 4 1 U c G | ' G G G G m m L t f 5.6._ G ' _ m b g t v z % u I O.5.O.@.1.5.5.| G u : c _ L l n [ O.G e 1 t t { 5.[ [ U 1 . $ 1 j } 5.1.O.8.N.g.U j 1 G I t t O.g.8.8.6.5.5.O._ z 9 g G { _ G _ G | O.G c ( ( ( O.5.[ u e G 5.v.[ @ 7 b 1.H.m.G e f g 5.H.8.m m 1.O.1.B.F.m.~.$XN.1.O.O.O.[ } O.7.v.m.7.8.g.O.] | ] 1.4.4.5.5.[ g 7 e : < u n 5.B.O.n g G k f n G 5.g.O.8.R.2.n j _ @.c.2.@.G j I e.A.A.2.2.5.G m ] -.r.r.[ f j N L U t 1 [ 3.{ j e c 8.8.{ g j u - : 7 t ; ; ; u ; : t j u F n G | 3.F >.} g 1 u G L [ n F _ f t - $ : e j j e @ : b 0 $ $ - $ @ ; $ 1 1 u u ; 1 ; ; ; e 1 t f ' O.[ i 1 < e e u v F # $ e : : y 0 c n y g g z m } u ] t y -.M y m =.3.[ | ] m y G 1.m ` @.u.I.D.X.q.;.b.;.r.-.e.b.w.b.2.2.O.i v G j j v ] n u i i v e $ @ X . . ",
"~.=XpXaXnXxXMXxX>XaXkXxXbX&XP.|.&X%XZ.[ _ 8.B.x.g.M.!.A.Z.8.V.b.2.>X{.A.b.b.Z.} ] n ` ] y ; @ . ; t t : t @ X @ . . X . . $ ; ; : t z 7 ; : : y g t t e : : t e j j t i i i u i v G ( L G L c n v G h F F G [ L G 5.8.4.O.] G n g k G G m 1.5.e.6.5.8.8.1.5.y.A.4._ } n [ _ L ] ;.` _ | | [ F 1 $ u L n n G N ] ' b e e v j ; t _ | c _ ] ] m y 7 t t 7 $ ; i b b m | [ | 5.6.| v 9 b | _ c m m ( G i t j G [ [ _ c f u - - - u } 1.G G +.g.5.I G k F I G F 1.5.} | O.| _ } 5.O.G [ | _ } [ G _ [ O.7.5.] | @.5.b.m.O.j G _ O.I : 7 m 8.!.F.>.n t c 8.A.v.| m { O.5.8.@.1.8.x.M.H.b.5.f.j.m.m.F.$X~.N.v.g.g.5.1.5.V.W.B.8.b.5.u i i : : t L e.b.5._ U g e f I O.v.m.v.b.B.1.{ v | 6.6.5.{ v k O.E.|.E.4.@.1.G m 2.8.5.2.L n F n j c t - f L _ f - u 5.8.1.] L n - : ; ; $ $ ; v k e g f t k F _ ] 4.] O.} n : 1 v F G G U F j j ; ; f e ; F j : $ : 9 ; e : ; : : - 1 t 1 ; 1 u < f e c j u 1 t u u y f i _ I _ i v v e 7 n 0 g y 7 9 z _ _ [ | _ _ 2.;.y ^ -.~ N y.n.1.2.Z.C.] ( ` | | _ ..q.t.>Xp.^ X. .;.e.b.Z.w.y.A.c.{ G L F i f G G j i u t e u u ; X . . ",
"(.$XpXMXsXiXZXnX:XkXkXuXtX{.C.E.%X;Xw._ m | g.8.8.e.B.B.A.v.B.W.|.6X Xb.v.A.b.| ' N | ;.y @ @ X $ ; e g : - X . . . . X . X - e i t u l g e i f g t e 7 e t t t g u n v i g t j n b n } L n G L F F F [ } } ] L L [ V.b.7.4.| n G j F [ G _ ] { [ [ 2.4.2.8.8.v.4.g ' @._ | _ _ -.n m ` [ } n t , Z I L j L ' ..| j $ $ 1 t @ e G @.] { ] ] m y : e ; ; @ ; i c G { | { _ _ @.{ L c z [ n v G c g v e t b } O.| O.[ G j 1 $ 1 n O.1.F h u F I A u H } I G O.g.5.@.6.x.5.z G g.v.5.6.6.@.g.5.L 1.5.O.g.M.v.O.| 5.v.B.B.>._ O.v.g.G t n 8.#X~.4.F t = [ x.x.1.[ { 6.b.e.1.5.@.x.!.R.8.| [ 5.j.j.N.(.#XQ.m.g.8.4.4.e.P.|.R.b.e.>.n g j g g t [ b.B.N.5.8.5.F 1 [ g.v.x.v.m.H.v.O.F G @.2.@.} j F 5.E.E.v.5.O.1.F n -.4.1.| F i j m L ( t < e c | t $ e 1.@.| n ] v 1 : ; ; 1 ; ; v u t f n f e n ] >.4.5.L L ] * ; 1 j ] @.G F n k 1 1 g j : j j : ; : ; $ 1 u 1 * $ ; $ $ 1 1 f k h k j c | u g v j e } g.5.>.} 5.I G t u 7 n g y 0 z y z m b _ m _ | X.u.2.z :.t : ] V.e.4.B.}.4.Z.2.' | [  .q. .-X;X{.q.w.D.w.b.E.C.n.b.2.@.5.O.I j f G _ v j i t e i i e @ .   ",
"Q.$XqXxXsXsXaXxX>XuXmXpXiXn...Z.XX;Xb...m _ @.v.A.b.b.B.E.|.E.A.E.I.2...2.e.5.' ' _ 2.i.] t @ . $ 9 9 g i $ X . . X X X . X ; f j g 7 : 0 g j n b t u e e t j b i f G v j f k j v F G G ' j n n b I F G [ [ [ | | 5.x.B.>.7.1.O.| n F } } | @._ G | 8.b.B.A.b.6.5.l l _ L ] _ z m N t j _ ' j h 4 , j U G 1.| -.G j $ . X o $ : m 1.1.] { Q ( i u i - < 1 ; j } 5.1.O.| _ G _ } G i g j g L L n z F F v G [ [ _ _ | O.>.I   k } } 1.[ u - t h u 1 h o.5.O.g.B.m.m.N.N.V.| | 8.O._ 8.v.8.1.O.5.6.@._ } v.v._ G ' | 8.N.g.8.5.5.5.I j n 4.!.#Xb.} G c L L L ] 1.5.5.b.R.M.b.x.6.V.H.m.O.I 7.g.1.7.N.Q.Q.m.g.1.6.b.B.B.B.B.b.v.4.[ n c c g : I v.N.V.v.V.A.1.1 F 5.g.v.m.m.H.V.| G } 1.5._ _ v F 1.A.E.v.5.} [ u f _ _ G m n j G 1.b.e.j - u G _ l - e g v j n ' G n n 7 ; ; : ; t t 1 u k u e G L L >.3.[ n G e $ - g | L L G _ L j t n G u g ; f e e $ : y j @ . - - $ $ - e F G } I G j _ _ G n _ G 1.H.~.B.o.O.J I u i c m z 7 c [ c g ; c L G [ ` r.W.|.1.~ n g >.v.4.3.n.4.] b.P.| n G ..S.u.Z.;XkX6XS.u.@.w.u.2.` e.q.A.x.@.} v i G _ F i v v i i t = $ .   ",
"Y.Q.0X4X+XtXiXoX[.aXMXkX>XZ.Z.I.A.A.8.( 1.e.v.e.v.w.B.P.|.;X;X|.n.4.q.] 4.-.' -.G | Z.S.2.t @ @ ; ; t u t $ X . . . X X . $ ; t f t 9 9 ; 7 j j n j j u e t j m g u F G n j c j j j _ L G v G G b _ G L G v G O.5._ N | | 1.5.8.8.o.I F [ O.g.g.5.( ` 2.b.S.b.2.5.n g n F F [ i z n g l u t g u - o , f G 4.] -.n c t - . $ - : z { ] ` ` G ( y y z - < h t u G O.1.5.1.| [ m G G n c 1 e n L G F F F v c G G G [ 1.| } F $ F | [ | o.j 1 1 t k f u o.m.8.@.V.m.g.m.F.v.| O.O.[ _ 5.b.5.| 1.6.R.F.7.@.6.x.m.m.8._ { 5.8.B.M.B.5.L | [ >.B.R.g.[ O.4.8.5.8.g.N.F.| | B.N.x.6.5.v.m.v.,.[ >.1.[ _ g.F.m.g.x.6.8.8.v.Z.B.x.8.e.5.1.L G _ F i k [ O.O.1.1.| | u u I O.g.v.1.5.1.G _ 5._ G m n t b O.M.E.x.[ F U - f L _ G n g n G | 4.v.H , u U n j ; j g g t n c n _ L j u u j 1 : : e u f ; - u j g g ' | g f e * $ g L U F G j n k g i G I n : j n f t u 7 : : - $ : 1 - - u [ [ O.O.O.O.| 8.5.[ 5.1.O.b.!.B.n v U o.J [ | c ( g y G f m u j O.{ ] 1.i.OXoXZ.V.>.c m x.b.8.y.S.` 3.5.1.[ | ..r.oX|.%X>X6XE.|.b.r.A.w.b.Z.2.e.c.6.} D F _ _ b v G G j i i 7 $ .   ",
"m.~.:XyXtX7XaXoX;XCXAXpX}.e.b.I.A.e.| | | 2.3.v.Z.y.y.n.E..X|.|.Z.y.w.3.2.2.' _ ` ' i.b.] t $ @ : n c y 9 - @ .   . X X . $ ; e u i 9 9 $ : t g c g i g t e j b e j U n _ n v G c c G G n G I I v [ [ } G k n | @.L 1._ _ _ L 1.O.} I G G @.v.g.e.b...Q 2.A.b.M.2.G G [ 5.b.Z.O._ ] n _ G g t n ; 4 2 U n 5.} ' n n j < X @ - 9 g _ m b ( ( ( b g b u t h u t z [ | [ G G [ F G O.L F ; 9 j G c j i v F F n g F O.4.5.O.>.I G G u F [ G F j u h h u I x.e.8.g.5.O.7.g.5.{ O.5.g.7.| } _ O.@.6.H.Q.N.N.H.~.~.R.Q.N.| 5.8.B.~.R.v.>.[ } 6.8.m.R.F.N.N.N.m.8.8.v.v.O._ @.6.8.x.e.M.M.6.O.O.1.} [ [ 5.m.v.8.5.8.8.8.v.v.B.b.6.8.| L L [ ] [ G e : f L O.O.| _ f : f F o.8.5.7.8.G | 1._ n G j ; j O.x.B.g.I u j 1 1 v m ' j t n L ] 1.5.u $ - g g n e 1 n g g b [ 5.6.1.L j g k 1 e : ; j ; $ - 1 u e t i j j g t X t - g L 3._ m _ v n G ' g g n L j n z i 9 : 9 t t ; j g e v [ [ L G G O.5.8.5.O.m.g.x.x.B.V.L n J 5.} O.6.b G ] _ ( n g j n L G ` ..L.oXpXoXn.3._ n 1.A.B.I.E.y.v.} _ | 8.b.#.A.|.H.E.%X|.oX|.~.|.E.E. XA.c.e.8.O.F F ( G G G G G G z i t % X   ",
">.B.5XaXiXaX+X7X;XnXNX;XD.r.Z.Z.P.u.b.8._ _ ' 4.P.b.b.y.I.P.E.A.E.e.Z.-.] | ] m ' _  . .y % . X ; j b 9 t - @ .   . @ X X 1 e e i g : : : : e j g c t t : ; y g u c m n j f j N G L n t e c L b G [ I L n F j [ [ n I I c n g ' ] _ [ G G O.v.5.@.e.M.4.@.b.4.e...] | 2.A.E.E.v.4.e.1.5.{ m c m ; $ u } } w.-.g n G e $ $ @ $ : c m z b [ G m c z n i t u 1 j G O.5.O.} O.L t n ( [ L i j t G v e e i I O.o.v t G [ [ | O.>.>.F - v o.[ I G f u 1 h G | | 5.1.O.1.5.1.5.@.5.M.V.g.5.} } 1.v.F.m.m.F.R.~.(.~.!.R.5.[ 8.x.H.!.H.b.5.m G 8.x.8.Q.$XR.v.v.m.>.| 8.g.5._ _ 8.x.B.B.Q.B.5.O.[ G } 1.| O.v.N.b.x.x.b.B.B.B.V.7.>.1.[ F G [ | | _ i t u k | O.L F ; 1 j 1 I 5.O.8.x.[ L L G L G j 1 j [ 4.4.5.G t u f g j _ n 1 @ ; g g ' } h , - t n l t t j t t f ' x.| O.G j U G u u f u i - X $ - u t 9 f g n u t - $ : c _ [ | _ | ' ] n L g e l m n g L n * @ : : z g g t e k F F G v G O.8.e.1.1.g.F.H.6.8.4._ G [ 5.O.I } L G p m ' c L G g n c g ' ..|.6XE.|.P.[ z G A.|.oXi...v.L c e.2.b.b.r.E.B.B.B.H.| x.V.B.|.w.r.S.J.A.e.@.v b c b G L b b m z i t : $ . ",
"5.B.:XyXsXsXsXiX;XoXzXkX:XI.u.b.Z.b.b.2.G F [ 1.b.E.E.Z.V.Z.Z.v.2.1.4.3.] n -.` ` -.-.X.z @ . . : i c 9 t ; X .     X . X e u i i u ; ; ; 1 u j j j j c : : e e u v n n n G z _ n G c u j n m z t G L G j u G v v G [ I n j f } 1.| | L I O.B.g.5.8.b.A.A.I.v...8.5.5.6.M.H.e.v.2.1.| { 5.] ` n : , t } | V.] c g L c f 1 : 9 t c L G m m c m [ G n u t ; $ v G ~ 3.O.} o.I G _ G m v 1 ; j [ } [ I U [ O.+.G F [ | O.5.O.,.7.O.k G 7.5.5.5.I u u G O.8.8.8.1.O.[ _ [ | | 5.B.M.g.8.7.j.v.m.N.m.m.m.N.8.b.!.~.!.5.c 5.R.R.8.6.b.M.I g 5.| y | v.j.7.1.j.8.5.O.7.x.{ _ @.b.H.b.x.8.g.g.>.L _ O.8.g.5.g.m.x.B.~.~.!.R.R.g.} O.I v _ | | | _ c : : : F >.' [ 1 $ 1 g U } } 3.7.I F F G | [ c t u F [ O.I k t f v j L 4.| j : ; - ; f I t 3 t j c b f t j 1 e t c m n v f j v F m i t t e ; - - ; f u j t t n t e ; u v n F L F U *.| L L n L _ g F g e L j X X ; 9 l [ f u 1 j f G k F O.O.8.b.v.8.5.m.B.g.1.4.| 5.O.o.} G } 7.>.| 6.( G G [ _ G c i c i.+X0X{.%X%X} i G A.|..Xr.` w.] :.e.4.e.1.v.v.B.x.5.| 0 # y | P.I.! 2.J.A.b.8.6.2.| G b G z b b j i t ; X   ",
"7.R.oX}.oX>X7XiX+X{.tXxX{.u.C.A.S.E.E.4.' _ 8.v.M.b.A.P.b.8.v.8.5.1.1.' _ ]  .| | 4.u.w.` 7 @ $ j n f t e ; X .     . . X e u j j e ; ; ; : e g c g j u - ; : - e u k n ' L _ ( c g i g c n c j j j n L c F I v F L I I F g n L } } _ O.O.7.B.B.b.4.b.b.E.}.n.4.5.I I O.8.v.4.} G L O.2.2...] _ 1 < t G 3.] G n c n L G f e t 9 y j c m [ z G { _ j t 1 < $ t 4.7X6Xe.G G n _ L F G G f u U | >.>.5.>.o.o.o.+.O.5.5.v.v.[ I 5.>.G } 8.5.1.4.| F F L 1.5.1.1.g.6.( m [ @.5.5.5.5.O._ G O.8.b.m.g.7.5.m.g.@.m.R.!.x.j O.R.F.g.[ 8.x.F n 8.5.| 5.m.m.7.o.G | 8.} >.4.| { 5.B.M.8.8.b.F.m.g.g.>.[ 8.F.F.m.m.m.H.$X%X~.!.E.V.O.[ F D | 1.[ G n i e e : e g G } u - u n u f n L | | u k L O.[ n j f F U f t : : u F n L *.5.1.c e - - - f 1 3 j n ' _ t u t : : u : 0 9 u e e 1 j F t e 1 u e 1 ; : u t t g e g ; ; - ; e : 1 F o.g j L G L n f n j j i 9 G c g 9 9 i v G j f : < h F F [ v.1.6.M.b.H.A.M.6.5.O.1.5.8.7.+.+.G [ v.8.b.8.g.x.| [ [ @.i : L D.>XzXyX0XXXt.G G x.$X;XA. ...` ` 2._ | { 5.A.}.e.m ..1.( y c 2.oXD.+ q 1.b.c.8.8.@.| ( m v z v y y t $ .   ",
"7.A.&XI.OX.X[.}.S.oXtX:X .u.I.b.b.E.v.3.| 8.b.u.] 5.e.v.8.v.Z.e.5.1.| ] G L 4.4.1.v.b.S.r.z ; 1 i c c = = $ o .     .   . i y j j t t @ ; $ t c g g t ; - e $ $ t f k G _ L _ G n i g j G c i j j j c n j v k f n n n j n c v F [ { ' O.7.5.8.8.v.V.8.M.E.E.B.1.O.n j i n O.b.>.8.5.4.A.b.1._ t : ; h _ ] m n i j _ [ L n g 9 : l j l G 8.| G G b F 1 - 1 h t v.ZXJXaX] k j f e 1 k F i u F O.5.7.8.5.[ F F [ O.>.8.m.7.J F I } 5.g.N.V.5.@._ n [ >.} L [ G L G { O.@.1.8.5._ } O.{ G _ g.R.m.[ b 5.v.m.8.H.!.E.v.| ] m.j.1.[ g.V.G G 5.b.~.F.5.g.m.>.[ 5.5.F F O.| O.6.v.8.8.e.8.g.O.5.F.j.} | m.^.H.N.H.!.=X*X%X*X$Xb.G u u F } | G n v j j j t t n n j 1 u h k j f n t k L u n 1.6.@.L F u f v j - ; ; h F F >.v.b.e._ y t $ ; e u 1 f n =.4.j e : t j F c u t j t e - - - - 1 j u : 1 e e t ; e f : e e ; - - - - - f n e e g n n j g n F f u t n j n : ; g j ' 1 g : - 1 u u O.7.| x.H.b.J.H.m.@.[ F I O.o.o.I I I } 8.v.B.8.b.m.V.| G G c z ] [.;XpXzXjX*XD.b.M.A.|.%XA.Z.X. .( b G _ ] ..b.b.v.x.x.B.7.5.] ..w.}.r.@ q m | 2.@.( y b n v i i z j e @ . . ",
"g.B.%XXX.XU.oX[.4.+X;X:Xw.;.b.r.E.b.5.m } 4.A.B.1.' 2.e.4.e.y.v.O.5.y.] _ m | 3.1.b.e.b.y.c < u v g y ; 0 - X X     . . . e g j c g g ; ; : 9 i j i j ; ; 1 $ - u F F L G b m L n j v G | G t u t c j G g n J G G n c g j g n n ( ( ] ` 1.O.O.>.1.g.v.M.E.W.W.B.2.| O.[ z G 4.6.A.B.1.e.1.L l f : u J v g 0 1 1 j L | v.| _ t g f f n G O.O.m b g F - - 1 Z f >.kXLXGX0X] u u f f v G F u n O.5.g.8.[ G F F G G U O.1.G F G I o.g.v.R.$XR.4.6.O.1.1.F u | >.O.G 7.5._ _ O.8.5.O._ [ G z ( 5.O.} o.g.6.8.H.E.R.R.V.M.6.g.m.5.G 1.B.[ m { b.H.m.+.5.g.O.| _ k k L F j [ 1.v.e.8.v.v.5.O.5.7.,.O.[ f.F.m.F.R.R.=X$X$X*XR.O.F e t G } G t g i g c j u ; $ k G h A j j U G n n U k e f O.b.8._ F j u k n e - < k F L V.E.E.b.I g i g t $ $ 1 F ' 3.3.L j 1 n _ G { _ c t t ; < 1 ; $ - t ; - t t g u ; ; f u e ; - @ $ $ - ; - : e : g n f g f g N u g n _ G _ 7 i g n ' g : u ; - f G o.O.5.x.5.{ E.R.7._ D D I O.[ [ O.J o.>.V.b.M.v.R.N.B.5.I L | 1.| w.[..X-X:X|.B.g.A.|.*X%XP.y.u.w...| @.8.2.2.b.A.e.x.H.v.O.M.E.Z.b.{.C.0 # + p 1.O.b 0 z G b i j z c t $ .   ",
"f.Q.*X6X+X+X;XI.u.Z.[.oXZ. .2.2.E.B.} n ] 1.A.b.8._ x 4.1.] 2.8.' ..1.] m ' 4.4.8.e.4.8.r.z ; 1 k g z = - . X X     . . . 1 c b j t g i e 1 i u g e u t ; ; $ < h } [ m c L c _ m n i G 1.O.L t % 9 i e n L } I [ n j 7 t j n G ' ` 2.] _ o.o.>.5.O.>.V.W.|.E.|.I.x.v.V.v.v.8.b.R.A.b.1.' n t t : k _ g 9 7 $ ; u G 4.b.4._ ; t g g n n f G n c k f $ $ - u h U *XJXLXCX$XN ; j G F I G v _ } O.x.x.} n F G G G I >.>.U F o.+.} O.g.F.Q.Q.V.Q.$Xg._ c u 5.m.F.j.[ u z m b ( _ _ c G G G [ G m I I O.O.x.R.~.~.!.x.8.g.m.m.8._ ( m.1.m | m.x.7.o.h.v.O.I F j U F u f | 1.B.!.B.B.R.N.m.8.o.O.O.O.O.k.m.m.m.R.$X!.(.9XF._ F t t F | G t g 9 e e i u : ; F I Z I F t k I O.' j u X f j.~.A._ G F 1 t n $ $ - h k F 6.I.|.v.G j G -._ i 4 u [ U >.L j j j L 1.] 8.y.5.j t t u f e ; ; e e : e t j u : i j u : u - : 1 $ ; e : X @ - u 1 1 u n F n n v G l g U g l l ; _ g - u ; ; g v F } 1.{ b z e.Q.5.G D o.O.O.o.I @.O.O.7.g.6.g.5.B.B.R.m.O._ 1.v.b.S.D.oXyX0X5XA.y.;.;.Z.Z.2._ -.w.w.e.4.A.A.e.r.A.v.M.M.5.o.m.}.|. X-X}.4.q . 0 | 2.@.[ G G G v v j i t $ .   ",
"f.N.:XzXmXkX-Xb.}.Z.{.XXE.w.] r.&X|.@.] -.u.A.v.6.` Q  .n.4.2.8.] L m _ c ` | L _ 2.8.e.2.c t 1 u u g 9 $ o . X   . . . . f n G v e n n v h f j e : e e : ; - ; g G _ L } L n _ _ n u G 3.[ F G c F G e c G v F L I G j t t m G ] ` | @.} [ I O.O.| } x.E.*X$XW.b.v.H.E.E.|.R.A.A.A.A.8.y.2.c n t n L n g t * $ 1 t c ' | G ; : u ; g G j j g n g u 1 - $ 1 h I $XZXAXCXnX:X8.L F _ } L G } _ G 5.m.5.G I } [ _ I O.>.I | 5.,.o.O.>.>.5.,.j.#X9X,Xm.G t o.F.(.(.F.g.G z m m v 9 c 1.} z c _ G i j y O.@.{ b.~.~.8.[ 1.5.j.>.} c m.V.G m v.v.,.o.k.F.g.} f ; n k u f _ 1.8.B.B.M.M.B.g.,.[ O.1.5.O.m.N.g.g.F.~.~.$X*X!.1.F f j F n u 1 t g t u u e 1 u F I H I G G F O.g.O.u ; 1 7.qXkX&Xn.4.1.k - ; ; e ; 1 k L 5.r.S.e.n v { 2.4.[ R C O.| L n c G j n | } 4.Z.u.[ G G j e ; ; : v n n u : n [ e 1 e e t e t g u 1 : 1 n n - ; t e g n F t G n _ n t i _ L t g f g = * y : - u I G F m b m { x @.f.O.I O.[ [ O.J O.7.5.8.8.[ [ _ } 6.v.N.g.o.g.R.~.&XoXqXkXjXqXuX6Xp.i.u.;.;.w. .X.t.t.r.b.b.w.2.Z.A.M.b.4.O.v.B.A.%X X XE.b.b p e.4.5.5.{ _ G b e e t t $ . . ",
"5.N.5XxXnXkX5Xn.E..X+XOX.XA.w.r.A.A.8.` 4.2.}.*.1.6... .w.y.8.r.2.L ' _ _ G _ g _ e.y.b.] b j t u 1 i t ; * . .     . . X f n b G F U L G j f = 9 e : 1 : : ; 1 n n G [ ] _ n n G G j G ' m n } O.v c c b _ F g f } O._ c y c ]  .m m 1.,.I G I [ O.5.8.e.A.E.b.u.v.B.n.A.E.B.B.R.E.A.8.8.e.O.[ k } 7.>.' } u o : t 9 9 z j : u i t t n m G n g k F h u k h h I N.*XwXMXAXCX5X] t n G G G G c m [ 8.g.1.} | O.O.5.7.7.>.} g.j.+.>.7.I G >.v.Q.*XwXeXQ.5.[ j.R.R.#X*XR.8._ y c m 5.F.m.[ y _ } v i g 5.G q c ( v.1._ 1.O.,.o.I b 5.m.O.m v.j.o.I j.N.5.[ n 1 1 j f n G ' 4.4.1.8.v.8.o.[ O.1.1.5.O.7.m.g.5.m.~.=X=X*X!.7.I F G G j g t j n j F F v k j g F H I G j i } 5.I u : | 6XbX&X0XpX6X&XV.h n L [ h 1 t F 1.y.n.3.i F [ @.8.G 2 A 8.y.} F F L m c m _ 8.b.y.| | | F g ; e : l n U i 1 j F e 1 - : e e 1 c t : ; t ' U $ - l k _ n n j j m l f g - j n y y 9 0 * g z t . ; i i t m y b ] x [ 5.5.I o.F I I I } 5.g.x.e...8.y.8.O.O.g.5.} 5.Q.Q.B.!.lXlXzXzXxXwXZ..X+X-XZ.` r.n ] r. .` r.q...r.A.A.C.b.@.b.E.M.A.|.E.A.b.2.| _ 4.e.2.{ _ G G i e 7 e $ .   ",
"f.F.5XmXmXaXR.W.XXaX}.+X[.I.E.u.w.-.w.| P.U.Z.-.' O.2.A.A.A.e.w.r.` 2.| _ | ' *.4.6.e.8.3.G j ; e : e t : X . .   . X . $ f G G G [ } L G k v ; ; u ; ; : ; ; 1 v G [ [ ..[ _ G b G v _ | _ [ O._ y j u n | G Z F L O.L g y _ 1..._ m [ O.I J J G 1.x.V.b.4. .m 8.b.x.2.1.] 2.c.6.8.2.] 2.1.| O.v } 8.>.L U 1 o e j y t : j j u 9 t g n _ G G I G U f h F u u G 7.Q.5XMXHXHXkXy.m j G F c _ O.O.O.5.8.m.v.8.8.5.5.5.5.O.} 5.g.,.5.7.} G I ,.F.(.*XwXeX(.O.j F O.F.Q.(.=X^.m.8.m.~.(.Q.N.1.5.5.v b G c 9 p | O.b b v [ O.O.o.I o.f.m.5.G | [ I F 7.j.5.I f 1 ; f t e I _ g.H.R.B.v.O.Z G 5.6.8.1.G G 6.f.,.m.$X=X=X!.M.v.8.| _ _ G n b z n O.1.o.[ I Z f F G G v v j c } I v L R.xXnX&X&X5XpXXX8.o.1.v.>.F u t j 5.v.e.] g z G } } F , h 8.y.[ G n L b g L | b.E.A.8.5.1.{ k i L e 9 t l n f u j k u 1 ; : ; ; : : t 1 - t G u 1 1 9 U j u n c G L ' L 9 e e e m * - t ; c = @ ; ; ; t # 0 y x 0 _ 7.o.J G F F [ [ I O.8.x.6.8.B.E.x.o.O.,.I I ,.B.B.v.v.qXmXMXbXnXuX-X;X6XyX-XX.p.Z.q.2.Z.S.q.x q Q r.A.t.2.` 1.b.A.b.J.E.A.b.b.v.m _ @.2.| G b v j i t : @ .   ",
"f.R.9XxXxX-XOX7X-X6XW.OXU.w.b.E.4.2.-.' w...2.4.' _ 8.b.4.r.4.-.w.Z.w.-.[ 3.| r.I.5.1.1.] n g 9 ; e t t % X . X   . @ . X u F v g F o.I F n G n u e ; ; 9 e e u j [ [ | 5.| | _ _ L j G [ [ _ _ L k c c G G G f G [ [ L t y ' 2.1...{ z J I I I } | r.M.A.r.| m L | O.5.8.2.e.x.8.| ' ' _ m m j g G G n j f $ o 1 u j L g _ ..c e f i z n L [ F F F f k G k i F O.B.5XMXHXGXMXXX8.G I G G G G [ [ O.8.N.F.g.O.I [ O.5.5.O.O.1.1.5.>.F f F 5.Q.$X9XhXeX(.N.g.G G _ ( F.=X$X=X$X(.^.Q.(.$X=XF.F 7 y G G z c _ O.O.m 0 y c I I I o.5.5.[ [ G v Z D [ g.5.[ j 1 $ $ - i O.| 8.F.M.8.5.I A +.v.5.5.g.>.[ _ O.5.v.F.B.b.v.6.v.M.5.G z b v i i G g.m.1.[ G h F F G [ G F D t j f _ n.qXCXbXB.5.j.E.j.[ I ] @.| g t t f L e.u.3.L j G G v F 2 u O.1.G F G [ _ m m m b.}.A.e.e.5.5.f f ' n i : y y f f n I G j f t - - ; - e ; ; : } n f : : c e 1 e F t _ _ G : - f c 0 y 9 @ ; g y . : : e z l g 0 @ p 6.v.G Z k k h [ G n I 1.g.5.8.b.H.g.A P O.h } 7.b.4.1.@.E.xXMXxXxXuX%X5XuXpX;X:X{.I.A.8.E.6X;XA.1.2.q.C.C.Q q p ` ..X.2.8.6.b.A.b.c.{ z [ { G v y i t y : $ .   ",
"h.Y.%XaXtX+X XaX;X7XE..X.Xb.e.b.y.2.w.2.:._ u.2.' ` -.b.w.e.b.2.4.p.u.V.y.| | v.8.5.[ _ ] n t 9 ; : u t $ - . X . X X . . j L G v c G I F k F I F e e : e e n f G | ' O.[ } } [ | L g L _ n U n L n f G n v F v c G [ } c z m 3...` _ i F [ F G O.8.@.O.b.5.[ j v n v [ 1.8.5.O.O._ n ` | _ G c ; 1 e e e ; $ o ; e 1 f j [ 8._ y t n G i } O.e g v i t v g i v { n.&XlXAXGXAXaXW.8.} I o.[ F j j G O.g.g.g.,.G F I } O.} [ [ I G I F f G N.).,X9X9X=X(.$X$XF.} z 7.^.(.(.).(.$XF.m.^.=X(.o.z _ | z n G b G _ >.1.c c z 9 i v v O.O.[ 1.G j i i G O.[ } I v e e v L O.>.7.8.5.O.I A h [ g.7.[ } O.| _ O.1.1.1.O.5.6.5.x.b.5.m i v v h h I j.F.g.1.I h F v v G G j i t f v 5.XXlXCX0X[ L 5.v.>.F L _ 1._ i $ ; f c g n 1.| i i F F C 2 Z } 5.} G G m _ _ z L -.8.5.2.v.1.O.c u n j f e g t 9 g j n G v G j 1 ; $ - 1 - ; : c n t e ; : f : : t y c _ n m n ' y z - z 9 ; @ m * 1 : l _ m m 0 b ] 1.1.k u G G u j n n u G 5.x.x.b.b.5.C A P h I 5.B.B.R.b.x.wXbXzXlXuX%X;XqXuXpXyXtXq.b.2.b.E..X|.E.A.B..X.XA.r.Q p x Q x z p Q 2.2.x.c.4.| G [ F n t t y 7 $ .   ",
",.N.!.+X>X@X@X5X7XOXA.{.;Xw.E.4.e.Z.r.;. .' :.' m _ ] r.i.;.q.r.2.y.| n.|.W.V.4.] ] L m G G e ; ; ; e 9 ; @ . X . X X . . k _ _ O.O.O.} G D f t k f t e : g v u F _ L } ] G _ @.O.G j G | n G G G l c k u f _ } G g I 5._ y c | -.| G n F I G e [ x.6.| @.O.n j v v y m O.3.| n v g n [ @.1.| i ; ; ; e e ; $ . $ - - 1 n 2.A.e.G e j L c F F e u g y 7 F [ v v _ 2.P.6XAXLXJXFXxXXX8.} I I I j u D I o.O.O.O.I h h G I I G F F u F k H g.~.$X(.=X,XQ.x.m.H.).F.O.N.).$X^.Q.m.F.R.R.F.F.>.e 7 c G 9 y c G c n _ | G y 0 y z z b G } } | c z j v n G G [ G I k u n o.>.O.} 8.N.o.k n h F o.5.v.8.} [ [ _ | O.O.O.1.V.Q.R.x.| b e v G } o.I 5.m.m.m.5.k u f f F v i t f G _ n.qXMXCX:X[ 6.n.B.I F O.| 5.| g $ - j L m e v [ j i F F u 2 h G _ | O.| ] | | c v 1.-.>.O.>._ L L n v i g e 9 t i c L F L F F u 1 ; $ @ $ ; : : t c : ; X @ ; - - - : m L n j m _ n 9 @ t 7 ; $ j : ; t j ` ' m z _ c m n e 1 f n v j G u 1 f O.B.b.M.g.Y C C C F I ,.M.E.%X~.E.5XxXpXkXmXlX;X-X0XuX0X>XZ.b.B.M.b.b.b.A.M.b.r.E.b.Z.A..._ ` x 8 0 m 0 b p v | { c v i z 7 e t ; X     ",
"[ 5.x..X>X+XyX6XoX|.C.Z.}.[.y.y.| n.b.i.4.3.-.L g N 2.4.w.Z.u.u.w.A.b.R.;X5XU.| L [ _ L O.n u u < ; 1 u t $ X @ . @ o . . u G O.O.v j c j 7 : ; ; f : ; : y k i G [ [ _ } _ [ 1.[ } n F 7.| [ G L j c g t j [ O.] j [ 8.{ m c m -.] ' m m [ F 9 j 4.B.x.| O.[ { 1..._ ( | 1.n c i f j g c L 3.g ; : ; t j e . . X * ; : j m { 1.| c u [ | _ f u u G O.} } [ u j L 1.v.&XAXIXIXLXFXzX~.g._ [ o.J Z D G I G F F I k < 1 u F k f f h k F 5.F.(.~.F.Q.$Xm._ [ @.v.^.Q.F.Q.Q.Q.Q.F.m.>.o.o.} c v j z z i b G G j b _ L _ G : 0 7 7 y G z G >.} G G b y n G [ G G F v F O.O.G [ x.v.G < - h F 5.g.N.R.g.| | [ 1.5.O.| 5.Q.*X$Xv.[ v i v } 8.5.I I 1.m.Q.F.O.j ; k [ I j v L | 2.W.kXZXxX|.b.W.XXm.F F | 1.5._ t $ - c [ L f j _ L v G F 2 R A n b m } 5.4.5.2.b G [ | y.e._ n [ m _ } j u e u t u ; 1 e t f j ; - $ X . X $ ; 1 t t 9 $ @ @ - ; $ ; 9 @ * n y m G y 9 9 z c g = @ * 9 : ; t N ` c ] c n g e ; 7 L c i n j 1 h [ 8.M.M.5.H A C h P +.+.R.;X|.|.qX:XyX:XuXxXmXpX0XpX-X.X X{..X!.M.b.b.B.b.8.6.b.A...b.b.2.w.2.4.b.@.4.2.1.( q # + + # = e 7 i % . .     ",
"0 x ..p.].>XtXaXpX}.E.P.i.@X4.r.y.| [ G 4.1.w.3.] N -.;.r.w.b.u.w.Z.B.|.:XoXI.>._ [ _ U | F t 1 - ; - t e - @ @ X $ @ . X : u _ F . G m c j v j g t ; $ 7 f n j L ] { _ _ } _ | { _ D b [ 1.O.[ G n g i g n [ [ G j G 1.] _ _ m ' ` ` G G L G G | v.b.n.@.} 5.8.6.' -.{ G n c i ; e y g e 9 g 7 - ; : e e - O . $ $ ; g z g c _ ] n u F | G u e f m _ O.O.G f f G | 8.XXCXIXUXIXJXCX9Xb._ F I I F F I } J u J [ G u 1 h I [ G Z F G O.g.F.Q.^.Q.Q.^.5.G b } O.N.Q.F.m.g.f.f.O.G G G n i j v j v v j I G z b b b G m } G $ % ; [ >.G >.m.g._ [ _ [ F j j F F F j f [ [ F _ 6.8.F < 1 F I g.m.N.N.5.| O.} [ @.O.| 1.8.B.B.6.[ G c n L O.O.G G 5.F.Q.F.5.G ; t G I G } 5.8.b.|.yXaX;XW.}.XXR.o.Z G O.g.g.L - @ ; j _ n g i G G G G h 2 2 F U j j [ 8.B.e...[ _ | } n.8._ n e c _ n j j i g t e ; $ : e i u ; $ . X X . @ X - : l 9 - ; $ ; % : : * . : ; : z m g t e G L _ y - @ ; e * 0 f m ] | n b v i - 9 n ' i n k j v G ] 5.8.5.[ A C H P ,.Y (.qX~.R.|.%X-X|.jXxXkXqX0XaX>X;X%Xt.A.H.| b 6.b.x.6.8.E.E.e.w.r.8.e.1.5.1.2.w.@.5.{ y 7 # 7 7 % 7 b v % .       ",
"p w q ! p.[.;XaXxXtXXXZ.+X[.}..XZ.4._ ] I.p.' ' | | 2.3.] ..2.2...` n.:X0X>XA.1.n L v n | n : : $ ; ; @ : - $ . X $ $ X ; = ; I v t G c b i g v j i u ; t i v j G G | | G m _ } [ n i j [ 7.5.[ L _ v g f n m G G n I O.] _ ' ' 1.@.] ` z n G ' 5.4.e.B.@.| 1.2.} ' 2.@.F _ L n ; : f g g e ; ; @ $ @ @ $ X o . - t ; : i G >._ >.} F v F f e f n c n G F j j k v G 1.R.nXLXUXIXIXGXaXR.O.j k F F D I O.I j o.O.J F G F O.5.+.[ f.F.j.g.m.m.Q.^.Q.^.5.b v _ ,.m.m.k.5.o.F +.5.O.o.o.o.j 7 i u j v v b c j j b c G G o.D ; = G ,.5.G _ >.| L O.O.O.[ j e F f u k f k G G _ 5.8.G 1 u U o.g.m.m.7.[ _ [ _ G | } _ | 1.| @.| } I G G G L } [ [ g.R.Q.N.O.j u u u F [ 5.b.R.XX5XqX6X}.n.v.v.5.A u G O.8.1.n ; $ ; 1 j L L g G v n G h 3 - l ' U U U 2.v.8.| ' ' n F 3.1.L c u L } i G n n n f 9 ; $ - - 1 : e - @ - X X @ ; @ * ; * @ - 9 1 i ; 9 ; X $ 7 t 9 y : t 0 9 ] _ m ; $ X - ; = n _ Q ( ( m y j t h u j j f F G L } 4.v.O.O.,.I Z F G O.O.$XwX~.J.J.B.E.w.:XxXlX6X:XiXpX>X-XA.A.b.e.2.m e.8.x.b.|.0XH.A.c.M.e._ { m _ ] 2.| { c y y y # + + = 7 #         ",
"w ^ ! @  .r.[.aXxXkXyX-X.XoXE.{.b.e.| ] y.3.' ' w.' -.3._ ;.2.r.e.r.A.&X5X;Xu.4.} } j n n t ; - - ; ; X $ $ @ . . $ X $ ; * i [ } t G b g u t c v t t e i i f u j L | | [ G G L } F u t G | 5.1.O.O.L v j n y j n n n O.| | -.` 5.....] z L ] ' ] >.5.g.O.| 5.1.G m [ G j } >.G e j ] ' _ _ m y - @ + . X $ $ . $ ; ; g g n *.G 1.5.[ F n e u j n t g i v v j j k F [ v.yXJXUXUXIXJXMX$X5.v i j v F G I G F I I G I [ O.5.>.I o.N.^.N.g.m.m.F.Q.F.m.,.G I O.[ I 5.g.g.o.j J 5.f.I I I v $ e t j i i i j j n j v v v j ; ; i I F F v J L L G L o.O.[ j u 1 u F G F k f [ } 5.5.I f h h I O.g.8.5.O.[ } } [ [ _ L | | | | 5.g.5.[ G L } [ F I j.F.N.f.[ F F F D J O.5.b.~.5XyXaX;XA.5.,.,.H 1 1 U >.I F j 1 ; 1 e g n j t f j n F u , - f k F >.' ' ' L L G G ' _ _ G _ g n | g c G z m L j 9 ; $ $ ; j n i t e 9 ; @ X t t t ; ; ; ; i t @ ; ; - o : - @ l ; t l c g _ m L ; @ . - @ ; g z _ e.5.1.O.O.G h h k f f F L _ 1.v.A.8._ [ o.k u ,.j.g.Q.~.m.7.#.e.A.6.2.Z..X}.{.iXkX6X.XC.E.E.H.A.A.M.x.5.8.|.%XM.M.5.| 6._ G b m ...._ G F F [ 0 = # # @ # . .       ",
"q x r.tXiXp.p.[.tXaXkXiXI.Z.S..XU.5.[ _ w.y._ ..| 4.;.| -.2...8.M.B.A.|.A.E.y.3.1.L n m -.z 9 ; - - ; $ $ $ X X X X O $ : t c o.G 7 G G c k j c n y t u g c j f j n _ [ _ n G } [ F u 1 F [ [ _ } | [ F e l 9 i _ c j [ 5.O.m _ { ..6.] m ] ] ` m v I 5.8.| 2.8.2.{ [ | L G _ m G 8.A.B.y.y.3.G 7 % . . . $ X . @ ; ; e y z | ] ] O.} G f i e g n i c F F b F u f v G 5.&XFXIXUXIXLXCX%X5.G j f j j v F F P I J I G G ,.>.[ D F g.N.g.5.g.N.Y.F.g.} G G +.o.G F J O.,.o.I I ,.[ F I I F : ; : t t i i f i i u t j f f e j i t t ; % y j F G j J I D i e 1 1 F J ,.[ k D I [ o.Y f h 1 1 k } 1.5.1.>.O.| } } } [ | O.@.O.g.g.o.[ [ F v G v G 5.8.O.G g g u h I [ 5.v.v.W.:X0X0XE.5.o.o.P u - u G F u h f 1 - - ; ; ; 1 u u f n n < $ * 1 j f j j F c [ _ n m L G c l _ c j c m _ _ c } G z e ; - @ $ n n f g j n t ; $ g { G g N n j c 9 - $ * X @ $ ; @ z t : * g m t ; n ; $ $ @ @ g y 7 ( 2.O.O.>.o.I F [ } L L n L _ O.4.2...' j Z h G m.R.k.R.~.j.O.#.H.E.J.E.I.:XyXoX>XkXpX{. .@  X>X%XC.e.b.b.c.2.6.b.O.G G { .._ m m 1.] m F j F { G c 9 y z i = .       ",
"w ! r.yXnX+XL p.>XtX6X;Xy.y.A.}.A.4.] U _ ] m 1.w.u.y.8.5.V.b.A.J.A.x.B.A.E.y.3.i._ G U ` c ; * $ ; ; X $ $ . X X . O $ 7 y F F 7 g G _ G c g v c t f v F F n F I G b L L n m G _ v u f G O.[ _ G _ G n g n u t b n v O.5.5.' m ( 8.x.O.L *.m ` { u F 5.8.5.1.8.e.| m ' _ [ 1.1.5.B.E.Z.b.n.r.c 7 7 % @ $ ; O $ f ' _ | 4.6.y.] G [ O.[ F u 1 u c i v G F G F u u j m ..|.MXJXUXIXLXAX5Xe.[ F u 1 ; ; u u H o.[ I D j I O.[ j u 5.5.o.O.5.g.m.m.o.F j j G J I F v [ F G [ o.[ k F F F F f % e t 7 ; e t t e e f i i i t % 7 % @ @ @ : t i j j v F u e t u u h F +.o.I [ +.I F F u u < 1 h I } I O.O.O.} [ [ O.} O.O.O.| [ G j f v f i G G I } I f $ . $ 1 u G >.!.&XR.P.}.XXW.8.} G G Z 1 - u G k v v u $ X X 1 f g e u f : g F X o * ; t f u t n n _ ' i i n L g j U } G G -.w.1.' | G t ; ; - ; : e g u : f f t y : n G L G m n e t * @ 9 ; - n t ; * n z f g g z g e n e ; @ @ @ L L m N j [ 1.7.O.} [ 1.5.1.L G G m 1.O.2.| ` m f G [ N.Q.g.R.$Xk.@.r.E.-XA.|.|.:X XuXuXuXiX-X.X;X:X-X:X%XM.b.E.b.{ G [ c c ( e.A.| ` 1.@.` L t @ + q z # #   # + # ; .     ",
"_  ./ = n  .a.[.[.oXE.E.e.[ 5.1.1.5.e.1.| _ j -.I.4.P.1.v.H.{.%X-X|.x.E.E.|.v.| 4.v.| b _ c 9 ; $ $ : . $ @ X . . .   @ 7 j L G b c 7 G G v f v b v u F F n F G O.I L ' L I [ G G G h F G G c b g v j j k J v b u k I 6.g.6.O._ | g.5.O.F O.{ ..( i _ x.v.@.O.| 2.' m ] 1.e.b.e.w.b.E.B.1.1.5.p b p = @ * u t u 7.E.2.r.}.E.E.1.m | ] [ [ i u v L L v t j G D 1 e j G ] Z.aXGXIXIXJXFXbXR.O.H h $ .   $ ; 1 Z G G k i k [ [ j j } } I [ [ +.5.f.I j t t j v k G I I D F F F h : j F G J F 1 $ 1 : e 1 ; < 1 1 i u t t ; . $ ; ; 1 ; @ t t k k 7 j t ; ; t u h Z F G [ [ [ I h u 1 < - < h G F v F I I G [ } I G } | O._ G n i u j j u D J I G u . X X . - h G v.qXzXXXP.P.P.8.} G j f f t - f I [ } } k * o $ 1 j F n n j t f G $ . - u n f n t c v g g f e g n j l | 8.| ..2.@.6.*.| j t : : g e t : 1 t 7 e j t i 9 e e n n g t - X . ; t e : j : 7 : j n ' m { | [ j ; ; e ; ; 7 g n c F _ [ g.V.5.>.g.5.g.} I O.5.y z n @.G m c c m G x.R.j.!.!.m.[ 4.V.uX:X;X;X:XR.|.5XoX.Xr. XqXb.A.%X:X&XE.%X|.O.| 1._ ] ..C.{.@.]  .` _ [ G e 9 q 9 = # @ = y i t ; .   ",
"G.XX/ / a.Z.Z.U.OXXXn.9.8.[ @.| O.e.P.r.] | c -.w.4.}.x.b.E.%X>X6X|.v.R.A. X|.B.v.b.6.` _ c : 7 - - = @ - o X . .     $ 9 i n [ O.8.z 0 G i t n G G f v j v v F O.' { 1.O.[ L _ n G k I v g [ [ t = i i j [ [ | G F } @.6.o._ [ [ O.O.O.F L G t y | 8.b.v.| | 5.O.n c G 5.e.8.e.2.e.A.b. .m c 0 z 7 = @ - j u Z m.&Xb.n.oX|.|.4.` 8.5.b v j i G O.5.o.k e F k 1 e g v ` A.yXAXLXLXJXGXCX*X1.I Z < . X ; @   ; i f f f F I I k D G [ [ [ G F G o.I v t j G F f J F D i h u 1 t e u D Z h k i $ $ ; 1 ; $ @ $ @ ; : e t ; @ $ $ : ; $ @ 1 u u k e u e e e < t u : u G I I } I u * < - X $ u h u h F I I G F F U F G L I F G F i t i v u t f v F u . . . o t F [ B.wXpX%XXXoXP.O.G f u u u t < h I } O.o.k < X - 1 j F g L L G m n t o - 9 g j 1 e n L n n v u 9 e i m 5.b.2...-.] 8.M.| n n e : g t i j e t 7 7 c t e : ; ; t j : ; $ - ; t n t : 1 9 - : l n _ 6.B.1.| ' ; $ 1 - ; t f f v F _ _ 8.v.e.5.g.5.O.[ o.6.g.5.G g m g y i m z p x.M.v.|.H.m.>.5.j.qXuX:X6XZ.g.V.XXI. XS.r.:XA.{.&X:XB.8.b.B.v.[ 4.b.A.A.}..XoXE.r.#.` ( m G c G m G ( G G j g i ; @ . ",
"^.8XpX[.^ p.+XyXOXV.R.P.2.1.O.1.@.b.E.r.G ] 1.1.3.-.r.A.8.E.oX-X>XE.6.b.E.{.E.r.v.b.8.5.n t 7 u 1 ; $ @ - X X X .     . ; t y i } v.8.O.5.[ F y i c e i b G v n } | | ] | [ n _ G } F F n G _ L c t i i F } | 5.O.[ } O.@.| _ _ _ c O.O.G b m y y ..6.B.A.8.5.O.G L | | 5.4.2.e.e.v.B.2.m L j t ; = 7 ; e F j Z g.&Xn.8.A.|.%Xv.m ] { z i g j _ O.O.o.I F F k t e i c ( u.&XnXGXLXLXGXAXkXN.I F h ; $ ; @ . @ 1 t t 1 u f F D F G I I G G h t u G I F F F j D F Z u ; 1 ; t t ; e u u ; ; 1 1 t e ; @ $ @ @ . . @ - % < $ $ $ $ @ @ @ $ ; ; i e e u u e ; 1 u u u h G I F h - X - o . O - < h F G G I F F F I G G n k u f v i 1 u n g ; 1 u k f $ . X < F [ 1.XXqX&X&X6X;XL._ j t t t u 1 ; F O.O.O.J h < X - e f f ; e n [ ' ] 1 3 h g - g ; t L n n U j f @ ; j j 5.M.e.] ` ` ] v.5.' j c t e ; 9 n i t : 9 t g 9 = : ; - t $ - : L n l f ; : 1 : ; : c ( _ b.v.] ' _ ; - t ; : - e j n f v n | 1.2.O.5.5.O.G } 8.g.} I G c L c t : m y ( @.g.E.~.E.8.7.8.E.jX0XyXv.x.8.|.;X%X}.E.%X|.|.0X:XB.1.b.e.b.1...A.A.v.A.b. XS.2.2._ p b ( _ [ G _ _ G _ b i t ; $ @ ",
").8X5X%.p.[.p.tXoXy.V.y.e.;.L e.e.r.E.A.] z 1.5.-.-.u.w.` u.A.b.u.8.e.b.}.oXS.` 2.A.e.| t - ; : t ; $ @ ; X X X .     X e t c 0 y | 5.g.8.O.O.G j j 7 j c y = i m _ ' m L | G G [ [ i v G [ _ L L j t j G [ 1.>.o.[ I [ o.1.] m m y b 5._ G c y c | ..v.A.m.m.8._ [ | 2.5.w.8.b.b.e.4._ g m u e ; = 7 ; g G v i 5.!.8.e.}.E.%XE.6.( z g y g G G I } G G D j u < 1 t z G 2.P.6XCXJXLXJXFXZX$XO.F F u ; : $ @ . ; t 1 $ e t f k i f D h u F u - $ u G G h u u j i 1 ; ; ; ; 1 1 % ; u 1 1 ; ; : t u 1 . . .         $ $ < - @ . . . . @ $ $ ; e t t u u 1 ; 1 1 1 t u h t 1 ; t - $ O . . . < Z I G G I I J I O.O.I G v : ; t e ; X 1 ; @ - ; 1 e $   X v 1.5.8.9XzX5X%XXXP.4.G i t u t t 1 - D o.O.o.I D u - ; u v j F - u G ' } 1 u H k ; f ; e n k n L j f - ; j G 5.e.8.` ] { ] 2.8.3.| G _ l g t c j t e ; % t 9 9 ; : 9 : e g g n G m l : : X * $ t c L G 1.8.{ m _ ; : e f : ; ; e i u g t _ 2.4.5.5.1.O.O.[ O.O.v f G ' n ( m 7 c i 2.] | 2.2.r.8.5.` ;.C.p.u.e.} O.B.|.:X;X-X>XuX;X:X%XA.8.A.c.2.c.e.1...] @.1.2...Q b z p y b ( G n [ 5.2.[ G v e % $ @ ",
"M.2.U.[.[.}.n.+XOXP.1.3...u.1.e.2.@.b.R.b.` u _ 5.n.r.` ` ` ] ] ` m x.v.A.}.r.C.w.r.e.1.g ; @ g g 9 $ @ ; $ . .       X e g G G v y z } 5.O.I _ F k G | [ G f _ O.{ L p _ _ G [ [ v v G G G G G G t i b F I O.o.I I _ I >.5.| _ _ p y { [ { z y m 1.M.b.8.6.b.B.5.| 5.5.| 6.2.e.M.8.| [ 9 t e t 7 @ 0 : i F j u o.v.1.2.r.b.|.J.6.b y b G F t i F [ [ F u e t - $ e z G ..b.XXqXMXGXJXGXAXaXv.G H Z 1 ; @ . . ; t 1 @ ; ; ; 1 = t u ; ; t u ; ; t k k t t u u t t 1 ; $ ; 1 ; @ ; u 1 1 ; t e 1 u t -       .     - ; ; . @ @ . . . @ @ 1 e 1 t t t t ; $ 1 u 1 1 1 t < $ 1 F u * - - . . < Z F D G o.+.P I O.d.d.,.I u 1 1 1 - $ X . . X . . X .   , } v.7.v.qXbX0XR.8.1._ v u t t 1 1 < - k [ [ I J G F u 1 k F n L 1 e n } [ 3 u P I e h 1 t k G _ n c l g : ; y G @.2.` ` ` @...M.8.} ' ] | n _ e e i ; 9 e t ; g g u l t L m j n N _ g g @ $ ; . @ n L m c 8.A.5._ : g c G F F N y c n h e g | 6.V.5.I F I I F F n f f _ m ( m z i : 2.w.8.c.b.b.S.w.E.b.E.i.w.Q y 7 m Q r. X X-X>X X%X|.5.5...` t. ...` .._ b _ @.....] c y z G b y G _ | @.G v j e - @ . ",
"6.V.E.tXOXtXI.I.OXU.3.] ..r.5.8.w...Q @.b.u.x _ 4.2.r...n m m x t._ e.8.B.b.u.` 2.-.` e.` i : t t t : $ X o . .       . : j G } G G G b } } G G D t v L G L j [ 1.5.| [ G v G b D u v [ _ G G F G i f t i D [ _ G _ O.G O.5.| c Q ..( | | v = z G O.b.E.b.| 1.M.8.@.6.2.@.8.4.2.v.e.w.1.y : u t : y b a i b F Z D O.] 5.A.|.E.5.m z m _ L G t u t F I D t e 1 $ $ e z m _ e.P.XX9XbXCXSXFXCXXX} I F h ;   . X 1 1 ; ; $ . @ @ @ $ $ @ @ 1 t ; 1 t u e t u u 1 e t t $ @ 1 t t $ $ ; - - ; t f e t h f ; $ - 1 . ; < - X . . @ . . @ @ @ ; 1 ; ; u t u 1 $ ; t u u t u u < u F k t u 1 - X < h h k G o.I F F I ,.l.f.J u 1 e u 1 < 1 - $ $ @ @ - $ $ k 5.4.} j.=X*XP.| | [ G c u 1 1 1 ; - ; u F G F F F k u 1 f j f n t 1 n G n 1 3 k | k k f u j L } U c g 9 g c : t v | .._ ` @.1.b.8.L m _ ] 5._ t : t 1 9 : 9 ; z j g c n _ _ ' c m | G n e ; - - - G O.| [ B.B.6.L 9 i c v [ O.@.c ; U t ; i | O.5.[ k j v [ I G F 1 u G Q _ z z ; ; ] .._ ] 4.B.;XS.E.b.E.v.8.1.| c { ] 2.D.q.Q ! Z.t.A.5.q 0 2.w...` x m b b { _ 1.w.1.b y i G ( c ( G G G u t t : $ . . ",
"B.V.R.;XoXoXOXU.p.p.u.-. .w.6.2.e...m 1.e.b..._ 2.8.6.2.n n ..2.X...w.5.b.e. .;.b.b.` ] 3.c t : : g : 1 X X .         . @ i G [ } _ O.I j v j i i e i c c j t z G _ [ c c b G n t f F [ } F U F F j j i e v [ O.G _ } L G | _ m ( 1._ 1.m ; c m c G >.b.M.x.8.x.8.@.| 2.2.1.6.w.b.b.y.| e 1 ; 1 @ 9 b y 7 z L Z u } 2.| 8.!.B.| m c _ _ v n j u ; e i f t : : $ $ e i z G @.e.A.~.5XpXbXCXAXqXy.[ L F 1   X X ; ; @ $ $ @ < ; t t ; $ @ < % . $ t t 1 1 1 t t u t 1 $ 1 1 t t ; @ - : % e j G I G F n h u f I j F h 1 $ X . . . .         @ X X - 1 u t u ; < u u 1 t f h h k 1 h h u 2 < < < t h G k u u h j I f.<.G f ; : g 1 u u < 1 1 ; $ e 1 1 | 8.>.[ g.m.8.O.O.| _ m j t 1 1 1 ; - - 1 u u t h f ; ; - ; e : 1 t 1 e g f 3 - u u k f u e u G L L g c n ' G e ; g } b.1.{ e.E.B.M.6.G c N U n g 1 - : X @ : ; % e j n n N m G _ | | { m j y e ; $ y @.O.} B.R.5.I : t g v _ O.8.m 7 g ; ; 1 f G I u < u G O.1.n j j u | _ m g 0 7 $ c 2...m 2.;.w.u.b.v.2.8.A.4.6...| _ ..S.C.w ] 5.` 8.5.1.| ..` ( ] b G n G G G 5.b.e.G y y b ( G c m v j ; - ; - @ .   ",
"V.y.y.OXW.[.I.n.Z..Xi.b.b.e.e.4.5.2.` ` 8.b.` 7 ] ( { { ] m 5.8.2...w.5.....' n.r.e.| m -.c e t 9 t : e % X .     .     . 7 y m G G } } I [ G z g j j j n G j j I } O.m _ _ G G j j v L G n L F G j v G k b G } [ m m m ] ' _ Q ` m _ c.| c ` { } 1.6.8.8.8.g.g.g.6.O.5.| ` 5.e.Z.C.w.[ e t e : @ 7 z y # g L u 3 G | m G 6.g.O.G z G G f u b j @ @ @ ; ; ; < @ $ : i z b _ @.v.E.~.$X*XxXCXbX%Xe.] G i $ X X ; ; @ @ ; < t t i Z u $ @ $ ; 1 $ % t 1 1 h u 1 t 1 1 < t i e e u $ e u k D F G [ } G I G I u F I _ I F j t ; e u : @ @ = ; j i t u f u u j u e f j f u j h h h 1 u h u u u u t < u h t t t u t F <.,.o.F e : e < u u - ; 1 - $ ; 1 F 5.5.I o.5.5.,.>.1.O._ b i t ; 1 1 $ o * - 1 1 $ 1 t   . X 1 t - ; e $ ; u h 1 - * ; u t e ; u g i e u g 9 U [ k ; t G v.v.` v.H.H.E.v.[ g v v g ; $ $ - * o 9 t ; ; n u t G { _ _ ' } ] L n z m 9 : m [ L t } O.G f : ; $ ; F [ } c f c ; . - - - t X @ u L >.g.} v n k _ G z m c 7 $ f ] ..] -.] Q m ` [ | | B.E.e.] 2._ 2.r.u...e.5.@.1.5.| | { 2.| 5.1.G G J y F 6.}.A.F j b m { ( b c i j i 1 ; $ X     ",
"3.u.4.w.pXW.+Xw..XP.| 3.r.r.b.2.1.8.` #.2.2.8.b.w.e.] [ 8.5.e.8.2.] e.1.Q r.b.u.w.' | ] c g t j 9 - ; 9 ; . .         . $ : 7 y i i I } } O.L g = : e y i g i j h I _ } } _ _ G f t j L _ _ G G G c v _ L v G _ [ m n m ` m m _ m g _ c.1.[ 6.c.b.B.M.x.5.6.g.8.5.| [ 1.@.{ 1.@.w.q.` G i v b y @ = 0 0 7 y F A 3 h F j l _ 1.} v G G v f u n b e - - - X @ $ X $ ; t g z G } 2.n.P.Y.Q.*XbXMXpX|.n.2.G u - . $ 1 ; $ 1 t 1 t u u u t @ - ; u e @ ; < < t u 1 1 t i u k D h F I F < k I G J H I I } O.F ,.O.H I [ O.} } L i z j i e t b j G I G G [ } G L G G G [ [ G F f u u u k u u u Z h t $ ; 1 1 t e t 1 u F Y O.J u - ; 1 e e - $ - $ X < h | 5.} P +.7.,.>.5.1.>.} m u 1 1 u u $ X X . $ $ . . X . . $ ; - ; ; ; - 1 u u 1 , o @ 1 t ; - : 9 X - n m n L 1.j ; ; m 4.4._ 2.2.e.A.6._ y ; @ - $ * X - X . ; 9 9 t n t m _ | [ _ [ _ ' ' m b m N m n z b e : ; t ; $ - $ $ 1 v L _ @ ; $ @ @ ; - @ X - 9 j O.g.O.L ' F ' _ 0 e e ; X t @.6.@.| _ c j I G I | 8.A.b...;...w.Z.r.;.` 1.` ` ..5.| ` e.O._ _ z c G b j m r.8.I J O.@.| _ j z F z j t ; X .     ",
"| 2./.4XuXkXn.I.n.Z.' 1.e.b.8.8.]  .u.t.#.8.1.A.A.b.e.8.1.8.' ..r.] ] m v w.w.b.C.m ` _ n 0 g c f : ; 7 $ $ .         . $ t = % e i b [ | 5.G 7 @ # 7 7 t = = $ $ G } _ G _ _ G j v F G _ L G G L F F _ [ G c G ] _ c m ` m t t f m @.r.4.*.v.M.A.A.b.x.e.b.x.6.5.{ G 1.{ | @...X.#.b a z G b ; = g c p z e u u , A ] _ c F O.I u k F v g k L L F j f 1 X X . X $ ; u i c G _ | 8.n.N.N.Q.pXMXxXqX%XZ...G t @ $ ; $ @ t t 1 t t ; ; % . $ ; ; u 1 . $ 1 ; t h u t j j F J I G F } I A I [ I I I O.O.O.G [ 5.o.+.I 5.b.8.5.F j k k u h | 5.O.[ _ [ 5.6.O._ _ I L [ 1.O.U k k F } } J D f h u ; X $ ; 1 t 1 t t t e F I G f - - ; < ; ; $ @ @ $ u U >.| I I 7.j.5.>.5.>.O.} n t 1 1 u u $ . . . . . . . X X . $ 1 u u 1 : - 1 h f 2 3 < ; * @ $ @ : 9 - e L L 1.5.O.u ; $ f U L G ` ..4.b.{ g u - : ; e $ o $ @ . @ : t n z g _ ' O.[ [ | L n n L : n _ ' _ c v u c t g - 1 $ - 1 e n 4.5.t : @ X t t - $ - : ; G G O.[ G c _ | } e : e ; X ; 0 ' [ m G U j j n G O.4.A.u.u.u.Z.Z.S.r.1.] H.8.@.8.6.8...` ] | c c n b F j g b m G h Z F _ G i t v ( b y 1 - . .   ",
"( u.-.OX6XOX&Xv.}.V.c G e...@.6.@.X.a.p.w.| x.b.4.B.A.b.e.8.1.4.P.2...@.`  . .( ..2.| ~ m g 7 7 e e : $ $ $ .         . ; t # 7 e i v _ O.5.I : # 9 y 7 = ; = @ @ n | _ } [ ' G j I G G z c b G _ G G _ _ L G G G | G m ` _ f ; t m [ 8.e.2.4.M.A.A.M.c.v.b.v.x.5.5.1.O.[ 5.4.q.q. .x p v G K b m c y b v y u 1 , I R.R.} m } [ t - Z D g j G G F k g ; $ X . $ < 1 e i z n G } 5.v.V.m.F.5XkXkXpX5X|.b...G u $ @ $ . $ 1 t u t < $ .   @ e @ u t $ $ u e 1 u Z D Z F I [ I I G O.5.O.J [ O.O.| [ O.O.J Z O.O.>.O.>.v.8.5.[ Z G Z C F } 6.O.[ [ o.1.5.O.L o.o.o.o.5.+.G A A [ v.8.5.| G v j k - @ ; 1 t 1 1 1 t u f h f i t $ $ ; ; ; ; @ X < h } } [ Y ,.B.R.v.5.1.1.| L j 1 1 t u < X .   . . $ $ $ $ . . . 1 n j X . $ 1 f k 3 2 h h - @ - ; t t g k [ | 1.8.L e . $ t : g m ` 5.8.O.c G j t 9 e i $ . . = X X @ : 9 9 ; f N _ F | 5.] ' c c t y z L [ | L [ { i ; ; e 1 1 f f [ @.8.[ I e - - t t ; g ; $ f F G L c t n g L e ; u - X X ; ` _ v m ` b m _ m | M.A.E.q.p.;.w.u.#.;.Q b.v.| [ _ 1.b.v.e.2.v.1.{ G j u u } 5.F 1 - < 1 u $ $ : t t e ; $ .     ",
" .4.L.OXaXB.W.v.e.y._ m e.1.| 8.e.b.{.[.b.5.c.4.2.b.e.M.8.G m _ 2...e.M.2. .m g _ -. .] ' e : 9 ; ; e % @ ; .         X ; ; = @ e i j n [ n c : i G _ G v j y e 1 G _ m m z m b n _ ( z y _ G b F [ [ [ [ _ L G c _ 1._ m g : ; e i G | 1.8.8.M.M.M.b.x.4.8.v.m.8.@.x.8.| @.v.u.w.` p a b K ( m b z y b v y u , , +.~.|.5.L ' O.[ e F o.I j v G j t : ; - X X $ 1 ; : i j c n _ O.6.8.y.R.%X0XpXpX5XoXE.u.@.O.k $ X . . $ 1 u u u u e $ @ ; $ t t e : i u u h H I I I [ +.o.[ H O.5.} } O.O.o.O.[ 1.5.,.O.>.O.o.o.} O.5.1.J A A C A J o.I o.o.[ O.O.O.o.[ O.o.[ o.o.Y H C F I 8.7.5.| _ [ [ 8.>.j 1 1 1 1 < 1 e t t 1 : t u < X $ - ; ; $ $ u L | O.o.o.m.$X$XB.v.8.4.| v t 1 < t u < . . . . $ - < 1 1 - o X $ 1 1 . o t f f u , u k j 1 - ; ; u j F _ [ @.1.{ L f @ X X $ : g G O._ c g n n g 9 : ; 7 X . @ ; ; ; * 7 - - : e c n } 5.' _ g f ; g m | O.4.[ ` ] 9 ; 7 1 1 e n G O.O.4.5.5.[ i - g ; i : @ @ t k G [ j L | G n - X ; $ - $ 7 m n j O.Z.} -.Q n x 2.E. XZ.q.` #.t.Z.S.r.~ 2.[ 0 m 8.@.8.e.8.A.Z.2._ i u i G h t ; ; ; X @ ; ; @ $ $ ; $ @ .     ",
"5.-.Z.XXW.}.XXU.Z.-.:.e. .8.8.e.5.b.oXI.r.6.1...2.2.e.e.Q m m -.1.| 1...b.b.| m  .] G | -.j ; ; 1 u ; ; ; $ X .       . ; 7 : . ; j j j : v v i G _ G G j j t t t G 5.>._ } _ i n [ b G G 1.| c z ( G [ G v z z n t ` _ z 9 ; 9 0 0 g _ N -.5.b.c.v.b.g.5.8.8.g.v.8.6.x.e.2.8.2.X.Q p b b K m 9 0 b v y i t < X 2 +.F.v.| L G 5.g.O.5.7.o.g f k f u u e ; $ o $ - - 1 i j c v G } O.1.8.Z.|.0X0X0X&XoXE.Z.b.b.O.G e $ @ $ X ; 1 1 1 t t 1 1 e u u f f k h C G O.} 1.8.7.g.g.5.o.[ 5.o.5.1.} I ,.8.O.o.o.g.v.8.o.o.o.[ | o.U F Z Z Z o.8.[ I H o.5.O.I I } 5.>.[ I P H C C P P o.,.5.O.[ [ } b.n.[ v v 1 ; < < < ; ; ; t u t < X X $ - $ $ t G | 1.>.o.} R.*X$XR.Z.n.y.] i 1 < - 1 1 - . . $ ; 1 1 t h f 1 * . $ $ $ * - h k f 3 , h n v 1 ; - - f F L } _ ] ] m g F e ; . . X - ; e f i _ m L n e ; . $ ; $ ; n m z ; ; ; ; ; $ 1 u U | _ _ j g ; 9 m | | m L z _ ~ y c i : : G 5.1.8.g.4.O.{ v ; - 9 $ $ o . t 1 n v u o.8.O.U - @ $ $ ; : z m v n 2.OXp.w.i.L Q s A.;.C.p.Q w.A.{. XtX:XE.6.9 L A.6.8.| [ 4.C.E.2..._ k c : ; ; 1 1 t e ; $ @ $ @ $ @ @ .     ",
"[ 3.7.I.5XoX;X-Xy.4.I.1.n.U.*.' 2.S.I.S.b.2...` ;.r...z ~ b.v.A.Z.b.2.m 2.b.2.m 3.] { 1._ j - : e u - $ X - X .     . . @ $ @ . 1 F 9 : y F v j G v e y % ; ; < < i } O.} } G j G G y m m 8.5.[ G c b c G m c c ( y f t g ; $ k O.m ; c [ n c 8.8.5.8.8.6.x.8.1.5.1.5.e.x.8.e...X.Q a b ( G m p z a y y e : 1 - , H O.@._ u F 1.8.m.v.5.o.I G Z f u f Z u - o . X - 1 f v v z b G o.O.1.8.A.%XXX}.XXoXA.Z.I.Z.1.O.G i $ $ $ $ $ @ @ - 1 t u i u u F D h Z F I 5.7.5.8.7.5.7.7.5.O.I +.g.F.4.O.5.8.1.O.o.8.8.y.[ [ I J @.5.1.I F C F +.7.[ F F } ,.o.o.I [ >.,.o.I I A C C P o.o.O.5.,.[ I I O.O.[ _ [ v e 1 < < 1 u t u u 1 $ @ X $ $ $ < v ..8.6.>.o.} B.!.R.n.n.P.b.] u 1 < < 3 < - X . - t h k F J D ; X X $ ; 1 : 1 1 u 1 - o 1 n f 1 - $ o 1 g g g G ] _ G j j z ; X . X X ; $ @ : G n e 1 : ; . X t - 9 z n g ; ; o @ - $ - ; t G L m z g 9 y m _ L t : 9 _ c n _ n F v [ } | x.b.x.O.] e X @ t $ X . . @ - u c t [ 8.5.[ u $ $ X g i c y b 5.S.w.] 4.8.G Q / ! X.w.q.Q r. X.X>XtX>X.XH.G O.E.|.%XB._ ] 2..XoXu._ c g e e e j z z t ; $ @ $ $ ; ; ; X .   ",
"j 4.E.+X[.b.oXXXP.i.y.XXn._ L N n.{.{.A.t.X.Q  .` x ; 2.E.Z.Z.b.8.5.y.w...2.] m { ] [ G _ g ; - e 1 ; : - @ X X   . . O $ $ X $ t i t G F f j f j f j F i i u ; @ ; v z F G u h [ y 9 z G O.g.5.G c b z [ m _ G [ m c y z : $ i 1.| 0 9 y 7 : n | } | 8.6.8.8.6.1.5.8.e.v.b.8.] X.` b b ( b G m x a z p t e < , 4 u _ @._ g G 5.g.x.8.O.O.O.,.I i u u h 1 X X . . X ; D F v j z n _ O.>.1.5.V.B.I.E.E.Z.b.b.r.@.} _ G v - $ - X . X X - u i u u h G I Z k Z G O.g.v.5.5.5.5.,.5.5.F G g.~.V.5.O.5.5.O.[ 5.B.n.o.o.I I y.y.v.O.P C F o.O.[ H F [ 7.5.1.5.I o.O.[ } I H F C F o.O.5.>.o.I I Y Y Y Y [ } G j g ; 1 t u 1 < 1 < - $ X X $ - u ..y.y.4.,.} O.8.8.4.3.y.b.8.[ f 1 < < < < < * . $ t Z F I O.I ; X o $ ; h f h e ; $ . . - f u - $ X . - t t g _ N m F k t j e @ X X @ . . X 1 n i . @ @ @ . . X X - i 7 ; - ; o o - $ $ $ ; j g _ c m 0 ; 9 i l c g ; f m z ( G j } [ _ 5.b.8.@.[ _ e - @ : ; @ . . . @ ; t ; v O.[ j j ; @ X e G G n c 5.P.] g -.e.| x e.r.r.r.p.Q x t.;XtX X{. XR.6.4.|.:X:X:X|.] 2.C. X|.{ c _ v e e G _ m i 1 ; $ $ e e % : ; . . ",
"f >.L..XP.aX7XuXXX3.y.V.y.-.m | W.U.C.u.r.X.X.^ Q x A.|.A.A.Z.A.b.-.e.Z.2...2.-.| I @.e.} g 1 t u : - t f 1 $ X   . . o $ $ $ - 1 v i G F u h ; 1 t j F i u 3 1 u u D H t ; $ : [ b t t _ G g.g._ c m m n G m b G c m m i t ; : n g # # 7 c 0 m c _ O.8.4.6.6.8.5.5.5.2.2.8.` `  .` Q b b i n _ ( a x p 9 e ; $ , 3 G | | [ G @.v.1.[ O.| [ } F t j h 1 - X . . . . $ k v j j j z G O.8.7.1.5.g.b.A.Z.Z.u.u.e.2...[ [ b @   X X - 1 1 - < t 1 u h Z Z h u F F G O.B.8.O.>.8.O.O.O.G F 5.B.b.4.@.1.5.o.L 6.E.~.g.5.I O.}.Z.b.5.o.F F J I I F G I o.O.>.8.,.O.O.O.o.I I I A A I O.>.I P I I P F H P Y Y G n G j 1 ; 1 ; @ $ ; < $ X X - G O.y.P.e.8.8.1.>.O.| G ] 2.5.O.G u 1 1 < < - - $ . X - u j F O.o.u - e u ; k I F k u ; o o * ; u $ . X @ X $ ; g L n j e ; f L t - - X ; - @ @ : L j ; ; ; ; @ - X X @ : : @ $ - o X X o X @ $ $ t m z n t ; 9 t z m n n G 1._ _ _ G [ _ | g.b.6.| [ m % g @ % ; - X . . : ; 9 : 7 m G g n @ ; . : G _ >.b Q ..| n ]  .A.b.r.w.X.w.r. . .` b..X[..XD.b.|.%X%XuXzXuX:X;XS.q.t.e.2.4...c b z c m c G i : ; : e 7 = = $ @ . ",
"} >.n.j.}.+X6X;XOXoXn.Z.2.:._ | I.i.q.X.` X. .` _ c.|.{.E.E.E.E.B.8.v.B.b.r.2.2.1.G | Z.' m : t 1 : i u A u - X     . $ 4 - - - 1 D u u u 1 u u t u 1 u u 1 4 $ 3 < 2 u 4 1 t e F F t t G o.5.g._ c m m y y g c b m n n g e ; : 0 = @ @ 7 0 c ..O.O.5.6.8.x.8.6.6.@.@.| ..5.` ..#.#...( p i b _ ` b b b y 7 = ; < , k 4.v.] G | 6.O.c L L G z 0 y j k h t $ . . X . . 1 f f i i j F } 8.v.g.5.5.g.A.A.A.Z.A.Z.r.2...[ G j ; @ - ; t u t , 3 2 u h h u u 2 D F F G 1.8.5.1.g.o.o.o.} ..5.v.g.O.O.O.O.[ G O.A.|.P.8.} v.XXe.g.8.+.H F I o.I I [ _ o.O.,.7.j.7.1.O.O.o.o.Y H F P Y o.H G F F A Z F I P P P G I [ G i ; ; - - ; - @ . $ k 7.n.P.OXb.B.n.V.5.| G v _ | } L v u < 1 1 < - - $ . . X ; t u F I F t A I k G o.G G F u 3 , 1 f g $ - 1 1 $ $ $ t j n n ; @ ; i ; * - ; 1 e t - ; n n c m 9 : $ . . X @ @ @ . X o . . . . @ $ . X ; 9 ; t n g g n _ | *.5.1.1.8.( _ _ _ | @.8.4.@.@.5.i ; = ; X e $ . . . ; $ ; $ ; e j e e t : X e c | } `  .g w.*.4.] A.r.S.E.I.S.p.;.;.X.` Z..XZ.I.n.A.:X:XqXzXuX:X0X:X.X` ( e.A.b..._ G z y z y i i i i i i y : @ X . ",
"v.B.oXE.&X+XaXaX+XU.[.}.y.3.} | U.u.r.X.^ r.w...` m.A.|.A.A.%XE.b.6.H.b.b.I.e.| 1._ _ v.1.G t e u u 1 u u ; X .     . X X , t < ; u u . - 1 3 u 1 ;   $ 1 1 1 ; $ , $ - , h G G t 1 $ 1 G } | G c z y c y e : i c m n c u e ; t y i @ c m # # 0 p z @.5.8.g.x.8.5.@._ c ] ` | e.b.t...v # y m ( ( ( v z x y e y 1 4 h 8.b.] m | | [ 8.5.O.5.,.G G L j f u $ . $ X . . $ t j j j v G } 1.v.g.5.7.M.A.P.}.I.P.A.n.2...@.5.O.G e i u u u u 2 3 2 h C h Z I F G v G G _ 1.8.5.O.G G I O.y.5.8.5.O.1.5.5.1.[ O.b.&XXX4.5.Z.E.x.,.7.7.o.G 1.1.1.2.1.| o.,.5.5.8.7.7.5.7.I I o.F F F F Z C F I I D F G I I J J I o.O.} G c e - $ $ @ X $ u } n.|.}.XXW.~.R.V.5.[ G v m G G D f 1 < 1 1 < - ; $ X . . $ - u v F k u F O.o.G [ [ I I F u 1 j j v $ e f e - - ; : ; : e - ; ; - X . $ u j e t ; 9 e t c n ; 9 e X . @ $ X . . X X . . . . - @ X @ y ; ; g v _ z _ | 8.v.4.1._ _ G z z c G G O.6.{ 2.8.G i : @ ; ; e X . . . ; t @ $ : t : ; j t $ 7 _ ] _ ` }.I.i.w.4._ 2.!  .a.S.C.w.w.r.p.p.t.e.e.[.w.b.:X6XqXzXyX:X%XE.b.X.2.b.A.A.b..._ G y y i y 0 9 t i v b e : . . ",
"U v.i.OXP.:XnXuX6Xb.>Xq.7Xu.| 8.1.i.w.u.u.C.2. .] e.H.b.b.b.E.E.e.4.B.x.A.}.u.2.@.| 1.3.1.n u ; h v t u - $ X .     . $ $ $ ; @ X . . . X 1 , 1 u 1 < ; - < : $ < 3 - - t G _ | G t 1 u v z _ z b b y c y g ; e v z z c 7 : ; i z y 0 m b # p # @ e 2.@.5.v.b.v.5.| ' O.{ m { 8.r.w.` p r r b ( ` ` b y y t y i t , h O.8.1.| | } G m.N.O.O.O.G G o.F 7 t - X < - X . $ t j f j F G _ } 5.5.5.8.B.M.b.P.}.E.E.E.n.@.| 5.O.[ G I G v k h u u u C h u v I G } I v G G o.O.G F G F F O.Z.4.5.5.| O.@.| [ I } 6.W.&X8.1.u.v.v.>.5.8.o.I 1.y.Z.u.y.8.8.5.O.o.7.g.g.8.,.I [ I Z Z C h u h F [ o.I J I [ [ I I } o.O.o._ | [ z % @ $ : u U 5.Z.oXXX|.XXXXP.4.1.} G n v G G G j 1 < 1 1 ; - $ X . . $ - X h G F f h I >.,.I G I I O.I 2 h G n n ; - f 1 @ - ; 1 : ; u u u ; 1 ; $ - t l 9 e : : 1 : 9 9 : - ; X . @ . . . . . . . . . . X X @ ; 9 g t f k G g ' 1.x.2.5.| m m G 7 7 _ L [ 1.8.6.5.6.} $ : 9 g : e . . X . : u : 7 G t ; e z e $ t g ' ..` u.+X>Xw.-.[ O.1.>X{.b.w.w.;.w.I.C.2.1.e.w.2.v.%XqXlXxXpX:X%XA.x ` X.4.b.A.b.c.| c y 0 y 0 7 t 7 = t i : ; . . ",
"g *.e.y.oXb.nX4X[.7X}.u.OX@X:...-.:.:.;.r.Z.2.2.] 4.M.A.B.2.Q v.b.b.M.P.B.|.b.O.w.4.y.3...v j ; 9 t 9 e ; $ X     . X ; , , < ; - , < $ $ ; , u Z j F k u : e $ : < $ - t [ _ _ _ F j G D i b g z z i y y g g ; z G g g e e f G G z y @ ; m @.$ @ 0 { @.1.8.8.g.6.@.8.v.| ( _ ] 2.8.] b b v b ( ( m b z p ; e i ; o u } 5.5.@.[ { [ @.O.F i t t v [ [ F u < , 1 < $ X $ t u i f v F F G [ 5.8.b.B.V.g.b.W.A.R.W.E.v.6.5.8.1.O.O.o.[ } } G h C C C Z G F F I F v G F I I k k G F j } v.2.o.v.B.x.2.8.5.} I 4.&X&X6.O.e.v.W.4.6.5.o.1.e.I.I.8.8.b.b.8.O.5.8.b.B.o.P I I H Z A C h 2 h F I [ O.I I I o.I I o.O.,.,.o.1.5._ i j j j F [ 2.n.E.|.W.XXXXn.1.1.} G G G I } G f < 3 1 < < - . . . . 1 1 $ t k h h F o.,.O.F f h F } L , h ' | _ t ; f t $ ; 1 t j t n F F f k n 9 : g l j e ; ; f 1 : : u 1 - $ 1 : ; $ X . . . . . X $ @ @ @ @ 9 t i k G L z m [ 8.4.8.@.` _ G y F [ _ G _ @.5.4.8.| ; l ; : $ ; @ o - @ $ @ = i c f ; y t - $ g i G ] ..w.p.@X}._ ` O.c.[.XXS.w.p.i.2.2.p.2.:.b.b...r.A.>XkXxXuXqX:X-XA.Q Q r.v.b.I.w.@.5.G y m z 9 7 7 7 = ; ; $ . . ",
"' 5.Y.y.w.n.tX+XsX>X}.+X+X4XOX| ` _ ] ' x ] 4.2...6.c.A.H.A.` c.B.A.M.E.A.|.|.E.b.8.Z.1.L j g e : : ; : ; $ .       X ; $ $ $ 1 1 1 k f h u 1 u f F j j F ; $ ; ; $ ; e c | ] | | G b [ h e e : z G F y i j 9 @ ; g t e i _ [ >.1.G 7 q y _ 2.` z # z @.O.8.8.5.5.x.b.M.5._ Q ` 2.v.2.m z x b p p y z v v 7 $ 7 $   3 o.5.' _ c G [ _ c t i 1 $ F L G I G t 1 1 - $ $ $ 1 u t t j k v F I 5.M.E.A.v.x.b.M.x.e.Z.A.n.v.4.B.b.1.| } o.o.>.,.[ F C A H H H I [ o.I J F F G H D F A j I g.V.o.O.B.}.b.n.b.O.1.8.W.Z.O.>.P.n.n.e.v.5.8.n.E.oXP.1.O.e.B.,.+.7.V.R.g.O.G I I F A G G Z h C C A H Y P P P I I I o.O.5.5.O.5.5.[ F G G G I } 1.u.b.R.R.R.P.8.5.5.o.I I [ [ I D t < 1 3 , ; $ .     . t h u 1 e u 1 f I O.o.h ; ; h U F O < U 3.1.[ f 1 ; $ - 1 t n l n F F f n _ G u ; c f e X ; u : i j n j ; ; j l 9 : ; . X . . X @ ; @ @ @ ; ; ; t j G G c g m -.1.6.2.] m v : f t u b m O.5.8.5.| n c ; * ; - - - . . X X % 7 ; - - : ; - 1 _ G | r.4...3.D.w.;.e.y.1.I.}.C.i.w.Z.S.2.q.` Q  .2.2...b.&XpXkXyX:X:X>XH.Q Q r.v.w.S.b.w.2.@.] | c t t 7 # @ @ ; $ .   ",
"N.j.8.1.I.v.%X{.iX}.[.D.D.OXp.2.m ` m ~ ......;.2.6.x.H.%X%XA.b.b.E.A.|.:XyX:X|.|.8.Z..._ f e 9 : e 9 9 $ $ .       X X X . X $ - 1 k D G k h f u u t ; y 7 = ; ; % u L | | | 1.| G G _ v e 1 - e t i e : i f u @ @ t b L 5.1.5.1.5.@._ ( 5.5.8.] ' [ O.8.g.6.8.8.8.8.4.1.{ ` m ] 8.w.@.Q x p # y y z y r 7 % e -   3 o.O.m m y c G _ [ j j j ; G o.D I o.Z 1 - $ X $ $ ; e e t j j j k J >.x.E.A.g.g.8.8.8.8.v.b.u.n.b.P.|.A.x.5.O.[ o.,.5.I A Z H P P +.7.j.g.o.F F H P H F Z h F ,.j.O.| 5.W.XXR.n.v.v.>.v.x.[ 7.XXP.v.y.8.g.|.%X&XoXe.O.1.P.R.o.I 7.XX~.O.I F I F F I [ [ G C C C S S H P H H H P [ [ O.,.7.,.,.5.+.I I J I [ [ | 4.v.n.n.n.y.1.5.,.+.o.o.o.[ F u t 1 2 1 1 - . .     . < h k t u f $ ; u G I A 1 1 u n n o $ h *.5.5.f e $ X - e u c n L g g f n | L n : j L c ; : f ; c n c l e : e g : 9 9 X X @ @ X ; u ; $ % - ; 0 - t F n g t L } _ _ | G v t - ; g t j ( G { | 8.[ c @ - X X X $ $ X X $ : 0 = 7 - : ; ; t e _ 6.x.e.b.u.;.@XOX0.:.3.n.8.:.w.w.2.r.E.[.t.` S.b.m r.E.E..XA. X:X6XzX:Xe.b ( c.A.b.S.b.b.2...| [ _ G z i 7 % @ . $ X   ",
"Q.F.>.8.g.W.XX[.U.[.}.oX@X.XI.n.b.] 1._ 1.2.u.2.1.e.x.H.%X#XA.B.M.M.A.&XuXjXyX%X|.n.}.1.| G g 0 7 9 ; @ $ $ .       . . . . . @ $ e F v v h k j f f : i c j 9 ; ; y b [ .._ _ | { b G O.v f u ; @ @ ; t i t i g u ; m _ O.8.6.5.1.O.O.1.8.8.e.c.e.b.6.6.x.6.5.8.8.5.5.| | O.2.| { 6.e.w...w z r z a y z a e e e $ . 3 I [ m m y m ( G _ G g F v I 5.I v J Z ; - X $ $ $ $ 7 e u f j i f F o.1.v.g.7.8.8.8.8.g.g.e.v.Z.}.oX:X:XXXH.8.O.[ o.,.I P A H P H +.j.R.m.,.P H P Y P F Z Z h Y 7.O.O.b.5XpX%XR.b.A.g.7.O._ m.pXoXP.B.j.Q.kXpX5XW.1.2.L.~.5.I Y F.5XM.O.O.[ [ H J O.o.[ J H S H S S S P H S S H P I +.O.5.O.o.+.+.} [ I _ [ G } 1.9.y.4.4.1.O.,.O.+.O.O.O.I v u t 1 u t t ; . .     . < t u e 1 e X . X 1 k k h 1 - f k , o f U >.5.f 1 X X - ; u n G >.F : t U | L L n G _ L e g j ; 0 g t t : ; @ $ 9 i y $ t c 9 ; g k g t % - : 7 - ; c n n n _ _ l l g 9 i e 1 $ @ $ g G G ] ' _ j : . X . . X X @ @ . $ e m 9 $ $ : : 7 - t 8.E.|.V.b.}.A.[.U.Z.n.1.A.b.r.-.r.u.4.t.C.r.r..XoX!.A.A.I.S..XC.w.C.>XE.` ]  .A.E.b.b.b.C.2.r.1.G @.O._ F j j i i e $ . ",
"8.O.} | 9.v.n.OXI.u.u.>X+X+X+Xb.y.[ 2.2.G ..r.5.c ..8.B.%X|.|.|.|.A.H.~.%XyXuXA.B.M.|.6.| c i u f ; # * ; X X .     . . . . - $ @ 7 v F F k F j i v 7 y i 7 % @ = c G m ( _ G _ G y b [ b v f t @ @ ; t y t 9 y c p _ ..2.8.2.O.1.O.{ 5.c.8.e.b.A.R.b.c.8.5.o.| 5.8.v.5.| 1.w.2...6.8.4...` z v y y i v v p e e , . , F _ m c 0 c m b c G m _ O.o.O.O.j ; ; $ $ X $ $ $ $ ; 1 t u i i i i G O.5.,.O.5.5.5.5.8.g.8.v.Z.}.oX|.%X%XXXR.v.} I O.I H H P P P +.g.B.7.<.Y Y +.+.Y I O.1.h F +.+.O.>.~.bXzX0XXXP.R.g.O.| R.lX:X%X$XXXlXGXMX%XA.O.v.*X=X5.[ ,.Q.~.,.5.8.I J [ O.f.O.I I o.P P H S S P H H S S H H [ o.+.o.P P [ I I I G } [ O.O.5.5.1.>.O.1.O.o.o.o.O.[ F k u 1 1 1 1 < $ . . .   . < 1 u i e 1 X . $ - 1 f h 1 * - , $ 4 h } >.>.n u X X - t F | G [ _ : e _ } n U U _ ' } u g f e 9 t t t t : $ X ; g 9 ; n L y $ g g l t : 9 : = 9 - n ' n n n j ; : ; 0 i 1 ; $ $ t g z _ _ G t G 1 . . X . . X X : $ . ; c : 7 - @ : ; X u b.E.H.B.R.%X:X-XZ.;.-.g.A.b.W.] e.b.w.w.r.u.t.X.A.!.%Xu.w.;.E.E.A.q.X.` ..w.b.{.A.b..._ { y m p ; j G z i u e t e ; . . ",
"U } *.8.8.5.8.3.V.y.Z..X}.w.Z.y.8.] 8.-.g 1.3.....b.!.E.P.A.#X!.E.!.|.E.E.:X0XA.e.2.b.w.[ c i k F e $ $ $ . X .     . . . . ; ; ; = @ u v F F f f k f t y 7 e i G >.@.| b _ ( { b y G O.I v f t = 9 0 7 7 y z c z z m _ 6.8.1.| 1.O.@.| O.8.e.b.M.e.5.8.8.O.o.O.@.8.b.4.| { | 2.5.5.1.....( p v r y b a y y e u 3 . . F } ( m m G G @.O.G _ | O.I G o.F $ . X . X . . X @ $ $ ; 1 t u t 1 v I +.+.I o.O.>.O.O.5.7.8.b.A.A.A.Z.A.E.E.M.O.I [ P H A H I P o.7.F.g.,.,.+.,.o.P +.,.O.Z k G I [ ,.~.pXzXpX:X|.uXE.@.1.E.nXkXpX6XuXSXLXMXv.,.O.V.XXQ.8.5.j.B.f.O.O.7.I G } 7.g.5.+.o.O.I S S S H P P H S A F F I I o.Y P I [ [ G F G } O.O.o.>.7.v.g.>.>.O.[ I I I G j f u 1 < < < $ $ $ . . . . $ ; e u f u X X @ $ u h h u * o . O o j | O.L c u $ $ 1 k _ | G u t u : u t n _ _ } [ [ n t ; e j c G n g : $ $ - i g e L ] y : z : i g c t : ; ; ; c z n n j u - : j t ; - ; ; ; 1 9 t n G n G } j ; X - $ - X e t $ $ $ c z ; - 9 e c $ ; | 6.v.B.H.%X|.}.2.] _ n 5.c.A.b.Z.b.5.| b.{.b.b.2.c.b.b.t.C..X:X%X.X.XA.A.E.{.A.` | z 8 y y z c : ; 7 % @ @ @ . @ X .   ",
"y j 5.| I 2.V.L.n.8.v.[.w.r.Z.u.8.8.1.4.G 5.e.8.A.E.|.E.b.2.B.&XB.E.:X%XE.#X&XA.5.8.B.b.6.j 1 f j t - - @ . . .     . . . . $ $ ; y 7 % 7 e F n f v F v y i G } 1.5.{ G m 1.{ G y z v O.5.G j = # y _ t y c 0 m 0 q 0 c _ ..| _ [ O.@._ O.8.b.2.1.{ | 8.8.5.,.8.O.O.8.4.O.( { 2.| 2...2...p y b v p v r e r t u 3 O - F { _ b { O._ 1.5.G G _ F 1 c G v t @ . . . . . X @ @ $ ; - 1 t t i k F I P P H I O.O.o.o.>.>.x.M.b.v.b.8.v.B.g.[ J I I P A F I o.O.5.m.m.k.v.5.,.7.8.7.Y Y F v h F G 8.W.%XzXzX:X&XbX0Xb.Z.I.6XpXqXoXkXFXAXzXg.,.8.B.N.g.8.B.~.!.,.o.O.+.I } 5.O.+.,.+.Y o.Y S H H P o.I H H H I G J J I o.o.O.O.I F F G I } o.O.1.8.B.g.O.o.} L G F D f t 1 1 1 1 < , o $ ; $ X . . $ $ < u u 1 X X - e u u < - - - O . X 1 k F g t : X $ 1 j n n n 1 ; f : : t j g n } | _ j : e : g j [ O.f : * $ @ - = ; n l 9 ; y 0 y y z e ; : - - l l n j g : $ - ; : ; - 1 9 : n : c 0 l m y G t - 1 u 1 ; @ 1 t $ $ ; n m @ 7 7 ; c $ ; z b | v.M.E.b.@.5.8.M.` L D.S.B.E.4.] ] 2.Z.v.|.A.....r.b.|.|..X{..X.X|.E.A.b.` ] A.b.b.@.G n n ; i v % % @ @ : @ . .   ",
"- f *.n _ 5.j.P.A.r.[.[.[.u.n.B.v.| 1.{ _ e.|.E.A.E.%XE.8...b.|.H.|.-X*XE.|.E.b.M.H.A.b.b.L u u u ; X ; @ . . .   . . .   . X @ : t 9 : ; ; u v F F G F j y F | 1.@.| m z m G m b v z 5.g.} m 9 9 y v i 9 G y z 0 . # m [ ( z z y G 6.x.5.6.6.m 5.v.x.6.g.g.5.5.O.[ O.>.| _ 5.5._ ..1.5.@.w a a b v r p y e 7 < , o < v [ [ c m _ m G [ _ G _ n : j j t e : ; o .   . X @ $ : 1 < 1 t u h j h k Z Z h F I I } o.o.O.8.8.5.5.8.8.x.g.,.I H I I I H H o.,.7.5.j.N.F.!.H.8.g.H.v.F.XXR.B.8.8.8.4.n.|.%X5X5XP.lXAXyX;X}.0XkXpXqXpXFXCX5X5.g.P.~.,.O.5.XXwXg.o.O.O.P I 5.g.5.o.P Y +.o.Y H H H I O.I H H I I I I G } o.O.>.O.I F F J [ I I O.>.8.b.8.O.[ I G D h u 1 < - 1 1 3 , , X $ ; $ X X . X $ t f e $ X @ e k g - @ $ $ - - . . o 1 u e e - X X ; j n e 7 - $ u e ; : ; : c L ] n j : : ; t g n _ n : ; ; - $ $ ; 9 ; : $ : ; ; ; ; 9 - $ $ ; n z j j g : $ $ : e 1 - @ e c j n m [ { G i t t g u I L n . * u : $ ; ' n j g @ t G 9 ; @ g n | | r.b.[ g.|.6XP.] ' H.|.R.| ' 4.| 5.[ 1.M.H.e.Q b.}..X|.E.{.{.A.A.J.r.( 2...( ] _ v j = : 7 t 7 $ @ + % e @ . . ",
"; u L | e..XOX3.y.3.y.I.[.;.y.3.v.4.1.' _ v.%X}.|.E.|.|.E.A.E.%X|.|.{.|.|.|.H.M.H.M.H.A.b.[ i u 1 ; - : @ . . .     . . . . X X ; i t $ : ; @ i G F F G G y j n [ [ _ G z b z b ( z n 7.5.| G m y 7 @ 0 9 z z b n . + = c m ` e.{ c 8.v.5.5.1.G O.8.5.O.5.7.[ I G F G [ [ | 6.5.] _ 6.8.1.m a y z b v b p 0 $ ; - O ; b _ G c z c [ 5.7.O.O.O.G v v j i j u t - . . . . @ ; : ; 1 1 t t i j f h h k h h Z Z F G J [ 1.>.O.O.O.5.8.g.5.o.I o.o.P H H Y ,.7.7.v.H.E.E.A.W.%X9X9X*X0X%XR.v.B.A.8.B.%X~.~.~.A.uXFXCXkXXX6XpXkXzXlXJXSX~.x.E.=X$X+.I 5.=XpX>.[ ,.P I I 5.5.7.5.O.+.,.,.+.Y H H H [ o.I J I I [ J G o.O.5.O.I G A h D I I I } O.O.5.O.I I G F h u t 1 1 - ; < , , X . X X . $ ; - $ 1 k f ; - $ $ 1 f g - * o . X $ . . o ; e : : - $ - ; f G j e ; : e u : - - - 1 c j g 9 ; : ; 7 g j g t t * - - - X @ ; ; X X @ $ $ @ @ - - $ @ : g z G c t y - - : g e ; @ e m G G _ @.@.[ G 9 n u F O.O.F ; o - ; ; g G [ [ _ ; t y $ 9 n U I } N ..Z.Z.B.0XzXpXA.w !.|.M.2.*.v.>.] O.2.| b.b.x.v.t.{.;X}.|..XA.B.E...p 0 q m 2.{ y i k F F F D u t t @ @ .     ",
"j O.8.y.I.b.i.i.8.4.1.;X;X;.] | 8.P.P.y.5.A.E.E.|.E.A.!.E.n.E.E.|.E.E.%X&X!.R.E.E.x.c.E.A.[ f k u t f t @ . . .     . . . . X . = 7 7 = ; ; $ u G j v G [ G F z c c c v c z z b _ b n 5.7.G G b g 7 = y b m _ _ G # . q v | 1.5.{ G @.5.@.| } F F J I _ 1.1.F Z k D F I O.@.6.8.5.{ { @...` e 7 9 y m b t 9 @ - - O 1 G G y z b _ 7.m.m.5.O.} G F L G G F j 1 $ . . . X $ 1 1 1 1 1 1 u u f h F F G F j h h h h h H [ o.} [ } O.5.g.g.7.5.,.O.Y P H P o.5.g.m.E.E.|.$XXX|.wXkXqXlXuX|.M.v.M.8.} 7.b.!.Q.I.5XAXGXCX0XpXlXxXzXMXLXFXXX~.9XlX=X8.[ 8.XX*Xo.[ O.[ _ o.7.5.g.v.v.7.j.v.g.5.o.I P o.o.I I I [ [ G G | O.O.[ L n k h u k F L [ [ [ } L F F F h u 1 u t < , - $ $ X . . . . . X 1 1 ; t v j ; - * $ $ 1 u ; - $ . X X . . * - 1 1 ; : ; 1 1 u n b b j n f i i t @ @ ; ; - ; 9 : ; ; 0 y v z : ; $ X @ $ X . @ @ $ ; @ $ @ @ @ @ $ @ X t _ _ u c 0 9 ; ; - ; e u e j G G _ | 2.5.| ' m u h } } G u . ; X $ : t c | 5.@.c g : e n G G I 8.] @.G r.y.|.uXxX:XC.r.|.8..._ } ' ] I x.7.>.x.8.J.|.#.E.-XI.E.E.A.M.Q m .   2.M.| G F f F F b j k v ;           ",
"O.B.u.XXA.r.y.3.i.y.V.;X-XI.Q 1.Z.8.I.8.5.A.H.E.{.E.A.b.P.A.b..XE.M.E.#X&X#XE.~.|.6.5.v.b.G h k h u f e @ . . .     . . . . X $ t y t 7 ; @ @ # i D F F G _ I | 5.6.{ v G O._ y G O.O.g.O.[ { G t y g G G O.5._ L m b [ | 6.@.b _ [ 5.5.1.O.[ F f u h J >.O.G G I I I I O.6.5.8.5.O.{ ] _ G i y y y v y # = % $ $ 4 h _ _ c b b _ 5.g.g.+.k i i i F G G k u ; - $ . X $ $ ; t h 1 < 1 u u u f k F G I [ G F h h h Z F L L G G _ | O.5.7.5.+.o.o.o.H P 7.7.f.B.|.|.5XkXqX|.5XxXmXlX0X~.Q.W.b...H +.5.M.!.:XaXbXAXNXqXkXlXzX*XMXGXNX$XpXbXNX%XP.o.g.$X~.P I +.O.O.,.g.g.b.B.B.m.R.B.B.j.g.5.,.5.O.[ } I [ I G G | O.[ I I F v u 1 u k G [ _ L G v j j h u 1 < 1 t < - $ o o . . . . . X X $ - u u u u 1 ; X $ - ; 1 ; ; ; . X X . o ; ; 1 1 1 : 1 1 : e t j L G L G f k G ; $ - ; - ; : : : : t t t 9 1 ; ; $ X @ @ @ $ $ $ $ $ $ ; e ; ; - $ @ 7 _ G j m ; : : ; 0 ; i i i n n n [ 8.4.] y } [ i f } G $ @ . $ $ @ X @ L | O.5.} c - : y j k I O._ L j O. XP.qXkX:X:X[.Q e.8.L j :.u.g.8.b.b.x.} O.@.b Q D.A.A.|.M.z q p 8 ..A.5.z | L k I G G F i : + $ $ @ .   ",
"3.3.U.6Xe.y.Z.4.;X+XD.}.>X-X1.w.u.2.R.E.B.A.A.|.%X&X|.|.~.|.%X%Xe.c.E.:X0X|.A.E.B.g.g.B.8.n u Z u t g 1 X . . .     . . O . X 1 n G L j : @ ; 7 % t F G G _ _ O.5.5.@.| 8.x.5._ 1.x.5.O.O.O.O.b y 9 p G { O.5.[ [ G b [ 1.6.e.8.6.O.1.5.@.1.O.[ U j h I 1.O.I _ 1.@.O.U O.8.4.5.O.G O.w...z i y b b y # 7 9 e < , 4 F >.[ c m G ( O.f.6.O.G t e : j v b j h 1 1 - X $ ; - ; u h < ; 1 1 1 t t h k F I O.>.[ k k v k D G G F F G G G J o.o.I I I P F +.N.g.,.B.&XqXjXzXpXpXmXMXkX=X~.$XR.E.B.o.P [ o.>.B.:XzXZXCXkX=XwXlXwX%XAXLXzXXXzXMXlXQ.B.o.G.9Xm.F P o.8.g.j.B.x.8.v.v.B.Q.R.!.R.m.7.8.B.v.j.1.1.[ F F I O.o.Y H I G F u < 1 f F L _ G z i u u u 1 < - < < < $ X $ $ .   o $ $ ; - $ $ t 1 - f Z 1 X ; : $ X $ - ; $ o . . X - - ; ; : t u e 1 ; i j j n F _ k j G t - $ - @ X @ @ : t 0 9 y : - - e ; @ @ $ - e e : 9 u e t c e u u u 1 n } | [ _ l 9 ; e z 9 t y z v G _ O.6.4.G ' t n 1 ; n t ; ; ; 1 : X . ; f L O.| G u X @ - u h k k m L k 7.iX;XoXyX0X>XuX;XZ._ n L v.b.H.M.H.g.1.[ J G z Q X.q ` A.r.` ] 6.A.b._ w Q G z e j j 7 = % + : e ; $ .   ",
"y ` -.p.@Xu.V.OX+X}.C.r.6X;Xw.C.y.e.B.%XP.b.A.%X0XuXqX%X X%X5X&Xb.b.E.:X&X|.B.|.|.H.B.b.1.v u Z k u 1 ; X . . .     X . O . . X 7 9 g j j u % 7 t 7 7 k G J I O.@.O.1.O.O.@.@.5.x.5._ [ O.} b y G b c b _ | @.| _ ( G O.5.5.8.c.2.@.1.5.@.1.5.@.| _ J | 5.O.I I 1.6.1.I } 6.v.6.{ m _ 2.r.G t i m b y # 7 e e e , o v 5.1.b _ v.N.F.F.m.6.I f i f k G m v k u ; $ X $ : ; t t 1 < - ; 1 t u t u h Z Z P O.I Z D F k F G v F F F D F J J I I H G A G ,.m.m.7.Q.5X0XpXMXAXAXSXSXlXE.B.m.f.N.E.v.N.W.e.P Y m.:XMXAXMXpXqXMXmXwXFXIXMX&XmXAXzXQ.j.O.k.Q.+.G } | 8.m.F.~.~.R.R.m.Q.~.!.^.Q.m.5.,.Q.$XB.v.Q.V.G v [ O.I H H P I G h 3 u j n _ _ n i t 1 1 < < - - - - - $ - , o . . * < 1 1 t 1 $ - ; $ A I C ; t f u ; - - - < ; O . - 1 ; ; ; ; e e 1 1 1 f f u u h k g j n u ; ; ; X . $ @ ; t 9 ; ; : ; - t e - @ - - e u t t t ; 1 u < 1 k t ; f L } ] L g f 7 : z j n v G F L _ O.1.8.@.m | G n : u g t k n z L @ . ; n j _ O.F i - - X ; ; : ; n L F b.uXpXyX6XyXyX5XuXoX] g N 2.1.b.B.H.R.{ G G } @.b. .t.A.E.X.t.J.A.A.m   q +   = i 0 7 i y ; ; ; 1 ; @ .   ",
": c 3.OXU.9._ p.i.p.p.u.[.-X2.A.4...1.u.R.b.b.E.qXxXuX|.A.|.E.|.E.b.E.|.:X|.A.&XE.B... .z t u v F k t < $ . .       . . . . . @ = 7 7 % ; u @ 7 : e % u F v } O.O.O.5.O.p _ 1.O.6.[ ( } G ; y ( _ j y b G _ { | | O.@.1.O.@.8.b.2.O.1.4.5.5.8.6.5.1.@.1.5.@.[ L | 6.5.| O.6.8.5.| | _ ` c.( i F G z y 9 r 7 = 1 4 o j O.8.| m m.=X<X*XF.} j z j F F v n v k u ; ; $ $ ; @ ; 1 1 u < - 1 u u u u u h u A G h h k F Z Z F h v k h h h I J F F F Z h I 7.m.F.N.R.%X&XpXNXNXZXHXGXmX*X$X=X$XXX*X5X0X6Xb.O.+.g.R.0XzXwX%X=XMXMXzXGXIXNXqXCXAX$XB.5.,.f.d.+.} 5.4.8.N.!.$X*X*X~.N.Q.~.^.Q.N.F.m.g.R.%XB.F.uXuX5.G I I F S H o.O.[ Z 2 h n n m G v i t < , - - $ o o o $ - , , O   X < u 1 1 t 1 1 ; - - h P A u h j F F k t 1 u h , O - 1 1 : 1 : : - - e 1 u u ; ; 1 e e e 9 : : @ @ @ @ $ - : e ; 9 ; : ; @ $ ; e u u ; j n e : - - - * ; 1 : e ; e j L [ [ c n y g N c m G U F v L O.x.v.@._ G j c 1 e j t v I G g e X 9 n n n [ F f < ; o ; 1 n 1 n F k v.5X6XxXnXiX6X5X6X>Xb.| 2.] 8.XXA.A.:XM.1.L 5.R.oXC.` ` #.E.e...4.M...b.5.@.@.5.| G b i ; % v i e @       ",
"; e 1.n.p.U.~ 0.XXD.[.[.D.q...2.@.2.e.1.b.b.M.|.&XuX%Xb.E.|.E.W.A.8.A.E.%X|.P.&X|.A...0 m @ < i h h 1 ; < $ .       . .   . . @ 7 y 9 ; @ @ @ ; : 7 i F F : F o.>.1.O.@.G y _ O.O.5.O.( 7 y G c G b z m L G { @.5.1.@.5.@.O.5.b.x.O.5.8.6.5.5.5.5.8.x.8.8.5.| _ [ 5.6.5.1.8.5.1.1.| ] ....b F G G v v b x 9 7 % O o v | 2.@.m _ N.*X,XR.O.z b m G v k [ I F i ; ; $ $ $ @ $ 1 1 u t < 1 t u u u u t ; t u h Z G H H Z F H [ G Z A F F I +.+.A C h [ 8.m.R.!.|.5X:X9XwX0XbXAXlXqX5X*X9X*X=X5XwXuX*Xg.7.7.g.m.(.9XpX*XXXbXMXmXJXIXFXNXSXlXR.m.,.5.g.d.o.5.m.j.x.R.~.~.*X9X$XN.F.Y.).*XQ.~.!.Q.R.Q.Q.~.bXxX5.I G F C S P 5.O.o.G } F F v j v f t 1 < - - $ o o X X X < 3 < O   X < h t 1 < - t t 1 - 1 h u t F I [ [ v t ; t h 3 4 - 1 j j n F j i ; e t g n n v j u t j n n j e e ; ; e : t t : : y t ; - $ $ e u u - u j 1 - - ; ; $ 1 f e j u t g n _ G G N z i y g c c f u f j G 5.x.5.@._ D n t 1 u e g [ G e $ X ; c U L [ D f 1 - $ $ t j u n t f E.uXpXiXxXxXxXlX0XyX}.u.Z.u.` b.e.E.:X.XA.8.r.w.y. .` #.2.c.X.2.@.2.2.2.r.r.6.@.G z y #   j G 7 .         ",
"@ @ b e.OXZ.W.[.E.;X+XOXp.^ m ` | ;.C.A.A.v.8.E.:X%XE.A.&X:X0X;XA.M.R.b.!.|.XX:X%Xw.~ ] m ; : u 1 ; - ; 1 $ . .           . @ # = # # @ @ ; j u u t [ G c @ ; t I | 1.8.5.t e } [ 5.5.z z G g y g j G G v G _ | @.5.5.@.O.{ } 4.e.1.4.8.6.5.5.4.@.5.8.8.6.6.@.@.1.8.6.5.@.6.v.8.6.8.2.2.{ y i v b z z ( b r 7 $ O $ v _ Q _ { c O.~.$XQ.j.1.O.O.} v j O.o.Z t 1 ; @ @ $ $ - 1 ; 1 u < 1 t t u u 1 t - ; u Z F P P P G I O.,.o.} O.,.[ 5.F.R.N.H u [ g.k.R.XX:XuXuX0X:X:XkXCXzXuXjX5X9X*X~.~.~.(.=X$XW.x.} +.k.Q.~.B.Q.kXmXMXJXJXmXmXMXwX~.N.5.g.5.,.g.n.B.V.V.R.|.9XuXkXuXN.g.N.=X9XpX=X%X=X=XR.~.&XuXxX8.P A C S H P +.O.I [ >.L b j i i t t < - - $ o o O o X o , 1 ; . . - < u t < $ $ t f f 1 $ ; < u G } 5.O.b j ; 1 u 3 , u G } [ O.>.[ G f k k F | | } ' j h _ | | I n n : e g e e i t g z y g e $ $ : t ; $ - e ; - - ; f ; e j n L b c t j c G n g n m i t g n : ; f G _ m m 5.@.G L I F u t i c F f t X e c G O.| } G i e ; ; . 1 u : g ; ; 7.%X0XmXMXkXlXxXuX0X:X}.A.B.V.y.Q Z.E.E.A...x . ..2.b.|.2.` ` 2._ ] ` ` { ..{ [ v u t i j i t             ",
"1 h ,.N.B.B.W.;.}.Z.[.+X;X1.( Q Q t.u.b.v.b.J.|.:X.XE.E.:X0XaXyXE.A.|.E.%X|.XX%X|.b._ b z * ; i ; $ - t t - . .       .     . @ @ + + @ e t k F u e G I n : . @ = c G 5.1.G G } G o.5.9 b y 7 y z i G G v G ( { | 1.5.@.| { [ ..2.1.2.6.5.| _ 1.O.1.e.6.5.2.1.5.6.8.5.@.| 5.B.v.8.b.4.] ( % 7 i z 9 y b b r ; < 4 - c _ _ ' _ c G m.Q.F.F.F.m.v.g.[ v o.o.h u t e ; $ @ $ 1 e 1 1 u < - < 1 u t 1 t < - t h h A A H I o.+.,.O.>.,.f.g.m.Y.~.#X[ 5.m.m.j.B.!.$X*X=X:X5X&XpXAXmXzXjX9X=XQ.G.N.F.Q.~.$X5X:Xm.C Y d.k.k.B.*X9XpXFXFXqXkXlX9X~.m.8.m.,.8.B.Q.B.R.~.!.*XMXCXSXCX9Xk.g.).9XkX~.*XqX9XQ.$X5X!.0XB.J h h C H P +.Y P I _ G j u e 1 1 < - $ o X X X O O O o o - @ . . $ 3 1 3 $ O o 1 k G Z - o < h F } g.8.c t e f h 3 3 h O.7.O.O.>.o.I F F n U L L L U f f _ ' U G G n : : u u t y g c n l l g ; $ ; 1 - X ; g : : : : t e i c G _ G j e g n L m n g c n g z y 7 : j G | 6.@.6.G L [ n k f u k v e e : @ v [ | _ [ _ F G f e ; . - ; - g $ - g O.5XMXAXmXxXMXqX%X:XXXn.Z.|.%X..w.A.t.|.A.A.w.Q |.|.E.E.2.` e.] 2.@.5.e.@.[ b u ; = i i   + @   .       ",
"1 h ] 5.i.[.}.}.U.n.;X5X-Xb.1.b.C.I. .r.] _ b.%X|.A.b.e.%XkXyX:XA.!.#X&X|.|. XA.M.J...z _ c $ $ . $ 1 h u e X X           . @ @ @ 9 b D k D Z u ; e i v i D : @ @ G m m [ | c : j [ _ y m c c z n n G F G _ G [ ' ] | { ] 1.@.@.1.5.5.5.5._ m _ I I >.O.O.@.| O.5.8.1.@.| 1.M.b.e.5...] b 7 % i z y y v b r e 2 4 - n ' [ [ m z z } F.Q.^.Q.N.N.F.f.[ ,.+.H F h t ; - @ . ; < ; 1 t 1 $ - < 1 1 < 1 < - < 1 1 u h C A G I o.O.,.5.f.m.m.m.N.F.b.XX=XN.k.m.F.%X*X|.:XqXuXMXHXNXpXeX).Q.Y.).$X).^.(.%XwXjX#XG C Y <.<.N.=X).*XFXFXlXSXCX=XR.v.O.,.g.B.B.N.Y.^.=X9XxXAXFXJXJXCX=X=XwXlXwX^.$X=X(.Q.:X&XN.$XF.G h u Z F F Y Y I I G b i e ; ; - - $ o X . . . O . . . . . .     X - < $ . . O - j I F < - 1 u k [ v.c.c % t v v 3 , A >.5.o.I [ [ I U G n v v k n j f u j j j n n g ; - : t 9 t j l l f c n ; - ; ; - . : k t t u 7 t t e 0 m n N n : e n n y n t : : ; t t - 1 f G ( { @.O.G c g v f ; $ ; - @ % @ $ n 1._ L c _ G L n j f - * - ; u ; f =.] :XaXxXMXkXxXuX#X#XE.A.I.E.|.b.w.b.@.8.v.E.!.e.b.b.2.8.c.b.2.....b v ( G G G D t @       . @ . @ @ .   ",
"X c 5.&XOXXX~.&XA.W.|.:X;XE.B.|.%X{.q. .` ] 1.E.%Xb.2.4.6XuX6X:XH.H.|.%X%X%XZ.b.A.c.2._ ` G ; X   $ u h u 1 o X       .   . 1 y g [ _ f e 1 e @ @ : e f F F F $ @ n c _ >.| L t t L c c c G G b b _ G b G [ { _ { | G | 5.4.5.2.8.8.4.1.5.@.[ G f i F [ [ [ _ } 5.8.5.5.{ 5.e.@.6.| ] { z e 1 t a p y b b r t 2 4 - n ` _ _ G c c m 5.m.Q.^.Q.Q.Q.G.g.f.,.+.Y G f : ; @ . X - ; 1 1 1 - - < - - - - - - - < < u h h h F I o.O.,.f.f.5.,.f.m.$X:XpXwXY.N.Y.Q.:X:XE.0XuX6XbXAXmXjXwX=XQ.Y.).eXwX^.Y.Q.=XwXwXN.h H Y +.f.Y.G.N.lXSXAXLXSX=XN.N.f.5.m.E.!.^.Y.Y.=XzXuXpXMXGXGXSXCXCXAXSXlX9X$XQ.Q.~.:X%XN.~.*XY.Z u h h Z F I I G G j t 1 ; - $ X O . O . . . . . . . . .       . . X . . . X - u f u < < u 1 u n >.4.L t u D F 3 , G >.O.} I I [ I G U F F v j G F k j f u u j j : ; - ; 1 9 : g n n c g g e ; e 1 X . - e g 9 t t t t t e n l g z 9 g c z : : y : - ; - ; $ ; t g f f _ m m c j j e ; $ @ o @ = $ ; n [ v c c n [ ] G F Z - : ; ; j v v 4.1.|.kXNXZXxXxXyX|.Q.b.M.E.b.E.1...A.x.O._ 2.~.E.A.| _ Q 2.c.c.b.5.5.@.| J J e $ $ . .     # 7 @ . .     ",
"I 7.=XwX9XXXE.E.n.V.|.0XoX|.b.B.|.:XoXw.` w.2.b.%X4.v.E.6X:X%X:XE.|.%X-X;X0X|.E.|.A.b.4.] n - . . < t h u - o X   . . .   O k O._ _ j : ; t ; ; $ ; 1 i F F _ u X y [ e.1._ L j y g c [ m z m b c } G z c G [ _ ( c y G @.6.O.5.8.8.2.| _ _ m z i 9 t v b z v L O.@.5.x.2.5.O.z { | ( G e < e e y y a ( b y t 2 4 - G | _ v b c m [ [ [ 5.m.F.Q.Q.F.G.k.f.d.+.F f e ; X . X X $ 1 u u - - - $ $ $ $ $ o $ - < t h u h G I P o.O.7.m.f.+.+.m.9XlXmXzX(.F.!.=XqX9X~.%X=X:XMXAXMXmXNXMXlXeX*XwXwX9X*XG.G.$X9X!.I S P P <.Q.=X$XjXCXAXLXCX=X$X|.m.g.m.!.=X=X^.8XMXMX=XXX6XkXbXAXFXMXbXbX9XkXbX(.R.!.$X|.V.F.9XwXI u u u h h F G G L k 1 ; ; ; o X X . . . . . . . . . X .         . . . . . $ 1 1 ; - - - ; - ; u F | G t u v F 2 3 I 5.5.o.I I J G F U I U f j L [ F c c j f g e ; 1 : @ $ = ; 7 f j g t y 7 : i i X . $ ; t e : : ; t z z l l g c g c m m t t t g ; - @ X X ; : c g m _ c f e e 1 - : $ X X @ - ; t G F ; e m j _ [ v h u < @ ; - 9 F G 4.5.{.xXMXmXxXxX6XD.t.5.M.Z.b.b.b.t.b.| G _ x.E.e.A.| ' e...( w.J.A.e.1.5.o.Z 1 $ X $ @ @ i y i @         ",
"f.T.wXNXjXE.R.B.b.y.W.:XXXR.e.e.B. X;X-Xr.;.` A.Z.8.Z.I.;X X%X%XE.|.%X0X;XXXoX|.E.A.A.b.1.g $ $ $ t j h 1 $ X .     X O     u } b F t e t D e ; $ i f u F [ _ D e >.x.x.O.c g t j y G [ z y p } m b L z 0 y c G b v y z { | } O.6.6.| _ c m | | c j e : i f k v G O.5.b.b.e.| m _ G z z e e e t e y v ( K i < < o , _ 2.| b z z c [ L m [ O.,.m.Q.F.G.k.f.f.O.G f e ; $ X $ @ X 1 h h - o o o X X o $ X . . $ - < t u Z H H P o.5.F.N.+.+.m.jXMXmXpX:X=XqXmXmXmXlX9X~.=XMXAXwX9XpXmXFXSXvXqX*X$X=XQ.R.XX&X%Xm.C H P +.^.eXwXkX9XpXSXmX:XwX9XR.B.R.!.Q.Q.).lXJXFXkXpX5X~.=XbXmXwX*X=X~.qXwXQ.Y.B.F.~.Q.m.$XbXY.A u < 1 u v F G n j u 1 ; - o X X . O . . . . . . . . .             . . . o 1 u u 1 $ o X - 1 ; t k u $ e j f 3 3 o.V.g.O.G A Z F F L O.U j j G F F v f k n n u 1 e : - - ; 9 t f n c t u ; $ : t X . @ ; y : 9 t : f m n g g g z c G m G [ c y t e t : $ X ; = e g n z i ; : ; : ; : ; - $ - $ ; j [ b 9 ; z L c n y 1 $ ; - : e j I [ o.{ A.aXMXMXxXjXoXD.t.O.b.I.|.A.b.q.2._ } x.A.v.b.E.8.6.2.v.c.A.E.A.2.[ ( G F u 1 < u G G G y @ @ ; ; . . ",
",.G.hXVXmX~.m.P.n.8.W.%X;X&XI.4.@.v.I.|.}.I...t.A.O.1.8.E.b.E.%XA.|.%XjX6XW.&X|.|.E.A.A.b.U ; < u F i 1 * O X .   . X . . . $ i G b t F G j j u e k f j G I n F >.5.O.{ m i c g g g G m m y 0 m c c G y 0 y m ( G 0 b G G _ b G L G b m m z m _ 7 7 t $ ; e u f c } 7.m.A.x.| { _ z c t e e ; e t 9 v ( K y $ o o , } 5.' m y v G L G v b [ [ O.F.T.G.g.,.O.+.H u < ; ; $ 1 - @ $ 1 k 1 o X O . O o $ o X . O X $ < t h F F F P +.f.j.5.B.!.wXlXjXpXlXpXlXAXmXmXmXwX*X5XzXlXwXeXzXkXvXvXpXwXpXqX9X9X0XpXwX*XF.P C S Y ^.8XmXSX9X).jXmXzXlXwX=X$X~.!.Q.Y.^.lXJXCXbXMXzX|.~.9X9X:X#X$XwXwX=X~.$X~.N.R.Q.B.R.5X*XN.h < 1 u k G F j g u u 1 ; $ $ o O X . . . . .   . . . .             . . X - u Z u , $ o ; t ; - : 1 ; < t 1 , u O.b.v.5.G u h F G L [ G v F F f v j u f v G t e e u : : 7 t g g _ c u e ; $ - : @ X @ % ; 9 t n t y n n b t : c L G _ | ] G i 9 9 : t e % ; * ; n m j n t e e t 1 t e e t ; $ X ; v t $ 9 i l : n t ; $ - * e : g o.5.G O.A.>XmXxXuXuX{.S.g.2.2.{.%XI.A.b.E.4.` w.b.| @.4.1.5.x.x.e.v.b.A.4.m b c e ; $ < f _ v 9 b i 1 u e $ . ",
"+.l.8XCXNX&XE.A.B.v.b.A.}.n.b.n.G [ @.5.b.E.E.b.W.v.1.1.v.O.4.|.!.%X&XuX-XoX5X|.A.E.E.E.A.U t j F G t - ; X X .     . . O O e u i j b v z k j k i j F G I J I G | c j G m G c g n i c n G z c ( n v G ( m c G m m v G b b ( z g i j n b z 0 y : X y b g F f - t v _ 7.b.H.x.( | _ p m y e ; $ ; t y v ( v e $ $ $ , I | m c g F [ _ z i z F G G 7.G.m.f.,.+.G f u t t ; $ ; ; $ $ $ u u - X . . . X o o X o X o - ; < u C F h h Z Y l.~.&X=X=X9XwXvXmXwXzXMXzXwX9X*X8X5X9XwXjXvXmXmXvXwXqXnXSXMXqX&XqXkXqX~.k.Y S S Y N.~.mXFX5X~.mXAXlXpXwXpXpX%Xv.f.l.^.bXFXvXpXbXNXlXwXxXMXjX9XwXMXlX=XY.F.F.N.R.N.m.m.~.(.0XY.h t t f v D i u u u u t - * $ $ $ . . . . .   . @ . . .           . . o - u G F 1 - $ * ; : ; ; : ; 1 i 1 o h O.b.M.g.[ h h F I [ G n F F v j j f u u j v t u 1 e 1 e t e u g _ t : 1 - - : : X X @ @ @ ; ; y t t t n L c g g m n G G m G g : t t t t $ : ; ; g m m m g i g : u u e i e ; e . X ; - 7 ; c m 9 f t : e - : t t y I 5.[ b.E.|.kXuXyXyX.X|.|.A.r.|.{.A.E.}.A.4.2.y.b.b.8.b.b.4.O.b.A.e.8.r.@.| ] y t t < 1 h g y n b j i t ; $ . ",
"Y h.<XCXAX&XXXv.n.4.v.1.5.Z.-XP.| ] 1.| O.E.{.A.A.e.1.@.4.>.b.I.H.%X%X:X%XoX5X%XE.M.B.Z.n.G u I I A e - ; - . .         O o t % = ; n [ _ G Z F D G I o.} G [ L i y G [ m c c i m n y g _ G b m _ [ b b ( c z v m { [ m z c b u t e i F z ( _ n 0 m O.[ _ n : 9 z _ @.b.H.b.( ] ..m b i e < - 1 t y G [ a % $ $ $ , D _ b y j D I } j e v j k F G >.O._ o.,.Y h i Z h ; . X $ t < 1 u 1 ; o . . . . o $ o - $ $ - * < 3 u C h h h +.~.uX0X5X=X:XjXvXkX*XwXbXkX9X$X^.).).^.(.9XwXgXjXmXjX*X9XzXMXAXmXNXAXlX$XG.d.Y I O.N.Q.zXSXwX~.lXAXCXlXzXvXMXzXY.+.f.~.zXCXCXCXmXlXMXAXAXFXNXuXeXwX8X~.m.k.g.m.F.k.g.N.F.Q.qXbX~.v u u h h t u u t t 1 1 - $ $ o . .         X $ X . .       . . . X - < 1 Z Z 1 o - - $ $ $ $ $ o ; u 1 , C 7.A.B.5.o.G h Z I [ F L } j u f f u t h k f e 1 ; ; 1 e t t g n c y e e 1 ; e : $ @ 7 ; - : i t f i t c L j L L c c G _ m G g : t m 9 : ; t 1 : c _ m c 7 y g g e b t : : ; ; @ ; $ @ ; ; y 1 z ; @ X $ ; g : ; L [ G I R.%X%XzX:XuXzX>X:X#Xb.b.A.C.E.B.E.A.A.I.y.A.oXb.Z.y.c.4.8.A.A.r.r.r.x.c.} f 1 1 1 F j G G G v z t $ + . ",
"+.m.<XnXkXuX}.W.b.2.8.-.8.v.I.W.} 8.1.O.1.b.S.A.8.| 4.b.b.4.b.Z.8.!.%X%X:X.X;.E.R.H.A.P.v.F u F [ F e % : $ . .         . X $ = e 7 t t c F u F F u j D I F k b y v G G G v F i i m g t j _ _ m G L G b G z y y c G m _ m c t e 1 ; % i z b G m c m { 5.| _ c t t G [ x.H.M.' _ @.b x i e e 1 t y y G _ v e ; @ X $ h G c y v F o.5.I t t : e F G L G j i I +.D u h h < . . . < u t t u 1 - o . X X X o - , , - $ o $ $ 3 1 h G L 4.XX5X*X*X$X*XlXuX9X*X9XlXzX*XQ.Y.Q.^.Y.^.=X8XgXmXSXNX9X*XpXlXCXGXFXNXNXjX*X=XY.m.8.k.~.lXFXNXpXvXHXJXGXFXGXGXFXkXQ.Q.*XbXGXLXGXvXbXAXNXlXmXpX*X$X).$X^.m.f.g.k.g.g.k.R.N.Q.zXlXpXQ.I h u 1 1 Z D u u 1 , $ X X X . .         X - $ X .     . . o $ $ - , - 1 1 - $ - - $ X . @ - $ $ ; < 3 F m.H.8.L I I u u G I U } } k u f f < 1 n F j t ; - ; 1 e u j j n n c g g u 1 t e @ - 0 ; @ - e g e y g c c n L _ j c m _ L G t - e n e 7 9 0 e e g z c 7 9 7 y i u y e ; : 9 ; - @ X X = : g 9 f - $ @ 9 y m 9 t c ..G o.R.;X%X:X0XzX0XiX0XR.2.!.A.E.W.8.y.E..XI.Z.2.p.b.r.w.A.e.5.4.8.b.r.2.@.5.[ t 1 t t b y G [ v t t t ; .   ",
",.Q.wXiXxXxXiX}..X8.1.] e.v.Z.B.3.2.{ 5.v.8.v.b.8.1.y.A.M.6.Z.4.e.b.A.:X:XsXE.A.B.E.|.E.y.F j J G C u e 1 - X .           X ; 7 ; 0 7 = 7 @ ; i 7 . . % t t = G y i b L G G G j : 9 u i c [ [ y t c G F j t # = c [ O.] [ _ = ; ; : % e v 0 b z c { m 1.2.1.| L i z n 1.N.B...] @.b ( e % 1 t t i b ( G a r < ; @ o 3 D G c G } >.,.I u i i e j I } o.F 1 u H Z u t u t - . . < u u u A F 1 o . X o o $ - , , , - $ o X $ 1 F 7.M.E.:X9X9X9X=XwXjX*X*X9X0XkXwX=X!.~.(.=X$XQ.$XwXBXSXGXHXAXlXlXzXlXAXHXAXSXHXGXHXvX*Xm.V.$XmXLXLXAXVXKXLXGXLXLXJXLXLXAXCXAXSXFXFXAXlXAXFXmXjXlXeX=X*X^.Y.F.N.g.g.m.g.g.m.R.R.~.9XzXMXXX).7.n 1 < h h u 1 < < $ @ X X . . .     . @ $ - $ .     . @ $ $ $ - - ; - $ X X o $ - $ $ ; 1 1 - - < , P N.B.O.G F F 1 t F I G I L k u t e < 1 k F j u 1 < ; e u j L j g g l f : 1 i t i - - 9 : ; : : t g g g c L ' L m z g m L G F : ; : g g e : 9 7 7 y g y : : 9 0 g g c - $ ; ; - - $ X . ; : ; ; 0 : - ; - c m m 9 N ` 1.@.A.|.R.R.6XyX>XiX:Xr.2.|.|. XA.1...w.w.:...Z.{.e.n.r.e.5.5.n.8.8.A.w.` ....z i j f b y z j t 7 = e $ .   ",
"G.Q.wXxXMXZXaXnXnX}.e.1.y.U.n.v.1.*._ 4.1.>.O.5.4.5.8.b.x.x.S.] @.c.A.%X:XxX%XE.|.!.|.{.E.G v G A h u f e - . .           . ; @ : ; ; = f i 7 @ = 9 = = : t t 7 j 7 K G G m z t @ ; 7 G b _ _ c G G b j t t # t y G O.z y G u ; ; ; $ : t z ( c m [ m 1.6.1.} G f F g G 5.g.1.6.5.( _ # $ ; t e v ( ( a e ; e t ; X o h G G ( 1.5.O.[ F F I F v G [ I F h u h h u h Z Z h - X t h h u h I u $ . . . X - $ o o $ $ - - 1 u v | R.qXzXkXwXwXeX*XwX0X=X*X9X0XwX9X=X=XwX9X%X$XQ.~.=XeXBXSXHXSXNXbXzXjXAXGXLXIXUXUXIXLXNX9XXX&XNXLXPXFXAXFXAXSXHXGXGXLXLXJXLXLXGXMXmXlXwXlXmXwXpXlX9X(.T.z.l.l.G.j.l.m.m.m.R.F.!.R.Q.9XbXQ.R.!.5.v 1 t t 1 ; - $ - $ X . . . .   . . $ $ $ - $ .   . . . X - 1 u u u - $ $ - < u h h k f u u u t , H 8.7.[ F h u ; 1 k F F F U n f e 1 1 u f n n k t < ; t i n G j g c g e ; t c y g ; ; ; ; t e e t y j t n L _ G g z g G L G G 9 ; e t i 7 9 ; - ; y 0 y y z c n y y m ; - : ; t : $ X X $ ; 1 ; g - . ; _ z z m 0 M ] } Z.B.V.b.E.>XiXkXxXpXA.e.b.b.I.u. .` 2.w.4.2.Z..Xb.b.Z...3.5.Z.b.4.x.A.4.e.] y 7 e i g m y i z G y 7 @ .   ",
"Y.R.wXkXsXxXaXCXMXuX}.Z.v.S.|.7.5.5.e.w.| [ I [ 5.O.1.8.1.b.Z.n.c.4.|.6XI.u.E.|.|.~.:X|.8.F j F h e 7 u t - X .         . @ . . @ @ * ; % g i % g b v ; 7 7 t = y e b G G b i g 0 e 9 v G c b G _ G t 7 7 z y i z b ( q @ z m : $ ; 1 : t G ( c m n _ ..| L m n c k u f G [ _ 1.5.1.| # $ < e y b ( ( a % ; t y e X O h [ ' ' 7.g.5.O.L F [ O.I F G I G F F F i 1 u h h F u - u A F C h h 1 $ . . O X o o X X o - 1 u F O.6.2.P.kXNXMXwXwX8X^.*XwX9X9XwXwXlXmXjXwXkXkX9X~.Q.Q.Q._.eXlXMXVXmXkXjXwXzXlXSXPXIXIXLXPXLXAXzX9XjXMXNXSXGXJXKXGXGXJXGXGXFXAXFXFXMXjXeX,X=X9XqX:XwXeX$XQ.G.G.l.f.k.f.f.m.F.F.R.!.$X~.F.~.wXQ.Q.|.R.8.n u 1 - - $ o X o . . . . .   . . $ $ X $ $ X . . . . X < t u h h u 1 u u h G I I I D f f i 1 , G >.O.G h f u 1 1 k G F k D F j t 1 t u j L [ k u 1 e u f L [ g l _ g : - u g t 9 ; e - - g g g t y g t l m L m _ m m _ L _ L u e : ; : ; @ @ $ ; i 0 ; 9 g z 9 = z y g : $ : u $ $ $ - $ : < e e - X 0 -.m ` m c ~ [ } E.Z.y.8.~.zXtXaXxXyX|.r.b.;.Z.n.1...8.b.S.b.b.I.I.b.e.2...8.v.B.e.x.E.{.E.c.z c g i @ t 7 g G G j t @ . . ",
"] P.wXnXZXCXMXnXxXyXtXXXOX|.W.8.g.8.v.Z.2.L F L L [ x.v.@.5.b.w.r.M.A.;XW.>XP.R.%XE.|.~.v.v e j u u e : $ $ X .         . X . ; @ @ # = 7 + @ e v u t ; ; e c c y c c b G b g m g t g n L c g G G n ; e y 9 v g m G ( m z ( L t ; : 1 ; 7 j c t _ _ [ 5.| c L L L v e 1 t e i { 1.2.2.j < t j z G ( G i : 7 t y < o O u } | _ | g.g.O.n c v [ o.I G G I P G I F 3 , 1 u h h u 1 h A H G C 1 $ O . . O o X O $ - t k G I B.R.M.B.5XlXMXwX9X9XQ.=XlXlXzXlXlXHXKXSXNXMXmXzX8X$X(.=X=XwXjXjXVXAXqX9XpXjXjXMXAXSXHXGXGXHXGXGXAXCXMXzXMXFXLXPXIXUXKXAXFXAXlXjXwX8X$X(.~.!.$X*X9XlXqX(.Q.T.G.k.l.f.f.g.g.N.~.=X9X0X=XQ.Q.=X#X~.$X0X!.5.} F t - - $ X . .         . . . X $ X o < ; $ X     . , 1 1 h C C Z Z u f G I I G D Z F D t 3 I j.g.I F F h u < h [ G F D F k u 1 1 e k } [ h u u e f k L n g j m j e ; e g 9 e e e : - g n y y t t 7 t n n _ ' _ c c m ' G i : e : : $ @ @ @ $ 7 7 ; = c c e e t 0 : @ @ : ; @ @ @ X t 7 : 9 e $ $ n 4.` ` g t Q m _ u.Z.5.1.|.yX>X0X;X>X.X XS.b.w.2.1...8.Z.C..Xq.Z.E.S.3.w.5.4.v.E.A.v.b..X.Xb.{ y y t t z 7 e t t 7 $ .     ",
"8.$XlXSXMXaXaXnXAX>X;XyX:X-X:XE.c.e.Z.I.g.| G F G _ | y.@.O.v.2.b.P.u.8.P.uXzX&XE.2.x.R.H.G 1 t u t e ; $ @ . .         . X @ ; : 9 7 @ ; % : t i 7 $ ; 0 t t b y z G G _ G v n G i j i b g v _ b g i i j y c G G ' ( m _ ( m g t e ; : i b b y v [ O.| 5.| L n I G t ; - ; i [ _ | 8.G e i F b K G v y y y y e ; o O u | | L L >.7.} c G F g I [ J F H H k H H 1 O $ 1 1 u A u u u k G A u < - $ $ - < 1 1 1 u F G I o.B.F.m.G.Q.9XwX*XQ.T.F.(.jXlXlXlXMXKXHXAXSXAXMXlXpXwXwXgX,X9XjXjXNXHXmXjXlXjXjXMXAXSXHXSXSXAXMXFXLXGXAXNXHXGXGXHXHXFXcXeXlXlX9X*X~.~.#X!.!.~.$X=X(.wXzX$X^.~.^.G.k.k.5.f.j.Q.$X=X*XqX$X!.*X%XuXyX=X*X$X!.M.5.} n L F ; . .       . . . X $ $ o o - 1 F u       . $ 3 u u h Z Z f f F G G k k F F F h 3 P B.E.+.I J h u < u I I F F k k h - - 1 k } G u e u u u j j j u t f F u e ; e e i i g $ - g c g t u t : 9 n c L m m g c c L m u : : ; ; ; @ @ @ $ @ @ ; 7 e : : ; : $ @ . . X X $ : X @ t f 7 g u $ u | w.] _ m _ ` ( 1.Z.3.| [ u.D.[.D.D.D.u. X;XA.b.2.b.8.2.r.` w.b.A.{.A.@...| e.b.A.A.A.b.M. XB.1.O.y 9 y v i % $ @ @ ; @ . . ",
"T.*XjXMXtX7XxXaXZXMX;XuX>X:X:XE.r.{.|.W.b.1.n G I [ O.2.] } O.' -.e.8.1.b.*XpX|.t.2.` b.A.G u t u ; ; 1 ; X . .         . @ X @ @ @ : 0 7 t e % : 7 ; : e 7 = i j y c _ [ v j c n g g c c G v y j i k v y G m ( m m b G _ ( ( m n i e u F { _ b y j | _ | @.' F F n u i : t v G z 5.e.' e t F G b F e ; t y t e ; X O f } >.[ L L F u v G b t F I F F F u t u i < . . $ < h I F F h h F G G h k e t j v G I G F [ o.+.,.m.Y.m.m.m.~.$XQ.z.G.Q.(.wXkXjXvXMXAXlXwXNXGXGXAXvXvXvXBXwXeXBXNXVXNXlXlXmXlXlXNXNXlXmXMXjXeXeXhXjXgX9X$X)._._.,X8X,X_._.*X=X(.!.R.*X0X$X~.$X%XQ.F.).*X^.Q.Q.Q.G.R.9XY.g.F.~.*X$XF.uXCXCXbXpXaX&X:X$XE.~.B.v.B.v.V.1.f $ X . . . @ ; - $ - $ $ $ - u Z u @     . . $ - - 1 A I I I F D F h f F G F h 3 P V.A.7.o.J h u 1 u k L U F u u u 1 1 f j k u ; 1 1 ; ; t u f j 1 : t f e e ; 7 t u u $ @ g c f i i t ; t z l g n 9 : u c n c i e 0 ; X @ @ X X @ % @ ; 7 9 t % $ ; - X X . . @ ; - $ ; f m 0 ; e $ f ` ....{ ] m ~ _ 4..Xb.8.m -.[.u.Z.i.Z.p.u..X}.r.r.b.2.b.Z.2.Z.b.Z.b.2.....` G ] v.M.b.b.x.{.b.| m z y p y 7 t t j i t @ . . ",
"(.8XjXxX+XdXiX+XaXMXtX>XqX-X:X;Xu.U.Z.| 4.[ F n I I _ [ [ O.G m ] { 7.1...e.b.] I.b...2.B.I u t t 1 $ t e $ . .         . X @ X . @ * ; = y t ; 7 e : ; @ @ @ ; = t c n G F n c n i j m g v t g j u v v c G _ ( c b m G ( O.| ( c u t i c G m b m [ _ { O.| [ n g j F D i i G m m 6.v.` i 7 g z z j $ = 7 = ; ; ; X o h | | L G n n j F L G j [ _ v k k t ; 1 1 $ . . . < H o.I G h f G I } I G f I G G [ 5.>.o.,.,.5.7.f.m.g.m.m.k.T.Y.k.F.^.Y.$XqXwXkXlXmXmXMXAXGXLXKXAXlXjXlXzXlXAXSXAXmXlXlXlXlXkXlXMXBXzXgX8X_._.,X8X,X_.(.(._.8XgXzXwX(.G.Q.(.Q.~.wXbXlXuXjXlXjX(.~.*X=X=XwX9X*X$X=X9X5XqXMX:X5XnX*X0XbXaX$X5XZX0X%X=XQ.R.Q.B.v.8.v.~.O.i t t ; - ; t t ; - < - - - t A h X     . . . . . X u F G I J F D h f F I G Z h o.V.A.v.I D k h h h u U [ j t < e F F k t 1 ; ; - ; - $ ; j n F j : ; t i g : y e j u . $ j G g i t e ; e t e 7 : - - e g n n y : : $ X . X X X @ @ ; ; : u j e e n t @ . . . @ ; 7 $ ; z m g z ; o 1 _ ....@._ _ ....Z..Xb.c.] 2.Z.;.U.p.a._ 2.u.u.I.w.` 1.Z.U.Z.n.4.u.` ` ` ` ..m @.2.2.8.e.@.5.@...c y z p j z z z v g t X . . ",
"~.9XlXnXsX>X+X[.+XaX>X-XC. XoX0X.XC.y.y.b.6.L L [ L [ 4.[ O.@.L _ ] ' O.| 6.w.2.u.u.` w.e.G u u u u 1 ; t 1 . .       . @ ; @ @ $ % $ : % 7 i j u g u : @ @ : ; 7 7 z b G L n c G j i j g t t y j t n c z b c y ( G c m G G _ ] c i y b m c b z z 5.O.{ 1.O.G j F F F G [ g G _ c { 8.[ t ; = 7 t t $ = e 7 % ; $ o O h O.| | [ L L F n v n i [ ,.[ G Z t $ - - @ . . X < F I I G v G L O.>.I G F [ +.G G O.o.[ 5.g.g.5.,.5.f.g.k.k.N.Y.F.G.T.R.Q.*X9X9XqXzXNXGXFXMXVXVXlXzXmXzXvXMXVXAXFXFXAXAXVXmXmXNXSXAXcXeX=X$X$X,X8X9XeXeX8X=XjXMXMXbX=Xm.R.~.~.wXMXMXbXlXbXlXzXwXwXwXpXmXAXGXGXCXkXjXvXxXAXnX*XpX*XQ.*X0XuXxXCXpX=X&X~.!.A.1.>.O.5.%Xg.F v f t 1 u i u < - - < < < u h h 1 X   . . . .   . $ u j Z F j f k k F I I J H >.M.A.b.I j f h h A f F _ _ G F I >.O.F u $ - - ; u u i t F n j j t ; 9 t t t c b G u X - v j t u g 9 : g t e $ $ X @ : g g j g : ; : @ . . . X X @ ; ; 9 t e t i g g : $ o X X @ ; @ $ ; y t t ; . : n -.Q @.1.` ;.w.D.i.2.O._ Z.p.b.;.w.w.#.w.p.r...4.;.2.Z.Z.Z.2.r.r.2.p ..u.r.-.2.b.2.2.2.@.{ { @._ _ m c F F i t e e e @ . . ",
"Y.$XqXxXZXsXiX>XD.uX{.E..Xt. X X%X|.E.B.e.| G O.| ' _ _ 1.3.| 5._ .._ m [ 5.b.A.{.S.r.E.A.G 1 : t g i % e 1 @ .       . ; : ; @ @ ; t t ; 9 i t i v f = ; @ ; ; = 7 g c G [ G y v j u n c y c 9 i i v c c z c c | { z c y 0 b m y z m G b c b m # F | | [ O.[ j I F f G O.} c _ z Q { _ 7 ; 9 9 e t : 7 7 7 $ @ X o o u L _ [ L G L U F y 7 i I O.[ J D t < < $ $ X o < t C F F G G G G 5.5.o.J I o.,.+.o.o.O.+.+.5.f.,.+.+.5.f.g.f.m.Q.Q.Q.^.Q.F.Q.=X=X=X*XjXVXSXmXzX9X$XpXAXAXMXmXBXNXFXGXGXLXGXAXAXSXHXHXjX*X*X=X*XwXkXMXSXVXzX~.~.9XwXwX=Xm.B.E.*XlXMXMXNXMXNXMXbXbXAXbXkXAXAXSXGXMXAXGXFXlXAXSX0X~.!.!.Q.!.*X%XR.m.m.m.5.N.5.} O.} >.|.5.G v v u t h h u 1 - - ; 1 t u f u u ;   . . . . . X ; t f j k u u h k G o.O.o.[ 5.A.A.x.O.v j h h F Z G 1.8.5.5.7.5.>.[ G < $ < 1 h F G k v 7 g z Z 1 $ : j n G { [ t $ e G j g g g e : t ; ; @ X X X 1 j g j v : ; - @ . . . . @ $ @ ; y e e e 7 t b f $ $ . . . % - : ; t @ - - . X m | ......` ~ :.i.w.{ I 5.b.U.}.p.i.i.Z.C.t.r.e.r...2.{ 2.2.2.r.r.b.2.m w.-.8.b.r.2.1.] ] ( G ( b _ _ b i t i i ; ; @ $ X . ",
"N.~.}.;X@XsXsXiX[.iXE.I.%X.X|.M.J.%XoX|.b.] ] 8.e...[ _ | | L v.u.w.` m ( 8.|.oX-Xr.2. XA.G e ; 1 u f ; ; 1 @ .       . $ @ ; - - @ ; 7 ; 9 e t t j j t 0 0 = : g : t G _ O.[ 0 t F e z b b n t ; j G G c b v _ [ m z G y q b ( ( Q m b c p z ( z = c ] [ 5.7.G G n u g L | _ _ { { ( m t i c c e i i y y y 7 ; $ o o 1 m ( n k F F n v j y j v G G Z j u t 1 < t t < u h F I I I G F F G O.o.P I o.+.,.,.o.o.,.+.+.,.<.+.+.+.f.f.f.f.j.F.Q.Q.Y.G.N.Y.Y.Q.Q.(.eXmXmXmXwX*X9XlXmXmXmXmXFXLXPXPXPXPXLXHXAXNXmXjXjXjX9X9XwXlXAXGXAXjXgXlXpX=X).F.m.(.9XwXbXmXmXAXSXGXSXlXzXNXAXMX9XzXAXMX5XxXHXbXwXjX=XB.l.l.g.l.j.l.l.f.f.,.,.+.+.o.+.,.I I g.o.G F F i t j k t 1 ; - < u t 1 u t u - . . . . . . X 1 u u j h 1 t h v D G I I G O.x.8.8.5.[ I h f k F _ O.x.M.B.4.1.7.5.I u u h h h k f k v : i G I j : 1 c n G G ( e - f n c g c y t e f t t e - . $ e t y t v t - $ @ . . . . $ $ @ = g e : : t t y y : X X . @ e t t ; ; - % X . . g ;.] { _ ] l c i.2.I t >.| E.Z.U.U.q.r.r.Z.2.{ w...2.r.;.4...I.b.y. .m ..` ` b.u.2.w.1.{ b G _ { { ( b i t i t e u ; $ X   ",
"7.B.W.xX>XtXtXtX[.{.yX{.-XE.%X XE.Z.C.r.I.I.w.....1.[ _ | 5.| y.u.S.B.A.H.E.:X:Xr.! m 4.B.n t t y 9 e e ; 1 X .       . . . ; = # @ @ @ @ t e t e t i j i i j z b g 0 G [ | _ t 9 n e y c G n F t _ _ v m b 9 c z 7 z b y # 7 m { ' x b c m ( c c b t [ 5.g.g.[ v j : y z m [ | { ] ] [ 7 j G G y t 7 y z y % $ - o o t G L b i e f j j v v i 7 u F F u ; < u u h u 1 u C [ o.o.O.>.[ G I o.I P o.I Y ,.,.P Y ,.+.Y f.k.f.f.f.l.k.f.f.j.N.F.Y.Y.F.k.k.k.m.F.T.(.8XwXjXwX9X*X,X,XwXmXMXAXHXKXKXmXcXMXSXGXFXmXwXqXjXmXMXmXlXMXvX8XeXmXMXpX!.Q.~.=XbXCXbXSXGXFXAXCXbXmXlXwXbXFXbX^.*XbXmX9X9X9X).T.T.G.h.,.f.f.g.k.f.d.<.+.Y P F H A F G I I O.I k h h t 1 u f u 1 1 1 1 t t u u t t < . . . .   . X < u f k f 1 1 k J J G I I G } 8.6.5.8.O.o.J Z Z F } _ _ x.R.B.8.g.f.[ G k A F h h e ; t i z } +.D u f g m g c G t - j L G i j y i t t n t 9 - o - ; 1 t t f i ; @ @ . . . . @ $ @ ; i e : ; ; e 9 t ; $ X $ $ : % 0 ; e t ; X . . t z t y z G j i  .| U k _ l *.=.:.w.-.A.u.;.1.[ 2.Z.A.b.w.2.G u.Z.{ (  .2...= ` w...@.2.{ i g ` ..( b b y 1 1 % e 1 : % .   ",
"[ e.n.@XsXtXxXtXpXS.S.:X}.u.b.:X.Xw.r.S.-X{.u.b.[ _ _ [ 4.3.2.V.Z.I.|.|.|.|.&X:X X] X ..B.F t t e ; 7 % = e X .       . @ @ ; = 7 ; @ X @ t : * t u t t u t t y c n c G _ [ G t t i e y m [ c c y b v v b m c c 0 m b z c _ G c G 5._ m 0 j { c 7 b g b 5.g.f.} F j e g g n U [ G | | F @ @ g G z a t 7 t ; % $ . O 4 C n j v f u u e t i v c t ; i F u $ @ < u t t 1 u u I I } O.,.>.I ,.,.Y P I o.Y +.+.Y o.f.f.5.f.G.R.F.m.m.m.m.m.m.Y.m.Y.~.~.N.k.k.k.G.Y.Y.Q.(.).*X=X(.T.T.(.eXmXmXcXVXVXeX8XwXgXAXPXKXSXAXBXBXSXGXGXHXmXhXeXeXjXzXzXbXMXjXlXSXGXLXIXLXGXMXwXwXqX*X9XpX$Xm.N.).wXY.k.G.l.f.h.h.f.g.,.o.+.d.+.o.o.o.I H Z h h k k U I A u 1 t t 1 < t u i t 1 1 u u 1 1 1 1 1 , . . . .   . . $ e f h h u t Z G F F I I I 5.b.x.g.5.[ I I F F J O.@._ @.N.!.H.v.O.G [ } o.I k h u u u n _ 5.O.J c G g c g t u 1 1 n m m y c g z t u t ; 9 ; o - $ ; u : ; e e % $ $ @     . $ ; ; 9 1 1 - $ t ; t : @ X @ ; $ ; 7 ; 9 n ; X X . ; f 9 g ; g y t g [ F n j n L L | | ;.y...2.G n | Z.[.A.w.4.] w...[ 2.] 2.Q Q x ] { @.] _ y : y b _ G b y : ; $ - : 1 @ .   ",
"G | Z.E.uXiXsXp.iX6Xq.:XuX:XC.%X:X{.I.S.{.Z.b.2.3.y.n.V.e.e.A.8.M.}.I.b.{. X&X$Xv.A.e.( 5.n j i : : ; ; ; 1 @ .       @ @ @ $ = # * . X X ; : $ = t ; = : : 7 ; g v _ ] G [ G 9 t g t t L ' G c y z G m n b z m G ( y 0 c { ' z p | _ c z 7 _ _ g y b y _ 5.5.[ I v e t f u h [ _ | 1.7 = 7 i j i i y 9 9 ; % $ X . o u j u i t < ; e j v v j : $ j j 1 $ @ o 1 t 1 1 2 u G J I o.O.o.I o.5.5.,.Y Y o.Y +.+.+.g.g.g.f.F.Q.Y.F.F.W.!.Q.F.Q.R.Y.Q.(.~.m.g.g.m.Q.Q.G.F.Q.Q.T.G.z.l.z.(.,X,XgXmXhX).*XwXjXMXHXHXAXHXGXSXKXIXIXIXLXHXAXAXSXSXAXJXLXFXAXGXLXGXHXFXmX9X=X9X$Xm.F.Q.G.j.f.z.G.l.h.d.+.Y Y <.+.Y P T +.f.+.o.o.[ [ I G j f f F G F u < < < , - $ ; 1 u 1 < < u f 1 1 < $ $ $ $ . . .       . - u h k h u k k u j G D Z [ 7.g.5.G j k v F F G O.g.6.6.v.!.R.b._ i } 7.5.o.I b G v j L O.[ G G n G m m g t e t u u j n c m t g g 9 9 $ ; - X $ - - : : : = 7 : % ; - @ . . @ ; : % ; 1 $ X : e e ; : @ @ @ @ : = @ t e $ 1 . . - y 9 : ; $ ; ; 1 t u 1 h g n k N -.] ] w.e.| G 3.-.;.u.w.w.-._ m _ _ ~ ' w.A.b.e.] _ @.1.m 9 7 v ( G v u e : e ; ; ; $ . . ",
"U v | E.sXxXtX[. X6X;.}.0XuX.X:XZ.I.S.oXb.2.` 2.4.A.E.~.~.E.E.8.8.I.n.6.A.|.A.b.5.v.P.8.[ n u t ; 1 u : % < @ .       - @ X $ $ = ; ; @ @ : ; @ @ e e : : ; @ @ : c m m G [ G t e g u t g z b G y m m m n z z _ _ v 0 7 9 e y 7 y _ ' ( 6.| 5.G c b z F @.6.O.F F F f t t t 1 k F n { _ v j G b e 7 z r ; = = $ X . , u t e : $ $ - e v b F F t $ h D t - $ X ; 1 1 1 3 1 h I O.o.o.o.I O.f.5.+.o.o.P <.,.5.,.7.R.F.j.!.XX~.*X9XqXpXpXwX5X$X=X).$X).T.k.k.k.F.Q.R.F.^.Q.G.T.T.G.l.T.(.T._.jX8XT.).wXjXSXPXKXVXBXSXHXKXUXIXUXIXKXGXSXAXSXMXAXGXJXFXGXGXNXlXjX).F.T.(.G.d.l.l.f.,.+.d.d.d.<.Y P P P ,.f.Y Y I o.5.,.,.} o.>.j.7.>.I F G G h 1 1 < < - - $ < 1 1 < - ; 1 u 1 1 1 - $ $ X . . . .       . ; u D F k k f i j n h h k G O.I 1 ; 1 j I I I O.g.5.O.4.B.b.v.| y I 5.7.,.O.} 5.G v I [ 9 9 g m c [ L i e u u t e t g c G t t f t $ $ $ @ X @ : ; ; : : ; ; ; % % : $ @ X @ ; : ; - @ - @ 9 t t g ; % ; @ $ 9 @ @ e ; $ : . . - - y : $ $ $ - ; $ 1 u t t m } ' ] | -.;.C.4.n =.=.r.w.| | 8.] m c m | ` ..2.` ' m m [ _ j z y b z j e e : g i e e e ; .   ",
"F U [ g.:XtXtX]. .-XS.A.:X-XE.%XS.u.b. XS.b.2._ O.v.B.N.%X~.N.O.1.| 8.M.|.b.-.8.>.4.8.O.G f 1 u e ; : e : ; $ .       X - . X : : @ ; : ; $ = @ X - ; ; $ ; 7 $ @ t g z n _ L i t y c 9 y ; e v z c G m i y p ( G q 7 9 y 7 # c v y Q { e.8.6.G _ _ b ( 5.@.L u t k v i e u u u F F G [ _ b j b j t t e 7 = $ $ X . - h g 9 : - ; < u G G F I j . u H F t ; $ ; 1 1 u 1 t u F [ } [ [ o.+.5.,.+.f.7.>.,.m.l.k.m.B.N.B.B.$X$X*X*X:XwXvXMXbXzXMXlX*X9X8X(.l.G.$X$X$X=X=X$X^.Q.).^.l.z.T.z.T.(.T.(.,XeXzXmXNXGXKXGXLXIXIXPXKXPXPXKXJXGXFXFXFXSXMXmXlXmXCXMXwX=XG.l.G.z.d.+.<.+.+.Y Y P Y o.o.o.+.+.,.g.m.,.I o.+.+.+.g.F.g.m.|.7.7.j.j.>.} Z h 1 < 1 ; < 1 1 ; - $ - < 1 1 1 1 1 ; $ $ $ X . .           $ < t i f f j j f t u 1 u D F u ; * - u F I O.5.O.| [ O.g.g.m.g.I b 1.g.,.5.5.O.L j v n c y i [ 5.[ F t e f t e f u t m G c y g t : : @ @ @ ; t : : e ; 7 7 ; ; ; ; ; @ @ : ; % ; ; $ $ ; g g t : $ @ @ ; $ . X $ @ $ : ; . . $ ; ; - $ - * - : $ - l n c u.2.] ] ] _ n ] 2...' L Z.C.3.w.I.w._ _ 1.] 4.] _ G | 3.| G n g u i m b i 1 ; t g j i i 7 $ .   ",
"5.g.8.5.sX-XtX X` D. Xr.{. X.X-XA.2.b.r.r.y.2.2...w.P.b.4.e.6.[ @.@.8.{.A. .] 3._ O.4.| G j t ; : $ $ $ : $ X .       @ @ . X $ @ ; ; ; $ $ : $ X X @ X @ : 9 ; - e : 9 n n _ c e g i 7 n g % i G m G G e ; 0 y p 0 y c _ G % { @.b 0 m @.6.O.{ { { _ b m j c = $ 1 f g f f u h U F n n v j F G v z y y ; = $ . . o 1 n m c i ; ; f F I I b G k $ < h h 1 ; $ @ - u u u u h f I o.>.O.+.+.,.+.f.m.j.,.f.Y.Y.B.N.m.R.~.B.B.N.^.=X*X=XpXmXlXjXNXmX*XmXMXlX^.G.*X:X).$X$X=X*X=X~.).G.d.d.d.z.T.Q.=X9XjXbXzXhXlXVXNXMXAXVXgXlXNXAXGXLXIXLXJXJXAXbXMXNXkXpXeX(.k.f.g.k.f.+.P P P Y P A A P ,.o.+.5.g.g.g.f.O.+.7.7.+.g.=X=XQ.B.!.m.j.Q.$X8.,.I F u t 1 < ; u u e 1 $ $ ; ; ; - ; < ; $ X $ - $             o ; 1 1 1 1 t f f 1 1 $ e D k t 1 - $ < u j [ 5.| O.x.m.v.8.v.x.g.O.[ g.,.[ O.G j j v G L c u O.8.[ t g g g l i n f t c G n c j b 0 ; ; @ @ $ t 9 e u 7 7 i e e : : ; - $ 7 t 7 = @ $ $ $ g c c y X X @ . @ @ . $ ; $ ; $ . . $ $ - ; X $ X $ - * : n m B p.w.p.' L G v m -.| ] ] 4.y.4.1.e...] ] | .._ m G G _ ] } [ G @.] _ i i u t : e i j z i t $ .   ",
"m.^.Z.n.y.[.oXuX7Xr.5X X4.b..XE.b.n.e.n.Z.p.u.w.Z.2._ _ 2.8.{ | 1.r.b.E.|.Z.2.1._ ] O.O._ f u - : ; $ $ $ ; X .       . . . @ . X - ; ; ; : ; $ X $ $ $ @ ; : 9 : t j : e n G j t g u : y y 9 g _ _ _ n j t y 7 9 9 0 0 i _ m _ 6.` # 7 ( | | { { { { m y = c 7 $ ; e t v n k e f g c k f i F v y e e t 7 = @ X . . 1 F m c g e = v F n G v j i ; ; h h t t < 1 - u h h h h h Z I 5.,.,.5.j.,.g.m.N.j.,.G.R.R.N.f.j.R.m.N.N.F.=X9X%X9XpXwX9XzXpX$X*XwXMXlX=X9X9X(.Q.Q.(.:XqX=X).T.l.d.h.l.G.T.~.=X*XkXjX=XeXzXeX,X8X_._.(._._.8XmXJXJXAXMXjXpXlXlX*X(.^.G.d.j.l.k.f.+.P A P P H A F >.5.+.f.k.f.f.j.N.m.F.|.*Xj.=XbX$XQ.B.yXyX&XiX|.o.G F k f u 1 < : i f f t ; - - - - - - < < $ $ $ - $ .           . o - ; - ; 1 1 1 u u - u F k k j < $ ; 1 u F | 5.7.v.m.g.} } 5.m.8.c O.o.v n F n F F G L G G O.} [ j j g g n v L g g c v y g i c 9 ; - ; X X ; 9 : i : : u e = : ; : ; % 7 7 : : ; $ : - t e g ; o . X . . $ $ : y $ $ X . . $ : : e e o - @ @ : f ' ] z ^ 4.Z.*.] n n n G 1.3.L } 1.1.8.8.6.] [ | 1.5._ ' { L _ [ c n ] [ j 1 v g f e t b c n i t @ .   ",
"m.$XoXI.n.}.zXbXxXOX;X%XI.v.A.Z.n.2.v..X1.3.2.e.y...' [ 8.e.| -.w.r.3.A.oXZ.y...| ] | } | j u : ; - - $ $ $ .         X . @ @ @ X @ @ ; ; - $ @ @ @ - - - ; : t t e 9 ; : c L g e : g t f 7 : g _ _ [ c c G _ z q 7 y y G } ( b 5...q p ' @.@.@.O.| | @.O.[ ( y ; 9 ; e j n F u f f j j F v i v i e e ; ; % $ @ . . , F [ m c y y z G F G G j i 1 ; u h i u t u h h h k F A k Z G >.O.,.,.N.k.m.F.m.g.<.f.Y.Y.G.d.l.G.l.g.l.k.F.^.!.^.Q.G.z.).vXjX9XwXAXHXSXNXeX$X$X(.^.=XwX*XY.G.Y.F.G.G.l.l.G.T.).eX$Xl.T.8X=X(.(.).(.Y.G.G.T.hXSXSXmXwX=XY.G.G.F.m.l.,.,.l.g.f.7.,.o.I I I I F P 5.5.,.k.7.f.l.N.$XpXbX0XQ.j.~.=XXX$XB.|.&XXXXXm.I k h h h t 1 1 1 1 u u 1 ; 1 t 1 ; $ X $ $ $ $ $ - $ .             . o - $ $ ; ; ; 1 1 $ 1 u k G F f t 1 h u v L 1.7.O.} F e : n O.5.L G F D k F v F v v n G v F G G n n j g g v m b j v v t e u t 9 ; $ @ X X - : y e 7 ; : : @ $ $ : : ; ; : ; e e ; ; ; ; e g e $ @ @ X . @ ; n t $ ; X X . $ 1 - : ; $ $ $ . ; c _ z 1 y ~  .L _ c e f n L | G c G G @.1.2.n.3.[ [ ..c z g c -.1.L c n L G u u n i u j G y j b t @ . . ",
"Y.=X6XOXP.yXmXMXuX+X[.A.|.8.8.8.e.2.8.4.| | ' ' | 1.8.5.6.x.1.' u.4.1.-.r.b.B.4.O._ } F L v f u $ $ $ $ X X .         X X @ . X X @ @ @ @ * @ X . X @ $ ; : u g j i g e e t 9 y : ; u 9 9 t y t v G [ G m G _ G z 0 c z _ z i m _ 5.` c z { 6.6.6.O.O.5.8.8.[ c g G F c n k v j n f i f F j y i i e 7 7 y ; @ X X . < n F n n z y G G F J J Z f u ; $ t h u t t h G I F G F h A G ,.f.g.5.g.F.^.^.F.F.m.h.l.G.Y.G.Q.Q.k.h.l.l.d.l.h.G.G.l.l.T.jXNXjX=XjXHXHXFXmX8X=X=X*XeX8X=XT.G.Q.(.F.z.l.l.z.G.G.).(.l.G.).T.Y.^.~.9X*XL.5.G.=XeXwX=XT.G.l.l.l.f.5.f.+.Y f.g.f.f.f.O.o.o.} I I o.f.g.l.~.Y.N.B.F.wXnXlX6XN.R.&XQ.$X&XW.Q.R.|.m.+.F h h h u 1 1 1 1 1 u u < - , 1 u 1 - o o X $ @ $ $ X .     . .       . . . . $ - $ $ ; X - f F F k F v f f f F L } | [ v t $ 1 g L 1.} F F G G f t u f n G G n g G _ G L G n j G n G g e t t e e : ; - @ - @ X $ : t t t : : ; $ $ $ ; 7 9 : : 7 7 t 7 ; ; ; e g g $ @ @ . @ ; ; 9 $ X $ $ $ . X - ; ; - . - $ ; e y ' L i 0 y f L F c t t n L [ n v n L 1.@.-.3...] ` m b m ] ] b ( 5.[ u F v g f b j j v G G z i $ . .   ",
"Y.|.oXXX;X6XMXbXxXkXI.q.S.b.5.4.8.2.5.| *.b.5.*.] 5.v.8.8.b.8.2.[ 2...3.2.1.4.5.| 5.L G F f e u ; $ ; - * X . .       X X . . X X @ @ X @ @ X . X . @ ; ; 1 9 c b y 7 9 t 7 7 f e u : 9 t t g ; e f G c G ] _ { _ z y g _ L 7 _ b { 2.m c m 5.4.6.O.[ _ @.g.] G _ [ | [ [ _ U F c c f i v F y e e e 7 ; ; $ @ X . . o 1 n _ [ } G G I G D F F D j t $ ; u h 1 ; Z F H I G Z h F I 5.j.v.f.5.m.~.=XwX*XQ.l.l.z.T.=X9X=X~.Y.Y.k.l.k.h.G.N.l.h.Y.=XjXwX=XeXVXAXVXHXAXwX*XvXNXzX,X(.T.T.).,X(.G.z.G.Q.Y.k.z.d.d.z.z.l.d.h.G.T.N.g.N.F.).$X(.F.m.f.+.Y Y +.f.j.O.,.j.g.m.m.N.g.5.m.7.,.m.^.^.=X0X$XkXpXaXCXFXFXAXxX6X0XXX5X$Xm.5.,.N.g.o.Z u u u t 1 < 1 1 < 1 1 , - $ , 1 t < $ X . X X o $ O .   . . . . .     . . . X * $ X - ; $ e i u f F F n n k G } } [ U k j u k F I L G F j F I G f i f F U G m g n } G G G n n c i j n t 9 : u 1 ; ; @ ; t - @ @ X ; i g e ; - X . . @ ; e e : e 7 7 ; ; : ; t i : ; $ @ X @ - t g 7 @ X ; $ . $ @ $ - X $ $ t k v G | ` N ~ M y m c i 1 u g L | j i m G ' .._ L L L G U ' _ ] | b g m G 1 j G j v v g u j g i e $ @ .     ",
"m.R.P.=X5X9XlXxXyXuX6XZ.D.A.e.n.8.[ 1.4.4.R.v.8.e.u.| 1.v.v.Z.e...y.8.e.4.-.1.>.O.1.G G [ f e 1 ; - - - $ o .         . @ . X X X $ $ @ @ . X X @ @ @ : ; e e y c g e 7 t g 9 f g j b b t t f ; ; j _ _ _ L [ O._ G y 0 z G [ _ @._ 2.] ( _ 5.6.O.[ _ m G | [ m _ _ [ | | [ } [ L n g i i v i : : y y ; @ $ @ X X X * j m L } } } [ [ F j k f t f u ; @ t u ; X t h Z F Z h h A >.7.g.N.m.m.R.~.=XjXjX*X(.G.z.(.pXlX9X9X(.l.l.Y.T.G.Y.^.$XN.Y._.lXjX=X=XjXMXmXSXAXMXeXMXHXSXmXeX(.(.).eXeXT.l.G.$X=X^.k.d.d.l.h.l.l.d.l.l.l.d.d.N.Y.Y.G.G.Y.N.g.+.Y T +.f.5.O.5.7.V.N.N.5.5.$X~.^.5XQ.5XZXCXxXAXJXCXyXpXnXCXxX:X6X~.B.m.7.o.,.B.g.I k u u 1 1 1 1 < < - < < - $ o $ 1 1 < - X O X O o $ X . . . . X X X X . . . X $ - - $ ; < ; ; 1 u f F j g u i U O.[ G v h F Z D F v k f f h h L } U F F G F c n n n F G v c n n n i t n c t : g t : @ ; 7 g e : ; @ ; ; 9 : $ - $ $ @ @ @ % : 7 : ; ; $ - e ; : ; ; - ; X @ @ @ : c y @ @ e < . X X X $ $ - : c | _ m -.^ z ~ N j n l n j u F :.3.} n G L _ ' _ m n n G L ] _ m G G _ G y : u F j j f u t e g u e - . . .   ",
"8.A.E.~.W.~.|.oX;XpXtX.XZ.I.e.Z.5.8.8.4.8.B.g.8.n.n.@.3.r.v.b.8.m r.Z.v.4.e.1.8.O.] 2._ [ j 1 ; ; $ X $ $ X .         . $ X X X @ @ @ $ @ X . $ - - $ ; ; e 7 y n v y t 9 y y f y g G ( c 9 : ; : i G | ' m m _ m c b c m [ [ m ..| | @.( ] 8.6.5._ } _ z z c z c _ ( [ _ G G _ O.G j j i j j e : z z e . . $ - o $ 1 F [ c n } O.F f i F G i i u e ; @ < u < @ 1 1 u u u 1 h F o.,.f.l.g.m.(.$X=XjXmXvX0X(.T.$X0XlXjXwX).G.).eXjX=XpXrXeXY.Q.8XAX8X).^.=XjXgXgXjXmXwXmXHXSXAXBXwX=X(.8XwX).z.l.F.Y.R.j.d.f.l.m.k.d.d.d.`.<.d.d.f.N.R.Q.Q.Q.Q.R.g.>.O.+.5.V.F.7.8.v.j.R.!.~.0XpXxXxXkXZXFXCXnXFXGXnXMXbXpX$X$XpX0XR.7.+.I I ,.g.>._ v h 3 3 u 1 1 1 - $ , - - o o $ - 1 ; - $ X O . X X o o . . . o - $ $ $ . . X X - $ $ - ; ; u u f Z n u 1 : e j } L v u 1 f k F F F F f u u u v U U F G L L n m L _ G G f c n j g e e i j t 7 l i : - ; : t l t : ; t - $ $ - - ; e : : ; @ ; : 7 = @ X X @ @ ; ; ; ; X X - 9 @ @ b u @ $ : < . . . - t e $ m m 8.] |  .=.] n | g g u t u y ' O.| | G _ { 3.:.8.1.L _ ' _ _ G ' ~ | ` Q F e ; e e : ; ; ; ; : e - @ .       ",
"7./.=XXXI.b.n.B.$X0XoXU.8.8.5.b.P.e.m.1.{ g.V.g.v.6.5.5.x.M.b.x.L e.v.5.v.b.b.{ | _ 2._ _ j e u ; ; $ X @ X .         . X X @ . . X X $ @ @ @ @ ; ; ; e 1 e 7 c v y c y t y 0 9 y y z b c : ; - ; e g _ _ L n v y c [ 1.O.I v z _ @.[ 5.m b O.5.5._ L _ m c y p m _ | ] G c g n _ v v z k j i u : y t $ . X $ - - - t F _ G c [ } F ; u G F t i f e 1 $ $ 1 3 - u h h u u 3 2 G o.<.7.f.f.m.^.~.*XuXbXbX9X=X^.%XlXmXmXzX8X8XMXgXMXMXmXpX9XlXlXMXAXwX(.Q.(.8XpXwXwXlXzXMXSXVXVXVXVXjX=X(.8X_.z.G.T.T.T.G.h.k.Q.Y.N.^.^.m.<.<.j.m.8.A.%X&X$XW.F.E.E.L.N.m.B.B.B.m.$X=X~.*XkXZXaX6X&X&X6XyX&X5XnXFXZXFXJXFX5XQ.$XqX!.v.5.o.I I 7.N.7.[ F h 2 3 u u t t < - $ - $ o o - - ; < - $ o X O X $ $ ; $ . . X - - $ X . . . O $ - $ - $ ; t t f k f t 1 : i v L _ c u u t t j G G G F u u k j f j F F I _ n n [ _ G L v F [ G g 9 : u e e 9 z e = 9 9 e f c u e ; ; ; - $ ; ; : e : e 7 t % ; 7 % @ @ @ @ . @ $ $ X . . . @ = : g c ; X ; - . X 9 ; e t : t G | 2.n. .' -._ ~ ~ k f u G n *.*.[ O.1.O._ ' -.-.{ L _ 3.' 2...| | ' ..] m e ; ; u g t f u ; ; - $ o .       ",
"@.$Xn.b.P.v.8.v.U.W.P.n.V.g.@.4.b.8.7.} F ,.B.v.v._ O.8.5.v.b.1.] 5.1.[ 2.n.8.8.| ' | [ L u 1 1 ; ; - @ @ . .         X @ @ @ @ @ @ @ @ . X @ @ ; ; ; 1 : u 0 v z 0 c 0 t y y = 7 0 y p y ; $ $ - e i b [ n c c 0 G 1.1.} F j m | 6.5.5.[ c O.1.@.G F G [ _ c b ( ( | [ _ G n y g i i j k i : i t t t $ @ - - o - u h v L | 1.} G f $ t v v i t t e ; @ X $ - - u h C h u u h G o.+.,.j.m.k.G.Y.^.$XpXkX9X:X=X9XlXvXBXlX9XwXNXmXMXzXBXjXFXLXGXNXlXbX8X~.*X=X=X8X9XjXlXMXNXVXNXVXAXMXpX).).,X,X(.G.F.T.z.l.l.!.$X=X).=X~.B.n.=X*XV.B.$X5X9X9X~.|.%X!.F.m.j.g.v.F.$XR.!.qX*XMXAXnXB.Y.qXnX$XaXMXpXnXCXZXqXN.j.Q.Q.k.g.5.O.O.O.f.N.7.} L h 2 3 h h u u 1 < < < - $ * ; ; - - - $ o X . $ - ; - X     . $ < , . . . . X $ < e ; : ; $ - 1 u u ; t k L [ [ [ L F D v f j F L L L F j F F k u f k G [ U G L G G [ L L | L j : : g u 7 t z g ; t t i t e u e 9 : ; : ; ; : ; - : i 0 9 t 7 t i u 1 : ; - @ @ . . . . @ ; : 0 y z e $ ; - o @ N y t e t 9 _ _ n.E.u.4. .y.| n n f c | [ ..3.1.4.1.[ | ' -.| ' -.G | ..r.-._ 3.8.5.G i u e e : t e j e ; ; @ - $ . .     ",
"8.|.y.B.U.4.4.b.w.r.U.H.B.v.8.1.y.5.| G t I m.7.O.c | } 8.v.8.[ ..O.| | | 1.8.y.3.| { | | j : t 7 : ; @ @ X .         X @ X X $ $ $ $ $ . @ ; - $ ; - ; e u 0 c y = y y y y y # = 7 9 y t e @ X $ : : t m z i c 0 c 5.6.| L c _ 5.5.8.5.1.| 6.5.O._ n m [ ( G m m _ L _ 6.g.7.O.L z i e u i ; ; i a y ; $ o - $ - j G G L [ } [ G f 1 f v f j j u ; X X @ $ ; $ t h h C A Z Z P Y +.,.N.N.l.l.G.T.).<XwX*X=X9X9XxXVXMXMXpXwXBXmXNXMXlXlXmXFXGXAXAXJXvX8XMXmXhXwXwXzXMXAXNXNXNXmXNXMXlX9X).eXlXgXY.l.N.k.d.d.G.(.wX*X=X^.N.~.9X9XR.Q.qX9XlXNX=X=X*XY.m.j.g.v.Q.=X=X=XkXzX=XbXkXnX:XXX=X$X0XxX=XaXCX6XR.Y.,.7.B.k.,.7.g.5.>.>.,.g.5.[ I A u 2 h h h u t 1 1 1 , - - - , - - $ $ X X X X $ - $ O     . $ - - . . . X $ $ 1 t 1 ; - @ X - t F F G I [ G n n G v j i h F F G L [ G k F F F j t u c [ I G L F L [ [ [ G F F f u g t t t t i t z g f i : ; j j g : ; ; 9 : ; - : t t 7 7 7 c z y e : ; ; $ @ X X X @ X * : p _ n : ; u ; o e _ _ f t f u n 3.P.-X%XoXP.y.u.] n N n l _ ] i.@.O.n u.y.y.4.u.Z.| ` _ 2.v.e.`  .;.m n G u t e e e e ; $ - : 9 @ $ @ . . . ",
"m.A.Q.v.4.e.Z.}.Z.;.b.b.A.|.B. .e.y.[ v 1 k 5.8.m i L L >.1.3.| ] | | ] | | 4.8.>._ ' _ | g : 1 : : e $ X X .         X @ X @ @ @ ; - ; X @ $ - ; ; $ - u t t t c 9 = 7 i i 9 7 7 7 t t t : @ @ X @ X - e g G G n c ' | { [ c G 6.5.x.4.5.6.8.g.1._ G L [ G _ _ ( m G O.B.!.!.B.v.| v i u e t 7 i y y 1 ; $ o - ; v [ [ I j n _ L i t F G F F D f e ; - - $ - t u h h Z A C A P Y Y +.k.k.h.k.Y.T.(.,XeX=X(.,XwXmXmXmXMXjXeXgXzXVXMXvXzXzXNXAXGXFXLXHXjXSXLXGXmXzXmXMXAXMXmXVXAXMXmXMXjX=X_.eXjX*X^.G.l.h.d.l.(.eX(.8X*X~.).=X8X~.~.wX=X9XvX=X$X9XR.m.g.7.N.qXxXAXGXJXFXMXMX=X~.5.5.j.B.*X*X~.xXaXB.N.~.7.7.m.g.o.,.N.j.,.O.+.f.5.o.I F h u u h C Z k f u u 2 , , - , - o $ o X X @ @ o $ $ O     . o $ o . . . $ $ - 1 ; $ $ ; ; . o ; F G F F I L G n g f i t e k F G L _ n F F n c j t g c L L G L I U I G L _ F n k j n j y i e y c b z z c g e j g t : : e e e g e : f y 9 t : y z g y 0 ; ; @ @ ; @ X $ @ * @ t z L 1 ; u , , ; m N t n c b n -.I.%X:X&X%XR.b.b.} } ' ] ] ..] m g m 2.w...] 5.y.5.1.] 1.w.4.A.Z.r.m G n v b i c t i ; $ $ : : ; ; $ @ . . ",
"m.B.B.m.V.Z.A.p.u.2.t.e.x.H.C...4.4.| F h k G } z G | 4.>.' e.3.' _ L _ [ ] y.e.1._ { _ ' c : 7 u t : % $ X .         . . . @ @ @ @ @ $ X X @ @ - $ $ ; h j e 7 z z $ 7 y y y z g y i 9 i i e ; - 7 : e e i j G _ c m z z m c c ] 5.v.1.[ 5.>.8.O.G G [ ] G _ _ G G m [ m.Q.(.B.j.5.| G j f D t i a i t 1 ; - < e n [ O.,.F i v k u h F I G D j t 1 1 e 1 ; ; k k h h h Z A S P Y ,.7.F.F.k.F.=X*X=X9X(.(.(._.,XzXMXmXBXcXzXgXwXhXhXwXmXjXjXzXmXMXNXNXMXFXIXPXGXAXAXNXFXNXlXAXHXHXAXVXlXeX(.=XeX9X$XY.l.d.d.l.z.T.G.(.(.).=X=X).Y.Y.Y.F.Q.=X!.~.9X=X=XR.4.n.pXnXSXCXGXpX$X$XN.f.7.7.j.j.F.Y.Y.=XQ.g.8.N.5.5.m.N.,.,.F.Q.j.>.<.j.g.O.I G h h h A I [ I F h u u < < < , - $ o X X $ $ X X o o .     . . X . . . . $ $ - 1 1 < ; ; - X $ ; t u u f G G L G c j v j f k F F I U f n n c j g e u v m G v c F G G G | } I G F F L m n c 9 0 c m n m m m t c n u e g I I i i t t c c n G n i 0 i y c j 9 ; @ $ @ ; - ; ; f [ G F u ; u 2 h f m j e g m | 6.e.U.oX0X9X&X:XE.4.@.3.-.e.4.8.] j 1 z Q 2.;.*.4.1.4._ Z.e.2.r.r.n.c.{ z y g z t e t t $ @ 7 t : 7 $ X $ .   ",
"O.7.R.B.}.S.I.b.y.-.8.x.8.2.n.3.2.4.O.G h k G | m 4.5.8.8._ e...| _ _ _ ] 1.Z.b.5._ ' _ | n 9 e : u e 1 - $ X       . X @ X X @ X @ X $ X @ @ @ $ $ $ : f i i t y c = g b 9 y t y z y z c y t ; e j t : : j g m n v b z y j c y z [ 5.| L | } } L U G _ } G G G G G G [ O.7.Y.F.4.O.} I v G J i a b K j e - 1 u j j j F I F F j t 1 t h F D h i e t t 1 ; - ; t u u Z F A A H P Y g.m.Q.%X~.%XjXxXlXgX).G.T._._.hXlXmXMXmXlXjXlXgX8XjXmXwXvXlXlXMXFXMXMXmXGXLXKXKXHXAXKXHXNXSXHXGXSXVXVXmXeX=X8X9X9X=XG.h.d.d.d.z.l.T.^.^.=X$XF.F.Y.G.g.m.=XR.~.9XqXwX5X9XpXlXkX*X=XzX=X^.Y.m.8.>.5.~.F.f.m.j.N.B.f.7.N.j.7.m.^.j.j.N.N.7.Y o.j.g.O.[ I A h k H } } I n u t 1 < < 1 < , - - o X $ X . O X X .     . . .   . . . - ; - 1 t ; $ ; ; @ - - - ; 1 u k j L [ n n n F A G U U I L F F F i j u 1 f G v F c j j v G } 4.7.} _ G U G n n g y z c n c m m n l j j i g y I O.m z i c [ G n L G G c t y z G m t ; @ ; i 7 t t I 1.[ n n k t 3 h _ L L c y L 3.P.P.}.%XyXuX:XqX~.3.-.' n.n.Z.4.| j ; z b Q 2.3.y.2.4._ 2.2.w.1.5.2.5.[ v n v G c n y e ; @ : ; g : . . . .   ",
"O.5.R.|.}.P.b.8.r.u.e.b.x.A.}.8.-.b.y.O.n i [ 5.G 1.8.1.m.5.m ' n _ _ | O.v.4.] e.:.m n m i ; ; e : e 9 ; @ .       . X . @ X $ X X X X $ @ o X X $ $ ; t e : i y t $ v n 7 0 y y y 0 c y y j e 1 v u ; e g G } _ G _ m y t u g n L [ [ G L L U O.O.G G G v j F G G I } } n o.m.b.8._ G v G G F b b F F 1 - 1 k n g g v F h F F u < < ; ; ; 1 h u u i t $ - ; t u h I o.P F P Y ,.j.k.N.~.%XqXmXNXNXbXxXeX9XeX,X_.8XhXjXlXvXjXBXlXgXmXAXjXjXmXzXlXAXmXlXmXmXGXUXUXSXMXGXLXHXHXHXFXNXVXAXMXFXBXeXpXNXMXY.d.d.d.`.d.d.G.T.T.$XqX~.Y.N.B.m.f.*X$XW.yXkX=XqXAXGXkX~.F.R.$X9XB.j.m.R.7.j.~.j.,.,.+.f.j.7.m.~.!.N.N.Q.m.j.f.<.o.P P ,.5.O.} I G F k F G G k u 1 1 ; ; ; 1 1 < - - o o o X O . . . .     . . . . . . . $ - $ ; ; 1 - ; 1 @ $ - < - < u f k I L n F F G k G [ U F v F U F j n f t u F F L n n v j n O.b.8.m m n c m c g i g c n g g g z c i 9 i g j b t c _ y y n G G n v [ O.} c y n G L G g 9 0 y c z L G 1.O.G n J h 1 k O.1.L t t 9 1.V.$XqXzXzXyX:XqXQ.B.P.5.b.5.| 1.I Z k c | 8.4.-.u.u.4.-.( _ | | @.| m G k G G n g n u ; . X @ . @ X   . .     ",
"o.,.~.%X[.A.A.b.w.A.w.n.W.p.e.b.4.B.B.8.F G 6.4.L O.5.>.M.V.| G c G [ _ ..y.2.1.r.2.` m n f ; $ 1 : - ; $ @ .       . @ @ X X X X . X X X X $ @ $ $ $ @ ; ; t g 0 0 t 7 7 = 7 y c y g c y y y e : i t ; g n j [ 5.| { | n : : g m G n F G G G } | 1.I v k k j v n v G [ } n k O.m.M.O.J F j v v G G v i t < , F } g f G G u u A Z < < ; ; ; 1 h j f u < $ - 1 u u f I +.P P Y O.,.l.l.l.m.F.(.wXxXbXxXAXKXKXKXSXVXgX8X,XeXlXlXzXhXcXVXmX9XzXNXpXjXMXkXAXNXgXmXKXPXAXCXGXKXHXLXPXGXFXGXAXmXGXKXVXMXAXmXeXl.d.d.Y Y d.F.=XqX*XmXkX*XR.m.R.v.*X5XW.nXbX%XqXAXGX*Xk.m.B.Y.~.v.j.j.7.7.m.~.^.j.+.Y 7.,.7.B.=X~.m.G.~.B.j.,.+.o.o.I I O.+.o.} [ G h u f u t 1 ; ; 1 ; - < 1 1 < - o X o . . . . . O .   . . . . . . . $ @ X ; 1 t t t 1 X $ ; < - ; u f f v n g f k k h F F F f k G G n v j j i u f F G v j m g c _ v.6.m m G m m m g i t c z z t 9 e c i : e c t c c y c b y g c m G c [ 8.5.L c g c c G j t 0 z y y _ v L } [ G I C u k O.@.L : ; @ } R.:XjXmXMXzX0X:XB.E.n.b.y.>.>.>.H o.O.L | .. .2.y.r.4.| ' c n | 5.{ m n u u i ; y g i - X - . X X . . .       ",
"O.f.$XoXr.r.Z.Z.e.4...w.%XA.Z.W.w.1.5.O.n 1.M.4.U >.b.5.1.8._ L n _ _ ..4.u.2.4.u.b.w.| N 9 = ; $ - : ; $ X .       . X X . . . . . . X @ X @ @ $ ; X @ X @ u c y 7 i 7 9 0 7 y y t n G y y 7 ; : u 1 e f n e n 5.5.{ } G t e g n g u j n L L U G } I j k F F G G n F } } F F [ g.m.O.+.I y z i z G b j f 1 u I | _ c G I k u h h u u t h j t h i 1 ; $ ; 1 1 h h F O.,.o.Y +.,.,.,.,.+.>.5.g.R.=X*X9XMXKXPXPXPXKXVX8X_.hXcXBXBXjXzXBXlX=XeXFXmXMXMXeXgXMXgXzXVXPXHXHXLXKXKXUXPXPXPXIXAXhXAXLXHXAXAXmXNXzX=Xj.Y Y l.$XpXCXMXFXGXmX5Xm.B.N.5X&X;XCXkX5XzXkXMXXX5.B.R.m.F.B.*XwX~.Y.N.Y.).5.Y Y 7.7.m.Q.Q.Q.m.N.^.B.g.,.o.+.O.P I f.j.5.O.} G u 1 t t 1 : < 1 e 1 - - 1 < - - o o o O . . . . . .     . . . . . X - $ X ; u f Z h ; @ $ ; ; - - 1 g j j n u 1 k k k G n k k U O.o.v F F i j j f v n n v n j G } 1.' ' | _ c c _ n i : i m G g y t u e ; i G n n G c m G b y c y z G G O.5.O.G y c z L j y g 0 0 y y 7 t G [ [ J h h I >.1.G c : u >.~.:XpXxXMXMXuX&XA.Z.e.| V.5.[ G F 5.>.O.[ 5.b.r.Z.y.8.b.1.f i G ..1.| m e 1 t * 1 g t - @ . * X @ @ . . . .   ",
"o.j.~.}.3.#.i.I.Z...;.w.I.{.P.;XA.1.-.1.' 4.B.5._ } 8.4.5.6.} n l L G | 2.w.2.2.C.i.2.1._ : ; $ $ - $ @ X . . .     . . . . . . . . X X @ X $ ; $ ; @ X X $ g j t 7 i c y 0 = z g t b g y 0 y : ; u u i G n 0 g [ 5.| _ ( c i n G g 1 1 j n L c G F Z f G I _ [ } G b n L F F G 5.x.,.O.o.v v F G G v F h u u F O.| v G o.F f h h k v j G G F f ; $ : 1 1 1 u Z F G >.5.+.Y Y P I I I I I I I O.j.m.R.9XVXSXKXPXPXPXKXgXhXcXmXBXzXzXgXeX$XgXVXzXmXMXlXeXhXwXgXBXKXGXHXPXPXKXKXHXKXPXIXVXeXmXAXvXpXAXAXAXFX9XR.+.Y N.*XpXSXAXCXLXGXwX^.m.7.W.qXaXMX&XbXFXCXNX5Xv.Q.R.XX9X9XMXpX~.Q.^.^.j.Y P P j.^.5X*X$XQ.N.N.B.m.7.,.o.o.o.P Y N.%XB.o.G h 1 ; 1 u j j i u u e - ; < - - o o X X O O O O . . .     . . . . . X ; ; X ; u k D h ; - ; 1 < < - - e f j j u 1 h f f n g h k U o.} v G I g z v j n j b c j y m | | _ 1.| _ m m n v g i g z c c z 7 ; 0 : g [ O.G G n c z y t z z b G G [ [ O.O.G y g L k t 0 n g g z @ # 0 G I Z h Z O.4.g.1.[ j ; [ B.&XzXxXMXbXuX:X%X|.8.-.b.y.} [ [ g.5._ [ 8.A.b.M.M.B.b.2.v j g .. .m m g t g g : e e e @ X X @ ; - . . .     ",
"5.B.&X:XP.w.p.U.E...w.w.p.U.}.OXE.2.` m G -.O.' m L 3.4.5.8.L n n *.G 2.b.r.S.Z.u.u.-.-.m 9 $ @ X $ . . . . .       . . . X @ @ . . . X @ X $ @ X - @ $ $ - t j i i 7 y c y = = 0 c y 9 y 0 y : ; g g z n g g c c G } @._ G m [ _ n n j n G L n v h 1 h [ O.5.1.@._ v n v g j n [ 8.7.O.O.G F F z G v v h u u F ] ] c f I I F k k D G _ n f v f e t u t 1 1 t f k G I I P H A Z G } >.7.7.5.5.M.H.B.B.!.eXjXNXHXKXIXKXjX8XgXcXBXzXjXjXeX*XzXlXeXjXSXNX,X,X*X,XeXMXMXmXGXKXAXAXHXAXSXKXHXVXAXSXvXvXzXjXNXFX9X$XV.<.^.zXmXJXFXMXGXHX5XW.W.5.R.xX0XpXB.kXGXJXMXMXNXMXlXbXlXkXFXMX=X^.f.Y.f.Y T P Y.eXMXzX$XY.N.m.m.j.5.+.o.+.O.o.7.&XsXE.} f 1 ; ; t F L G v k k t < < < - $ o O . X X o o X . . .   . . . . . . @ $ $ X 1 f k k u ; ; 1 t 1 ; ; - - e i i e - t u f k f H F G F n f f F G v k v F j v j g y n G _ L [ G G L G i i y j j c y 0 0 0 t 0 : 9 l G b j z y 9 ; e y v Q b G G I I [ L y j t t 0 0 c ; % $ 7 g 0 0 j Z h [ 1.8.b.g.O.f : c | |.lXkXmXkXwXuX0X:XB.e.8.3.n.V.| m.V.1.G 5.B.v.v.e.g.B.1.L n ] w.w. .G c 9 t ; ; * $ @ @ @ @ @ - ; . . .     ",
"4.n.P.iX}.v.i.@XI.n.[.w.w.2.Z.W.}.n.E.y.| _ m m ' n n m ' w.n n L 3.-...E.r.A.Z.b.Z.| } G 7 X X . . . . . . .       . X . @ ; ; @ X X @ - X @ @ @ - @ $ ; ; 1 c c y ; i G y 9 0 c z 9 7 e 7 y e t n m m m c g g g j G @.| G G [ _ G L F n n n j u ; < k [ 5.8.5.6.} v } G i j m _ O.[ G _ [ o.F z ( K j Z 2 h [ _ n k 1 F [ I k G I n F I J j f i u u 1 1 1 1 t h Z A A C h u h U 5.B.XXyX:X!.0XpX0X0X0X:X$X8XpXSXPXIXKXVXeXjXlXzXgXjXgXeXhXeX,XhXMXBX8X).,X=X=XMXMXzXAXKXGXGXHXBXBXNXFXAXSXLXHXFXvXjXmXAX$X^.g.5.R.pXZXAXLXLXSXkXB.B.=Xe.V.0X^.$XR.pXMXAXFXLXLXIXLXGXJXLXIXFXCX8X~.~.<.P H Y Y.wXMXpX=X!.R.F.N.j.5.<.,.7.g.7.E.sXiXN.I u < < u n L [ I F G F h 3 1 1 < - $ X . X X o o o O . .   . . . . . X @ $ $ $ u F k h ; < < < t u u ; - ; t u f j 1 1 t u n n U U F k f 1 1 f G F t f F n n n j g c g n [ ] [ G G m t t t g y y 0 : ; 9 g g 9 7 g t i f b G v e y y z b c g b F c v n t g ; : g F I t $ ; 9 0 c b 7 t F O.x.b.b.8.5.D t c | b.uXzXuXjXzXlXuXwX$XN.4.8.Z.~.1.O.e.} G [ v.W.E.b.O.1.| e.2.2.w.] ..m g : g - ; $ - @ ; ; ; ; : - . .       ",
"U 2.r.}.+Xr.w.U.Z.D.;XI.u. .i.A.U.b.XXe._ b G | | n c c ] G _ n ] e.1.' w.r.b.r.Z.e.] n c t X X . . . . X . . .     . @ @ @ @ @ $ X X X $ o @ $ X $ $ $ e 1 j c c y ; y v ; 7 y z 0 0 7 y y i t t c c c _ G v c z c i G _ m c G _ [ n n F v f e u - < k [ } O.O.1.| G G v t g G _ b j v F [ +.[ G G F i i < h I G c g 1 f v U G I } G v F Z 1 j k t 1 ; < 1 t u h h h h u 1 u j I j.R.!.=X).Q.zXnXxXMXNXxX0X$X~.hXHXPXUXKXlXgXlXlXgXhXwXwXgXeX,XeXlXgX,X).,X=X(.zXAXvXMXHXPXKXMXhXhXeXMXSXMXVXAXSXAXlXjXvX*XN.g.+.g.*XwXlXFXJXFXkXN.R.qXB.7.Q.N.L.P.AXCXbXLXIXJXJXSXwXbXJXGXJXAXY.m.~.<.S P ,.^.*XwX5X).~.~.~.Q.m.j.g.j.m.j.B.:X7XB.>.F t 1 1 k I I U U I I F u 1 u u 1 3 , o O O X X X X O O . . . . . . . X X X o o 1 j F h ; $ - ; 1 i f u 1 1 u t k Z h 1 - 1 k F G L G f u 1 ; u n n u u k G L j c G G n m _ ' n g j c t t 9 g y y t 7 = = : 9 7 : u u t u c _ F i y i y g g z z n i e 0 t i i j [ _ n F 1 $ 7 9 v v t : i 1.x.x.x.5.>.[ u L -.b.&XuXjXlXlXwX9X0XXXE.E.P.v.v.g.O.5.O.I L y.E.E.A.O.U G w.| ' n 2.3.L u m g - : e ; ; 1 @ @ @ ; @ .         ",
"O.4.w.a.[.tXp.i.u.oXpX+XI._ e.y.Z.e.I.y. .Q c ' -.] L N 1.n c ] ..2.8.w.-.u.b.w.C.r.| _ m 9 @ X . . . . @ o X .     . @ @ * $ ; - $ X X @ @ X @ X @ ; $ : i c g c z c 7 G t ; y y g G G b c z u t z g z m L L G G L t 9 v j j c m ' G n F F u u u 1 u F } | F U O.| [ b v t u G [ b u i j G F J G z K v t X 1 G L 7 ; - 1 f F G [ o.I D f 1 ; t t ; $ $ - < t h A h u u f Z F H +.k.R.Q.(.T.Y.wXxXkXNXNXNXnXqX~.$XlXKXPXKXMXjXzXjXwXeXeXeXeX8X,X8XgXhX,X8XeX).Q.,XMXvXvXVXGXNXgXzXeX(.eXBXeXhXMXmXMXpXwX*XQ.g.7.O.7.k.$XvXvXSXGXAXXXg.$X~.7.n.g.g.v.MXnX9XGXIXFXFXAXwXCXLXLXJXAXQ.j.j.P S I ,.T.~.).~.Q.^.~.).~.^.Q.Y.N.j.g.!.&XY.,.H u 1 u u h G F F L } I k u 1 u u u 1 , , o o o o o o o X . . . . . . . . . O o o ; u f h ; $ - 1 1 t f v f f k e 1 u 1 ; $ - h k [ } G k k k f j n F j f F G [ k F L [ L m m G c t e v t : : t g y y e 7 t 9 7 ; ; ; ; : t c G G f y y g c z c m n c e 9 i j y n } _ c v f $ u } _ v t t 9 _ 1.5.8.5.O.[ c m 2.5.E.%XjXxX0XQ.Q.oXZ.I.Z.8.O.O.6.5.| _ F I 7.b.b.y.v.} L ' 1.] | 1.4.g 9 g n e t t 9 : @ - @ @ X X     .     ",
"O.g.b.r.[.nXtXp.r. X:XoXU.m _  .{.I.S.` | _ ] { 3.] 1.` _ v U -.@.5.-.3.-.q.w.1.r...3.L L g @ X X . . X $ $ @ .     . @ @ X @ $ @ - $ X @ $ X X X $ ; @ @ 9 u g z g y 7 n b y z | 1.O.| _ b b y t v j c G L [ _ L l n : n n c z z L G j F U n f f f n ' >.} k F } [ L v F j u G 5.[ e y j v v [ _ y v j u . $ j } L 7 $ ; i L O.} [ D i u ; $ ; ; @ . X $ - 1 h F D h h G [ } P +.m.Q.!.^.G.Q.jXnXHXKXNXxXMXbX0X!.=XNXKXPXGXVXBXhX8X=X,X8X,X,X_.,X,X,X,X,X*X(.T.).eXeXlXmXSXgX,XjXeXG.).NXVXgXMXjXeX=X$X(.~.7.+.o.5.f.R.bXbXzXCXAXkXm.=X|.o.7.4.g.g.=XnX=XbXAXmXGXAX=XpXvXAXCXpXf.,.d.Y S Y <.f.k.Y.~.^.Q.~.*XqXqX*XY.f.,.m.=X^.,.P f < 1 u f h k k F U } I k u t u u u 1 < , - o o o $ o o o O . . .     . . . . . X ; 1 t 1 $ ; u u u f k v f k h u - u u 1 ; - u k U [ U G F G h u k F j f F F L U G G _ G _ { G n j e g e ; : 0 i j t t : t g 7 ; ; : e t g G c m c 7 t z ( c _ | ' c t t i F v L G n v f f $ $ [ 1.} v j j c | @.@.O.O.[ i ' ' 3.y.R.0XqXA.v.H.W.M.V.b.V.3.7.b.b.6.F m I 8..XA.E.B.5.[ w.] L G 1.8.2.N n ] L b 9 7 : ; ; @ @ X . . .       ",
"] ` 2. XtXxXxX@X;.I.OXoXU.2._ ` w.w.i.2.4.` ( ' e.] ' 1.n j G 1.2.1.-.w.w.w.2.4.@.{ 3._ F g ; @ X . . $ ; @ X .     . @ @ @ $ ; : : @ X @ $ - $ @ @ - - @ : u i c c b j z b G [ 5.5._ | | G b i t i j G G L _ G G j n g n N b z n G v f U [ [ n k k F I >.L F G _ } | v v v v j L } k i i i j J G z v i i ; - i } O.i ; 1 v [ ,.O.G F G D ; $ < t ; X . X $ < f F F F F I o.>.I P ,.N.!.!.B.R.jXMXPXPXSXzXNXMXqX!.F.*XSXPXPXGXSXcXeX=X_.=X=X,X,X,X,X_.(._._.(.T.G.=X,XAXKXHX9X(.,XgXQ.Q.NXFXwXlXMXwX~.=XpXlXf.P [ g.<.f.9XFXFXGXJXbXW.R.m.Y +.7.7.7.R.MX&XpXSXHXAX8XY.8X(.(.*XT.<.Y `.Y S Y <.d.f.k.^.).(.=XwXzXeX^.j.<.,.^.$Xj.P f t t t u h j k n G I [ _ F k u u u u 1 3 , - - - $ $ - o X o .   . . . . . . . . . @ $ $ - $ < t < 1 u n j f h f f e f j i t 1 f k h F G G h h < $ 1 n f 1 u f G [ [ G _ _ G { G n F F v i : e u j j : ; ; i c i e : ; t t y c z c z y y z m m m ' _ n g y i c n v b c i 1 ; . X v | >.G G G G ] [ ( _ [ m g | n 2.b.E.%X:Xg.O.v.A.B.V.y.v.| | A.B.G n [ | 8.B..X X}.g.O.4.8._ m ] w.w.| 4.-.1.2.( t e 7 ; $ X X X . .       ",
"c ` 2..X[.+X+X@XU.[.i..XU.w.w.] 3.b.3.8.w.u. .] n.3._ 3.n n n ] ' ..` 2.u.w.w.w...@.[ ] m t @ - . . . X - $ X .     . @ % $ @ $ : ; $ - @ $ $ @ - @ @ ; ; e t u t c c t i z y y _ G g O.| j c i e t g n _ _ ' ( j n L L G n j j v k j n I O.1._ n F F F ' U L | } ' >.F u j U G b v D F i ; y i b y a i i 1 ; f _ 5.G u e k [ O.} F I I G e ; 1 f t @ @ X . @ 1 h h Z F H I o.P P Y j.XX$XA.F.=XzXHXKXVXwXxXjX*X).Y.Y.eXVXKXKXVXMXNXjX=X(.=XwXeXeX,X).T.T.(.(.G.l.T.*XVXPXGX*XQ.(.8X^.(.gXgX).jXAXjX(.pXAXlXf.P O.*X7.j.bXMXMXFXIXCXnXF.<.P Y +.o.} e.wX5XmXFXLXGX*XB.Q.l.z.T.l.Y P Y P T Y Y <.<.f.G.^.Y.Y.^.^.Y.l.<.<.j.Y.k.P f u h f h u h h k n G _ [ _ G F h h h u u 1 < - - - - - - - o o o . . . . . . . . . . ; 1 ; ; ; $ - - - t k k k F k n k n F f t t h A F F I G u < $ o $ u u u f n G L _ G _ _ G G G n L I F F f g t j g ; : ; 7 t u t t t g y g c z m j y i z { { G _ L g g c z m n c b g ; $ $ . . v 1.F F F G ] ] | | n v j g c m ' y.&XiXuXA.V.m.m.V.j.5.e.] [ V.4.>.m n 3.E.b.E.-XA.x.4.A.v.2.z m _ 2.y._ 4.b.b.2.c y g - @ X X . X .       ",
"} ..Z.+X'.iX1X+X@X[.[.[.u.p.` ] 2.u.r.-.y.Z.] m -.-.n ' n z c G c _ m 2.b.;.-.' ] 1.[ _ n : @ ; X . . $ $ - X .     . @ @ @ @ ; ; @ @ @ @ $ ; : ; X @ : l g u t t g i 7 7 0 0 0 y y L O.G y y b g i t u G _ _ [ m j L ' _ j e 1 1 u v [ O.1.1.L j n n j n U } | } L } n h v F G _ v t v t ; e y y e e y i t $ v O.5.L v k G b F G F F k k t : e f u $ X X X @ t h u k Z F H P P Y Y ,.XX;XR.N.G.).cXMXeX(.,X=X(.Q.F.g.m.=XBXSXVXlXAXSXmX8X=X=X,X9X,X(.z.z.(.(.z.d.G.*XmXKXAX9X(.Q.=X9XqX9X(.^.jXHXkXF.=XAXMXk.P [ ).,.P ~.pXbXJXIXAXMXN.,.F P +.<.>.7.=XwXmXJXIXLXbXB.f.<.<.Q.h.S P <.+.Y Y Y Y Y <.d.k.l.l.l.h.d.<.<.,.f.,.P u 1 t h Z k h u h k G _ [ [ L L F h h f h h u < , < < < , - - o o o . . . . . . . . . X 1 u - - ; - - ; < t f i f F k F U I U k 1 1 u F G F I F 1 - o o @ $ 1 u f n L U [ G [ _ n c G c j G Z Z F n g n F e e : % ; e 7 u t n j c g c m z j t y _ ` _ _ g : j n G | _ G j e $ @ @ o . 1 I F u j n L ' { L j v n l j ] ..r.A.:XiX&XA.F.P.x.V.V.n.4.6.1.1.2.3.[ | v.5.A.-XE.8.| B.{.b.e.c.r.b.e.] | b.{.A._ m i $ @ X . @ .         ",
"G x.}.[.tXsXsXtX+X4X+X[.I.4.;. .e.b.2.2.` -...L m N m | ] m j g i c _ _ ..q.w.` _ ] _ _ n t @ - $ X X X X . . .     . @ @ @ @ $ $ @ @ X $ ; $ - $ X @ : g g u t e j v e ; * # = z m ] ( y i i L L m i t c m m G L G n n G j f e 1 j [ ,.5.>.} v g g j j j U I } [ U I F f k k G | F u t ; $ ; y y y e y i u 3 D } O.[ v G G n F F k h f t t f j h u ; . @ $ ; u h u h Z A F H P Y o.,.B.~.Q.N.g.l.T._.T.l.G.G.l.l.d.+.[ +.G.eXgXwXeXBXMXMXBXeX8X,X,X(.z.z.T.(.z.g.G.eXvXNXmXuX=X=X9XpXjX$XQ.Q.zXAX=Xl.Q.jXwXB.Y O.F.,.+.l.*XMXLXJX9X~.d.8.O.I Y o.>.7.Y.^.=XlXHXJXlXk.<.Y Y d.<.S Y <.+.Y Y Y Y Y `.<.d.d.,.<.<.<.f.j.7.Y A 1 - ; 1 u h h h h h k G [ [ I L [ L v h h h h u 1 < 1 1 1 < - * - , , . . . . . . X @ X X 1 t ; ; t t 1 ; < u n u f n k I [ } I D u f D F F G G t - $ $ X $ $ < 1 u k U [ O.[ m n g c n j e : 1 t h i y G _ j 7 ; ; @ : : 7 j G F v k i j i v y t b ( _ m i 1 u g c z G L f 1 ; - % X X @ e u 1 t _ } O.{ v j G | [ } 4.C.b.P.+X&X&X~.~.A.g.b.b.I.b.e.5.4.4.*._ | @.} n.I.I.M.>.M.E.A.A.{.A.c.8.3.] 2.E.[.] m G 7 ; X . X           ",
"n  .a.a.+X@X+X7X+X+X[..XOX] ` 5.x.b.| _ n m _ G _ ' c ' N l j z g c ( m .. . .] m m | ' : : ; $ X . o X @ X . .     . . @ $ @ @ ; @ X . X $ ; ; @ @ @ ; i t t e ; u z e ; ; @ = c [ [ c y i y b G G u e g m G m G G v i f f h f v [ O.5.>.} [ f f u j F j F F O.[ [ >.,.I v n G [ F t : ; ; ; ; e e e e e < , u G | } _ [ _ L G k f k k t u Z G D h 1 X X $ ; u f u h A F P H F P P +.j.Y.Q.N.,.o.,.j.f.5.5.5.5.5.,.o.I A F d.Q.=X$X$X8XjXAXGXAXBXzX,XT.l.G.G.z.m.Y.eXzXjXeX=X5XqX*XpXwX8XqX8XlXmXT.g.wXpX=XB.o.5.$XB.5.g.*XmXAXNXeXY.<.g.>.P P o.+.,.v.k.eXpXwXkX*Xk.,.+.Y d.Y C Y +.Y Y Y `.Y Y Y Y <.<.<.h.l.Y.(.Y.>.h ; $ - < 1 1 u h f k n k F I [ _ [ [ L v f h f j f t 1 1 t u t < - , < < o X . . . . X $ $ 1 v 1 ; ; ; ; u < 1 h k f v f F G G G F k k F o.J k F F 1 - - $ ; < 1 ; - h F L [ | L c g l g F j 1 1 ; $ - : i G [ j t ; @ - 9 t g n n j : t j y t v i 0 0 Q m g y t 9 z c ( n G f 1 $ @ @ @ X @ c e e e L 1.O.O.v G O.O.[ | ] 5.8.P.oX7X6X=XXXR.g.b.4.n.v.8.8.y.e.L _ n ' r.Z.b.y.5.8.A.}.n.b.{.I.r.e.5._ | A.{.b.@.L i e $ $ $ .         ",
"q ^ a.6X+X[.tXaX7X.Xr.r.p.X.3.5.2.5.1.c ] _ [ 5._ g g u...] m L 0 j _ ] U  .! m ( ` | ' 7 * ; - . . . $ $ @ . .       . @ ; @ @ : @ X $ @ - ; ; ; @ X $ e 7 t ; - : t u 1 ; % 7 m { G G y t g g n g : ; j m G n L L j u f f u u G [ | } O.L L u : u g j j j F O.[ O.k.j.5.[ I I O.L e e t e 1 ; t t : i u < X - k } O.O.5.O.[ j k G F F u e j G F k u $ . . @ t h h Z F I I G F H P Y ,.k.Y.j.o.,.,.g.g.5.>.o.5.7.5.,.[ F h h <.G.N.j.G.(.gXHXLXGXNXjX=XY.N.m.k.N.~.9XjX*X(.Q.=X8X=XjXlXkXlXwXMXlXF.m.lX9X=Xm.I O.v.v.P.XX$X).^.(.^.n.Y +.Y A S Y ,.,.f.f.~.9X$X$X).j.,.<.Y Y Y C T <.`.Y Y Y <.<.<.<.<.h.T.=X8XeX*Xk.F < $ $ , 1 1 1 u u h D F k D G L [ [ } I n k k j v k u 1 e u i u t < < 1 1 $ X . . . X X X X ; i ; - ; $ - 1 t t j G F k f v v f j k f j F I F k v v u 1 : u u 1 e 1 1 f F L U v g t j t g b v t u 1 $ $ ; t L [ j y e ; ; u v _ | ] g - ; v v v b y m b b z G y j c z y g G G i e $ @ ; . . % e * j j } 8.x.,.[ [ O.5.O.' L 4.| v.OX5X&XoXXXR.n.v.n.V.v.8.V.W.5.n e.| 4.2.Z.p.2.G | B.P.B.b.A.S.5.5.5._ | 1.b.I.b.' m e : 1 e $ X       ",
"q w I.+X@X[.tX7X7X+X.X[.w.4.8.b.3.3.U | | ..| _ [ 9 g z ] ..| 3.G I O.6.2.Q _ ` 2...c m y ; @ X X . X X . $ X .     . . @ @ X @ ; ; @ $ . @ - : 1 $ - - ; ; 1 : e e e t t e t 9 y | _ G z t i y g e 1 e c m G _ [ L F i u u u f G [ L L [ U n u u j h : e n F I F } j.j.5.,.,.,.N.} i i i t u t v v i Z F 1 4 $ t n [ >.5.>.[ v G I F I G t i v F Z u < @ @ ; u D F G I I I I P P I P Y 7.j.7.<.f.g.m.m.f.,.+.+.,.<.+.I F Z u h P Y I } 7.Y.8XMXSXgX(.(.^.Q.Q.^.$X$X8X9X(.G.G.(.(.(.qXMXlXqXwXvXwXY.W.vXpX=Xk.P +.d.,.,.wXCXmXeX=XF.n.o.Y P S A P +.,.,.,.G.$XQ.Y.=XF.,.d.,.,.<.Y `.<.Y Y Y Y `.d.,.d.G.*XzXzX9X=XN.P 3 o $ , , 3 3 < < t h h h h j F I | | [ G F v v v F F h 1 t u i u t 1 < 1 1 - - $ X $ $ ; ; @ $ t j u $ $ - 1 f f f F k f u t i u f k i f h f f j f h t 1 e j k : : u f u j G G k v t i t t 7 i f u t 1 ; e t z n v j i e - t c | 1.' n 1 : G F [ { G _ _ z y c g c G z j j G b f 1 < : X . . X - - l j [ 6.6.,.O.O.7.1.[ m m G } y.P.oX|.|.~.M.v.j.V.V.8.7.n.E.8.n 5.n.I.P.A.b.b.4.| B.E.A..X{. Xe.} G G m { c.A.A.@.m c v e : $ @ .     ",
"_ Q p.'.a.'.@X[..X[.[..XU.4.5.B.8.8.| } | 5.@.{ @.[ l ' ] ' 2.2.1.o.O.6.A.2.7 m -.] ] G l 7 + @ X $ @ $ ; $ . .     . . . . . . ; ; @ X @ * ; ; ; ; ; ; : 1 : : t t e u j f j y z | _ c c g g y y 1 e g m | m G n G _ j g t t c [ O.[ } [ L n j u u f ; ; f n k f F o.5.,.O.g.j.m.O.I G f i F F G [ J J P A u 1 k L L G I O.O.G J F j G I F j u i h u ; - $ 1 k U I [ [ I I I F U I P P ,.d.,.7.m.N.Y.~.^.N.,.Y Y Y P S A h 2 < - 1 h j F } f.(.8X$XG.l.T.*XqXpXlXwX=X(.G.l.l.T.~.~.=XzXeXgXMXzXqX=XjXAXeXY.g.I o.,.<.,.$XCXMXlXkX6X|.,.I J C S P I Y Y Y f.^.Y.l.N.j.,.f.k.j.f.d.Y <.`.Y Y Y Y <.h.Q.eXbXzX$XN.f.Y 1 X $ - , , 3 3 , , < t u u u h U O.O.[ G F F G G F F n u 1 t i i u u 1 < < 3 < < - ; - ; 1 t ; $ k I u - $ $ 1 f j u f u f u 1 f f v k v F F k v k u u h f e f k e 1 j j u k F G F F j g n c i = i f t u t c j i g j f y t : u c ' [ ' m f c _ b _ 6.@.@.] _ y g m c v f j F _ _ v 1 1 : = - - @ X @ N v g L O.o.o.[ g.g.F j t k _ 4.v.R.n.A.XXR.x.j.V.P.V.n.n.I.5.O.| b. XoX%X|.}.b.g.R.}.A. X-XoXc.[ F b G ] 5.r.e.| _ L G v i $ X . .   ",
"} Q r.tX+X+XtX[.D.[.@X.Xu.e.e.v.1.4.Z.2.F _ 5.8.e.2.' m -.;.4.-.6.5.| v.e.b.1.m c m ' ( _ ; @ . . X X $ u ; . .       X . . @ @ % @ @ X @ @ @ - - @ ; : ; e 1 e t 7 f j v v z i G _ b c g g y t t 1 y n ] @.G c g c _ n j i i v [ O.O.1.5.[ F j 1 1 e 1 1 u f n n L I [ } O.5.g.8.7.,.o.G F G I [ [ D F Z A H o.O.U F F G I I I G k F I I F G F i e 1 - @ $ 1 k I [ [ L G [ I A G I P I <.<.+.f.N.m.m.~.~.N.<.Y P P S Z C h 3 - o . o - 1 u k ,.G.G.f.d.G.wXNXmXmXjX*XQ.m.f.l.F.Y.Q.Q.*X,XwXwXzXkX9XeXwXT.l.,.I [ o.Y +.Q.*XzXeX$X=X=Xf.o.o.F C F I P I I +.N.R.l.d.h.f.f.l.f.f.d.<.`.`.d.d.h.d.d.T.wXbXjX^.f.o.F 1 X o - , , , , , - - , < ; ; u F } >.} F k k F [ L U F k u e u i i i i u ; , 3 ; 1 1 < - ; 1 e t $ i G < $ - - e j k t u k f u f F j u e f G G F v k f f f h u h f u e u j l n v n n n F G L F i : t j : : g n n c z y f g t : e g G [ ' n j I } c G 5.@.6.{ _ z g j u u u f v [ [ n t e $ $ $ $ ; $ - [ F j _ O.[ _ I >.N.} 1 u v 1.m.Q.XXXX$X0X%XB.N.~.|.}.v.5.9.O.b.4.v.-X5X6X;XS.P.8.r.b.E.{. X.X5._ O.| m ] _ 1.4.G ( G j b u ; $ .     ",
"g.v.OX+X+XtX+X+XoX>X.Xp.w.i.r.2.>.V.b.[ n m y.8.8.2.1._ 4.4.e.3.5.v.A.5.e.b.8._ m _ ' m G - @ X . X . - 7 X . .       X . . @ @ @ ; $ $ - $ @ - - $ ; e ; : 1 u : % i c z b b z ( ( b c g c y t ; ; y { e.1.' z y y _ G b n c G O.| 1.O.O.U G f h u e u f 1 f n F [ I L U o.>.7.8.j.7.o.o.o.F J I F t t u h +.g.5.G n k F F G F j f F D F D F F u $ $ $ @ $ ; f G L I G I [ I A H P A F I I P ,.l.f.d.k.m.f.Y F F A C h 2 3 , o o O O O - , - u o.f.j.7.Y.jXbXwX8X5XwX=XN.N.Y.m.k.F.F.).*X=X*XlXzX~.Y.T.l.,.o.G o.+.} >.W.*X=X=X(.Y.G.,.o.O.P h H o.I Y o.o.B.$XY.f.N.k.f.l.N.Q.^.k.d.f.N.(.=X,X=X9XpX8XY.,.I h ; X X - , , , - , , - o - - - 1 j G } o.G k j j n G L G n f u u u u t u u u < - - ; t t < - < 1 e ; $ f F u $ $ $ 1 f k h h F j j k v j e 1 t G I F k D b k n k n F k f f t j n v j n v F U G G c f g g z t ; 0 c m m n y v b c i g j g G m n 0 G | _ ( O.| ] _ z g c f 1 1 1 i v [ _ G j i g 7 @ $ @ . e [ J n | 8.O.G I } 8.O.h < F 7.R.=X6X0X0X9X#X~.N.N.v.n.*.U F v b.A.P.oX&X6X;XZ.b.1.2.Z. X-X-XC.@.| [ _ G m G 1._ b j j j j f e $ @     ",
"..R.5XaXsX>Xp.U.E.oX+Xw.p.S.P.B.7.v.4.m c G 4.1.4.2.] | 8.b.4.y.8.c.A.e.6.e.e...;.m c _ i ; X @ . X X $ : @ .         @ @ @ ; @ = : ; - $ - - $ $ $ ; t e e e e ; = g z c m v j v c b b i c y t e ; t [ 6...L m z y ( | n n c G O.O.{ _ _ G G v F k 1 u f u k j j L } } [ [ ,.j.N.m.5.[ I [ I I I F t u h Z Y 5.o.k v k k h k D F j j h I o.j u 1 @ X @ @ $ - f G L _ I I P P H H F A A F F A P ,.<.+.d.,.Y F h h h 2 3 , - o . . . . . . o o @ u I ,.d.l.wXAXNXlXmXSXmX9X8X=X~.).!.).zX8XQ.5XqX$XN.h.f.,.} I G g.g.} 8.}.mXHXAX=Xm.m.,.o.o.I Z F I P +.>.o.N.vXCX9X9XwX^.Y.R.eXMXjX(.T.$XjXMXMXlXwX=XY.f.P u - O O o - - , o o o $ o o o o - u F G I G Z f f f j F F F v u u u g i u f f t ; - - ; 1 1 ; ; t u u t ; F v t 1 $ - ; u D [ I I I [ I I F k u f G I G F J [ F k F I [ k u k g j f i j G F F G c c 7 e c n c c t y G ' c z t b G G F n c i v b b z G O.| _ | O._ G g g g t 1 1 t 1 v G L L c c n 9 @ - @ X : [ L z O.v.1.G G [ 1.>.[ h u j.&X:XqX0X5X$XE.E.n.1.F -.7.y t F V.S.W.XXZ.A.Z.oXA.u.b.b.E.-X|.b.A.e.( n _ ..| ..m g e ; - f F u : $ .   ",
"v.E.a.@XkX@XOXI.Z.OX7X[..X;Xy.4.O.} _ g j _ 2...2.1._ 2.w.2._ 2.` ` v.c.5.4.A.2._ ` _ n c : @ $ X $ X - 1 X . .       . $ : ; @ ; : $ @ X @ $ ; ; @ @ ; ; : i i y y y z c c z z j g i i t j m g i ; e G @.@._ ' m m _ | n g g m } | _ G | U v F G F f f f Z F n j F } ,.O.,.f.j.v.v.8.[ F k G I I G t u C h G +.I D Z Z h f k I o.I G k [ o.u 1 1 X . X @ @ $ u I } [ I F H P G F F Z C A A k A P P G I P A h u 1 3 3 , o . O . . . . . . . O . o 1 S P +.Y.gXAXAXFXLXJXAXkXpXMXMX9XmXAX=XR.=X$XG.<.o.o.I G k G B.M.o.8.Z.zXSXCX=XB.m.,.} P F Z A H H +.>.+.d.^.wXwXkXSXMXlXbXNXAXMXNXMXMXMXCXbXeX=X^.j.I h - o O o o o o o o O O o O . . o , h F F h h h f h f f F G F n i u u f i g f f 1 < - $ - 1 1 ; - < t t ; < G k t u ; - 1 u F o.+.I G I G F k k u F G G I +.O.,.F k G I U f j F n g t e g G [ F F n c e 7 g G G n c y L | c y t c m G n n c u k G G } 6.8.@._ @.| | _ v u ; - $ - ; ; u j n F n c g : @ $ - - ; O.8.U L 1.O.1.G v } O.,.G F >.|.&X*X&XQ.y.4.A.m.[ u U G f k I R.&X%X|.e...b.B.qX:XA.w.b.|.}.y.b.8.| } 5.4.@.@.4.m : $ - j v u e $ .   ",
"Y.$X[.'.@X;X+XI.n.7X+Xw.p.Z.m _ | | | u F ] ` _ 1.1.' ] .. .` ] ( ..O.O.v.A.b.Q ] _ ` _ _ t @ @ $ X . $ ; @ . .     . . @ ; @ ; ; ; $ $ - $ - ; 1 ; $ ; ; ; g j g y y z y y g z t i i t e t g g t : 1 F 1.4.| | | [ ' { n g c n _ } | ] } [ n U I U k F D G [ U u f I 7.5.5.j.N.g.j.g.O.G G I [ O.[ f 1 1 1 D [ U F h h F F G o.O.I o.F I G 1 ; 1 X . o X X $ u U O.} J F F F F F F k h h h k h h A A C h u 3 , - o o o O . . . . . . . . . O . . o - h F ,.G.T._.gXAXJXFXlXMXJXCXpXAXvX$X!.Q.G.d.P G I I F h [ v.g.5.f.E.qXuX9X=XE.m.o.P P S C C F P Y +.+.<.k.Q.$XqXFXAXeXCXJXJXNXwXMXGXJXFXmX9X(.k.+.F 1 o . . o o o o O . . . O . . . . , 2 h h 1 1 t u u u f n G F n f u f f i g h u 1 < - o - ; - $ $ ; e 1 - ; F g 1 u t ; e e j F Z h k J F k k f u h k G I >.5.5.F k G I G f j v k j u : i G G F F F n j i g _ _ z c y 0 _ G z 7 t c G G f g g c n c [ @.@.{ _ | 1.| [ L v u e - ; 1 ; ; t u f v c j @ X X @ ; : F >.L L O.5.1.O.b y O.g.,.F *.I.R.R.b._ m :.P.E.O.n n G I I j.~.6X6X;XP.5.3.5.Z.kX6XC.2.Z.b.c.|.|.A.A.A.@.{ 6.e.{ g @ 1 v u t e @ .   ",
"8.P.5XtXtXaX7XU.-XiXu.;.w.;.L | *.4.] ' | @.Q ` @.] ] -...` m G _ _ ( G ] r.1.m 2.1.m ] { t $ @ $ . . ; 1 . . .     . $ ; ; $ ; = : : ; - $ - : e e : ; 9 t n j y y y z p y m n g 9 g t e 9 y g t : ; j [ 5.| [ | | [ _ n b F n _ | 1.1.| O.G G I I n I I J } F t u U 5.g.g.m.N.j.g.f.7.O.I O.,.>.o.I u ; 1 F 5.} F u u F I G _ } L I F J Z t ; ; $ X X . X $ t G } [ G k k h A S F F h h h h h u h h h < - - o o . O .   . .     . . . . . . O . . o , u Z <.l.G.T.gXSXAXxXMXFXmXkXkX).~.Q.g.,.o.I I I H A u I g.j.B.Q.=XkXNXNXuXR.g.o.P P C h h A H P +.Y P ,.l.k.G.pXAXmXpXMXGXJXFXSXAXMXwX(.k.f.,.I h - . . . O . . . O . . . . . . . . o , 3 , - - 1 t t u u k F n v j j f g i f f h 1 < - X - ; - X . $ 1 u ; < F F e 1 t ; - 1 h h u < u F G k F k f u u F I O.f.O.F h I I G c j u t g e : e v j n j j G n j n _ L n m b y L _ G u ; c G L l n l j n _ | | { | G G O.| O.] L G j e e 1 : - < < 1 t t u - X @ $ 9 : @ i l n } 1.@.1.{ z 8.B.m.7.9.:.^ c x l L | A.B.,.F G I H >.B.H.;X:X;XE.E.2.F 1.|.uXtXu.w.1.b.E.%X X XC...' 2.e.@.n ; : e 1 t ; $ .   ",
"8.P.[.7XtXoX>Xp.OXOXS.Z.p.2.] 3.3.y.-.:.1.] -._ ] ] ` 2...-.c z ( m z _ m ` M 0 m O.2.2.( 7 ; $ @ . $ - @ X . X     . @ @ @ ; : : = ; ; - - - ; : 9 9 ; t i g c z c c c c n m G c t j i t e t i e ; 1 j z c c m ] >.| _ m G G L _ ] | O.1.O.L n F G F [ } D k u 1 t F ,.g.j.g.7.7.g.k.j.j.5.5.7.>.} +.I u e G 5.>.G F Z k U I [ } [ I D Z Z u ; $ $ X X . X $ e F I G n h h h h C S F h h u u u u 1 , $ o . . . .   .                   . . . o o . O $ , 1 k I O.m.8XmXjX:XxXCXkX9X).Y.R.j.+.[ I G F F F Z u F 7.g.~.5XE.XXlXAXmX$XV.>.F A h 2 2 C F F Y [ F H Y ,.f.G.8XbXzX*XgXAXFXCX9XT.G.l.d.<.I A 1 o . . O . . . . . .     .         O . O . . X - < 1 1 t i j k k k j f u t f k f 1 - - o $ ; $ X X @ - u ; ; G U u ; ; - < ; u t ; - 1 h F F U F u 1 C G I 5.f.[ h h F F F v j e : : ; ; e f f j v j m G g c G n j G [ _ [ _ _ n i m { L n L n f g O.O.[ [ _ _ G G } 6.e.| L g t t ; ; - ; 1 < ; $ X . X X : l n ; $ : t G 8.8.5._ G v.H.H.E.H.U.e : c L *.:.1.g.o.U H I J J 8.v.!.:X:X%X0XW.[ >.j.R.aXxXZ.1.O.b.B.E.b.5._ | | c.6.n 1 e ; $ : : - .   ",
"j.R.XX>XiX7XOXD.+XI.V.i.U.b.b.4.e.8.2.] @.2.w.1._ ] ` ..] :.n m m _ G | _ ] _ m m 4.2.@.{ y ; $ o X X @ X X X .     . X $ $ $ ; ; ; $ ; : ; ; ; : t g u g c c y y y g c c m b c y g n i e e e u u 1 u G [ ( _ } ] [ | _ G _ G _ G G | O.| [ } F L I U o.O.n t t f u n } 5.g.g.5.>.5.m.m.v.,.>.5.f.>.5.o.A F [ 5.5.L I I k F [ [ O.} [ k u j h < $ $ X X . @ $ t F I I F h h h h h h A h 1 3 3 1 u < $ . . . . .                           . . o o o O o o - 1 k G >.N.^.*XpXbXjX).N.k.j.f.+.F G G A A F A h u Z P o.,.g.B.:XmXAXAXwXZ.5.F A h 3 3 h C Z F G Z h k G I ,.G.G.!.$X^.(.Q.^.G.l.,.Y P P A u - . . O . . .   .                         . . . X - ; ; 1 u f f j j f u t t f k h 1 - , o $ ; $ X X @ $ u < $ g F u - $ $ ; u u 1 $ - t f F G I F h 1 F [ I f.,.J t 1 u h u f f u 1 - * : g f u j G n G _ z y n g t g G O.| [ _ G G _ { G n ' G j u _ | [ [ _ O.O._ _ 6.u.| ] n c v ; ; ; u t : : @ X @ . - ; l _ t n ; G 5.5.x.6.L _ | M.H.|.oXy.z g c ' 8.2.' } | [ I I H F O.b.%XaX%X6XuX!.5._ } 8.|.6XE.b.8.5.] b.5.G G | @.e.e.[ G v t $ ; ; @ .   ",
"1.r.E.;XtX+X;X.X+XZ.w.4.U.y.R.b.b.w.2...] 1.8.b.2.........m n c g j [ [ m ` b z _ w.w.2.| i ; ; X X . X X . X X     . @ $ @ @ @ % ; $ $ $ $ $ @ % 9 e t t c z y 0 9 y b z z m y 0 i g e ; : u i f t h } | _ _ [ _ G _ _ _ G G _ m m ' | _ _ _ I [ I I [ O.L F v n f j U ,.g.,.,.5.O.,.7.o.F [ ,.j.8.5.o.F H P >.O.G [ F h F [ G _ F F I F k u 1 - $ $ X X $ $ t k I [ I A A A h u h h u 1 < - < 1 - X . .                                 . . . o o o o o o , u k I 5.Q.9XwX=XG.f.7.>.} Y F C I P A C A h u h F I >.f.j.B.R.~.wXCXjX4.o.F F C 3 3 2 C C H F h 1 1 h F I ,.l.f.f.m.Q.G.l.d.Y F h C C 1 $ . . . . . .     . . . . . . .               . . . o - - ; 1 u g f f u u t t u f u < - , X $ - $ X . @ ; 1 - $ u j 1 $ X X - ; u 1 $ ; i f k I I D h h F I [ O.} F f h u u 1 1 e k u 1 1 1 f g g j n G [ | G j j 1 : ; g } } [ L z n _ ] m b ] _ n g F | ..O._ { { G O.8.2._ L _ G G u 1 e i e i j ; $ : - - ; 9 e n L t O.v.g.v.7._ } [ { x.H.b.-.*.N ] w.}.+X-.B.H.m.5.I I J o.H.0XxXpX0X$Xb.I ' j >.Z.x.b.b.4.| ;.u.r.5.{ G _ { @.O.[ n : $ $ ; @ . . ",
"1.y.|.XXiX>X@XtX@X[.Z.u.OXI.v.b.2.` 1.] 8.] v.b.@...r.r.| ~ m m f t n _ _ m m m ` _ 1.1.| i : ; X X . O @ X . .     . $ o X @ @ $ - $ - $ @ $ ; ; ; t e 9 y y y y y y c z y z g y g y : ; ; 7 9 j i j O.] n c b m n L G _ L G n G _ G [ G G G G L j n v G L [ _ F k n G o.O.} } >.} F } F k k o.5.g.g.o.F A P +.I J } F f k I G G c j F I F u 1 ; 1 ; $ @ $ $ 1 j G I I F F G h u u 1 1 1 , * * - O . .                         . .         . . . . o o X O o 3 u h F } ,.h.f.,.Y I G I P h h G P A h Z h t h Z I v.B.V.&X9X=XwXvX8X5.+.I P F 3 3 u u h C C 1 , - < h F G P +.<.I I Y Y H h u 1 1 < o . . . O . . .   . . . . . $ $ o .               . . O - - - 1 u j j f u t e e t u u < - - X $ - $ X . @ ; e $ $ h j - - $ $ - ; u ; $ ; f h F o.I h u j D F U I G F j v k u 1 < e k k i i e f f j n n G _ } _ m j ; : - e _ [ L n n m _ [ m j [ | I f j | 8.5._ _ _ b | ..] G n G _ L v i u g y j j e 9 F f $ @ ; : g g ; G O.1.1.| | | O.G [ 4.L ] 3.` n c 0.w.9.!.uX0XR.,.o.G O.A.:XzXxXjXH.O.v n f O.n.O.y.e._ 1.w.2.w.e.5.G j j _ 5.{ z e ; $ @ X .   ",
"1.n.XX:XkXiX@XpXI.r.U.S.I.Z.A.Z.2.2.8.4.8.Q t.e.e.2.b.b.r.' -.:.~ j y n _ ` _ ' ] ] ] | ' j ; - X $ . . O . . .     . . . @ @ ; ; ; ; - $ @ - : : ; 9 g g 9 y t 0 t y y c z j i g g g i : @ @ = y f j _ [ m g j m n G G G G _ G G G G G G G G G n t g f F U L O.I j v U I G G I } U k G G f : k } 5.5.[ F f D H h h I k h j U F n F f f D D u 1 ; 1 1 ; $ $ ; 1 f F I I F F F A u 1 3 , < - o o o . . .                 . . . . X . . .       . . . X o O . . $ ; 1 u H +.,.+.F u f k F h 1 t h k k k h t < u h A P Y >.(.qX%X!.B.~.!.>.I I H 3 3 u 2 3 2 2 < , - - < u u 1 < C P P h u 3 - o o X . . . . . . . .     . . X X - t u 1 $ . .             . . $ - - < u f f f u t e e u j h 1 - - X $ - $ X X $ ; t 1 $ u j ; $ $ $ 1 u f u < < u k G J F D k k f k F F F G F F k f f h F F k f j u f j n n n n n n G j u t - - ; G _ G G G L m l g c [ O.[ f f L O.6.| G n n m m | { c c { _ G j i e y i i g t f j = t @ @ k j $ t _ 1.8.| | 1.O.| } F G _ } v.Q m Z...}.5XlXzX:XP.8.1.-.Z.u.C..X.XB.U F I U *.y.8.4.e.O.b.r.] b.b.c.| u e G | _ j e : ; $ X .   ",
"` e.-XxXnXaXkXyX}.S.7Xp.u.-.i.Z.` 1.-.` 2.] ..b.....A.r.u.-.` | ` y e n _ ] ] _ | 1...] ' t ; $ X X . @ @ . . .       . . . X $ - ; @ @ $ ; - : e ; 9 9 t t 7 t 9 7 g c c y 9 7 t z b c i e 9 y v u u b _ m g n ' c G G v c G G L m L n z b b G c f u t v F G o.G u f U k f n ' I h u F F 1 f u [ 7.7.O.h h 1 1 ; 1 n k F n F F F F F k j u t t 1 1 < ; - - ; 1 j F I I F k A Z u 1 3 o - - o o X .                 . . @ @ @ $ @ @ @ . + . .     . . O . . . . . X $ 1 h h e : 1 t e 1 1 ; t u f f h h 1 < h A P +.<.<.h.Y.5XqXR.$X9X| H I H 2 , 3 3 3 3 , , , - o o $ - $ X X , 3 - $ O O . . . . . . . . .       . X $ ; ; e v b i ; X . .           . . O $ $ ; 1 u u u u t e t i k f 1 ; * $ $ - - $ $ $ - t 1 X ; 1 ; $ $ - u F u e 1 ; e u G F h k h u h k F F G F G G k F G h F I k j v i e g j f i j c n n t t f 1 ; ; v [ _ G _ [ L f 9 c G L F f f j v { | v g z m _ _ L n n [ [ G j j e t t e i g g c i : * ; n m 7 t v O.O.1.| @.5.>.L L F [ >.' 5.m y.y.P.6XzXpX%X|.B.n.8.E.A.M.u.A.e.L k [ } 4.P.XXA.1.} 8.w.1.y.4.2.v 1 - u n G u ; ; ; @ @ .   ",
"8.w.6XuXkXkXaX>XC.r.+XA.u.2.;.r.2.` Q ` ] ] ` e...2.A.4.' *.m ` c g j g | ] ] ] -._ ` 3.3.i @ $ X o . $ $ X . .     . . . X X @ $ $ @ @ $ ; ; : 9 9 e ; : i t t 7 9 g n g y 9 e e g j g i i t g c e e y z c n m L j v g j c c m L m G c c c j j n F i e j k L O.F h 1 j u f G [ F t 1 f k u e u U 7.>.O.h i < ; ; 1 f f n G G F h u v F i 1 1 1 1 1 ; $ - ; ; 1 f n I I k h A Z 1 3 , o o o o . . . .             . X @ $ $ = = % % % % % $ @ . .   . . . . . . . . . . X $ - - - - $ $ $ ; u f f u u u , t Z G o.I P P d.R.0XkX~.9XlX).O.H S C 3 - , , , - - - $ o O . O o O O . . . . . . .   . . . . .         . . $ 7 t t i G _ z : $ $ X .         . . . o o - 1 u u u t 1 e t u f u ; - - $ $ $ $ $ $ $ $ 1 ; . X - ; ; ; 1 u F h t t - ; 1 f Z h h u t k F F J G G U F F I G j h [ J v v i 9 t f f g j l l g t e f u : : v m n n [ @.| G t l t e ; e c j v G L G G m m m _ ( _ G b j v j j j v v t : t c n g t n t 9 _ 9 m c G G 5.V.B.v.>.n n F G n j j [ 5.1.B.*X%XW.}.-XR.n.v.R.M.x.x.A.8.1.[ H I v.E.oXW.1.L _ 4.e.@._ v ; X . $ z [ i 1 ; * * @ X   ",
"m.A.oXyXxXOXU.+XU.p.D.Z.Z.w. .` ] ....Q @.w.b.2.] w.4._ _ | _ l n _ c G { ] ] :.y.2...| 1.j ; - $ X X $ @ o X       . . X X X $ - @ $ ; : e 7 : 7 e ; ; t y 7 t t y z c g z y : 7 c i t i t 7 t i t f z y c n n n n c g c n j c U m m m m c n v F G D f F G [ O.o.H h 1 u 1 j v f u f h f h g n I 5.5.O.k u e u ; u j g k n I v e e D f i i 1 ; ; 1 < - $ - ; 1 u v [ [ k h h h 3 , - o o . . . . .           . . @ @ $ % % e 9 7 e e 7 7 % % $ . .     . . . . . . . . . . X . . . . . o - 1 h h u t < - u G o.g.V.o.,.5.B.=X$X~.pXbXqXB.N.C h 2 - - , - - , - o o o O . O . . . . . . . .         . .           . % e y v y i ` { b y ; ; $ X . .     . . . o o - ; t u t 1 1 e e u u 1 - - $ $ @ X X o - $ $ 1 ; . $ - - ; t h k k u 1 1 < ; ; t G F h t u G U I I G I } F F G G k h [ [ F v v y 9 t j t t y g g t : 1 u ; e c c c c G } ..' c c l e 1 e c j v c G G G m m y n G [ L c e t i e i n v u t i g m ; : g L ; G n G m f j o.g.4._ | L f f j j g n U | o.g.|.R.V.8..XP.I.XX!.c.X.2.8.8.8.b.} u O.v.A.A.v.[ G @.O.| j e @ X . e [ | G t : : $ X .   ",
"| B.0XaXaX>X[.oX+X+XI.Z.y.4...2. .] -.Q 4.A.n.w.b. ._ G 2.b.] N ] j g _ @.2.| 4.-.G ] _ ] t ; $ X . X $ $ X . .     . . X . X $ ; @ ; : t e e e 9 e t e e t 7 y g g c g g y 0 ; ; y i : ; t i z i 1 9 g c m L n n c c n n n g j F _ G G m n n F F I G k F P +.O.O.[ G h 1 ; g j e f h t u f j I [ O.O.O.D h u f u g u 1 t k G F i 1 j u u F k 1 ; ; 1 - ; - ; 1 u v I U h h u 1 , - o X . . . . . .         . + $ % % % 7 r r a a x a p r 7 7 ; % @ .       . . . . . . . . . . . . . . o - 1 u u u 1 - - h I o.m.$XP.).~.B.m.l.d.f.N.!.=XXXC 2 3 o o o o - - o o o o O . . . . . . . . . . .                 . . % y v b m p a ` X.( a t e : $ . . .   . . . . o $ - 1 e 1 < 1 1 e t t ; $ $ o $ $ X X o - $ ; ; - X - - - 1 h F F k h u u h h u f G F h u F I I } I I o.[ G F F G F h F G v k v n g u t : : g t t e - * - ; f L m c n n L ] ] [ G j e g j j j j i t e g z i m m m | ] F u ; ; ; ; e u f g c g 9 : t y e _ G ; ; n n u I O.( G O.| } F F m m ' m I U [ c.B.1.O.5.Z.U.oX#XD.#.[ o.v.B.b.5.j F G O.8.8.>.[ _ j u 1 u u j ; n | 1.G y u i = $ .   ",
"| R.%XOXtX@X@X+XoX+XOXu.4.| @.-.1.2.` 0 ` |.u.r.b.` _ m { r.2..._ g G _ 1...] 1.' m | [ ' c ; $ $ X X $ ; $ X .     . . . X $ $ - @ - ; e e e : : ; 1 : 9 g 9 g y g c j n v g e 7 y 0 ; = = 0 j i ; ; 0 c G _ n c g g n m c i g b [ L _ _ G G L G } o.F f I o.O.o.I I F < 1 u ; u t t < ; ; u n L [ [ [ j u t f u u 1 1 j n U G j u f u t j f u 1 1 u < 1 ; $ < u k F A h h u 1 < - o o X . . . . .       . $ # % % ; 7 e r v ( X.X.{ ( ! a r r 7 % @ .       . . . .     . . . . . O X o $ , 3 1 1 < - , h F I 5.N.m.g.M.B.B.f.,.d.l.^.$XN.S 2 , o o o o o o o o o o o O . . . . . . . . .             . . + + % y ! ( ) ! r v X.q.X.K y y e ; @ X . . . . . . O o $ - 1 < < 1 e t 1 < - $ $ $ $ $ X X . $ $ ; @ X $ - $ $ < u j j h h < t F G F H F F h F o.[ I o.I o.+.[ I v F G G F n k j f j F n j t g e 9 j t 1 ; - ; : n _ _ m m L G G ' | | G i L n t u e t 1 : 9 v n _ m G [ | _ u - @ $ - ; 1 g G [ G G g ; : ; l n e ; j L u U _ c c } 5.[ [ U L 9.y.c L 5.V.8.A.8.G O.5.8.E.-X|.x.O.o.v.oXR.O.j n F G I +.>.5.| k 1 1 F G ' G L G _ _ m j i e - .   ",
"| Z.;XoXsX+X@X7XoX+X-XA.' _ 1.b.2.8.4.z r.b.S.t.Z.` Q v z _ ] .._ g g G [ -.2.w.G n ( _ ' g ; $ $ $ - ; ; o X .     . . X @ - @ X X - - $ - ; : ; e e t g t g c y c g i j j u u i y c y g t 0 9 t e y 0 0 z _ _ n c m z c b j j b ( } G [ [ [ L G G I G f F F G F I o.} f j f t e f 1 1 - $ ; f F O.[ F G u t u e i e 1 h f G n j t t < ; t e t 1 t u t 1 ; $ 1 h h h u u h u t 1 < - - X X X X . . . . X % % % 7 7 e e r a x ) #.t.#.X.X.) b a x v 9 @ .       . .     .   .   . . . o o o - - < < , - < C I P +.f.m.k.k.m.V.4.j.N.N.m.f.d.I 1 , $ O . o o o . . . O . O O . . . . . . .             . + + % 7 8 b ) ) ) b r b %.K.t.( p y t ; $ @ . . . . . . . X o - ; - ; e t t 1 < - $ $ $ $ - - - . X $ $ $ X - < - $ < 1 h k u h u u F H I I F u D I O.o.I o.[ o.o.[ [ F F I G F k f f u t j n c c n t e g j e 1 : t e n L [ G m | L g y m ( m z G v i u i f u t u j i c n j [ @.| f - X ; $ X ; v [ | @.O.F g G t G j g 9 G j v [ [ _ i L 6.v.O.5.5.P.XX9.L ' R.M.A.b.1.e.| 4.b.b.!.m.g.5.A.W.b.8.| >.v.[ A I o.O.O.j t j _ | | | | G G [ G n v u @     ",
"j.Z.>XaXxXtX+X+X[.}.{.{.[ n ..b.4.4.4.2.b.#.u.r.w.` X.~ ..w...` ] c n n @...2.5.m n Q L ] i ; - - $ $ e ; $ X .     . . X . - - o o @ $ - ; - ; ; e : : i g n v c F j ; e t u u k g c b g 9 0 = e f n z z y g _ L n G n G c c z G O.O.L G [ I G L G F F f j k v f F O.[ j g f u : e e 1 t 1 - g G } L n U h t t e j f i u i n i f u u 1 ; ; ; 1 ; ; e t 1 ; - 1 u u u u u h u 1 1 t < - X X X X . . . $ % 7 e e e e e r r p a ) #.r.t.#.#.X.) b ( ) v 7 # +     .       .     . . . . O O O o - - $ X $ < h G G P Y f.g.f.g.f.v.&X6X~.N.<.+.I h < - . . . O . O . O O . . . . . . . . .             . + 5 5 s s s ! ) ! ! a p ) %.].r.( a y y 7 % $ X . . . . . . O X $ - - - 1 1 t 1 1 - $ o - $ $ - $ X $ $ @ o X < e 1 ; < 1 u Z f u h f I I [ o.I D I [ } [ +.o.[ G I I I I F I G F G F f u 1 g g g L n g e t t t t f u u G U [ [ m ] N c n c p g y i g i t z t i g t y i j j u _ 3.[ j e - @ @ X - v } _ O.[ m _ n j _ c L g U O.I [ G G v n O.B.g.V.y.I.tXXX3.2.8.6.B.b.W.W.6.*.v.b.B.H.M.M.E.}.n.8.' A.|.8.G [ >.} O.h u G ] } 2.@.@.v j _ _ _ y $ .     ",
"V.u.@XtXaXiXtXtX}.Z.4.2.| F 1.b.n.v.2.n.u.w.;.r.....X.r.C.A.8.G f G L v [ _ | 2.2.| _ | _ v : ; - $ ; 1 1 $ . .     . . X . . @ @ $ $ X @ $ - - ; e e : : g j j n b b i u u u j F n c n v j y t t j m n G m g c L n F J G z b G G } 1.>.G v F G G _ G G F G n F F n F F f f u e : ; ; 1 k u : F F U L L n u 1 < t v [ j t t t 7 c i u u 1 ; $ ; ; - ; < 1 ; 1 t u t 1 1 u u u u u f t - $ X X . . . $ 7 y y y y r e e e y r i b { #.#.{ ..X.) b ! ) b r e 7 $ X .           . . . . . . . . O o X . O - 1 h F A Z A Y +.P +.l.j.$X$Xf.+.P H P A 3 - . . O . O . o . O O . . . . . . . .           . + % w s / $.$./ ! ) ! r s / a.2Xa.) a p r 7 % $ $ X . . . . . . . o $ - - ; ; ; < < - $ o * $ $ - $ X $ $ $ $ @ t f 1 e h h u f n k F F H I o.,.+.I I o.U G o.5.[ G J F J I G J v n _ G k h u g g j L n n t ; : ; : n j n [ L | 1.[ ' n y c n _ c g t 7 y j G y t i e t v G c n c G G i g ; ; . X ; v L } _ G } G c t _ c L b I | } L G G G _ 5.A.A.b.P.+XtX}.4.w.r.2.1.b.Z..XoX] _ 8.v.O.8.E.|.|.n.3.m A.E.B.5.[ [ [ O.k h k g n @.5.J f v _ m z % @ . .   ",
"V.P.[.tXnXkX>X[.w.8.| 4.1.O.u.A.i.2.y.E.2.Z.-.` 1...! q.Z.A.1.] n _ _ G ' 1.1.8.4.e.1._ _ f : ; - $ ; e ; - X X     . . .   . $ X @ @ X @ $ @ ; : : : e t e t i g i g z v F v c G L G b v j 7 t t g m v m G v y n G G G n g c G G G O.O.G i v F n _ _ J I o.G G n c n t f j u t ; - - ; F n j F U U | o.F f 1 ; t k I F t < t i v j u i t ; ; $ $ $ - ; $ - ; u h u u u u u h h h h u ; $ X X . X ; y v v a i y e e e e e e t i D G K K K K v a b ( b a r y e ; . .           . .   . . . . . . . . o 1 1 h F F C h H Y P P P <.l.h.<.Y S h A h 1 - O . . . . O . .   . . . . . . . .         . . @ 5 p ! $.%.'.%.$.$.) a r s / '.'.%.E s p r e % % $ $ X . . . . . . O o - - - - - ; - - $ $ - $ $ 1 $ X X $ - $ X u n f u h h t u G I I I I I o.O.O.o.o.o.H F I O.[ I G F G I I G Z k G F F f j j g g n L c f ; ; ; : j g n L g L ] 1.] m i g c [ _ c 7 = : t m m 9 t t 1 i n m m c m n g u : @ X @ ; f G | G L ' c F j n m ] n G [ } } L } | 1.e.t. XZ.I.>XkX;Xn.w.b.R.] [ b.S.}.| ' v.b.A.A.|.P.U.9.L n 8.V.M.O.I [ [ L 1 f v j z G G j 1 t j % ; : $ . .   ",
"8.n.7X7XiXaX-Xu.E.v.5.O.b.A.e.W.I.S.Z.{.r.w.2.~ ] _ ] 2.b.Z. .1._ G | G 8.e.b.b.4.e.4.| L g ; ; - ; 1 : ; $ X X     . X @ .   . . . . . X $ $ @ @ $ $ ; e : u j t 7 i i c F n g m m c G g i 0 7 : 1 z m m G m n y m G F G n n F n G | I j v F v F I G F D [ I I I G t e f n j j : - ; * u n v G [ I >.O.F i 1 ; 1 j G G f ; u F G F i j u - ; ; $ $ X $ X @ * u h Z h h k k F F h u u < $ . . X ; j G { _ G v y t e e e e e e e u Z D i i i i u i v i e e e e ; X . .                           . . < 1 u h A Z h u C C h h A H +.+.P C 2 3 1 3 3 , $ . . . . . . .     . . . . . .         . + @ % r b $.$.%.%.%.$.$.! p r s / %.%.) a s p e 7 % % % ; $ X X . . . . . o o $ $ $ $ - - - - $ - $ - 1 $ $ X $ ; X X t k f f t h u h F G F I o.+.o.O.O.o.I J G I G [ [ I I I F J _ G k f F F F n F G f e j _ n k 9 9 ; $ : : g c j m ` ] _ _ m c m v c n y 9 ; @ g m y : : : : y g n ` ..b e e % @ @ - ; v G G _ G c L j v j G _ L F G [ | O.G y _ 1.r.{.oX|.6XsXaXb.2.8...G G r.I.u.1.] E.}..X;XE.e.y.-.} _ } 8.x.O.G I >.F t u F v i G _ F ; $ t 7 t 7 @ . .   ",
"8.L.%X+XtX+X;X.XD.n.v.v.E.A.b.r.}.Z.#.i.Z.q.y.1.b.` { w.b.2.| 8.] n _ _ v.}.R.A.y.b.r.( _ j ; - ; - 1 1 ; $ X .     . . X . .     . . . . ; - $ @ $ @ ; 1 e i j u n L c n z z g g z t b z j j j e % 0 m G G m _ G c c G [ [ _ b m _ } [ c n k k k G F f f j [ [ U F f u u k u n u 1 : $ 1 j F G I I } O.G h 1 1 ; v I I f ; ; e k k u e 1 : - - $ X . . . . . 1 k A F F H F [ [ k u 1 , $ . . $ t F } @.@.[ D i t t 1 1 < < < < < u u u u u u t i i u e 1 1 < $ O . .                             O u u u u h h 2 1 u C h 1 u u h 2 , , , , , , - $ $ o O . . . . . .                   . . . + % % 7 y b ) ) $.) ! s p 5 8 s ! ) ) a s s r r e 7 ; ; : - @ X O . . . . O o $ o o $ - - < - $ $ $ $ 1 $ X $ < 1 $ X 1 u e u u 1 t k U I F I o.>.o.+.,.O.[ F G I I I I I I F C F G G u 1 j k G U F F j g j n n n g g 9 - @ - e f g j ' ` c m L _ m y = 7 y y $ ; z 9 y : : @ X @ t m | | j t g u ; @ @ ; g z b [ | [ L j j F L ] L k v [ O.5.} m 1.3.R.U.XX-XtXtX;X{.4...] { O.2.b.u.r.2.I.{.+X;XoXb.1.} 8.| G | x.| I G 5.G t : j G _ _ G z @ . 7 u ; ; ; @ X . ",
"k.B.XXaX7X[.}..XI.n.y.y.L.R.E.2.u.Z.;.2.u.w.w.w.` m m { r.3.@.@.] _ n @.n.2.| v.y.e.4.' m i - $ $ X ; 9 ; % X .       . X . X     . . . @ - @ $ @ - ; : e j g g j L G y j j t y c c z g v v z i f f c m c m _ ` ` y t G | [ c y c } } G v v u g f k f 1 u n G I U n F k t u 1 f n f : : ; j F G F G } } G j h 1 t F G F f 1 ; : 1 1 ; ; e : $ @ $ X . . . X o u k F H G U G I [ k t < - X . @ 1 j G } O.5.o.D u 1 < < $ $ @ @ @ @ $ $ % < < < < < e < < < , $ X . . .                             . < 3 < < 3 1 3 < , 2 h u u t ; : 1 - - < - O O o O o O . . .   .               . . . . . . + @ # % 7 e e p a p r r 5 % 8 s E s a p w y r e e e 7 e e < $ X . X o o o o o - $ o - - - < - X X $ $ ; $ $ $ 1 e $ X u 1 ; - u ; - h J I I [ o.,.[ G G f F F Y G F J G U I F u f k k 1 - f k I I F v F n h u u j v c y 9 ; ; g n n g m m z y c m n g t 9 e 7 = 9 0 0 : 9 9 ; @ @ : z _ [ b f z c f ; ; : e 7 y G L [ c n j n n G G F n I O.5.O.O.| ] n.Z.I.OXiX;X.X:X}.@.G 5.8.2.t..XZ.4.U.}.[. X;XA.| b.E.1.G } 5.| | _ [ n v t t _ 8.{ i y ; . @ e ; ; $ @ . . ",
"j.B.XXzXkX;XoX.XI.n.4.8.|.b.E.b.w.t.Z...r.1.@.w.w.| b G _ ] _ m ` ' [ O._ ` w.P.r.| 3.| _ @ ; 1 $ X $ - = - o .       . . . X . . . . . X - @ $ @ @ @ : t g b y n G F y 7 t 0 y c g y y 9 i j j f j _ _ z z m ~ _ 0 0 m [ [ g j c O.} j c j f u u u 1 - ; j v G I F F v u u e j j u t e < u n n k F [ [ G k u u t v n F u ; ; - ; ; - ; e ; X X . . X X X X - h F I I I I U P H u 1 - o X X ; i F _ O.[ o.J h 1 - $ @ @ . . . . + @ $ $ % 7 7 % % % % 5 # + + . . . .   . . . .                   . , , , , , 1 h h h H } 7.j.F.Q.Q.m.7.' f ; - o o - < < - . .               . . . . . . . . . + + + + # % 5 5 5 5 % # # 5 r p r r e r e e e e e e e e e < $ X o o o X . o - $ $ - < , , $ O X $ $ ; - X - 1 < X X t t 1 < < ; $ h F v F I o.} G j t u u f I F D F G [ [ I j u f k u ; t u F F F F G G 1 1 1 u g j i t : t G m m L ] [ _ y y c n t : ; ; t t : 0 y y y g t e ; 0 m { G G n G c c : : : g n c c m m m j c G c G G L v I | 1.} } | ....U.OX+X+X6X;XoX Xb.{ ] w.S.b.[.+XS.S.{.2.E. XE.1.v.A.5.| *.y.5.] _ 1.5.n t j G { G g = e ; X . @ @ . X .   ",
"B.Q.5X6XkX>X;XP.Z.U.p.y.P.I.Z.u.e.2.y.] 2.1.' b.b.` z _ ( ] ] @.m c 1._ b b 1.b.A. .:._ g @ e 1 $ - 7 : = @ X .     . . . X @ . . X $ @ @ @ ; : @ $ ; t y i j g g g i = 7 7 9 y j y y g 7 t b v j v ' ` c c c m c 7 m G _ [ c I F [ L G v g f f e e 1 1 1 u j F n n f k u h h k u ; 1 e 1 f k f h n F G I F u h u v D F 1 1 ; $ - ; t t 1 ; - $ $ o X $ - $ < h F I U G G G F C u < - $ * ; t v J O.O.I F u 3 $ X . . . . + + + & # # 5 8 r r 8 s s s s w 6 6 5 + .       . . . . .             . $ < 1 u 1 u k I ] V.XX~.eXpXbXMXlX&XZ.y.8.L j 1 - < t u u ; . .           . . . . . . .     . . + + + # 8 w w 8 7 # & + # 5 5 5 % % 5 7 % ; ; ; e e t t t < $ o o o O O o , , - < 1 1 , $ . X $ $ < - o - 1 1 @ X u k t t u 1 < f j D v u f v L I F F F k k f f i j G G I G k j k u u u t f g g n L G 1 ; : t j v u g i j m m [ | | [ 1.L 7 g G : ; ; t g c g 7 7 y z y 7 z n g _ @.[ _ | _ c t t e e j g G _ c n G [ m ' i G _ [ L G ] O.F _ ] n | i.OXZ.U..XoX X.XI.2.` Q u.u.r.Z.E.}. X;X}.}.A.e.A.b.A.e.4.b.n.1.1.{ { G i i b G _ _ n 0 e % @ @ $ . X     ",
"N.E.jXaXtXiX+XI.}.n.I.w.|.}.[.u.A.2.b 2.| ' _ 1.2.z m _ m 5.` 1.2.] _ _ ` ..2.] ..] _ ] i e : u 1 < 1 ; < @ . .     . . . @ @ . . $ - @ @ ; : e : ; : 7 y t 9 y y 9 9 0 7 : : = 7 i j y i t v G G [ O.| b ( _ m 0 7 m G L [ n o.G c G } v i j j f h f u u u f k g u j n u k n j j u e 1 f h u h k n n v I G Z Z h f f u u 1 : ; - ; t t < ; e 1 - - X - 1 ; : h F H F k k C h t < - $ - u f f F I o.o.G u < @ . . @ + @ @ & & 5 6 6 6 6 d s s s E / / / E E s d 6 # + .   . . . . . . .       . X < 1 h h k F I | V.$X*XE.R.XX5X5X$XR.7.g.V.O.F h h u h F k 1 $ X . .     . . . . . .       . . + & 5 8 s / $.$./ E d 6 6 5 5 5 # + + # # # $ # $ % e e i i u < $ O O . O o , , , < 1 1 , o . @ @ ; ; $ $ - ; 1 $ X ; h u u h h u k v n n u 1 u n G I F k i f F G I F G G G G I G f f h f u u g j v F n < ; e u j F t t j g c n ] ] L G | } z t c e ; : g m G G f 7 y c ; ; g c c ] ..O.| 1.G i 9 g e ; n _ z m m m g m N [ m _ ( _ _ [ { G j j G L m e.OX}.U.;.S.}.}.b.e.r.2.2.4.1.' ] y.:X>XoXA.r.P.b.2.w.u.e.r.v.b.v.5.m _ v i g _ c [ n c t 7 = e $ X X .   ",
"g.Q.0XaXiXyX7XZ.}.I.U.}.I.E.oXn.r.e.....z ..Q t _ m m m = m ..w.u.@.| O.8.S.A.q.] L ` ' N t : 1 ; $ ; : : $ . .     . X X @ X X @ - @ @ @ ; e ; $ $ @ % 7 9 9 i c y 9 7 ; 7 7 7 7 t g i i j n F G O.5.1.| { ..[ g 0 z b L _ n L G b G } F i i i f F F u u f f u n v k n j f g j v u 1 < t u f j G F G G G F Z k f t 1 e e u u u ; - 1 e ; ; 1 < ; - $ < 1 - : f h Z h u 1 1 ; * o o - u L [ G _ } I H u , X . . @ @ # # # 5 6 6 d d d d s E E E / &.&.&.&./ s d 6 5 # + . . . . . . . . . . . . o < u h F I I I ,.B.^.~.Q.~.*XjXwXeX=XT.Y.B.7.I C h h C F h 3 - $ O . . . X X O . .     . . . + & 5 8 s ! $.%.%.%./ E s s w w d 5 # + + + . . . @ $ % ; y i f u < o . . . . o $ $ < t 3 , o O $ $ ; ; $ @ $ ; 1 - X - 1 u k h u u h G F f u ; u G } O.v i u v I I O.o.o.o.I G J [ F v h e t u g G v v c ; - e g n n t t f t : G | _ L _ [ [ G n y t ; u c n G b f 9 t 9 0 t y n N ] ] | @.1.G j i j u ; e [ 5.m g i : g c [ _ | ] _ L m z i u c l t L 3.P.oXtXr..X.X.XA.I.b.r.w.A.O.>.1.| Z.|.I.%X.Xr.1.e.r.e.b.e.e.v.v.b.x.' n y b G m _ G c # ; ; e $ X .     ",
"k.^.9X0X>X;XW.Z.OXXXOXU.E.|.E.|.I.b.-.1.b ( | Q ] _ | ' m g n ] ` | [ G y.w...-.m m b ] ] i : ; - ; % : ; $ . .     . . . @ X X @ @ - - @ : e ; X $ $ @ ; y t c c e i ; = 7 0 t 9 g c t g v j D F [ O.O.1.5.5.O.z y n y G G v v G b G O.} j t t i c G f k v f f L G u h j t u v n j 1 1 1 u 1 F G G G I I h 1 1 u f 1 ; e e f j 1 ; : e e u 1 ; - - $ - 1 - ; u u h u < - - - - $ - u L O.7.5.5.>.P C , .   . @ @ @ # # 5 6 d s E E E W E W / / &.%.%.%.%./ s 6 5 5 # + @ + . . . . X X X o O O - 2 h C S P I O.V.Q.=XeX9X=XjXSXSXAXvXeX5X~.j.I h h h h C h 3 - o o o - < - o . . . . . + + + @ # 5 8 s ! $.%.%.%.&.E E E E E E d 6 & + + . . . . + $ % e u f f 1 - X . . . . . X - , , , $ . $ ; ; ; ; - ; ; t 1 X - u u k k t u h F k f t 1 k I 7.7.o.F u j F I o.o.o.[ [ I F [ I G h e 1 f n _ j 1 u ; ; t f L [ j t f u ; n [ _ _ _ G m G G t 7 7 c [ G c g 9 9 y z i g N ` _ ' G b L [ _ v j j e 1 : y { 1.c 9 7 n n z _ 5.5.1.G m n i - c m e c 8.-.[.7X.X{.>X>X}..Xr.w.u.e.m.8.V.w.| w.I.;X:XA.5.8.w.b.8.y.v.1.b.x.b.2.G _ c g g c b c v t 9 $ X . .     ",
"m.Q.*XqX7X-Xy.U.y.y.OXZ.Z.I..X{.|.A.1.1.m c ( ` 2.` ..b.4... .] w._ [ [ b.] z m _ ;.c 3.] i e ; ; ; e ; @ X . .     . . . @ $ . @ X @ ; - e e $ . . @ : 0 i f i t 9 j t 7 0 0 t t y y i v b j k v L O.O.1.6.5._ j y z 7 g n v b G G } 5.} b e t i i v k j n j F [ I h u e u u e j n u 1 - ; ; F [ n F } G h u u f j k f h u j j g u u g t u e 1 1 - $ $ ; - ; f f k f u u k F L F j G 1.1.8.v.x.O.H u 1 $ @ @ @ $ $ @ # 5 8 s E E E W / / &.&.&.&.%.%.%.%./ s 5 # # # # % % $ @ X . o - - < , - , h S S P o.>.R.W.=XmXNXwX9XMXFXFXSXmX9X$XL.7.I C h h h 2 2 , o - 1 1 1 1 , o . . @ $ @ @ @ # # % 5 8 s E / &.%.%.&./ / / / W W E d 6 & + . . . . . . @ ; t u h u < - $ . . . . . O o , $ $ X $ $ - $ - - 1 - f u o ; f h k A k k h f k f 1 t F o.5.7.,.F D v u j k D F J I F F G F F h 1 1 k U [ F u t : 1 t j L } v g e g 9 t G | _ _ n n n _ g y 7 0 _ G i t ; t n m G n m _ | ' G v n [ L z v j ; - 1 c O.[ F b e b n m O.8.] | ] ] [ g : 9 g g i v. .X.XX;X.XoXOX XI.r.2.Z.2.1.v.B.A.r.*.Z.-X|.E.b.M.V.w.2.1.v.| -.e.A.b._ [ G b b c m z b u u % . . .     ",
"m.Q.*X}.iX-XU.}.i.v.XXy.Z.A.|.}.A.E.A.{ G G G 2.e.] { 5.4.4.4.x.2.m k I 1.{ c 7 _ w.=.' 2.c : $ : 1 1 $ $ $ X X       . X $ $ $ @ . @ : : 7 @ . . @ : t y i i t * 9 n c y p y t t y g t i z i i D G [ 5.O.O.| L G z y c c i f F G G [ O.G n u e i g t u k j j v [ [ j e : ; < ; g U n g ; u 1 t I G F G F Z h j u k F j k k u j k u f u f u e 1 u 1 ; ; < ; ; k F G G k [ 8.5.8.4.| | 5.8.8.8.8.Y Z v G z y 7 ; % $ % 5 5 8 s E E W E / &.&.&.&.%.%.%.%.%./ s 5 # # % 7 e e 1 1 < - - 1 1 1 1 < 3 2 A P } [ o.5.g.B.L.R.B.N.~.9XwXqX9X~.j.f.>.I A h u 2 3 , - o - u h h 3 o . O $ $ ; ; $ % % 5 5 5 8 w s E / / &.&.&.&.&./ W W W s d 6 # + . . . .   . @ - 1 u t < 1 1 - . . . . X - 1 - $ . . - - X @ - - $ h 1 o i f u t k h f h t h h 1 t I 5.,.o.O.I I o.F ; ; f G J I G G G F k u t 1 D [ O.G j j t e g j n _ c j k L j y n [ G b n c j G G n y ; y j e : 9 9 t i m m c M _ _ n v n n v j k k 1 1 ; t F n c b t z G G ' | 5.[ O.| @.v - e L n m Z.y.^ n.tXaXkX>X[.I.w.1.w. Xb.2.b.oXI.p.4.b.E.A.A.E.B.2.w.e...O.m ' 1.2.] | _ G _ ( G G g t t 1 $ X .     ",
"Y.~.&XU.7X%XE.I.Z.i.U.Z.4.2.W.}.e.b.Z.8._ _ ] 1.e.8.8.] 1.2.4.8.' F t i ] b._ y ] -.] ..1.c : @ : 1 < $ ; $ @ X     . . . X X @ . . X $ ; ; @ . . ; 9 ; ; % t 7 = t l c c z z t t t j t z i j j F F G | _ G | [ G c g c m t : j I G G O.G j t t u i t e k L F z o.I j u e ; 1 1 j G n u 1 j u : e F I o.F u h h i n k u f D j j v f f t g f u 1 1 < ; < ; 1 $ k G | } } 5.B.B.B.b.8.r.A.M.8.+.o.H G _ { { G j i t ; % 7 8 8 w s E E E / $.$.$.$.%.%.%.$.$.) a e 7 7 e e t t e u h i u h h 2 2 3 , 3 u A I I o.f.m.R.~.^.~.$X5XpXpX9X=XY.f.,.I F h u 2 3 , o - , , 2 h 2 3 o $ * , < t e ; < e 7 7 7 r s s E E E / &.$.&./ / E E E E s s 5 # + + + . .   . . $ < , 3 1 t 1 $ o $ ; 1 t 1 < - O . @ - o - < $ $ 1 $ O n f 1 < u t t t u f u 1 u I 5.,.O.>.o.} O.I k f k I I U v G I J k f f t k [ } L n j e g j l n G l i L } c u z c G c v c g y i G [ g 7 ; ; 9 t 9 l y z y z x c n g f c c g j v F u ; - : ; g u i u ; c { ( G { 1.{ ] ..G t t | m 4.XXP.:.i.U.6XbXmX:X8.6.5...{.}.2.] Z.{.u.-.| E.b.v.S.B.x.8.4.2.O.G G G | { | 1.{ [ _ ( [ j t e ; $ @ .     ",
"N.~.oXD.p.|.A.y.| ] e.A.E.E.I.;.c m ' [ G G 5.b.2.| | e.4._ 2.r...v < j 1.2.1._ ` ] z _ 2.n e 1 ; e : $ @ X . .     . X @ X X X . . . @ ; ; @ . . $ 7 y = @ ; = = g c t y g y t u : t i c v j j k n j n n L [ _ _ _ g y g 7 : j I I G } I v 1 t t t t 1 t G F v [ F f j u ; 1 u F n g 1 1 j k i f t u F g 1 : u h v j : 1 h f g j u f e u u t e ; ; - - - 1 ; k I | >.>.7.M.L.B.B.b.S.A.g.,.Y P F _ | @.5.O._ D j t e r r r w s ! / ) $.%.%.%.t.r.K.t.X.#.#.[ i i b G v j k h h F D F F C h u u 1 3 3 h C F J O.v.E.XX5XqXpXuX9X5X~.Q.m.>.Y H h h 2 3 3 - o - < 2 h C 2 3 , 1 u 1 u u t t i i y r r r a a s E ! $.%.$./ &.%.$.E E E E s w % # $ # + + @ @ . . X $ - , 3 1 - - 1 u v k u 1 , o . @ @ - 1 1 - $ - X . A g u 1 1 e < 1 u u 1 < 1 k G o.,.5.o.o.+.I I v k F I G f F G G j F F i k G _ U n g t g n n n j n t m n n g c c c b j G m c j G ] _ : : t t f 7 i 7 7 7 7 z G n c g z y y t u F u ; : i ; e u u f u g _ _ G ( { ] | { [ L G G 3.2.}.Z.u.OX+X7XlXMX0Xv.} [ @.r.b.n.w.i.I.Z.] _ 2.r.1.v.b.e.n.c.x.@.[ j F _ _ { 2.@._ ` | _ n z e e - $ .     ",
"v.B.*XoXE.-.` _ 2.2.n.8.Z.E.E.-.m ~ 1.c e e _ @.{ z G 1.e...2.i.( i t c e.] ..e._ _ n 2.1.n : ; ; ; : : $ X .       . . @ X X X @ . . $ $ ; $ . X ; y j 7 e ; = 7 c c g y c y g g t e v g j i e t f i j n G [ [ [ m t 7 y = : j G [ G G G G t u D e t ; e F G F F F n j e 1 u u F k f 1 1 v G f j i : t e : e e e n j e : u f k n f u 1 t u e e ; - - - - ; - h I o.>.5.f.m.N.m.m.v.m.g.<.Y o.| ..@.O.>.5.5.1.O._ v i a a ! / $.%.t.t.p.2X1X X].@X-X{.C.S.D.6.( I 5.1.[ J H Z C A F H H C C C Z h h u 2 h h A I 7.B.XX:X0XpXqX:X$X~.$XB.o.P F h h 2 3 , - - 3 2 h C C h 1 < t u k F F v F G G F v i i a K b ) $.%.%.$.) %.'.%.$./ E E E s e ; % % % $ % ; $ @ X O o - 3 u 2 3 t u v h u 3 , o $ $ @ - 1 1 $ $ < X O h u u u u u < ; t u u 1 1 f n F G o.[ I I F F v v n G G G Z j j f F I F k G G G F j g g m n j g n j n c n b c c z y g G _ n m _ [ | t ; : 7 i 7 : 7 y y c m t g i y y t t 9 ; e e e f c : 1 u G n u G n _ _ _ | _ ` | @.{ _ ' 8.i.n.}..XtXoX%XlXpX6XN.I } | ] 2.2.b.y.Z.Z.[ G [ 2.2.3.v.b.Z.M.1.| O.F n G b | @.| [ ( m v b b y e - X .     ",
"5.g.R.>XE.2.4.V.E.b.4.y.` B.A.Z.y.( y n F ; g z 9 z 0 _ v.e.2.w...F v v 1.....` ] 8.| 5.1.n t : < 1 e % $ X .       . X @ @ X @ $ . X ; - - $ X $ : j j i e e 7 y _ _ m z z c g f t t F j t t : 1 u u j j c _ } ] c 9 t i : = g F I F v F G u f F u e ; t j v c k F n k f : u f k u u f k F n u g f i t : : f k f G v i e e k G n n h u u u e u 1 ; ; - $ $ $ h F I [ O.,.5.f.,.,.d.d.<.o.[ @.c.Z.8.o.o.+.O.6.5.} J F v b ) $.#.r.].].].fXnXiXE.S.|.H.M.N.v.1.I o.8.8.o.G F C C S S S A F H F F Z h A h 1 1 h G 5.B.W.|.*X6X&X&X~.~.&XR.} A S h 2 , , < < u h h C h A k h h Z I ' I } O.5.e.6.O.@.| | [ J K K K $.r.r.#.%.].t.%.%.%.#.#...K a p p r e e 1 ; ; e ; $ - , 1 1 3 u h F v u , , X o $ ; 1 1 t $ - - $ . ; u 1 u 1 < ; ; t h k u h Z G v j F I F k u v F v F F F F h h u f v G G v F n F G j c g n c j n n c c n g i c z n b j n ] _ _ ` | 5.j 7 g t j t 0 t z c m c e t t t 7 e t e - : - ; : y 0 g n ..L v n y m Q _ ` { { _ _ { _ G _ 0.Z.oX7X>X7X;XkXmX Xg.J o.>.[ | ` n.b.v.8.G F | [ L | 5.w.A.Z.5.8.6.G G _ _ _ _ G n b i e e t i i : X X .   ",
"O.g.E. Xv.n.W.Q.!.8.4.e.2.Z.b.v.v.1.v j u 7 _ 5.m G m O.v.w.] ;...j j m ] ' ' _ v.8.@.| L i e 1 $ $ ; ; e X . .     . . X X X $ ; @ X - : : $ . $ 9 y t t t g i L 8.M.1.n z z v j u f n n g g e u g t j n k L [ @.[ i j g i 7 y b G F v F G j u j i e ; e i g j j v F f f t j f h u f j j i u 1 e j j u u e i n j F F f e u k G v j u 1 f f e u 1 1 1 ; $ $ - h h h F G I Y Y P P Y +.O.5.| 2.b.B.f.Y H H I @.@.} ( G K K ( { X.#.e.8.c.|.*X#XN.6.6.5.o.O.7.5.o.o.,.O.G A S C C C C S P I H A A C h G G h 3 u F | 4.B.P.E.E.~.$XW.Q.$XR.>.A C h 3 , < 3 3 h Z A A F P P S C C S A F } B.~.|.E.E.{.S.D.e.| J F K ..].].].].].D.].].].].D.c.{ ) ( x b b j t - < G F i 1 - - , , 3 2 F h 3 , - X $ ; t t 1 < - < ; $ . - e - 1 1 ; ; < u h Z h h F I G G I I U F k D F G I j F k u h t u v F F G G U L G c n j L n v G n f j n g j b c [ } G n _ _ G L _ | c 9 g c c g y 0 z c z z 9 : : t e t u t = $ @ @ : 0 f g 1.8.n y z 7 c m m b ( | G c c g g m 5.9.+X.X4XXXOXlXmXE.} o.8.O.I O.1.y.Z.b.v.O.L 5.] | e.] ] 2.y.2.e._ G z _ ] [ _ _ G F z t ; : t 7 ; . . .   ",
"[ j.|. X%X|.S.P.Q.e.b.-.4.B.b.c.@.>.k j e : b | 5.@.| 2._ ` .._ ] G g _ _ z n | A.v.y G G f : @ - ; ; < 1 $ X .     . X X X X @ - ; ; ; @ $ $ X ; j n i 0 0 t j _ 8.8.5.G c c v j i f u g t g g u g t j n F [ O.@.[ c i j c i 7 c I G F F G F k j j t ; t t i g i j F j e u f k n F v j e u e e i g j n k j j j j L n j e u v n F k u e e f i t 1 1 u t $ @ - 2 1 1 1 u u A P C F o.e..X;XP.8.g.l.<.H h h F [ [ J G F D b G ( | 2.x.6.5.f.f.f.O.o.+.o.I o.o.[ I I o.} G Z C C h h h F o.+.H S S C C G I F u u F } e.R.E.R.R.~.$Xn.8.m.g.>.F C h 2 3 3 2 2 C S A S H P Y P S C T Y P P Y Y Y ,.1.1.5.5.5.2.2.o.[ [ 5.g.7.g.7.5.2.A.{.A.b.@.G ( G v F G v u 3 3 U [ F j e < , , , 3 3 3 , o o O X - 1 < - $ - 1 ; - X o e < 1 1 1 ; 1 h h h h u Z G F k G G G G F F D G I D F k u j f h v F F G I [ O.L n n m -._ n v F f j c g j G m [ | L | ` _ _ n c _ c y g n m G n t 7 y m ~ g ; ; : : e : 7 7 7 - @ ; f g y x.V.m ; x 0 Q ] m { b @.| b y t ; t [ 4.[.+X[.XX0XlXkXy.G F 7.O.J I O.y.u.b.M.7.5.A.b.2.2.e.| 1.w.2..._ z 7 b .._ { { | { G b t t : : ; $ X .   ",
"o.8.E.6X-XW.R.~.|.P.b.M.2.y.e.v.x.5.F G i : g m 6.x.| 6.( 2.2.` ` _ u g M 1 : 8.b.] 8.>.} v ; @ $ $ ; e $ ; - .     . X X . X @ ; ; ; ; : $ @ X ; g c y ; y g g m ] 5.G c i c n f g e u u u g j g j n n G [ [ } | m m j n j c y i L I G G G F F k v k e u g c g g i n v g f n n g j c f u u t e j j c G v n n j i b v i u j v n k k u f e f h e 1 1 u 1 $ @ $ h 1 - ; ; : n L L [ | x.|.&XB.f.f.5.O.G j t i G G F F D v v v F G _ o.o.o.o.+.Y H F F F C Z H o.[ F D F F I I A h h F [ >.,.Y S C C C Y 5.o.F u u G >.b.W.B.g.g.g.5.7.j.g.+.F C C h 2 h C C C C S S T Y Y P C C C S S Y Y +.+.+.+.O.O.,.8.D.J.8.} G [ } [ I [ O.@.c.x.1.} _ F b b k v v u 1 , 3 C F F F f 1 - $ , , 2 1 - o o . X $ 1 < - $ $ - ; 1 $ X u < 1 1 1 t u j u u u 1 t f F j k F F j f D f k F G J Z h F Z A F F G L _ [ [ _ n c L -.' n n v z G g 7 i m c c G L 1.4._ ' c n L m m j g n _ m t 7 g m _ g 1 ; e u g : t - ; ; @ $ 9 t m @.x.5.z z c 0 _ _ ..] 2.{ b j u i t g 1.OX+X+X+XpXbXbXB.[ F O.O.I I [ 4.b.y.E.V.5.n.Z.2.2.u...2.8.2.m | _ m p { _ ..{ _ [ n m j t e 7 ; @ .     ",
"o.g.~.:XS.Z.A.A.I.E.A.A.` b.b.e.e.1.O.[ 1 e c G 6.5.[ 2.] | 8.2.` J J V.p.Q c 5.M.1.v.O.c 7 @ X . @ - ; $ ; $ X     . X @ . X ; ; - - : e $ @ X ; : 9 7 7 0 y y g c L G n g g f u v F g t 1 j n c n n F F [ [ [ m z i i c n G n y i j j G F F F v k F u u G v g g i f g g f v F i f j g e u e u k v j F F F G j v n F u f G F F n n h j f f g u ; ; ; ; $ $ $ 1 t ; 7 e t U | 4.c.1.>.G.~.|.R.B.e.r.r.] j i i j v j j j v v v F G G G Z h Z h h u u 1 1 u C H H F G U } O.} F h h I +.+.+.P S C C C P O.o.F u t v [ 7.8.7.7.v.d.,.7.5.,.o.F A A h h S C C C C C C S S T S 2 2 2 3 2 h C C C F G J I [ o.O.5.o.F D F J G G J _ ..@.+.[ [ I k i i t e t 1 ; $ , C A Z k f t 1 t t 1 u e ; - o . X $ - ; $ X X - - 1 $ - f 1 1 u 1 u j F k h u 1 1 k k k k Z F u u u 1 f k F I F k F F n F G L _ G ' ' _ j j G L L n n c c m t 9 y c c c c G [ ] m n c m ] ] _ F j n _ n y 9 z ` ' : - : t f l g n i : ; ; $ : 7 _ 5.m O.[ c z z y m 1.8.@.O.G i u h F k | s.U.@XtXaXbXkX|.v.,.g.>.o.7.g.B.n.2.S.e.5.4.-.r.Z.t.u.2.q.6.| Q _ c 0 ( @._ ] { _ G j i 1 1 ; ; @ .     ",
"+.k.!.|.#XQ.~.$X:X#XE.b.w.Z.n.-.e.@.1.1.L [ L | 8.1.` 1.1._ e.y.| J I ~.yX.X4.7.6.x.x.{ n : @ X $ - < e $ $ @ .     . . @ . . @ ; $ ; : : : $ X ; ; 0 7 7 y y t 7 y c G z i e u u F G n e 1 g v n F n F G _ O.O.G 0 e i g m G L G c ; ; j j j k F k D u h [ G f g j j f e 1 j F F k n k j f 1 u n F G G G j v v n G L j g F v k v [ [ n e u f t - $ - ; $ $ - h k u u A F [ 5.v.b.7.,.f.~.iXtX{.Z.A.C.w.{ v i t i j t i v b v v ( ) G j u t t t t i j v f h H o.[ G G } O.P Z C A I Y P T S C C C h C P P A h u f G O.5.,.,.g.7.m.B.V.7.>.U Z A h Z A C C C C C C C C C C 2 2 2 3 3 3 1 u f f f j F J J +.+.H A j j j f j v b G I I G v i t t u e ; ; ; ; ; - 1 u h h h h h Z k k F f u 1 , X o $ $ - - X . $ - ; o < k u 1 1 t f n F G F h t t D F k f I J D j j 1 u f k J F v v n k n F L L G [ ] m j n G j L m c l z n g y y m G n n m n L v i j G ` Q [ G j j m m g ; z ~ m : - - ; : u f n n g t ; @ 9 g m ] _ z 1.@.| G 0 c ` 5.b b G j f k v G g.b.U.[.U..XaXiXE.v.5.5.4.1.V.W.|.A.w.t.1.O.5.8.;.S.w...2.e.B.b.8.{ n G n [ G c _ m z e e ; e 1 $ X .     ",
"O.8.~.&X#X&X|.|.Q.A.y.V.P.A.b.b.e.8.5.[ 8.5.O.| O.O.5.2.b.] b.e.L Z J M.;X-X8.O.5.8.5.5.m @ u 1 < < < t : X X .     . + X X $ ; @ @ @ $ $ : @ @ t i 9 9 ; z y ; $ : y g i t e : e F F F f 1 1 j j n F L _ _ [ } _ j t t t y z z z j ; g G F j k F n F h f I o.Z j n j g u ; f j k f u j f g f h j j n n v n v F D _ G j u G n v F } I D < : u t ; $ $ $ X . - h G I G H P >.7.7.M.b.5.@.x.tXxXnXnX:X#XE.e.G i i h i t y v b K b ` t.2.j y t i j j v F L n h Z F F A A H H C h 2 h S S S H F A F G h 2 A I F F h 1 k I >.8.g.B.R.0XqX6XP.e._ F Z h F S S C Z 2 2 2 2 2 2 C C C C h 2 2 2 u h h u j G G G [ I F h y t e e y z ( J F j j i t t 1 1 1 < 1 t i e ; e < , u h h h Z Z G I F h u , o X $ ; ; * . . o $ $ . ; k j ; ; u h F I I G h f f F F F G } I G h j 1 t u j F v v f k F G G L G U _ | m c _ F n n m N c g j t g c m m G m j u u u e v _ _ m m c i v b i 0 7 0 m z ; @ - - $ ; 9 y j j y 7 7 y j ] Q ( b v O.v.>.z 0 x ( [ G g j u F } [ 7.n.P.+X@XoX+XaX|.V.U | O.1.b.}.>XA.B.A.b.O.| 2.2. .;.e.e.6.e.4.2.6.m G _ n j 0 y j j g e t y y : X .     ",
"f.B.=X:XqXA.|.E...y.1.8.B.|.oXE.b.Z.4.....@.| c _ _ 8.m m ] 2.y.L Z Y 8.|.iXA.} >.m y 5.z j h 1 < 1 1 ; $ $ @ .       . : : 1 ; @ @ ; ; @ ; @ @ i y t 7 = g y ; ; 7 t 9 e : 1 1 : f n n f e u g j n G [ [ G j n G n j v 7 i t = % = 7 c } [ G v F n n k u F o.G k n j t ; ; e ; : t u f g j k h u j f i j j j F G G U j f G G F G [ I I f ; : 1 ; @ @ X . . - h A o.>.I F o.5.f.M.b.e.q.x.xXSXHXSXMXlX*XJ.v.} u u u u i F G J G G [ _ k i i u h h C A F C h C S C h h C C 2 3 , 2 S F A F A C F I Z h A Y I C h u k G 7./.R.5XkXbXbXMXqXy._ F Z k F H A C h 3 1 1 1 3 2 2 C S S h 2 2 3 2 h h u h G _ D F F v t y y e 1 : i G F h u u t e 1 < 1 2 1 i v b i 1 i u < 1 2 u h F H F G G A u 3 - X o $ - * . . o o . . 1 G j ; < h f k I I k f k n I G v I o.} H h u - ; i j n v v u f G G G F v n G } n c L n m c n m y y t t c L m m G m j : : f g v n j n ( t t n g 9 : y 0 y g ; @ - : @ ; 9 9 g g g 0 ; g c c _ v _ v c | 1.1.Q 0 c z [ G = u G 1.5.7.R.{.@X;X@XoXaX-Xv.8.8.L 1.P.W.XXZ.A.A.M.O.>.Z.A.r.A.v._ @.2.2._ | ' _ 2.i y g t b G j u t g i i ; X     ",
"5.Q.%X~.:X&X&X Xv.8.7.5.W.;XoXW.E.e.y.2.1.5.( _ ] | 3.y m u c b._ A +.g.|.-Xb.O.[ G m ' c L k u 1 1 1 ; ; , $         . @ t 1 - . X @ ; @ $ @ @ e t y 7 ; i g t 0 i i g y t t t 1 u k k f u g j G G F G _ G G b m n c n i j j j f i t j _ L G v v j f D t j [ G k F j 1 ; 1 u e 1 : e e u n n k f f u t v v g j G G k t f G F F F U I I F e ; : : - X X . . < h F [ >.} H I >.8.B.B.b.S.{.xXSXHXAXAXVXuX~.A.v.} i e t u j G [ [ J J H Z h h C A A A H Y P A C C 2 3 , , , , 3 t h h k A S S S A P G A F o.P S C h A G >.P.&XlXAXCXbXnXbXV.[ F h F G P A h C u h k u 1 u h C S S C 2 , , 3 2 2 u h Z A Z A G F i i u u e 1 i F A h k f u t < 3 3 , < i b G D h D v j i 1 3 2 C A F G A h u 3 - X $ X $ $ X X $ * . . u F i 1 - u F n F k u t t f I G G [ [ [ F u t ; - t i u j v t t G G k j F v j f f u j m L n g n j g n c n _ _ ` b G F i t j G n n m ' L t t n u 7 7 c g c 0 9 9 - ; $ $ t t g n t - ; 0 m z _ { ( c _ _ 4.5.1.p 0 ( m z u D G G 8.B.|.[.p.+X[.I.oXZ.5.y.v.8.4.E.-X;X|.A.x.8.5.6.b.W.oX XA.4.n.A.M.| G ' @.| c c b g m t v i i z i t - .     ",
",.F.=XoX;X&X|.W.S.8.v.5.b.}.P.b.b.A.' ] 8.2...m ( _ ( g z 1.m ..[ J O.1.n.A.b.5.| [ n _ c g h h t 1 ; < 1 1 - .     . @ ; ; - $ $ X @ ; ; @ X @ t f F v ; u t g g t e g g f t e 1 e i j j e e l L L L n F G [ [ O.{ _ n v j j v v v e t j y i i i t u k e t F I G U G u 1 u j f : : u t j n j j u n n j F j u g L L n u u G G n F L } I n t ; ; ; ; X . . . < h A U } I F I O.v.B.R.H.tXNXHXSXNXNXSXGXVX9X#X.XA.{ b e 1 t i j D Z Z Z h h h u u u u h A S h 2 , - o X o , 1 f k F C A H P P S H P o.I I 5.O.o.S h k G 5.&XxXCXAXAXCXAXbXv.[ v h A P P C h h h G I C C Z A C S S C C 2 - , , 3 3 2 u C C A H H u u i Z u u h A C u h h 1 3 , - , - < j G I A J o.} 1.>.F 1 2 h h h C C h h 2 $ @ - $ . @ @ $ - - . . u F f 1 1 1 k n k t u t t u F G G G F G G h u t 1 i j e u v u t v j u f F F e ; < 1 g n G n j G _ ' ' L c m g _ m [ [ g e j _ m m m n j e e c g 7 : y g N y 9 e 9 ; ; ; 9 c n z t ; ; 7 y z m n m 0 m m G 8.6.@.z 7 _ G D D F G  .|.-XoX[..X+X}.n.y.4.-.E.5X:X|.oX7XXXB.>.O.5.| 1.e.R.E.A.r.A.A.R.8.] G | ] n G _ ' ( i i c y i y ; $ . . . ",
">.m.|.oX}..XE.E.I.8.v.8.n.8.v.5.5.2.| | | 5.2.{ 1 7 c : 2.V.] ..[ J [ ' 3.{.8.x.5.G } _ g ; t u e < , < u t $ $     . X ; - - $ - ; ; $ - @ . X : t c y u f t t t t e t c c t e : e i c f : e g c n G F v F } | O.| [ L L n j j f f e e t t : : e t e e : u f U I I [ k u u j k f j F F n n u : u F [ } U F j i f n j 1 1 F F k G U [ I F e ; - - $ X . . . - h A G U G F G O.8.j.B.E.xXHXKXHXbXzXSXPXKXVX9X<X#XM.@.{ b i e t t 1 < - < 1 1 < < , , < 3 < , - - o o o - u f n G H P P Y Y } I P Y o.o.I o.O.5.P h Z G O.&XFXLXLXJXJXJXpX8.L k h C P P Z h h A P P P P P H S S S C 2 2 3 1 t 1 1 , , 2 2 h A C 2 2 2 u 2 1 3 1 1 1 2 2 , , - $ < i j G v.V.} >.R.V.B.~.>.t u h h u u h h h 1 - $ ; $ . . X $ - $ . . u k t < 1 j k n j u f f t i i j F j t e i k k F f j v v j j u t i 1 1 j F F e 1 1 u n j n n L L ] 3.' _ m c z m m G n j t t 0 c c y t g u t j i 7 9 t f _ z i i t 7 9 ; e y y 0 u ; ; 7 y t g m i * z ( m m [ g.x.0 # c j t c ' -.s.U.p.a.sXaXn.` ' 5.y.}.-XyX6X>XXX5.e.5.G } G } 4.8.b.y.2.2.b.R.8._ G G G i G ( | z c j e t = t e ; . . . ",
"f.m.$X#X X XQ.v.M.b.v.8.V.8.1.5.( j b c m m ] c b | p 9 4.x.8.8.I D P 8.Z.{.b.A.A.| _ n y $ X < - X $ $ t t - $     . . @ $ $ - $ e e $ @ $ X @ ; e t t e i j i 9 e 1 : t y e e : 9 j u u : e g n n F G F L ] | [ [ } L _ G n j u f v F G n f e ; e t 1 : u f j F U [ I F g f F G G L [ [ F j u e n [ [ I I I U j f j e 1 k k i k G [ [ G u ; 1 - $ X . . . , h h k h k k F } >.,.V.E.pXHXKXHXSXSXSXKXPXKXmX0X*X-X|.c...) a b v e $ X X @ $ $ , 3 , - , < - - ; ; < 1 u k F F P P P Y o.>.8.7.8.+.o.o.P [ ,.,.I h h D >.0XLXIXUXIXIXJXkX8.U A h C H S C h A P Y P <.} P P P T P T T S C h h k v k u 1 - - 1 3 - , , 3 3 , , , 3 , 3 , $ $ - ; e m ' ] R.!.5.g.).W.R.R.>.C h F F k h h h u 3 - - - ; $ X . o $ - . . 1 f h t t u k k f t u v i e t f k t ; ; ; e u k f i j F I F e t i u t f F n k k k h F k n G _ _ [ *._ [ [ [ m _ ' m c g y t z z g e t f i : t e j y y z m t 9 : 0 y ; % 0 9 y g 0 ; ; @ 0 y 7 ` V = z | m z G { x.B.c X 7 % t n n ` a.+X+XtXuXi._ [ >.A.E.%X6X;XoXA.} } [ [ 3.-.1.v.4.5.e.v.2.5.4.4.1._ b j t G z G G G j : i 7 t y $ . .   ",
"f.^.$XXX$X%XA.e.P.oXZ.v.n.3.5.8.| m c _ m @.8.e n b.A.2.c 8.2.2.Z , G I..Xb.A.A.|.G G [ n @ . $ @ . $ ; u 1 $ @     . . @ X $ @ X ; 1 @ @ $ X $ ; ; ; 7 : g F v t ; : ; e c : 9 9 : i e : : : e g j n j j n L L G G G G G G G k u v G G G v j u ; ; e 1 ; 1 1 u j G O.O.G j j n F U G G O.[ G I k F } [ F I I [ [ I F i t h h e j F G U F f e ; - X X . .   , u h h u h F I Y o.Y 5.v.=XMXSXAXAXGXSXVXHXGXSXBXuXxXzXQ.6.{ ! ( ) b 7 @ . X X $ $ - - $ < 1 1 t i f j k H I P P P P >.7.7.8.B.=XwXN.,.+.P P O.,.I u 1 k 5.0XGXIXUXIXUXLXAXB.I F h h A C h h S P Y Y 7.5.o.+.+.+.Y P T T T P P I I } O.I f 1 < X X X o $ $ o X X o o $ $ ; e e 1 i _ 1.O.,.f.>.+.f.V.P.B.O.C C I } I F F h 2 3 $ $ $ $ @ X . o - - X X < u f u u f j j j k v j u u v v i i t ; ; ; e i i j [ o.o.U h f f v f k Z n I o.I F k F G G L } } U | | [ _ c l L L n c g t g c y i g u j t g t g c z n m t 9 t t g : @ ; 9 : ; ; ; @ @ g 0 7 n m = m Q G m y 0 ( M.x.n # @ = c ] :.p.0.y.R.L.=.N } 7.A.u.D.S.A.b.4._ n u f G } >.8.v.b.b.v.c.O._ ( ( _ _ v i G y i y z u : # ; 0 7 $ . .   ",
"[ F.:XoXqX&X Xv.OX;Xu.2.b.-.1.8.-.{ _ ; u e.4.G e 6.B.b.| 6.v.| ; o +.;X>X2.e.A.A._ [ 4.} ; . o X @ $ 1 1 3 $ X       . . . @ X @ - ; ; @ . . ; : ; ; = ; v G u : ; ; t i t e t n u u : : ; - ; t f n j j c n m c c y z b j j f k k v c j t e t 1 1 1 ; - ; - u U [ O.[ F v F F v U L n _ [ [ G F [ >.5.[ I [ U I [ } I A h Z f k k F G F h 1 - * $ $ X .   , u u f h h F P P I F [ 4.E.wXbXkXbXSXVXcXBXVXVXcXgXcXhX(.H.t.) b ! v e @ @ $ $ ; < < 1 i j k v F b F L } ,.g.j.k.G.Y.=X~.n.v.R.zXmX$XY.,.I H P P F u 1 j O.&XSXIXUXUXUXIXFXY.I Z h h C h h h F o.Y +.P.B.>.>.,.V.B.<.Y Y P Y +.,.+.O.8.8.{ G z : ; $ @ @ X . . . X $ ; e i j h i j J [ o.d.d.<.Y f.g.g.f.I H S I >.O.U F F u 3 o . @ $ @ @ . X - - X $ 1 1 e u f f f u f v v f t u j v j f f 1 1 e i G I I O.O.[ [ [ G k F k F n n | >.[ F F n [ I [ } _ L [ L G n c n [ [ c l j j b v j i v v F f j f G _ c g z f g y y 9 0 0 ; f t 9 ; 7 @ ; n y = g i g p 7 z i z G c y | >.[ j y c 2.b.y.i.0.} [ 0.n :.*.L ..S.-X.Xu.e._ U u n ' } } | 4.5.O._ [ | { ' G G n i j y j g y g i e @ = y t X . .   ",
",.V.Z.+X:XA.N.N.E.+XZ.' 2.` _ ] ' _ z n t ` ] c u _ 2.M.5.x.b.m e $ F XXp.#.4.b.5.1.O.v.} ; X @ $ < 3 u < o . .   . . . @ @ @ . X @ $ - - . . ; e e = = ; j F : - ; - : 7 e : t f t j e : ; $ % 7 j n F n G | L n G _ G n i 1 1 u j i j j u e 1 1 i t ; ; 1 u h [ | [ G F F I I [ [ G F n j L L F F G [ I F G L I U o.o.F h F A h h k F F k 1 ; ; - $ - $ . , 2 u F F k G P P F G | 4.v.E.8XeXjXVXVXgXgXgXhX,X_._.(.F.M.2.G K K K i ; % e e t x ( G _ } [ [ } [ } O.g.B.9XjXlXmXwXqX~.B.g.B.zXvXzX*Xf.P A F H F h u j } W.ZXLXIXUXUXIXCXY.O.F h u u h h h I ,.Y Y m.m.>.>.7.8XvX8XN.5.>.5.Q.N.,.O.g.v.t.r.6.G i e 7 e ; % % = ; 7 e r r i j v D F P Y Y Y Y Y +.,.o.P F C C S Y o.I A k u , $ X @ $ - - . X * $ X < t e e 1 u i f 1 t v u e < e f u u t t 1 ; t j I } O.O.o.I o.O.o.F Z f k L G } | G G [ j U [ U U G n m n c m L L L [ b n G G L F u g n v i g g c G _ c i g n N t ; 9 f y ; 9 9 ; 9 : 7 9 y n y y 9 0 m 9 y t : z c b j F I G } | e.b.I.P.| N ' N f n L g 2. X}.t.e.b.5.U F } G ] G z n L m c c m [ O.z m z g G c c y i t e ; # 7 t ; X .     ",
"_ g.&X}.C.A.8.n.I.}.Z.| | ] _ Q c 5.| ] 2.m G ( m f 5.x.5.V...e 1 < D  .u.] w.w.5.[ 6.x.m : ; @ e 1 < u 1 $ O .   . . X @ @ X . . . . X - X @ - : e e t ; t u @ @ - - 9 9 : : t : t i e ; = ; e j k U L L L _ G n G _ } _ j e 1 u j j f f i u 1 1 u u e 1 u F F L [ [ G G F F F O.} L G F j G L U F F F F F I [ I I [ O.G u F F j F F n k h 1 - - ; - - o . , 2 u H I G I I G I | v.XXW.w.B.|.*XjXcXhXeX,X(.F.H.F.F.M.c.#.( F K K i e e r v a ) t.8.| @.5.>.>.>.5.v.B.=XCXFXGXHXpXQ.N.7.>.g.qXwXvX9Xf.H h h Z S C h k _ V.lXGXLXLXLXJXbX!.7.H h u 2 2 h h P 7.+.+.f.j.>.<.,.F.qX=X&XB.n.B.=X$Xf.+.,.x.I.>XwX~.5.v i y y e 0 r y r a v i i i v F I Y Y P T S A Y o.H A h h h S P H F F A 1 , $ @ $ $ - $ X $ - - $ - 1 1 1 1 1 t f 1 $ u < - - 1 t e e 1 1 - ; t j F I o.O.O.[ o.O.O.G v f j U L L I v G O.G F I F F [ [ b z n ' | G L F j G G G G n e e g g i g g m _ _ g u 9 g t ; @ : 9 9 : e : 9 t y ; @ ; t i c c 0 y 0 y t t i c G b v z i [ O.8.1.3.9.^ 3.1.f g [ ' } e.w.r...] r.L ,.O.>.| .._ G _ ] c v v m g m z m y i n m z c j t : ; : y t + .       ",
"z | R.U..XE.n.&X%X;XC.n g ` m _ ' _ 1.y...5.G G _ m 5.v.8.8.* y t 2 o.2.w.{..XA.4.[ _ 5.[ F f t $ - $ 1 u - o .   . o - $ X .   . @ . . X $ < : : e ; 9 t 7 : @ ; : : t t e 1 t 7 9 u e ; e 9 k F j F L n n v c n v m G G k u t D F v j z c t 1 1 e u t e j [ [ I L [ G F F j g G _ L j i v L G G F F F v F k F F F G G j u Z I I I G F k u ; $ - ; $ X X X , 1 t G o.I I I G } 5.n.0XqXI.b.&XwX*X9XwXpX<XQ.J.!.M.D.c.c.#.) v i a a r p X.c.x.c.S.v.O.8.7.,.7.5.m.$X|.jXFXSXSXAX8XN.f.,.} ,.XX=X5XQ.<.S 2 2 h C h h F | B.MXJXJXAXgX8X).Q.g.I h u 2 3 2 h P ,.,.o.,.,.+.Y +.k.^.Y.Y.j.V.P.uX9XN.,.+.,.Q.kXAXxXqXm.[ G z a p p a v b b r r v K G I o.o.I S C A Y I P F C h 2 2 h F U F 2 < - o X $ X X @ X $ ; ; $ - t e 1 1 t u u 1 - ; $ $ $ ; 1 t t t 1 1 1 t u j F I o.O.[ I I [ I J k n n g F L F n [ G I } [ I } O._ z m _ G [ | [ L G _ | _ n u u u e t j g G n z t e : : t 9 @ - - ; : ; ; t g j 9 $ t y y c c ( m i 7 i b c b I } b G _ _ { 5.] 5.i.i.N M :.m L [ 1.4.| 8. .2.Z.5.g.5.1.M.A.v.5.8.1.' n G .._ G [ G m y c b t u g 9 ; : ; e 7 ; X .     ",
"f 0 B.y.b.e.e.Q.}.;Xi._ Q e.] b 0 c ( G | O.n [ | @.] | n ; q m t 1 I 4.u.b.A.|.| G } ( _ G F t $ . X 1 u < - X   . X % . $ @   . @ @ $ . @ 1 u e ; 1 9 t 1 9 @ ; : : ; t e ; t y u f u e e t v n k c n g j g c c j G m G j f k F F G n b L v 1 ; 1 e u h f n n v n G L n v F c c _ G c j n L U L I G v k h f j F [ [ F u < f I o.o.o.[ F u - ; ; - X . X X , 1 t Z I I J G F Y >.V.*XwX%X|.qXlXpX:X:X0X%X{.{.J.D.].r.#.#.) $.$.) ! { #.].2X|.M.m.7.5.7.,.,.,.g.$XkX5XwXMXzXeX,XG.,.o.P G o.m.Y.Q.j.Y S h 3 3 2 h h F | n.kXFXJXMX).l.f.Q.N.[ h h 2 3 u C P ,.,.P Y o.P F P <.l.f.f.5.7.N.pXbX9XR.7.+.k.,XmXzXZXpX|.b.#.( b b v b ! a p a K ( J [ O.8.7.F C F P I G G G C 2 2 h h h h 1 , - X . X X . . . X 1 1 ; < u u 1 1 t u t 1 1 ; $ $ - - < t e t ; t u t u u u F [ O.O.o.I F [ o.U L c i k L L n k k F o.5.O.o.>._ n m _ ] 5.1.] G ( m [ } L j j u g e t g G c y t : ; : g t ; ; ; $ ; 9 : t l g $ @ 9 u y ` G _ | G 0 j b p G F G _ _ _ | ] ] ] *.n.i.1.' =.=._ ' 1.2.6.] 4.1.8.5.4.4._ [ 5.A.Z.b.6.{ m G ] { m _ m g y y y t t t 7 e % ; : 1 ; .       ",
"G g.I.:.r.p.2.-.%XI.r.| ] L ` G 7 y G [ [ O._ 6.8.6.5._ ( ' Q m 1 < k y.;.m e. XE.| 1.V._ ; Z u X X . $ 1 < $ o   . X @ X - - X X @ @ $ @ @ e u : : e 1 : : : - - ; - : e e : t e : i j t u g 9 j G L n i g g y g j n n c v F F F n [ L G [ U u ; ; : u u u u f ; u n F n j G G G [ } G F G U U } } G F k k D j G } [ G f 1 h G U I I F h 1 1 ; - $ X . X $ < 1 1 u F U U G U +.7.v.:XzXqX&X:XkXVXSXjX:X-X1X1X X].].t.%.%.%.$.%.r.K.D.c.A.(.T.g.,.,.1.+.+.O.7.B.jXAXmXjXeX_.Y.z.f.Y H A h F <.f.f.,.o.P Z u 3 3 2 h F } v.*XbXMXbXqX*X*X*XY.o.h u 2 3 h A P Y +.P A S Z h h P Y +.+.+.>.B.9XlXvX*XB.5.d.G.(.$XzXZXnXiX.Xc.#.{ a ) / E E ) ) X.t.g.8.D.E.,.P I } } I I I H C h Z Z C Z u < $ X X @ X .   . X $ 1 1 t t f u 1 f k u t 1 - 1 t < < 1 e : 7 : e t 1 u t 1 u I o.O.>.I F o.o.[ O.G n f j F m u 1 k [ 5.5.[ O.} _ _ } ..8...' z c m b m n c n n u e t g n y t : ; 1 g j e t e u ; ; : : ; e 1 ; 9 0 z g m L z m { m m _ c z _ _ 1.[ O.{ ..;.] 3.i.i.V.v.I.8.[ 3.e.u.A.Z.1.L ' | y.*.| L _ w.2._ | [ j m w.2.m G c y z y 9 t e j : t t 9 ; : X         ",
"5.Q.*XU.Z.U.P.e.w.n. .u b ` { G = G z i } | _ O.O.5.] [ 8.[ _ c t 3 I 2.4.m z E.0X8.( ..( y u 1 @ . . O X X . X   . X @ - ; ; - $ @ @ $ $ $ e t t u ; e ; : : : * ; $ - - e ; 1 e e g i f f g : j [ L n g g y y 0 y z c b c G U F v L [ | @._ f < - ; e : e j j u g k n n G G F L } } I G I L [ } } [ F k v G b n L L G j 1 j F I [ G k 1 ; ; ; - $ $ $ X $ < 1 1 u n L G G I } ,.8.!.iXaX%X0XlXVXSXzX<XiXiXiX1X3X2X].r.].].].2X3X2XQ.k.5.k.g.d.f.7.,.+.Y O.R.*XmXAXNXzX=XG.f.,.Y H C u 1 h H Y o.P P P S h 3 3 1 h F _ 8.*XbXbXbXFXJXFXpXN.o.h 1 3 3 h F P Y P S h h 2 3 2 2 C S A F } R.5XwXeX~.Y.7.,.k.G.Q.=XwXbXxX1X2X].#.( $.%.%.%.X.{ r.-X=Xv.x.|.~.,.+.g.8.>.o.H S C C A F Z F Z 1 - X . @ X .   . X $ - < t 1 1 < < f G k j u - h Z u u u k j j u e t 1 e 1 - 1 G I [ [ U G I L G } _ L g t v L t - e F >.5.} O.| L L | 1.4.| [ G c c m c z c j b u 1 e j c 0 ; ; 1 j G n g : f j u u : e ; - - X e z y t c G G ( _ ' _ _ _ p y G 7._ g.5.e.2.4.W.P.P.B.8.oXP.4.| Z.E.{.I.4.0.n t ' _ } 1.y.A.e.G m _ v n r.| _ z m c y y 9 : : g i t i t ; - $ X   .   ",
"| 2.;X0XoXu..XP.4.F >.g G _ ( c b c g i v G I | 1.| [ O.x.G _ c t 3 o.v.w.[ _ 2. XX... .m y ; @ * . . . .     .     X $ ; ; $ @ @ . . @ @ $ e e 9 7 e e $ e t : * - - - $ 1 ; - 1 e e 1 t f t 0 v [ I j t g z g y y y z n c F U n f n | 1.5.[ f 1 1 1 : : : t n n f e v F L F v F [ o.I I I G L } O.[ j i i v j j G I G f 1 u j n v j u ; ; u 1 $ $ $ * - ; 1 1 1 u f F F G o.O.5.5.v.%X0X%X6XiXBXVXlXxXxX<X:X1XfX1X{.].3X3X].].c.N.m.g.O.@.6.c.M.g.,.+.P ,.~.wXlXjXeX*XY.f.[ P A C u 2 1 1 u C A A P P S C 2 3 1 h k L 5.XXkXCXFXJXLXGXlXB.o.A 2 3 2 C S P Y S 2 3 3 , 4 , , 3 3 2 h H g.Q.(.^.~.$XB.5.7.g.g.G.F.^.(.|.2X].6.#.%.'.%.%.#...r.{.(.v.c.|.0XQ.5.g.8.5.+.P P C C A F h h h 1 o X X X . . . . X @ $ ; t u t ; ; e k F I f - f h t u f v G F i t t e 1 ; ; 1 v F F n F n n c v L L m j g c m i : ; e } } L >.} L | 5.2...1.| G m c c n m n t t g e t e g f 9 ; u G ] G g t t g c c t 7 ; ; - ; g f ; g y n | ( { ( m _ n ' c b O.5.7.g.v.8.| n.1.| O.| R.u.e.4.U..X>XP.-.| j n 5.8.W.Z.P.E.b.O.G L k c 4.e.| F g G m y e - @ 9 g g i t ; $ @ .       ",
"| L [.qXqXU.E.W.P.m ' c ' n ] b m z j i G D [ [ 8.1.1.8.n.n m i 1 R O.P.y.4.8.Z.t.2.` e.B.J 1 - - X X , t - $ $     X $ $ 1 1 $ . . . X X @ t : @ e e @ @ ; u ; @ @ o ; ; ; - - - 1 e e t : 9 t g [ G i 9 t y y z y z z j g n U n t f L [ } L j t u e e e 1 - ; 1 e e k n v F G G L F I I G n U } _ v t t i u t i L [ I k 1 1 j j j f e - 1 h h 1 - - $ - ; 1 1 1 t u F F k I o.} } >.M.!.|.>X>X:XlXlXMXCXwX(.%X1X-X2X2X3X2XA.f.O.O.O.O.O.O.#.D.|.m.<.O.o.,.B.).*X(.Q.F.g.+.J Z u 2 u u u t t 1 u h C S C C h 2 u h k L 1.Z.5XMXFXGXJXFXbX).5.G h 3 h C C S T C 3 3 , , o o , , 3 2 h S Y d.j.m.0XpX=Xj.1.5.O.O.,.,.5.x.c.x.| #.%.'.'.].8.q.D.M.g.5.q.b.%X$X1.7.x.7.O.P H C C Z A Z h u < X . $ X . . . . X - - - u f 1 ; ; u g F [ F ; t 1 < t f n G D f u 1 1 e ; ; 1 f n k n n j n n F G G g j j g i u ; ; 1 n G v [ L U O.e.e.' G | [ F j i c G c 7 : 9 t y n c t 9 t n G 1.( g t t c c t t : ; ; ; ; n n y z l c [ { 5.@._ t y t ' z @.5.O.@.g.m.v.b.g.8.e.8.b.w.b.oX[.C.+X}.8.4.L j U n.W.E.Z.A.b.J L G F G 8.8.} n i G z : ; - - ; c t u 7 : $ $ .       ",
"g.3...Z.|.yX5XZ.r.b...i j _ m ( m G G g F I O.O.5.8.8.2.1.L c F u u I P.W.Z.2.r.I.x.` 2.8.I < - - $ O @ @ o , $   . . $ ; ; e u ; . @ $ @ ; : ; ; 7 e : ; ; 1 : : X $ ; $ - ; ; - 1 h t f e e 9 g j g j c 9 9 y c c n b t t j F j u - u j G n j f u : e u 1 - $ $ - - : j j g G [ L U F L L F n n v f i j j j y z G G I F 1 t f j f t t 1 u j D Z u ; - $ - 1 1 1 < 1 k F j F I o.[ I 5.B.}.>XiXtX%X:XzXxXgXF.M.H.F.N.D.].J.h.Y +.+.o.@.q.q.t.].R.k.O.2.g.v.R.Q.Q.N.k.j.,.I Z u < t h h h h h u 1 3 2 h h h 2 2 u h v | v.P.%XmXCXAXAXFXbX$Xg.I h 2 h C C h C 2 1 1 2 2 3 , - , 3 3 2 C S Y 8.v.~.).Q.7.[ } O.| [ [ | O.[ G G $.%.'.].].g.5.8.o.I @.q.2.b.v.O.2.e.v.1.P F C h u h h u 3 , X . X . . . . . X $ ; ; 1 u g 1 < i v g I G 1 < e < e v F G k f D t ; 1 1 1 1 u f j k v j j n G G c c g i v v v u 1 1 f u t u L _ } >.| [ G I [ [ n i i n j i : : e j n m f t g L m ..' ' n n G G j u ; - t 9 ; c m g c j n m ( @.1._ g t i _ m G } | | | | R.|.b.u.r.-.V.b.A.}.S.[.;X+X}.A.B.5.} O.9.~.|.P.M.O.>.} F I 2.2.O.v e t t ; % @ $ 7 y y 7 ; ; ; @ @ .     ",
"7.R.U.a.e.:X>X;X|.v.3.c F ' ( _ ] _ G ( | G [ O.8.v.4.] n c L n u 2 F P.b.n.1._ r.g._ Q b i @ @ X X   . $ O . .   . X $ 1 ; t i t ; $ : ; ; ; @ = ; % ; ; @ $ ; ; @ - $ ; : : : ; e u u g t e i n j e g c y g g f c m c t t y c c n u u g g f u f e : e t 1 - - - o X - u c g f n L [ j U L c c n j j G G n c c z L L G Z 1 t f f v j u e 1 k F G Z t ; $ ; t u 1 < 1 j F v F I 1.5.[ >.8.b.Z.+XtXI.U. X*X(.5.@.x.x.f.f.j.k.+.F ) ) $.%.t.].].S.m.d.5.c.R.B.m.m.m.f.,.,.o.A u < < u h A F F A C h 1 2 C C h 2 2 2 h F } v.E.XXqXlXbXCXFXMX$X7.I h u 2 h C h 2 u h h C C C 2 3 3 3 , - 3 u A o.5.g.k.7.} G _ _ { _ G ( G a s ) X.%.%.q.,.o.k j D ( X.#.#.r.x.6.r.M.b.5.[ F F Z u u h u < , o . . . . . . . X $ - - ; h n u - t f i F I u $ 1 1 i F G I v j v u u t u 1 < < u j u f n j j n n c m n j F G G G f e j k f 9 g n G ' [ ' L G G F G j j u f n u : : g n c m m ' _ G { { | [ _ G G v i ; ; 9 @ . g 0 m m c c y z 0 z m c n _ _ | z G G z # y S.>Xr.u.r.-.4.5.w.r.I.>X>XuX6X|.E.y.>.y.*.8.E.E.5.g.8.v F n G m | G y y i e ; @ @ = i c y ; ; ; $ X .     ",
"G 9.:X.Xq.b.yXXXXXA...L 1.5.[ ` ' 8.{ 8.8.e.G z G y.8.y.F t g j 3 $ D v.8.b.e.r.P.b.2.m m y . X X . . $ 1 1 - .   . @ - e t u i i e ; ; ; ; ; @ $ t : $ @ @ $ @ $ - @ - : @ $ - - ; 1 f g j n n n c t g m n g i y g n c 9 t y z c n j f k f : ; ; e e 1 t f 1 1 ; $ X ; k F j e u n f : c [ G L I G F I } I G [ G O.>.I f 1 u f F F F k f u h F G F h 1 - $ t u 1 1 t h F k F I O.O.[ } 5.x.8.Z.}.b.C.C.B.k.I K _ @.@.5.O.Y D ) %.%.%.].].1X Xm.5.O.5.8.v.g.f.5.,.+.o.I F u - - 1 h S H P P P P F A Z A C h h 2 h h F ' 8.E.&XbXAXGXGXAXzXQ.>.U h 2 2 h h h 2 h S S S S S C C C h 3 , - , h P +.<.,.+.I G ` { ( ( F b a s E ) K Z j j F Z 1 u K $.#.@.2.b.v.1.6.8.5.,.} G Z h f u u u 1 1 $ . . . . . $ $ $ * $ $ 1 f F u $ 1 u j F I j 1 1 1 u v G G v f j i j u u - o ; u f t F n g l c j n L m n [ _ } 1.L f j F F j v G G ] ' G | [ G v n j f u u b u e u y G _ m ' L L _ { 4.| ] ] m z i i ; : e t ; g : b y e z c c 7 0 y m | { 1.5.G I G O._ y :.A.b.Z.w.1.| ] b.A.-X>XyXbXzX;XoXn.i.n.g.4.y.y.} 8.8.i : t z _ G G n G i t e ; $ * = y z e ; $ $ @ . .   ",
"7.../ n X.4.P.n.P.B.v.1.b.x.>.@.n.E.|.R.E.H.| O.4.@.3.8.} f j f 3 , J | ] 1.Z.E.I.B.y.8.| j ; - o . . $ < < , $     . $ @ % i e u e e ; : : ; ; : e 7 - @ $ ; ; ; ; ; : t - @ $ - : u g f L G t y g c c L m v t c z g g t 0 0 y z j j i g j e : e v v 1 u n F k 1 : ; 1 G } F u t u t 1 j L } O.o.I O.,.5.O.O.O.[ [ O.F : $ u F G G I G F k k k v Z u 1 - $ 1 u 1 1 t h F k D G o.o.U _ 1.x.5.g.B.c.r.t.2.I i y a G ( [ J F i E %.'.2X].J.H.F.m.f.7.@.@.5.5.O.+.Y P P A u - o < 2 C S P Y o.Y o.} P Z C C h h h A G U } y.W.5XkXMXMXMXbXpX^.>.G h 2 2 h h h h Z P P Y P P S S C S h 1 - - 3 C S A H F v G { { ( ( v r p p s a i t e t u t e r b X.| G _ O.O.O.O.>.>.O.I Z h u u u u u h u , . . . . X * - $ - - - ; f F u $ t i t F } F i t e e i c i f i u i i u e $ X - 1 f u I I j j j g c c n c } [ 1.v.| c c G n [ | | _ ' ] | @.1.} F G n F v j v i g i i c c m _ G G L ( 2.{ L } n u e c t i c g = 0 @ z z t e F G z y 0 m m _ 1.O.G } b [ 5...] w.u.r.2.1.O.8.E.Z.XX%X&X0XuX:X-XP.y.b.E.b.8.1.8.m.O.j 7 t y ( G m _ _ 0 e 1 $ ; * * 9 9 ; ; - $ $ . .   ",
"-.e.E.q.1.P.}.r.B.B.1.5.H.2.| 4.B.E.R.n.A.b.5.5.5.| 5.5.L v n F u u I 1.m | w.2.3.U.n.v.e.i @ - @ . . @ ; - $ $     . . $ - @ ; u e : : e 7 ; e g 9 7 t e : : e e : : 0 g e : ; ; e g j j n U u : j j c n n i g m y 7 0 0 y 0 9 y g j v j u u e u F F e e c F G 1 1 1 u G o.F < < 1 $ - k F G I I F G O.7.f.7.,.} I k t 1 - u I O.+.I G I I F f f f u 1 - $ * 1 u u u u h u f G | I G F _ 5.1.O.@.@.#.#.| a a b p a a p i e 7 w ) X.5.5.5.d.,.,.1.8.5.O.O.o.[ P P A C u , o o 3 h C S Y +.,.,.>.o.F h h h h h Z H Y } o.7.R.5XwXwXjXbXmXpX~.>.F h 2 3 2 h h C H Y +.+.Y Y P S S S A h < o o , 1 u h h j G ) ) ) ) G i i r r e ; 1 < < 1 e s s s ( G i b ( _ L U G G G F f u t t h h u u t - . . . X $ - - - ; : ; ; u f < $ u v F F G F j i e ; u i j j i f j t u ; $ - - ; k f F } n g f g G n c n m [ 5.v.] c l m L ] | ] m ' ] O.1.2.1.G _ _ G L G b j f u e g n m G ] [ L G { ' L [ G i t i v b c c % 0 ; y g g 7 e G [ c y v 9 z _ O.O.O.G G @.8.b.r.4.b.b.e.-.v.Z..XA.B.A.|.%X|.H.7.9.Z.W.W.b.8.v.b.[ [ L _ g z _ ( ' ` c u ; $ @ @ * = : 1 : ; $ @ X     ",
"1.4.E.[.q.u.+XoXR.P.@.8.B.b.5.5.>.b.n.b.E.v.5.} [ _ 5.| G v G F < u J e.v.8.4.] r.U.-.8.V.F : - $ X . O $ X - o   . . . @ @ @ ; t e : : e $ - e u t 9 u t : 7 e e 1 e t i : ; 1 t t u f c j v j t g g c g l G m _ b e 7 0 y z y t t y c j e e t t j k 1 : t g F e e e j j G h - $ $ X t F I G F v j j j G >.g.g.g.o.u ; t 3 h G F n n k G G f u u f h u 1 - ; 1 u u h h h h v F L G F f F _ [ [ _ Q ) #.) ! X.%.! r r r 7 % 5 8 s v F P P I J J _ @.5.>.o.[ I F h u 2 , o . o 2 C S P o.7.j.j.7.+.F h h h 2 h h F P } o.5.Y.pXbXMXCXCXlX=XN.o.A h 2 3 3 1 h h I o.5.7.,.Y Y P I P F Z t $ X $ - 1 t t u v G ) { _ F i 7 % # % % % % ; ; 7 w s a v i y r a F F j f j j u t 1 1 u j f 1 1 1 - X . . . X X X @ $ $ * ; t u ; - u F G F D v i t : ; e t f j j j k t < ; $ < - ; h f j L n e 1 9 F } G G m [ 5.6._ n g g n } O.O._ [ | { O.' ] ' _ | L _ G f t u e 1 u c G m { n m G } [ } _ L j g y i g y c 0 y f f f m y 9 y [ { b z v 0 p ( [ [ [ 8.b.A.A.oX|.A.2.2.4.v.b.E.B.v.v.R.R.E.B.8.v.b.Z.Z.E.B.x.1.m [ O.L b t y _ | ` G k - $ @ : i @ : @ @ @ @ X X .   ",
"g.w.A.[.>X-X5X;X:XR.v.7.1.v.4.[ L 8.b.n.E.B.| _ [ G O.O.G F ( z < u m 8.Z.A.E.Z.e.y._ ] b.G e 1 ; . . X X X X X     . X $ $ ; @ $ ; - 1 : @ $ $ : e 9 0 y 9 e t 1 ; 1 t t - ; : t f h u j g j j e : e t f j c m G { y y g y n g t t t g j e ; t g f u ; ; ; : n f f k L j g u $ $ o $ f G U F v F v F L L G F I o.[ k f u < u U [ F g i u i u 1 e f F Z u t 1 t h u u u h D G o.I F F j Z _ } _ _ { ` [ F a ) %.$.p 5 5 5 % # # e e e u u j v G ( { 1.,.o.P H Z 2 < - X . . o u Z F o.,.V.N.m.g.+.A 2 2 2 2 2 h C F I } 1.B.wXbXbXpX5X$XY.j.o.A h h 3 , , 3 u H o.7.m.5.o.Y P } Y F A u $ X $ $ , 3 < t j b b [ G v i % + + + + + @ + # 5 8 r e t ; 7 7 e i i i u i u t 1 ; 1 t t t 1 < < - o . . . . . . . $ ; ; ; t h u < e u k f k v f e ; - e : 7 t f i i < - - - ; - e u t t L j e : : j ] L n j } O.[ G n i n n G | O.[ | 5.5.| [ -.@.' ' L L j u t t 1 e j c m G G G _ [ [ G [ } [ G v i g y u g j b y z z g ; 0 0 y m G v c b b v z z G | 8.H.A.}.E.2.4.y.2.:._ 1.5.8.e.8.8.8.4.v.8.b.E.E.|.b.4.| n G _ } n 7 e g G ( m t - , < : y ; X . X @ @ X .     ",
"g.v.2.oX X;X7XXX|.B.6.4.y.b.4.L F 1.b.B.B.n.1.| | [ | @.G b | G < 1 4.B.b.oXZ.u.U.4.-.:.1.L u e $ . X X $ o . .       . $ $ @ @ ; - - ; $ X X $ @ = 7 9 9 9 9 t : ; : u t ; : g j g u u k t e j u t e t j c c n n L y 9 g i g 9 e t t y u j i u f e e e u : t n j g j [ L j ; o o $ : j n G F v j k } } } >.5.o.J G G G u $ ; j [ O.I j k F F D F Z Z Z u u h h Z h h u h u D U G v i t i b G G { e.D.t.{ K G X.$.K 7 5 5 5 & + @ # # % 7 r a v b J +.+.P F C h 3 - . . . . - h F I o.8.B.v.7.,.Y Z 2 2 2 2 2 2 h Z G I >.L.qXvXpX$X^.~.~.B.>.F h h 2 , , , 3 A o.5.j.5.>.o.I Y o.P A h - o $ $ - 3 < < t i z v z i y % + + + @ + + & 5 5 5 7 ; ; # % 7 e e e e t t 1 < ; ; ; 1 1 1 < - - X . . . . . $ @ . @ ; t u h h t 1 1 u h h f j j u ; - 1 : ; : i i < $ $ $ ; ; t v u 1 1 j j u ; ; f n n u e u n g z j g g g m O.| L O.[ 1...1.1.@.[ G G F f ; e t e u j j c m _ { ] L G c c _ _ L v t t 7 : g n g 9 m c 0 0 g z z y z [ G G b b _ G G { ' ] I.r.u.u.4.Z.w.` m | | ] ` ` ] ' ' ] -.2.b.I.2.O.8._ n u G } b b j c i m G 1 $ $ 1 j = ; X . . @ $ .       ",
"G.N.v.I.oX{.P.4.S.B.>.| A.P.| } } V.E.B.y.V.x.5.5.1.@.e.G i G G 2 1 g.Z.[.p.X.q.w.L b.e.| n e ; $ . X ; $ o .       . . . ; % ; $ @ $ @ X . X e e t y t t 9 t ; ; : t g i 9 t n n j u f i f u u t f u t g n n c j g ; ; y y t : ; e : t i j v u 1 @ : 1 f t g j f f t f F j - X - ; i j f F F j j j I ,.O.O.7.7.O.[ G F t o u v v G I I I I I I I F u 1 u u t j F F h u u u h k F G F t i c G G _ 2.C.r.#.( J { { G e 7 5 # & + @ 5 8 8 r a z z i v G I H C u 2 , o . . . . 3 A I } >.g.V.7.>.+.P C 2 2 2 2 2 2 u k F U } 8.^.*X$XP.n.W.~.B.5.G h h u 3 , , 3 h I 5.5.O.o.O.} I I G h u - o $ X X - ; - < t y r a y e ; % + + $ + + & # % $ $ $ $ # % % e 1 ; < < - $ $ - - - < 1 1 < ; * .     . . X < 1 $ $ 1 f A h u < 1 h h k k j f f f t 1 e j t ; t f ; $ 1 1 f f j v e 1 u t g t ; : f u u : - ; : ; : : g n F _ 1.>.[ O.L L | | | [ _ [ G v u < e e 1 f n G c c L ] ] L v u : u n j j u e e t g c t = z z y 7 7 t y y g G c z G m c c { | _ _ 2.C.A.b.I.e.y.:.v _ m c _ ' 5.-.| _ | -.4...-.1.[ _ _ ' F F i j g v c n j - o o $ ; 7 = ; . X . @ X       ",
"N.(.(.XX+X%X}.2.8.V.x.v.8.A.y.O.>.B.~.B.v.8.B.4.4.1.6.b.{ G n c 2 1 } Z.Z.Z.w.Z.u.4.v.1.L f e $ @ . . ; $ X .       . X . X @ @ $ $ X X . . $ e u i g t 9 9 7 @ $ ; ; t 9 : 1 n G j j c j j g t u g g j t n n c c z t : 7 ; 7 e e e u n n j j f 9 e : ; i g f g j j u : e g ; @ ; u j j g G L n j k F } [ I [ _ G n z j 1 $ k I I j i F J F F F f t t 1 1 1 e u Z F u u u t u i Z G _ _ G G F F G @.M.M.c.{ K [ [ G y 7 % $ + + + 5 w s r i i i i j v F Z h 1 < - X . . . . 2 F I } >.7.5.O.o.Y H C C h h u 2 u h k G L [ >.m.~.XXW.P.P.L.m.>.I n h u 3 , , 3 h I 5.>.} [ I I U F A h 1 o X o X X $ $ 1 e e e e i y e ; $ + + + + + + + + + . . . + @ $ ; % % ; - $ @ $ ; ; - - 1 1 1 < - $       . $ 1 e $ $ 1 u F C u h u u f k v k f u u i f f n j e t k 1 - u f F F f f u ; u t t ; ; ; e - 1 t e e 1 - - ; j L L _ [ | 1.6.O._ [ _ | ] _ _ G j u 1 t g u g n G G n m [ G c j t 1 e g g j f t i i g t 7 0 c g ; : ; = 7 0 z v y c ] G z 0 _ { G ] w.y.X.w.A.}.i.G n F j v L F | e.| [ 1.5.1.3.y.| O.[ n [ [ [ v f j G g y G 1 o o - t y i e @ X . X X .     ",
"V.F.$X:X5XoX7Xn.8.y.P.v.V.|.A.N.N.B.R.A.n.2.5.e.b.8.2.b.4.@._ _ < $ t 8.Z.p.r.u.4.3.8.L f j : @ X . . ; = X O .     . X . . . . @ @ @ . . X - ; u j g i e ; ; ; - : t f t : : t G g j n F v F n F n f f g c n m v n j : 9 7 t g t g c G G n f u e e e t u u u u j f g e t e : ; ; v j g n L G I G F F } f.j.j.f.+.[ I v 1 X H o.[ I D i j i f f f f 1 $ ; 1 u u t u t u t u u t u k F G n F D j D [ 5.f.7.| J F D i e % @ @ . . + # w a i i t i j j v v h u 1 - o . . . . o 2 Z I } | | } I I P A C h h h h h h h k U [ [ O.v.~.&XXXE.n.v.7.o.U L F h 2 3 3 2 h I 5.5.[ I U G n k h u < o O O O O X $ - 1 1 e e i i e 1 $ + . . . . . . . . . . . . . . $ $ $ $ $ $ $ ; ; - - - < 1 1 < ; $ . . . . ; t 1 $ - 1 u F Z u h u ; e i v n u ; ; u h u j g t e f < 1 i f j j h f u ; : ; t t 1 e : - : j u u t ; : : c L L G G } 4.1.} [ | ' _ _ _ G n t t e : u f i j G _ G L | n i i t u j g t e j i i j j j y i g 0 - ; e : t g y y j G _ m ( G m { _ G 1.u.Z.u.u.b.;.n n i v F k g j } G U O.1.G n v.8.b.4.F j F _ n F v i c c t 1 o O * y y i t ; $ @ . X . .   ",
"8.2.Z.oX;XiXuXA.8.b.Z.4.1.A.W.B.M.x.E.E.8...| 8.B.e.5.y.6.4.-.] < $ j ..u.-.y.n.y.8.| L f f : ; X . . $ ; @ X .       . X @ . . . . X X . X ; ; 9 f y 9 7 ; e : ; ; y n t t t f t u v L n G L j n j u u l n c j j c u 1 t 7 9 i v c g n U n u e : ; 1 f u 1 t i j u i g g i u e i k j g j L I } } G I O.g.m.m.j.o.G [ G 1 O D O.[ J J F k D D v D Z ; $ ; ; 1 1 1 f f u t u u u t f F G Z D j i i i F J P J D t < $ $ @ . . . . . & 8 r e e t u j j k j u 1 , o . . . o - - 3 h F L [ I U H H F C h h h h h h u u k U } } | 4.n.W.~.E.V.7.>.[ G _ L h 2 2 u h A I >.5.O.[ G k h u u < - X . . . . O $ < t 1 < 7 r y y ; @ + . . . + + + . .     . . . + $ % ; 7 ; ; 1 t t < ; ; < < < < - . . . . . - 1 1 ; 1 u f Z D h h < X @ - t f u * * 1 1 1 u u < e e 1 t j i u f u t ; - $ * : t 1 e e e u g 9 g i 1 j f L G G F n _ | ] G n _ _ @.| 1.' n i ; ; ; e e e f G _ _ _ L n j i t f F c g t j v z L G g c m i ; $ : : t y g z y y y c y y z m _ F z Q  .;.w.q.Q M N L G F j n j n ' G [ 5.4._ n | Z.v.2.' k h G G [ j n _ _ i e o O - i y g i ; ; ; X . . .   ",
"N.n.I.7X>XyX6XI.6.8.b.8.v.Z.y.b.y.7.B.N.v.v.Z.b.3.8.5.@.O.' ] n , 3 I 6.] ..] @.| v.V.:.I j e $ $ . . - $ @ . .         . ; . . . . . X . . @ - ; : : ; - @ : t ; t c c c t t g e u j _ G n j j k j u u t j j g f c u t t : e u G G F L U F g 1 - @ ; e u 1 g j i i j n j v f f n F k f f F G G } G G o.5.g.g.7.+.G G v - o j G I [ [ G v j j i u f u 1 ; - - 1 : t h u u u h 1 < 1 t Z Z D f f u e 1 e u u t % @ . . . . . . . + & 8 r e e e t h C Z h t , , X . . o ; < < < 1 h F G G F A F A h h u h h h h h u k I | | } O.g.B.B.V.4.O.' [ L _ I Z 2 2 h k F [ >.1.| I G k u t < - $ o O . . . @ $ $ < < < ; e e ; % @ + . . + + + + . . .   . . . . $ % 7 e 7 ; e t t < ; < , , - 1 1 .     . . - < 1 < t h h F F f t ; X o o - 1 1 - o o * ; 1 < ; t 1 u v v j F G f 1 - o . o ; 1 ; e u g k j t i j u g c m m g n z n G ' | L L [ O.@.| ] c 0 : : : t t : e l c c n G v j i 1 f j i e e j m [ G z y b n i ; ; 9 e ; v # y # 9 0 y m c v m c G | 4.4.e.b.b.w.w...] ' G j h f n ] L m L ' G G 1.y.} j F n j _ 5.| } L G c i $ X . $ i j t t t ; = X .   .   ",
"v.~.oX.XaXiXiX}.b.u.4.8.4.v.1.5._ } 8.N.j.8.v.y._ L ' c ' c Q _ , 3 +.8.8...{ 1.{ y.n.y.[ g : ; $ . O ; $ X X .     . . . $ $ $ X . . . X . @ : ; ; = ; ; ; 9 t : : g g i u g t e e u F F j e e g i f F l g t e e n j t : - ; u F G F [ [ G g ; $ : ; ; u u g v v v F n v F j k n L v f g j j G o.} G } >.5.} O.>.o.I j $ , J I v F I [ I v i j v k u t ; - $ ; ; e u f t u u 1 - - < 1 u i i i t e ; 7 ; ; % @ . . . . . . . . + & # 5 5 % % ; 1 u u 1 , $ X . . . ; u h u 1 < 1 u h A Z A A k h h h h h h h h h h G [ [ [ } >.8.g.8.>.[ U [ } o.o.F u 1 h A F L } O.} U F h t ; - $ - ; $ . . . $ X X $ ; < r a p e % # + + . . . . . . . . . . . . . + $ 7 r y t t u t 1 - - - - - ; - .     . . $ ; < ; 1 f h F F u u u , , $ X $ - o . . . $ < 1 ; u u v F k j F J D u - ; o $ ; < ; u f v n n k c j i g c n F j n c g L _ ] | L [ | | O.1.L g j t : t u 1 = = 7 7 y g j c t ; ; 9 u 7 e g c b G [ b y g u j y t e e t # t 7 9 9 z m g z c m G @.2.e.4.n.u.;.i.i.L _ F u U y 1.' [ U 3.*.| U ' _ U l j L v -.8.| | n G j @ X .   @ c j j i i u : $ @ .     ",
"g.^.;X7XyXoX;Xn.b.A.w.w.v.8.[ F | _ 5.5.5.v.8.| G [ 8.4.4.} m g 4 , I R.v.( | O.c _ -.-.I g : ; $ . . - ; $ . .     . . X . @ ; $ X X X @ . @ ; - ; t ; : : 7 : ; e t e e u j e 9 1 e u u ; ; 1 e u h n n c g ; : j j t : - - 9 u e u G L G j t ; e : : f f f G I G F F F F j j F G F n j u h G O.O.} I >.8.8.8.>.I I k X 3 I [ v G I I G k j F n u 1 1 ; ; ; $ ; u h i 1 t 1 ; $ $ - ; 1 u t t e e 1 ; % % # + . . .       . . + & # # % % % % $ - - $ X . . . X - t h A C h 1 - , 2 h h C A h h h h h h h h h h h F G L _ _ [ O.5.5.O._ } >.1.>.o.G u 3 h k F G _ [ [ F j u ; $ X - 1 u t ; . . o O . X $ e ! ! a y e # + . . . . . . . . + . . . + @ @ @ # 7 e e 1 1 1 , $ $ - - - - $ @     . . X ; 1 1 1 u u h h t u k 1 - $ o X . . . . . . - 1 1 f A F k f D F D k u 1 1 ; 1 1 1 1 1 k n k G G I L j g n G j j j j j G G L _ L _ [ [ | 5._ G n j g j 9 ; ; t t 0 7 t c c ; ; : 9 g j g v n _ n G L j * = k G y t g 7 c t y y b G z z z 0 z G 5.b.n.w.b.r.8. .' G F [ t F n } -.*.] U 4.*.] L c j j ' @.n n t...' m G m G $ . o @ 7 g t 9 t t 7 e ; X .   ",
">.n.oXtX>XoX%XA.y.n.i.6.4.5.I G L [ | 5.>.| 8.[ } O.5.4.4.6.] t $ - G g.x.] m G _ O.[ F G g $ $ o . . ; ; ; . X     . X @ $ @ $ - @ @ : ; $ @ X ; ; 9 e t : : ; - : t t t v n f e ; : ; : ; : e e j f j n G u u : 1 e u e 1 ; : : ; $ e j g j g t ; - ; u u f G [ G j v F n j F G F G v u u u v [ o.>.} } 5.1.} } o.[ h . , F I G [ [ G k i F G F u - $ - 1 ; ; < u k h u 1 1 ; @ X @ - 1 t 1 1 < ; ; $ $ $ @ + . . .     . . + & & & + $ $ $ $ $ @ X . .   . X ; u Z H P F Z u < - 3 u h h A h h h C h h u u u u u k n G L L L _ | 1.O.| 4.v.8.>.I A u 3 u h Z G L L G v u ; X . . - f Z h t $ . X . . O @ 7 b ( v e % @ + . . + . . + . . . . . . + @ @ $ $ % < < < - - $ X o - - - * $ $ . . . . . - 1 t 1 < ; e i e : f t < , < 1 ; - o . O . X < 1 Z G G j u F G v u 1 u u 1 t t 1 < < u f n L G G } G c v L G c c m G n L _ G _ | O.| _ | @.[ n n j L f t i 9 7 7 = = 7 j : ; u u i n c n b [ L F F t i j z G j ; ; j G b G [ G z 9 y G G 0 0 0 e.A.2.q.U.P. .L n u L f Z v c } | n 3.2.3.u.4.n n j 1.9.L G m n z c n c _ < O $ t z y y 7 7 e ; 7 $ . .   ",
"I 7.oXtXsX>XyXW.8.r.e.4.5.@.>.U F O.n 5.8.y.e.| [ 1.| 5.5.5.-.t 4 2 H _ -.1.1.m G } L j u $ X @ o . . ; ; $ @ X     . X $ @ X @ @ @ $ e i e - @ @ @ ; ; 7 i t : ; ; : e n n n g 9 - - $ : t i i e g n g g k u c 1 ; ; e : t : - : e - ; t e j n f : - : 1 1 f I [ U j u v v [ } U L F f f j f F G [ O.O.| 1.1.L G O.O.Z O , D G F F F G n f v k t ; $ $ < u e - 1 e u i u - 1 ; - @ $ 1 : 1 ; ; $ $ @ @ @ @ X .           . + 6 6 5 # # @ @ + @ @ X .     . . - u k J o.o.P H Z h 1 < 1 u h A C h h h h u 2 u 2 1 t h j v G L G L ' | >.4.n.E.n.>.U k t < 1 h h F G G F u ; $ . . . < Z F A h < @ .     . @ < j i 1 % # & + + . . . . . . . . . . . + @ + + + @ $ ; ; $ X . X o - - $ X X o . . . . . $ ; 1 < ; - t k u : j h 3 , u Z Z 1 . . O X - 1 u F F F h 1 h D G v u u u ; t f t ; ; u u j n n G | | G v F [ G G L L L L [ G } O.| [ _ [ | G b g v n f u j k t i y t t i 1 - u n n F G n j n y g i y y G I c j e ; t g z G G c y y 7 z p # y z _ B.n.S.Z.n.u.:.n ' ' f j L G } _ ' _ ` Z.Z.b.2._ L 4.4.L z m b b g u z v 3 O - n m 0 #   @ : ; 7 ; X .   ",
"G O.&XnXiX;XtX+X9. .1.] 5.V.y.O.F [ [ 1.y.E.Z.>._ 5.2.v.@.1.] i , 3 h i ] 5._ G G m G F e ; $ - $ . X $ e $ . .     X @ @ @ @ @ @ $ ; t e 1 : : = @ @ @ ; t t t e e 9 t n F g t ; ; $ - 7 i k i t n L F j g e e 1 t e t t 9 ; $ t e - $ : e j k e ; t e ; 1 h I I n j j n v [ } I [ [ n f f g f f F G L >.7.>.[ F v [ F . 1 J I k k v f k n k f ; $ $ $ ; u f : ; ; e t e ; ; - $ - e e e 1 - $ @ @ . . . . .             + 6 8 6 5 # # + + . . . . .     . - 1 h F I ,.,.+.I I F f t 1 3 h h h h h h u 2 1 2 1 1 t u j v F G G G L } | 4.n.^.V.>.L f 1 < 3 u h k F F f 1 $ . . . X 1 C A A h 1 - .     . + % 1 % # # % # & + . . . . . . . . . . . . + $ # # # $ $ $ @ . . X $ $ - o . . X . . . . . $ - - $ $ - t k i t F F u t h G Z < . . o - 1 u C H H A u ; 1 u I G v f u : t u e ; ; e u 1 f G [ O.1.[ v n G } } } [ L [ | O.5.| O.} | @.| [ G j j i t u u i v g y g j i e e j c i g n [ v b c [ b y c c G i u t t G G g m b ( [ _ p # y j c L G V.n.P.n.4._ c ' 1.G : u ' | 2.*.] | m 2...m  .e.e.3.] 4.m m z ' ' 7 n i - O X i m y : ;   @ @ @ @ X     ",
"} [ W.pXaXtXxX;X|.Z.| O.{ 4.V.L D | | _ ] e.e.| [ | 1.1.| 1.m G 3 , I I | 1.>.| _ _ G i j ; ; - X . $ 7 7 $ X .     . X @ X @ $ @ @ : i i 1 ; 9 7 ; @ @ @ ; : u u t g g i t e t e e ; ; t e j i f n n n u i : e u e e y e ; $ $ e 1 ; ; : e i i t u f t - 1 e F F j j j G F F F [ O.[ U j e e : - : y G >.5.} U G n F u . $ F I F u j G F k j u : - @ ; 1 t u ; : f f i e < < < - e j i t 1 ; ; ; @ @ .                 . & d 8 5 5 # @ + + + . .       . $ 1 f F J o.m.G.j.>.} I A u < , 1 u u h h u 2 1 3 3 3 1 t f j v n G U L L [ } ,.j.N.7.} F h 1 < 3 2 u h f f t - X . . X - u Z Z Z h u < $ .   . . @ @ + + % 5 5 5 # + + . . . . . . . . . + + # % % % @ $ $ @ . . X o o * $ . . . X . . . X $ ; 1 ; - ; t u e 1 H H h F I J h $ . X , h u u F o.Y G Z u 1 k I I F j u u f e 1 1 t u f e f n _ [ O.[ F G L 1.O.O._ F I } | >.5.>.[ O.1.O.} G I [ I j f t : j g g g 9 7 : : i u : e i L j b G b n i t t i i e t u j b G m G b G G m [ [ f F _ @.4.8.e.w.i.:.m ] } g e j _ e.A.4.*.| ( -.b Q Q 4.| n G ' ] ] n -.1.z i j - . . ; i z : % @ : @ .   .     ",
"_ 7.E.zX+X5X>X}.;Xv.e.O.} O.e.[ _ w.5.G | | y.8.5.5.| ( [ [ N _ 3 , I O.O.5.O.1.>.1.| F i : @ X X . $ y j ; X .     . X @ @ ; $ X X $ @ - ; ; ; @ : 9 9 ; ; 7 t u j g l g y e y e : e t u ; t j u g j j g u 1 g f e u t t t ; : e 1 1 e t i j j g j u 1 ; u u k G F U G F L I F I o.G G F t e ; = = = v } 5.} j v [ L t . o k [ I h h k j k F v 1 ; ; t e t e % e k k k u 1 < - - i v j y ; % ; 9 7 % @ + . . .   + + & & 5 8 r r 7 % @ + + + + .     . @ ; u D [ } O.H.=XQ.f.+.Y G h < < , 3 3 1 1 1 1 3 3 3 3 1 u f j v n G L L L I [ +.,.7.>.I n u < , 3 1 u u u 1 ; - $ o X - t h A F F Z u t - @ . . . . . . + # % 5 5 5 & & + . . . . . . . . + + + @ # # $ $ $ X . . . X X X . . . . X . . X @ ; u u 1 ; ; t t 1 < H H h I O.I u o . o 1 h Z Z F +.+.I G f u [ ,.O.I F f F k f u u j f f f c n L L [ _ G L _ | } 5.[ F G I I } >.} I O.O.| } G G } o.I [ [ G g 7 t j t 7 t f f e 1 ; e g c G _ G b g i t u e t u ; @ t g m b c 7 = c G g % t z ] 4.-.2.}.I.4.` [ L e g t m ] u.{.r.j m ` w...m ..-.G m ~ c _ ' 1.m n i g $ . @ o 7 i t 7 ; 7 i e % X .   ",
"N.P.5X5Xn.W.n.B.}.B.e.6.5.j.2.| v.b.>.v j | 3.8.5.4.8.e.| _ n j t , Z 7.1.@.} 7.O.8.O.G t ; @ X . . ; u ; $ X .     . . . @ @ @ . . X . @ - : : ; X @ @ - @ ; : : t g y g c i u e : e u e 1 7 9 9 i v j j g 1 u u e e g i f u j u f e t i v v j u f u f u h h j G n F [ G F I I I I I I I v e ; @ @ @ ; j G I k f G G u . $ F | } F t f F j v n g f f u t u : ; ; 1 t j j t t - ; f k v j e % $ % % ; % % $ . @ # d 6 6 6 6 8 r e ; # + + + . .       . % < u F o.O.@.A.-X=XG.<.+.I k u 1 < , , < 3 3 3 3 3 3 3 1 u f j c n G U G G U I o.>.,.+.I k 1 - , 3 1 1 1 t < - ; 1 ; - < h C G F F Z u t < - $ . . . . . + $ % ; 7 # + + + + .       . . . . + + @ $ # % $ $ X . . . . X X . X X . . . . X X ; u t 1 1 1 t u 1 1 Z h u F I F 1 $ . . < h A F F I o.+.[ n k +.f.g.+.J F L F n f u n j k n n n G [ | _ L I O.} 5.1.} I I G G I } I F } | } } G I } } [ [ } [ j ; 9 e G L F I [ f - X : i c j n n n G G f 1 u u t ; % 7 9 y G _ y y z G g t v m ] A.-.] b.;.m x } m y c m ] `  .;.w.m n _ -._ m _ j _ ] L g n ] 2.8.' _ i $ o e g g 7 ; e : ; : ; $ X . . ",
"5.B.I.5X6X:XE.g.E.E.~.E.V.P.8.| O.5.| k k 3.e.] ' ' 4.4.6.O.3.b u , Z v.8.5.1.7.5.O.| _ 0 $ @ X . X 1 y ; - X .   . . . . X - - @ X @ . @ - : e : ; @ @ * X - ; ; : t g c _ c g 7 e 1 e : ; t t u u j u t e ; e t t e t t u v j j j u g v j j i g u j k u u f k j j j v F G I o.o.I I o.o.G u ; $ : t e t i I I j G G t . < G [ G U n j F n v k k F v j i t : ; 1 : 7 e t e 1 ; e h Z F j 1 $ # % ; : % % @ + @ 8 E s d d d 8 5 % % @ + + . .       . $ ; e u F [ O.q.M.#X<X^.f.+.I H A h 1 , , , , 3 3 3 3 3 3 3 u f j j k F F n n F U I } o.I F h t - , < < < < 1 < ; g l f 1 t h F H A Z h u h u < - X . . . . + @ $ % % # + + + + .         . . . . . + + + $ $ $ @ . . . . X $ . X @ X X . X $ X X - ; 1 1 1 u f Z Z f 1 1 u j h u ; X . * u h k k G } O.[ G G I O.f.O.[ L L I G G k n n f n v v b o.5.} G L O._ >.5.} I I I } I _ G j G O.| G G [ } [ [ [ I I F ; ; t I [ U I [ F t < X y _ v t e 7 7 G e e t e 1 e t c 0 y [ _ y 9 y m b b m b @.V.y.r.U.w.^ 2.w...` m | 4.r.q.u.m | _ ' ' N m n c L } c $ 1 L 8.v.| n k $ $ u j j e $ e ; 9 g : $ X .   ",
">.5.^.pXMXpX-Xv.F.|.W.B.R.~.y.O.L [ I G O.4.4.n.4.1.1.8.y.4.-.G F 1 Z 1.5.g.5.5.| } G n i : $ . . $ t u 1 ; @ .     . . . X @ @ X . $ @ X @ - t e g 7 $ ; X @ ; $ ; t t m G v e : e : : e e i c v v g e j t t e : t g g e : i f F G n v n G b c g g n c f t f n f i n j t F I [ o.I G I o.[ I j i v G G G F I } I G v 1 . t F I G G G j v U G j f g f u t e t u f D D t e e e u t j k i u 1 % $ @ $ % ; $ @ # 5 s E s s w r d 5 # # + + .           + % e y i Z P [ 6.M.!.,X=XN.,.o.o.P h 1 - - - , 3 3 3 3 3 3 < 1 h j j j k k j v F F U I U F k f 1 - , , < , , 1 1 u n F F h h Z G F A Z h h h h t < $ . .   . . X @ + @ & + + + & + .   .     . . . . . . + @ @ $ @ X . . . . X . X @ X X . X - - X - 1 1 1 1 u f G G Z u u k G F k t $ . - f h h h G o.o.I G F G F o.o.O.O.I O.[ [ I G L j n v j y I 1.5.G F [ G L O.O.O.} [ O.| L F f F | _ F F } [ _ [ o.} _ [ k : g F G G n j i e 1 i c G v : ; f j t @ t e % @ e i g j G G b b y 7 y z z _ _ ` ^ 4. .y.5.^ U.Z.2.@.x m ` ..r.Z.w.| ] ' G U n f j u j i 1 t n 5.8.O.[ v 3 - t v n i ; : e t ; ; - X .   ",
"F | N.-XtXoX-XP.!.Q.W.H.R.W.8.[ [ O.n O.g.6.4.4.8.e.5.O...-.:.L } u Z >.5.8.O.>.L F j G n e $ . . ; u g : $ . .     .   . . @ X X @ X - @ X @ ; 7 t t : t ; X @ $ ; t z m G j t 7 : : e e i G } G [ G j n n l e : f u e 7 i i i k G F L k b j g y g c F v u i j f f F v i j G I I F F I G G I G G I [ I [ o.O.O.O.} F 1 . u J [ U F I F k U F f j e 1 : e u f k f v F i e u e t u i f u 1 ; $ $ @ @ % % $ + 5 8 s s d 8 8 w 8 # & # & + .         . + % r i u i A I ,.m.F.$X=X~.j.<.,.P h 3 , - - , 3 3 3 3 3 , < 1 u f h f f j j k n F G G G n j u 1 - , , , - - 1 1 h P I } F h F P F F Z h C h h h t $ .       . . . + + + + + + + + .   . . . . . . . . . + @ @ $ - $ . . . X . X $ @ X X . $ ; < < 1 < ; 1 < ; g G I G u t i k k f t $ . ; h u 1 h I o.o.I G j F n F G O.| [ 5.} _ [ L _ n g v n g j G O.I k F I } | O.5.O._ G } [ L i j } G n F } [ I } o.} _ [ I f 1 f G G I G i $ : n F n G e ; i u 7 e e e ; ; e v y m g _ L G G z 9 b m m Q ..w.w.=.^ u.q.I.{.b.b b.4.Q Q Q ..Z.1.j j f I k 1 1 t u u t g F 1.| [ 2.L f - f v G j $ 9 g : @ @ @ . .   ",
"n F O.A.%X.X5.oXR.|.B.R.W.XX| G } v.5.5.5.4.e.5.5...v L 8.4.] | O.h u O.b.1.5.} k v v F G : . . . $ t f @ @ . .     . . . . . . X @ X X X @ ; 9 7 e e : t ; @ @ X ; t t g n g 0 7 $ ; i i c G G _ [ [ _ m n j g u 1 1 f v F j j v j j F j n G } O.} >.5.O.I F F j A I F f j j v J G G [ G j k D I O.+.o.o.o.O.O.[ [ G t O t I [ G F F F I I f f v f : 1 u j Z Z k f e 9 e e : i f j v i 1 ; @ @ @ @ $ $ $ 5 5 8 8 8 8 6 5 7 5 # + & # + .         . + 5 e y u h Z H o.f.k.T.).$XN.,.<.P h 3 , , - - , 3 3 3 < < < 1 u u u u u f j k n F F G G n f u 1 - , , - $ - 2 h Z Y o.>.H C F H F F Z h h h h h u $ . .       . . + + # @ + & + + . . . + . + + + . . + @ $ $ $ $ @ . . . X . X $ $ X .   X $ - ; 1 1 ; < - : k G [ I f 7 7 t i e - X X ; u 1 < u F } o.[ F f F F F F [ L _ 5.O.[ L [ I F g j L g 0 G o.} G f v [ _ [ O.O._ L G _ _ j u I G [ } } [ I [ } [ [ [ [ h - 1 u F I n j g i i t 7 u e ; t i G c i u e ; % e y G j b m z } G 0 z p b Q ` -.y.i.w.Z.p.;Xr.| _ 5.....` Q X.;...j N F *.I 1 f Z t 1 G [ [ m y j c L i - 1 u j f ; - ; $ . X $ . .   ",
"U F I 5.A.A.x.}.%XR.R.R.W.%Xg.G 5.w.e.j.L } b.-.O.8.[ O.5.v.] 3.G u u O.@.7.| [ [ I O.G g e $ . . X e v e . X .     . . $ X . . $ $ . . @ @ ; f 7 9 ; : = ; @ $ - ; e u t j g t 7 7 u F [ _ c y c c ' @.1.[ n n f g 1 u F n g g G F G U G [ O.1.>.O.O.1.5.O.I G j h [ +.G i e t F I I I I G I D F I I I O.} G I F F I h   1 F I I G D k [ +.G k v v g f f i u j f ; = e 7 : e t t i D F D t $ @ X X . @ q s s r 8 8 5 5 # # & + + + + .         . + # % 7 e i D F F I +.f.G.Q.^.k.,.+.P h 2 3 3 , - , , < 3 < < < 1 u u u t u g j j v n F F F k h 1 < - , , - $ - 2 h A Y <.5.H A H F A F Z Z C h u u 3 $ X .         . . . + + + & & + + . + + + + + + + + + @ @ $ $ - $ . . X X . X $ @ X .     . X $ ; ; - - - : i j G I j : t f i ; $ X $ < ; ; ; ; 1 F I G F f n F F F v G L O.1._ m G I k t k U n z c _ o.} [ G G G G _ [ G [ _ L } n u F F } } } [ [ | [ _ [ F D u $ 1 f F G n z y y i 0 7 t i u t 7 9 0 i f t u i g z z y e n c n n G v c c ~ ] -.8.U.u.I.r.OXr.( F } ( ] ..w.w.2.' L 1.F L } u h F I F } [ 5._ p n 1.t : o - : e y ; $ ; @ X X . .     ",
"k n 5.k.g.8.5.R.%XN.N.=X;X;XH.B.B.8.4.@._ O.8.*.5.8.5.7.1.*.y.y.} u h O.O.| [ _ G [ G G c : $ . . $ : f f - X .     . X . . . . X @ . . X $ ; ; : ; ; ; - ; ; ; ; 1 e t 0 t g 7 ; i F I 1._ g y y m z | 5._ G [ G j u j c c n O.[ U L L v G [ _ G F G L I I I F k F [ O.o.I f t j F G I G [ +.I F F F F I I F F j F [ Z   ; h Z Z h Z G I [ G j j k f g F j t j F e ; e 1 t i j D F G G G v t < @ @ X $ y ! a r d d 5 5 # & + + + . . .     . . . + % e e e i F F F I ,.d.k.m.G.k.,.Y H Z h 2 3 , - - , < 3 3 3 3 1 t t t t u f j j j k k k k j u 1 - - - , - $ , 1 h A Y +.,.H F P A F F Z A Z C h u 3 - o .         . . . . + + & & + . . + + + + + + . + + # % $ $ - $ . . . . X @ @ @ X         . < t ; - ; t h k v F F u u k n i - $ - - ; ; ; 1 1 u v v v k j F F F I L I G O.O._ | _ G f i F L L G c G [ } 5.O._ G n G G G [ [ } | n u F F G F I [ [ F n F [ } k 1 $ t D G L [ n 7 i j i i i j t j c 0 9 t i : e D F G _ n t - g c y G _ _ [ :.] Q -.y.^ :.a.[.b.b t v b ..` ;.w.| | 4.[ G | >.k f n I [ 6.[ ..4.b.y.4.c u $ ; - ; 7 - X @ ; $ X . .     ",
"h I x.B.8.y.| 5.R.}.n.R.XX+X=XXXE.g.>.1.4.6.6.6.4.8.4.] 1.8.b.y._ u j G O.1.[ v G G G L m ; X . . X : e t ; X .       . X . . . X . X X . @ ; ; : ; $ ; $ ; ; e : 1 e t t e t ; ; i k j G | _ G G G g | v.| L | o.F g i g G O.O.F k z m G G G G G v b b b j F G F F o.O.o.O.o.F u n F L _ I G I o.I U G F I o.[ G I I h . , 1 1 < 1 Z F k G F j F F u u v F D t t t e 1 e i t u Z F I I _ v j u ; $ @ $ p ! r 5 6 6 5 # # + + . . .         . + @ @ % r i t i F G J o.O.,.f.g.k.l.5.+.P A C h 3 , - - , < 3 3 3 1 1 1 1 t t u f j f f f j k j f u 1 - $ - - - $ < u u S Y +.Y A P P F F S A F F Z h u 1 - o .             . + + & & 6 + . . . + + + . . + + & # % % $ $ $ O . . . . X X X . . .   . $ u h 1 $ ; t h j k j i t t D F i ; * < ; - - ; ; 1 v U F F v F I o.[ o.O.O.L G } 1.8.| G k k n G } [ | } v I >.O.' m m m n F [ [ { ] G t n v c v L I _ v y c G I F u e i F F G L z j g i i i j v u t t z z i e $ $ k F G [ _ u - : t m b _ 1.e.] w z ~ -.;.i.i.I.e.y $ 9 0 . ..w.-.' 1.b.] 3.4.5.} >.G ' 5.4.b.W.;XoXI.V.[ F k k j v g - . $ ; $ X . . .   ",
"P ,.#X0XS.V.b.| 3.n.B.n.P.E.W.P.A.5.b.1.| 5.3.[ O.| e.8.[ 5.7.3.[ u Z F 1.L _ c c g k _ y ; $ . . X : 7 t ; $ .       . . . . X . . . X . @ - ; = 7 @ ; * * ; ; 1 t t t y e 9 ; $ e 1 e i G } O.[ G n 1.b.6.G | O.| _ G G 1.>.F i g z G _ L F G L G G b z j v F v j +.5.o.o.5.+.h f n F [ [ G G o.o.I I G [ 5.o.j v j < O 2 j j u f F n g h k G F u : u k F G j e u e ; : 1 t u u F G G [ [ G j e ; < t a s 5 5 8 # & & + + . . .           . + # % 7 r a i i F G I O.,.,.5.g.g.j.f.+.Y P S h 2 3 , , < 1 1 < 3 3 1 1 1 t t u j j f f f j k f f u 1 - o - , - - 1 h h C P <.Y A P P F A F A G G F C h u < o . .           . . + + 5 5 + . . . . . . . . . . + # $ $ $ % @ X X .   . X X @ @ @ .   . $ 1 u 1 - - ; 1 t e f k t - t v f - $ - - o $ ; ; 1 k F I I G F I O.O.O.O.O.} [ } 1.5.1._ G F j m [ O.| [ F c [ O._ m j c n c G { [ ' j 1 b G G L _ G G g z j _ G b v v F F G [ _ G b g g 7 y j i i 7 7 = c b t 1 ; i F _ } O.I n ; g | b c _ 2.] y g | ;.;.p. .u.w.y y 7 y ..w.r.b.2.2.w.( ' 4.5.8.8.G k 5.A.E.oX;XoXI.1._ G v F F G n < . : 1 - $ . . .   ",
"o.k.:XjX>XH.m.5.8.8.j.P.A.|.oXXXB.5.5.4.@.O.6.[ G | 5.y.>.} | O.G k F _ O._ t L n t L G 7 $ X . . $ e 9 t ; X         . . @ X @ @ @ @ X . . @ @ ; : ; @ ; @ $ - : t t t t e e ; ; t t f g i j F [ L L >.5.} G O.O.L G v G 1.O.F g c b G G G G G G G G n c c v F v F o.,.,.o.O.,.I j j c G [ I G J +.[ G G [ >.o.k u e @ O u I [ I I I U F j f F F e ; e f f k F f e e e u i u 1 t F G F } e.e.@.F i z b x p r 5 6 & + + + . . .           . . + % e e i v v i D G I >.7.f.f.g.g.j.7.+.+.P A C u 1 < 1 u u 1 < < 3 3 1 1 e t u j j f u f j j f f u 1 - o - < < 1 h F h C P <.o.A P P A F F F I I F Z C t < - X . .         . . . + & 5 & + . + .         . . + @ # @ @ ; % O . .   . . X $ $ @ .   X $ $ ; 1 ; $ $ ; 1 e f k t : : j f ; $ X . . X ; 1 e f i k G G F G o.L G [ O.I o.o.[ >.1.O.O.I g m | | 1._ G n G _ [ n n j G F [ ] ] [ i 1 n _ L [ [ G n t c m L L v _ I G G G L _ G v v i k v 9 y 9 7 t # = v h 1 1 f F } O.O.O.v : e y z m g V M m G O. .i.+Xw.Q ..6.G v O.6.m ! S.b.u.*._ _ 5.8.8.7.I I B.W.%XkXuX-XoXe.1.| [ _ G L g - . - ; $ $ X . .   ",
"F f.=XqX|.k.m.R.9.O.2.}.}..XXX|.8.O.5.>.O.| G [ @.} 3.5.b.B.1.4.[ f F O.5.1.m z m G [ z t $ $ X . $ : e t $ X         . . @ X @ @ @ - X . . @ @ * ; t ; ; ; ; - ; t i : : : e : ; t t j v i u z } O.O.] | G 1.1.1.[ G n n [ } n c c n G L G _ G G G G G G F b F F F G o.d.5.} o.o.I j u n U G I J J o.G G _ I I G G F t O u o.,.O.I j j G F j u e ; - - 1 u e h F v f D Z e 1 ; 1 F F j h J 5.e.} G G b a r 7 5 6 + + + + . .           . . . @ % e y i F G F F G I O.7.g.g.g.g.j.f.<.<.Y P F h u t u j f t < , 3 1 1 1 1 t u j j u u f j j f f u 1 - o - 1 t h I I G F P <.} F P P A F A H P P F Z h u 3 , X . .           . . . + & & + + + + .       . . + & # $ @ $ $ . .     . X $ $ $ @ . . X X $ ; : 1 ; $ $ : 1 e e e i g g f t ; X . X - : u e 1 u u i j F k I } n F o.F G F v _ O.1.1.O.[ m _ m _ G G _ c b _ G n g j n G ' [ G g 1 L [ G [ _ G F j n m m v F | [ F v j v f f f t i n v i z j i z z y c u 1 t f i y z y 7 0 ; ; y 9 i t 0 ] | _ 6.w.0.I.P.^ 1...@._ O.m p ! ..w.e.y.} O.8.5.O.5.,.g.Q.!.:XuX;X-XoXE.1.1._ | [ [ v $ O : : $ - $ . .   ",
"F } m.F.m.N.N.!.R.e.9.n.b.v.y.b.-.G G 4.5.5.| G } } | e.2.8.1.| | v D } O.O.b b G @.t G i - X . . $ ; e e 7 .         . X . . X ; @ X @ . X X ; @ # ; ; ; : ; ; $ t 9 : ; ; : : ; 0 t j j j j L O.O.[ } O.G O.1.5.| _ G n G G n m m G G _ G ( _ _ _ L G I _ v j G v j I 5.f.O.I I I I f j v F I L F I I G } [ F v G [ Z O u I ,.5.} v u F I F f < - $ @ - 1 e u F J G D f : $ . ; j j i D o.O.5.1.| b v b r r 5 & + + + . .               . @ $ ; y a v F I J F G I O.7.g.j.g.f.j.f.f.7.f.f.+.A h f k k f t < , < 1 1 1 1 u h f f u u f j k j h t < $ o , u u G 7.5.} } o.o.I F P P A F H P P P P C h 2 3 , o X .               . . + + + + & + .       . . + + @ @ @ @ @ . .     . X @ @ @ @ . . $ $ - 1 ; $ ; - - : e 9 e i u i u u u 1 $ o $ ; ; e u : u f j k G F o.5.G j F F G n v G G _ L } o.G n m c c c m G b m c c y g i g c m c i t L _ G _ @._ G [ _ c c f k | G i u t u 1 < u e n L G n n n j i y 7 = $ @ @ # % . . = 0 c y t _ ( ; t t z ` @.-.w.oXw.^  .` g m [ O.m 0 ~ ..` y.Z.e...V.8.>.8.5.j.A.H.:XyX>X>X-XE.| [ @.| [ L u o O ; e e 1 ; . .   ",
"G O.f.N.B.k.B.~.=XE.8.1.v.e.[ 4.y.n v O.7.} 4.O.G O.} 1.8.1.{ ' L F k [ O._ _ m m z m O.m $ . . . o - 1 : ; .       . X . X X X X X $ $ X @ X ; = ; ; % % ; ; : $ : e 7 : : ; : t e i j g g t G z ( 5.5.1.] _ { 5.1.1.L n c L _ _ _ L F G G L _ _ _ G F G } F z v j y I 5.g.5.o.o.o.O.I f j f j j j F L G I o.o.I G I Z O F I } 5.5.I 1 1 h Z h - - - - - u f h F G G k u ; @ . ; i v k F { 6.g.x.8.F v ) K r 5 & + + . . .             . + $ ; e y v K K _ I G G I O.7.7.g.g.j.j.k.j.j.Y.~.m.I F G G F h u < - , 1 1 1 1 u u h u u u f j h f u 1 ; $ o 1 f f [ B.B.4.7.7.+.P F P P A H H I I I F C 2 2 3 , - $ X .               . . + + & & + . . . . . . . + @ $ @ . . .       . . @ @ @ @ . . $ - - ; ; $ $ $ - : e u g i 9 e t t u 1 $ o $ ; 1 u f u e f F G U I [ [ F v j f v n y z G n t i g i y z y y g z m c n m z z c g t g { m G j [ ] [ | 1.@.5.| | G G t f L n 1 1 t u 1 1 f y G [ n j c i 9 # @ = ; @ @ : j t c b y q z 0 7 c 0 $ $ t n N e. .;.wXE.3.:.] -.{ [ _ c c y m `  .;.] 1.e.4.8.1.} g.7.7.H.%X X>X.XB.4.O.@.O.5.O.u O o ; 1 : ; $ o . . ",
"F } j.m.g.g.J.=X=X%X8.' 3.5._ L O.[ F O.O.[ O.O._ { 2.O.4.O.G _ m F F J [ n L G _ G G _ c $ X . . X - : ; @ .       . X @ @ @ . X @ X @ @ X . ; 9 ; ; ; ; ; ; ; ; 9 9 : e : ; u f 9 u l f : i j y } O.' 1.v.8.8.6.1.1.[ _ m } [ G G G F n n F G _ G F F G _ G v j v y j ,.j.g.f.g.g.+.o.I f ; t f e f G L F G o.o.[ [ h O P O.} [ >.} 1 . , h u ; 1 t : ; u D F F J J D f : . . t J I G F I _ } 6.x.G b { ( r # + + + . .             . + # % e i i F G J _ [ J J I O.8.7.7.g.R.F.Q.~.~.9XpX=Xm.>.7.O.F Z h 1 - - < 1 1 1 t t u u u u u f f u 1 1 - o - f F A O.R.R.y.v.j.,.P F I I F P H I } o.F h 2 2 3 , , $ X .               . . + + & & & + . . . . . . . @ $ $ X .           . @ $ $ X . . X @ - ; : e t e 1 e t t t e e t u u t < - o $ ; e u v k j k G I [ [ G c c z j e u n u t F k u ; - ; ; e 7 t y y z z c m Q ` L g l n 1.4.| i G _ | 8.8.6.8.5.8.1.| f t u t 1 e j G v i y m G n 7 # 7 0 7 # 9 7 = @ e v n j G [ G y 9 t 9 m g : $ $ y y 8.w. .U.P.R.;.z ..G G G G O.] 4.b.-.-.| ] F [ [ 5.5.[ I #.M.A.%X%X XH.x.1.O.| 1.5.u O $ u g i 1 ; @ .   ",
"o.Y j.j.m.m.E.=X*X*Xx._ [ 5.V.*._ [ I O.G G L 3.7.L G G G [ | G ' _ G G L G i n G G G i f @ X . . $ ; ; @ . .         . X @ . . . $ @ X @ . X ; 7 ; @ ; ; @ @ t : t t : t e : 9 9 9 g j t t j i i v G } | O.| 5.O.| 1.| | _ L _ _ L G F n k c n G G G G v F F n I o.O.o.g.k.f.d.5.g.[ F O.O.n j j e u G [ G j F I G G u O P 5.1.} O.O.h $ u Z u h j u : : u h Z H I F k j t $ $ i J o.G I [ J J [ [ x { ( ( e # + + . .   .         . # 5 r r i v a v F [ o.o.[ J [ >.g.f.f.j.*X8X9XjXpXbXNXMX9XB.V.7.G F k t * $ - < 1 1 1 1 1 t t u u u u u 1 < * X ; F U G >.L.B.7.m.7.+.P F I } I I I I O.>.I h 2 3 2 3 , $ X .               . . . + + + + + . .   . . . . + $ $ @ .           . @ - ; @ .   . X - ; : e u t 1 e e ; 1 e e e t u e 1 ; $ - ; 1 u n F G I I I [ L v k G G k 1 ; e ; 1 ; < - $ $ $ $ - $ ; y y y y z m m ' ' m N m } ] c e b ..2.r.v.6.5.6.e.8.5.F h t 1 u F L G F n g c c t t g y z 0 7 y y t ; e 1 v i n F I ( m y 9 0 z 1 @ - e z O.-. . .}.oX` G c g _ } } | -.] 2...] } m L G } } [ G D O.g.M.|.|..XR.g.O.[ | | J 1 O $ f c t u : X .   ",
"I o.,.j.B.B.B.R.$X(.A._ ' | e.8.[ | [ O.O.L G >.O.| G b c G O.{ _ ' G F I k t G G n i t i - X X O $ ; - . . .         . . . . . X @ % @ . X X $ e 7 = # @ @ ; t 9 0 t 9 t 9 : y y t c j g g c j j y y G ( ' b _ _ G } [ 1.] | O.[ I I G I I I O.O.O.o.o.[ } [ O.,.,.f.g.k.k.d.[ F [ ,.I G +.[ k c j u c L L v i F J F t O P 7.g.5.O.O.H C H G u v I F ; ; u Z k F D f t u t u h Z F G F J F F ( | ( ( { ( ! r # + . . . . .   . . + % 8 s a a z v a v F [ O.O.O.[ o.8.g.f.f.j.9XpXlXCXmXMXAXFXNX=Xm.,.P F Z 1 $ o - ; ; < < < < 1 t t t u u 1 1 < $ X 1 F U G ,.m.j.,.7.>.} } I P >.>.o.o.O.>.>.I h 2 3 3 , , - @ . .             . . + + + + + + + . . . . . + + + @ . .   . . . . . . @ $ @ .   . . $ - ; ; 1 ; ; : 1 : t t e 9 u u e t 1 - ; ; ; u j F F J G F F F v j F o.I u $ $ X $ $ X . $ t t ; ; ; $ 7 j b z c m ` m _ ] ] L c c z t G ..6.2.e.M.6.1.1.] } G G i u n O.| ' c g g 0 z G c y t m c z z y y 7 7 @ = j b G _ [ m 7 . z | L e f F G _ ~ ]  . .w.Z.| 0 y 0 | O.| ] 3. .| 3.N 1.1.4.[ G Z G I 5.O.x.A.v.A.R.b.1.| G j j 1 O $ j g : t : $ .   ",
"Y O.7.L.m.m.R.~.*X(.B.} | | ] | [ | 5.O.| G m G J _ m n L [ } } O.O.| G n G F m | [ n g f - $ X . X $ X . . . .     . . . . X X X @ @ X X . . $ e e ; @ @ @ e : : 9 t m z g g c g f l t e t u j j z t i g ' _ O.| G _ G } L n F f F I F n v _ O.O.5.,.5.5.O.I 5.,.I o.I ,.j.f.[ F J ,.o.u u G j j j u j F G F j j G G 1 $ +.h.8.O.} [ G J o.I Z j L G 1 - e u j Z j j i e t j Z h f v Z k i i ( #.( K ) K b p # # . . . . . . . + % r p p a a v v v D D J O.5.@.O.O.g.m.g.7.7.(.9XkXNXvXlXMXHXAX9Xj.+.P F Z t $ o $ - ; ; ; ; ; 1 1 1 1 1 1 < ; - o o u F G P ,.j.7.,.5.>.O.7.>.o.8.7.o.o.O.O.o.I C u 2 3 , , - @ X .             . . . . + + + + + . . . . . + + . + . . . . + . . . . X @ $ . . . X $ $ ; 1 $ $ 1 1 e t 1 : e e i f t t 1 ; ; 1 ; u f n j G F h v G F v g n [ G 1 , * o X $ X - c z g i i 7 y v G G m N ' _ L ] _ n c j i t G 1.y.8.2.8.5.| _ v c G [ k u n G _ L g b i j t n b 7 7 0 z g 9 7 7 0 ; @ : G G G G } @.c # m O._ ; f _ c t x  .:. .u.~.g.c G g m | e.}.E.e.e.1.V.5.y...L L Z G | v.b.b.n.8.2.1.1.| n G v f ; O $ u G v j 1 X .   ",
"} O.j.R.m.Y.!.R.~.Q.g.3...' | 1.F L _ O.| _ | L G _ c n O.O.1.G _ | O.} U [ n g _ | F c v ; $ X . . X . . . . .       .   . $ . . @ . . . . . $ - - $ @ @ @ 7 ; $ ; : n n g y e i n n g ; ; e i t m z m c L O.| L m ] G n c u u j f k v G L O.O.O.O.O.5.7.O.b G D i i : f H I F j v G G j ; e f e 1 u f v n F _ F j v 1 $ +.,.[ G v F G F [ o.J v f n h t i j F Z D D Z t ; u u 1 ; e i h i v G ( K v K ! E r # # + . . . . . . + % e e r y r z D D Z j F } o.o.+.o.,.g.g.5.>.m.~.9XjXeX*XeXlXzX).f.+.P F A u $ . o - - - - - < 1 1 1 1 1 ; - - $ X - C P P P <.7.,.,.7.,.>.N.7.+.8.7.| I } [ Y Y Z u 1 < 3 < < $ $ .             . . . . + + + + + + . . . + + . . . .   . . @ @ . . $ ; $ X . . X @ ; 1 e e 1 t u u ; : 1 ; e e f j f t - ; < < < u f j j G F i f v F F G g L [ Z h f ; @ 1 u 1 g z m n z z y m y c ' z 9 c f z c i e e e e f L ] 1.3.| 5.{ m m _ ( _ n u k n | _ z m G G G n c y c g y y 9 0 = 7 @ @ = g G _ _ | O.[ y G | ] g t F _ z x  .;.^ 0...j.z j c z _ 4.E.&XE.v.n.v.] L -.] n k c r.Z.C.A.b.8.O.1.[ G j k k j ; . X t G G F e @ .   ",
",.j.W.pX~.^.F.k.n.n.v.8.2.1._ F v L 1.1._ m V.| } _ c n O.5.5.o.| O.[ G } } j c _ L v n v : $ X . . . . X . . .       . . . $ $ @ . X .   . X @ $ $ . X . X # $ @ @ % y g n g 9 e y g 9 ; ; : t : i c G F G O.[ n n m m j n G c i u e i G _ } O.O.O.[ [ } _ n b b j n F j t i v F F u n F f : ; ; t g u u f j [ I i t < < D v t n n n } [ G G k k v F F f F F F u u g u ; ; : t e $ % e i v G @.[ v a a s E r 5 d # . . . . . + + $ $ $ < 1 e i i i i u i D D F I I P o.+.+.o.>.j.Y.~.^.Y.Q.(.(.z.,.+.I G F h * . . o - - - - < 1 1 1 1 ; - $ $ X . , F Y P F o.<.o.O.7.>.<.k.,.Y >.1.} I I I P P Z h t 1 1 < 3 < $ . .             . . . . + + + + + . . . + + . . . .     . @ $ X . $ : - $ X . X @ - e u 1 t t u 1 ; 1 u e e e i i j u ; 1 t ; ; 1 e g k k j k j F n c n c G [ G G o.F e i F f F _ L ( c m m _ c m L 9 : z 9 f c z i ; : e e n m m c m | | [ ] .._ v i e t j | 5.n | @.m _ _ _ z 7 y z i = 7 7 = @ X + @ t y n _ | _ 7 z G N m 7 g ( ] ^ ! ! ^  .m L i 1 u z c ] 8.n.b.u.b.L [ _ 3.5.@.L n 8.8.8.8.r.4.n.n.>.[ k t t t ; . o e G b v e @   . ",
"o.^.&XzX%X!.R.G.R.R.^.x.v.1.e.L u F 4.] _ z 1.>.O.( c n [ O.| O.} | _ G c L I } n j G G c : $ . .     . o . .         . . . X @ @ . .   . X . . X .   . X X @ X . X $ : 7 n c e : ; 9 e e e : : 1 t z m c n } O.O.} G j g L } _ i i v L I G _ _ G L F G I } O.5.O.[ _ I [ ,.O.[ I G j n F f ; - f k j j f f u k k f u ; 3 h u ; : v G } ,.o.D t u f j F F v f i f u i e ; ; ; ; e ; % < 7 y F | _ i a ! r s 7 5 s 6 + + + + + + + + . . @ @ $ < 1 e t e 1 t t u h Z h A F H F F [ >.f.f.7.f.k.z.l.,.o.[ G F u $ O . X o $ - - ; 1 1 < ; - $ X . . . , Z I H F I I I o.>.o.+.,.Y H o.o.U F G G F F h h h u 1 3 3 < - X . .             . . . . . . + + + . + & + . . .         . X . . @ ; 1 ; X   . @ $ ; 1 ; - < 1 ; ; u f e u u e e u u < 1 u ; $ ; : u g u g F n [ [ [ [ G G G G O.5.| G j v i n 1.} L G _ ' G n l g y ; e 9 y m m l ; : g ; 9 g m c t G 5.2.| ] G i t : $ e n 8.[ G _ G 0 y c c y ; e 1 ; ; @ ; X @ @ @ # # 0 y m m z G c n ' y _ c w.w.q. .:.^ m g : u y g $ ' b.2.2.w.y.} c j >.u.L j m 4.2.5.[ 2.2.n.B.O.F u u u 1 ; . . ; j c y $ $ .   ",
"o.j./.:XXXXXF.Y.Y.F.XXW.E.v.y.[ t j _ ' G n L [ O.| i i G O.O.O.I G G _ F i G [ L L [ v u - X . . . . . * . .           . . . . X X X X . X X   . X X $ @ @ X . . X - ; 9 g i f ; - e g u : : : ; : j g u L 1.4.8.5._ m c m _ G f j G O.} n L L L L G G [ [ 5.g.5.} G G [ O.[ G k k F n k f u j F k n n n j u e : t u - 1 J G 0 = j G G o.O.G : ; u F I F j g i i e t : ; ; ; $ ; < ; % % e y D v i a ! r 8 $ # 6 5 & & + + + + + + . . . . . @ $ ; < < < , - $ $ ; ; 1 1 u t e u v U I I I +.,.,.Y } } G C 3 X . . . o o - - - < < < - $ X . . . . - h F A A G G U I o.I Y +.P F I G Z h k k h j f f u 1 3 3 , - $ X .                   . . . . + & & . + # @ . .             . .   . - ; $ . . . X @ $ - $ $ 1 e 1 1 1 u u u u 1 1 ; < - * 1 - - e e u u e g k k G 1.7.O.[ F v b G | } _ G i t y ' ' m L | ] _ m z t y 7 y y g z g y ; e j ; ; t g 0 t g G ] _ G F j c : $ e g z z b _ { y # 7 n i ; ; $ - $ $ 7 @ X ; 1 0 7 0 z g y z _ ( 0 _ Q ;.| m w.b.w.:.2.;.| I z 0 m Q Q E.b.-.u.w.G u g | 1.] n G 3.5._ [ G n [ [ G j 1 e 1 t 1 O . o 1 g = X . .   ",
">.j.^.*X%XW.R.F.N.N.Q.R.P.b.x.| u z ` 2...-._ G [ G u i G L | 5.I v G _ G f G o.o.[ G F y $ X . . . . . - o .         . . . . X X X $ X X X .     X $ ; ; $ @ X @ ; : ; 7 7 i i t 7 e 9 : ; ; g : e e t 9 c 5.5.@.8.e.| G m _ c l j I O.O.G j c U G G I [ } O.5.O._ c b L F v f u i n G F F F F n n U F j g e e e 1 : $ - H I y y g g g v I I f ; F o.[ G h f k u t i e ; ; $ @ ; ; @ $ % e r r y y r r 7 r % # 5 # 5 & + + + & $ + . .     . . @ $ ; ; $ $ $ - $ $ $ $ $ - ; ; ; < u h f G G F H F I o.P C 3 X . . . . X o o $ - - , - o . . . . . $ t h h C C k F P I P F H C h k h u 1 u u u i u t < - - - o X . . .               . . . . . . + & 6 . + # . . .               .     . o . . . X . X @ @ $ $ ; < 1 1 1 u u e e ; - $ @ X X o @ ; e 1 ; 1 1 t k g F [ 1.} I G F F G c m | } v y g L } G n m m c n g g z n g g c m N y e g g ; ; t : ; * ; y b c c t u v g ; 7 i G c y 7 L [ y y 7 = 7 e ; $ @ t e ; X $ e t y z m c y c z z n m ` w. .=...-.M ] P.W.2.{ _ m ..] _ 2.b.i.4.y.j 1 u n 3.| j m 2.| L j i i c v u e - ; ; 1 - O . @ - ; @ . .     ",
">.N.).0X6XyXB.F.R.m.5.g.g.V.P.@._ _  .q.#.| m G L G e e I O.1.1.I F n F F v F [ I O.U F j $ . . X o . . $ $ .         . . X @ X ; @ - @ @ $ X . . $ 1 : * 7 ; @ ; 7 ; : ; ; g u e t c j j t ; y e t : g y n _ m | 4.1.G n n g f y g n I | } n c G _ } O.} } O.O.I F z F G b F v j F v F F G F n v G [ F f e : u u 1 t 1 X D [ n t t y t ; i [ G h o.O.J Z f f j i u e 1 ; 1 < $ $ ; $ $ $ % a a y a e 7 8 r % # # 5 d 5 + + + @ @ + + .       . @ $ 1 e 1 ; 1 t e ; $ $ - - ; 1 ; ; 1 u k _ [ F k h F Y P A 1 $ . . . . . O . . X X o O . . . . . . - h h h h h h h C A Z h 1 < 1 u t ; - ; ; ; < ; $ X . X X . . .                     . . . . . + & 5 . + $ . . .             .       . . . . . X X X @ @ X $ - ; 1 e u j t ; 1 ; $ @ @ . . . . $ - $ $ - - - f u F n U G I I [ F _ 1.1.5.1.F i g m ' n i z c n l m m g m c f l _ ' n g t 9 $ $ - - $ o 1 g G m j : $ 1 1 1 : j G p y 0 c _ c 9 9 # = t t e t c e @ . @ ; ; g G m m c z c m G m ..i.r.4.:.| 1.y.;XyXZ.n G  .4.` ` y.Z.i.` ` i 1 1 k L g g t _ n i j l f n g t ; - ; 1 : $ . . X $ X X X .     ",
"o.N.|.wXyX&XN.B.j.7.,.>.>.y.8.| 5._ ` u.@.m i n n v : < G >.>.>.[ [ L G G n } | G L G } j $ X X $ X O O . X .       . X . @ - ; $ - e e ; $ X . . - : ; 7 ; ; ; ; t : ; - - 9 9 t n n j n j ; c c m j c g g m G _ ] 5.G n n : 9 t i n L 7.5.| [ L [ L [ [ O.O.O.[ G J I L F F v F [ I F v F F v v G [ I F j u g f h D i @ u [ } g = y t : t v F G o.[ G Z u u f k k t 1 < 1 1 1 @ X $ $ @ $ r p e r 5 8 r r 5 # 6 6 d + + + + + @ # $ + .     . . @ ; 1 1 1 1 u t ; - - < , ; 1 1 1 u h Z I o.I F Z F P I G h 1 $ o X . . . . . . . . . . . . . o X t G U h u u h u t 1 1 < - - - < - $ $ $ @ X X X . .                     . . . . . . . . . . . + + # . . + . .               .       . . . . . @ $ @ X X X @ $ - ; ; e u 1 - ; : - $ $ . . . . . @ - $ @ $ * $ 1 u f n G I O.O.} } g.7.5.7.} } G t c i t g j m c t : e 1 t t t c _ G c g t * $ - o . o ; n m L j e X . $ 1 t t n b z m z y z y 0 ; 7 : i t l y 0 @ X @ $ ; : 7 t z n : N v | n ' 2.P.4.] O.5.E.U.p.i.4...] u.v.y.4.y.;.` ..| j - u n G n e f m j n f c j t f ; - ; 1 e - . . . $ X X . .     ",
"U ,.R.#X&X|.Q.W.N.5.[ [ O.>.8.@.| G c g u g j g g c : t G O.1.5.5.O.| L U I | [ _ G v } j $ X $ $ o . O . . . .     . . . @ - $ : - ; = ; $ X X @ y m t = 7 ; 9 ; c u e e t g ; e m g i c t ; y c _ m G 9 z _ ' m _ ' _ [ } i e 9 u t v 5.6.1.[ L L I [ [ [ L I o.[ [ O.[ U F k F I [ I F F G F F I o._ I U F k v J [ F - $ F L F t 9 t : u j g F I k F I F i f j j u t 1 ; ; 1 @   . + + @ % 7 7 7 7 r 7 # # # 6 6 6 + + + & & & # # @ .       . . X $ - < < < < , , , < < < < < < u h C A P I F C Z F I [ L k 1 ; $ X O . . . . . . . . . o - - - z ] [ k 1 u u u 1 - $ $ , 3 , - - - - - o . . . .                   . . . . . + + + . . . . . + + + . . . .                 . .   . . . . . . X $ @ X X X X @ - - $ - e < $ - ; ; $ $ X . . . . $ 1 1 $ - - $ ; < f v I o.O.5.O._ 5.5.O.8.1.7.o.F n t f f 9 : e e ; : 1 t ; 1 g _ _ m m m 1 1 1 $ . - ; l m G n ; $ < < 9 7 g c b g y i z i t 9 ; 7 ; e - 9 v c 7 @ X @ @ ; - $ : u : : @ L n f 4.;.P.' [ N.XXOXp.w.5.4.2.n.e.4.w.S.Z.2.e.1.} i v n c m n k e < u u g f t f 1 $ ; $ - ; X   . o . . . .     ",
"A } m.R.&XW.~./.V.+.o.o.[ } ] O.5.[ G c j n G j g t 1 u G [ ] 2.O.1.O.| ' [ ' | | | n ] G : X - $ ; O O X . .         . . . $ - $ ; t 7 ; ; $ 7 u e 9 l y ; t t : u u t t g n 9 i m t i m c c y e b | j y L b c c m ( m z n u i g t : f [ | [ U [ [ [ [ _ L } O.o.O.O.o.[ G F k k I [ J G I [ I F F [ [ [ G F F v G [ F - $ e u j j t t t e g t h F t k I I F k h t t t < ; $ @ . . . @ @ $ < e i r 7 % # & & & 5 6 & + & & & & & # # # + .         . . X $ $ - - - - - , , , , , , < 1 h h C C h u u h F G G v i u 1 ; ; - X . . . . O - ; ; 1 1 1 F | [ h < < 1 1 < - $ - , < 1 < < < < , o X . . . .                 . + + . . + + + . . . . . . . . + + . .               . . .     . . X . . X $ @ X X X X @ - - @ - e ; $ - - ; ; $ X . . . . - f f ; 1 1 - $ - h k F o.o.O.5.O.| g.8.7.8.x.5.o.n i : - $ ; u u ; i u : u v n ( _ m m n e n g - * ; : t c _ n $ $ : : i 9 g m n y t e : g g ; @ ; : . . ; g G c - ; ; @ $ X X . $ ; $ ; u f ; z ] 8.O.0 N.$X&XU...r.G e.2.-.| ] -.w.e.y.-.} f i n n l j k 1 - ; ; i n f 1 1 - ; $ $ $ X . . X . . . .     ",
"I } 7.Q.%XB.v.R.Q.j.,.,.+.[ } } 5.>.L G v F I L t 7 1 u J } | 1.1.| ' _ _ F | 7.| O.] [ _ u - ; 1 * . . X . . .     . . $ - @ ; $ ; t e % % = 7 n g c g ; f 9 g j j c g i n G m G _ y y _ ' n i t g m : n L c v g m n m n n g c L L v n [ [ [ G L } m G L O.O.O.O.o.I G I I J Z h G [ G F [ o.I n j G [ _ F j F G v v f ; $ ; ; : j v j e : t e u u u u k G G F u t u u 1 ; $ @ @ @ + $ @ % ; < y p 7 # # # 5 6 6 d & & & & & & # # # # @ + . . . .     . . . . O X X o o $ $ $ - $ $ - , , 3 2 3 < 3 2 C A Z h u u u u f t ; $ $ $ $ - t u 1 1 3 u H I F 1 - - , , , $ $ - - , 1 1 3 3 2 , o O . . .                 . . + + . . + + . . . . . . . . . + # .                     .     . X X . . X X . . @ X X @ $ $ @ $ ; - $ $ - 1 1 - . . . . X ; u u ; 1 u 1 1 ; ; u u G I } O.O.G [ 5.5.x.8.1.| n i ; - - : v c y m j e h G z G ' _ z g u _ u ; 1 ; ; ; t n t $ $ - - g : 9 L i z j i 1 ; g 9 # = 9 @ . @ y n y ; u f u : : $ $ ; ; $ . o * o : _ L G c  .W.$X9X;.r.e.b.:.G | y.#.;.;.P.b.[ f f } _ l l k F u - f f u u ; ; ; $ $ $ @ . . . @ . . . . .   ",
"G +.m.B.L.j.j.j.f.>.>.g.5.L [ b [ G L F F I [ G g ; ; u F } 1.' L L n L F n O.| >.U [ [ } u ; ; < $ . . X .   .     . . $ ; $ $ @ @ = = $ $ 0 y n l c l 7 i 0 t i c g c g c _ n z G m m m m c c 9 j G t G ' _ m g n m m g c v } 8.5.[ I O.| | L n } | L L I I L G v I O.o.o.I f u F I G k o.o.I I [ 5.7.O.I v G L n t - $ $ - ; $ e j u @ : i j t 1 f F F j k v h i f i t 1 $ $ $ @ + $ $ $ $ % e r e % # # 6 5 6 d d 6 & & & & & & # & # # % % $ @ .       . X $ o . O o o o X . . . . . . O o o $ - , u C C 2 1 1 t u f u ; $ $ $ $ o < 1 < < 3 C H H C , o o $ - o X $ - - , 3 3 , , , o O . . . .               . . + $ + . + + & + . . + . . . . . + +                     . .     . @ X . . X X . . X X X X X $ $ - ; - $ - 1 : ; - X . . . o ; 1 ; - 1 e : e 1 1 1 1 u h I O.} G b G _ 5.| _ _ j t : e t e b m m n g g n m y G 5.| z c f m t ; e ; * ; 0 t 9 - X $ ; t g c g i j g v g g i = g 7 0 @ @ ; = 0 t @ u G j 9 j g u - - - $ o X $ * : t n v.E.&XXX%XE.A.v.8.3.n m P.I.{.r.oX}.2.G [ .._ L v i j i t 1 h 1 e ; @ $ $ $ @ @ .   . X X . . .     ",
"Z 5.7.m.B.R.g.7.I U g.4.O.>.F n [ n v G [ } I v u , , C P I | | U k L L U G G O.[ L } ' F u - $ $ X O X .           . . X - ; ; $ @ ; @ - @ = n c m 9 y z g e i j b l g j n m m N g l z m ( n c g G 2.] _ ' G L n g f g g g j G 1.O.O.o.5.1.O.[ v | g.O.I G I I G G [ o.O.,.O.k t v G v 1 F o.I o.v.m.g.g.o.G [ G j ; X 1 j u 1 $ ; t : $ t F F u i F I I F g j k h i u u u ; @ @ @ $ $ @ $ $ % e r e % % 5 8 5 6 W d 6 & + & & + + & @ # 5 r e t < @         X X . . o - , - $ . . . . . . . . . X X $ - , , , , < < 1 1 3 - o X X O O $ - - , 3 h h h , O . . . . . . . X X o $ X . . . . .               . . . . . X $ + + + + & 6 + + . + . . . . . + +                     .       . $ X . . X X X X . . X X X $ ; ; - $ $ ; 1 : - - X . X $ - ; ; - - e e t u t f i t 1 u F I n j L c G ( G c c c t j t j c c m j i f _ L _ z m { [ y m v c t t j y : t y t 9 ; @ < f n g t j t i e 7 j c y g g 7 0 = ; 0 z = i 1 : 7 i j z n f c : : 1 < ; * $ - n [ A.XXXXOXZ.3.| 3.' G U ] ` w.r.r.>XoXE.e.w.w...>.b.} [ j n n j e e ; $ $ @ $ $ X .   . X X . . .     ",
"n 5.5.7.m.P.7.7.} } >.G } O.F j j n G k F I [ v 1 $ - u h I | } k k } [ [ F [ G F ' | [ k u $ ; $ . . O X . . .     . . X 1 e ; ; @ - : ; : c m g t @ 9 9 z g y n m F c i y _ _ m c g y n L c g m ` ] _ j n j n z y z g t t i _ @.O.O.O.O.1.1._ j n [ | G c c F [ } G G [ +.o.G Z G o.I u A } k j 5.o.[ g.,.} O.G j t ; F o.[ D 1 $ ; e : i F h 1 f F D v v f h Z u t t t u 1 ; @ @ @ @ @ $ % $ % % ; % # % 5 6 d W d 6 & & & & & + & # # % e e i i ; . . .   X X . $ $ - 1 1 < - - ; ; ; $ X . . O O X X X X X X $ , 1 1 , $ X . O . . X O o o o o o o . . . . . X $ $ X . . .       . . . . .           . X X @ X X @ # & + + + & 5 + + + + . . . . . + .                     . . . . . o o X . O X X @ X . X X $ - e : - $ - ; 1 1 ; - $ X $ ; ; e 1 e e u u t t e t t u t u f I F j v c n m m G c c u f i g c m G c n m _ } ` y 7 0 m p y j c g n G z j G m i t : ; u G m c 9 t n t t : u j i c n 9 v 9 y g c f 0 : : 9 i n G c g : l : n v U 1 < F O.| 1.b.P.XXI.} } m j f v O.] {.u.x .X.X.X}.q.r.2.5.5.5.8.I _ G k ; 7 % @ $ @ $ @ .     . X @ . .   .   ",
"u F 1.7.g.j.B.|.9.G _ G } I U F G n v y g j c j $ X $ 3 u O.4.v v F [ I } 5.I ' G O.1.I h u ; ; $ $ o . X . $ .     . @ ; 1 1 $ ; $ @ $ $ t g g z 9 ; : f : u g G } L n b v { @.m b g y _ ' n i n { _ m m l g c g 7 z g : i L ] O.5.O.O.O.1.O._ n F F L n n n F [ o.I H F F G G I O.5.I h I +.h ; c _ O.g.,.[ o.I F j i G O.,.o.t . $ 1 1 1 u 1 1 j j t u u e u Z j u e : 1 < ; $ . . + @ $ $ @ # # 5 5 # # # 5 6 s d d d 6 6 & & + # # # 5 e e i i e $ @ $ $ $ $ $ ; - < h u u u u k U F u 1 ; < - X @ . . . . . . . X o X . . . . . . . . . . . . . . - - X . X 1 v n 1 X . . . . . . . . . . . . . . . $ $ $ $ o $ $ # + + . . + + + + + + . . . . . . .                 . . . . . . @ @ X X . . X X $ $ @ @ $ - 1 u u : - ; ; : : ; : ; @ $ - ; t u g i g g e t e u f u 1 h f k F n g g c G m G G z u t g g n ' L m _ m L G ' m z z m b ( i m c i m c G [ { j 9 g t L [ [ l u g t f g y 9 9 t j c i i u t g i ; t : 1 e i j g g m g t j n F | < < I 8.L } 4.n.U.3.} L g 1 - - n 4.XX;X..A.{.C.b.b.e.| [ L O.9.U G j t e t - - $ $ $ $ .     . X .   . .     ",
"h I 5.V.B.V.B.oXR.Y n G } G j F I I I G F n z v f - X - F | O.} L O.O.} >.8.O.O.7.| | F G f ; : - $ - O o o $ .     X $ - : : ; ; $ ; @ X : g 9 y g g g g 7 9 u g G _ c G L G O.L _ m z ] _ z t g _ ' L L b g i t * 7 t t g } ] _ O.} [ O.5.@.| L G F n u g c F G I F I F h Z J [ 5.,.F h I I i 7 j O.5.7.o.+.O.G j j f j J 5.O.t X @ 1 e - - - u k j t 1 u 1 ; t u f u ; ; $ $ ; @ . . @ @ @ + @ # 5 7 5 # # & # 6 d d W d 6 6 & & # 5 r r e e i t e ; ; 1 ; ; ; ; < , u h h h G F I >.I f j u v D F k ; . . . . . . . . . . . . .         . . . $ ; u n g - $ - u _ | h - $ $ o o $ $ X . X o X O . X $ e < $ $ $ $ % % + + . + + + + + + . . . . . . . .                 . . . . . . - - X . . . X @ $ $ $ $ $ ; t u f t ; ; ; ; ; e e : $ - - ; t f i c f j t k k j v j f h k u v f t e j c m n n i 1 ; g g c c n z m m ' _ G { _ m y p { f n G b b n m ' ] n c t c _ [ G n c t 9 7 y : ; X ; e c c 9 ; - g g ; ; - : 1 i b c y [ m g _ ' L t t ; g 5.I G 3.A.&XW.5.[ L u u e l [ b.}.}.w.A.b.v.r.n.*.G F U | I L t n F g - $ ; @ * o .   . . . X .         ",
"I B.9./.W.A.pX5X~.F.7.I | F h Z [ } _ } *.[ [ [ U 1 , 1 u I V.5.[ [ 8.5.>.5.[ 4.V.8.G I I f ; ; < - - , - X - $     $ ; ; ; @ $ @ $ X @ - t n n y y g j j j 9 n j e G [ G I G [ 1.} m ( ` ] n l t m [ [ L n n u e 9 9 f l g L _ O.O.O.O.5.g.8.1.O.[ } [ c t t v G n g F G j F I [ O.[ F k F g G F F I } o.O.>.o.n j g i t G 5.o.t $ $ e u - @ $ 1 f n f - ; < $ @ 1 j j e ; $ @ $ $ . . . . + + + # # % 5 5 5 # & d d W W W W d 5 # & 6 r p e e i u u e e i t e t t 3 3 u h h G | O.P Y P F F j G 8.B.5.f $ . . .   . # % % X . . @ X . .   . X $ G >.5.>.F h h t u P Y A u i u 1 ; - - $ X X X o $ $ < y i < % % ; < e 5 $ $ + + + & + . . . . . . . .         .       . . . . . . . . - 1 - $ . . . X @ $ - $ - t f u i u e : 1 1 e i e ; - $ - ; h F n v g n v n I F j j f u j j u e e f j n L c 9 : ; ; j g g g n m L _ G ( _ { | p = z m e n g c g m v c ' m i t m [ m m m b e 9 e t ; * * ; : g v i @ X e c ; $ $ - : g b G G [ | [ [ _ [ l f 1 i F I } '  .s.E.8.3.n f [ [ L *.' y.y.2.y.e.4.y.y.1.1.G } O.G F f I i : : ; ; $ $ X .   . $ : : @ .       ",
"U 5.P.qXkX5XwXpXlX8XP.B.o.n h Z O.>.O.5.>.[ L F F 1 < t f F e.8.3.} >.>.B.| } 8.v.| G H [ h 1 1 1 $ < $ - . o $     . @ t 1 @ $ @ $ @ - ; ; 0 z c 9 g z j g g n c 9 b _ [ _ G I 6.6.n _ | L L n j F I L n n m g g f z z z g m _ @.@.O.O.5.1.8.5.O.{ | O.O.j t g g t ; h k v F [ [ G k F U f t I +.o.[ G [ O.O.[ v v F F j G [ I u @ ; 1 j u X . X 1 j t X - e ; @ : i v u ; $ . @ $ .   . . + + # # # # 5 5 # & 5 d W W &.&.E 6 5 6 # 6 r s e e r a v i t f i t t 1 u Z v j G @.A.N.Y A G } 8.} I v.Y.,.h - 1 1 $ X $ r Q ( G F i u - X X .   @ t g.XX~.m.Y >.5.k u h A Z v _ _ v u 1 1 % @ X o $ < t i F v e 7 e % < e e % # & + & & + . . . . . . . .   .     .       . . . . . . . . - u u ; . . . X $ ; - $ - u f u j k u u e e f u e ; ; - ; t v U L L F b G j U I F j j : f h : e t e g j z e - ; ; ; j y g n m G _ ( m ( _ { | ( 0 _ G e c g i c m z b ( n g e g l n c g j g t f u : @ - g t ; j k ; @ ; 1 $ X X - : i b _ _ | [ [ _ G _ _ G k t j j c z g y.0.O.| t G O.1.3.| L 3.| | A.S.8.5.5.4.} F } 9.| L v j t ; - 1 : @ @ X .   . - ; ; @ . .     ",
">.m.m.V.XX9XXXpXuX*X|.M.5.F j k V.>.' O.7.>.G n F 1 - f k k 1.5.>.' | 9.v.v.>.O.7.>.L k G u ; * - o o o - $ $ $     X @ : : ; $ @ @ X : i g e c n 0 g g g g j b G i v L L } I L 1.1.@.7.8.O.{ _ L _ _ _ F n _ ] n z b 0 g m n _ O.| [ O.8.6.6.1.| 1.5.>.5.} G z g g t t t u k F G k F | L t g [ ,.O.[ v [ } I G f f F F I I F k t X ; ; f f o   . - ; - o - 1 ; @ $ e i t ; $ . . .     . . . @ $ & # & # & + + & d d d W d # & d 6 # 5 5 s 7 e r a K j u u u 1 1 u F I F D { A.uX=X>.k G g.:XR.} <.d.P h i F F j e ; r ` 2.b.A.@.F t 7 y j Z u h +.j.f.+.I V.B.U t 1 t i G #...G v t e 1 < $ $ e i D J J j e e e e e e e % # 5 + & & + . . . . . . .   . .     . .     . . . X @ @ X . - e 1 ; $ X X X $ ; - $ - 1 u u G I j u 1 u k f e ; ; ; 1 f k U I L G G } G G [ G v u e t : - t t n n v j u ; ; : t g g z z z G ] [ _ _ { | _ | y ` G e g n y z m g z y y m e g c L m y n 9 9 t j g ; * 9 g 7 t i : - @ ; $ X X $ ; 7 c G } O.' G G | | 6.F e j n k U G 9.m j L n t G | 5.| _ | -.9.4.v.8.8.4.| 2.1.n >.O.I O.L k e e e ; e ; . . . . X - @ X . . . . . ",
">.W./.R.R.XXW.qXkXlX$X&Xx.I j Z Y >.G | 3.1.I F n i ; t j U G >.O.>.| >.>.5.} 8.O.| | O.L u - $ * - X $ - $ ; $     . - $ : ; ; X X @ t : : t g i b c n n 9 g j F b [ L _ L F L >.1.5.m.v.8.6.| _ ] [ _ _ | G L ] _ m y n _ ' | | O.} O.5.v.8.6.O.8.8.O.O.1.} n n j i D j G F g j F o.O.I D F I o.} [ L F n v u < 1 i F I G j i 1 X ; ; ; ; o   . $ $ * - $ $ o X $ e e ; ; $ . . .     . . . + + & 5 # # & + + + 5 5 5 6 6 d d W % + 6 d s 7 7 r a Z h 1 1 1 < 3 h H I F G 2.%XbX9X,.F I N.xX~.Y F S h u G v.Z.5.G j j k J >.f.o.F u b @.~.:XY.P C P o.I I j.V.} f t t f G | [ G v u t t t 1 < i K [ @.{ i e e r a y e e $ # 6 6 d & + . . . . .       . . .           . .   X @ - $   ; 1 ; ; < - X X @ ; ; - - 1 f k G o.F u u n v n u e ; ; ; u k n G O.[ F G I i F I j u u j e e u g L n v m j : : : t i n c y 0 m ' @.1.| | } O.5.m ( n u F c l n z y y 7 7 _ t ; m _ c c j i 7 e g j e ; ; F e u y 9 - ; ; ; X X $ ; : n [ L _ _ 5.5.O.| 5.1.j g U U F U 3.~ c z : - u F [ U j L L _ 1.y.| L n } | 5.U } O.g f g g f e i t t : @ . .   . - ; : ; X . .   ",
"j.XXpX0XoXqX|.L.:X5X%XW.P.V.I F k j G } L _ I G n G 1 ; t 1 ] | 1.*.} F O.I F F o.| n I I f - @ $ $ $ - @ ; ; X     . $ : e e ; ; $ @ $ ; ; t j j G c g t ; y F O.1.G L 5.O.O.O.1.5.5._ n _ [ _ | [ | L G -.| ]  .| _ m z m } O.| O.O.O.7.6.5.8.5.1.O.1.1.1.O.L U G G F D I U u j G I I } F F I I L G n j v u ; - ; 1 D I F k f < X e ; X @ X . . $ $ @ $ X . . . - t i e : ; @ @ @ .     . . . + & 5 5 & & + . + 6 6 6 6 d W W d + & d W E s e r ( G i 1 3 3 , < u A F Z G 5.|.9XQ.+.F U R.xX~.o.t < 1 u J A.>X.Xb.5.G i u C G F h c ..E.xXCXbXG.A h A Z I 8.P.5.F u t j F G v i t e e u j f u v ( @.r.] i e y v K v y e % # d d d + . . . + + . . . . . . .   .   . . . . . X @ $ $   $ u j t 1 ; $ X X 1 e ; * ; f k F [ I u i n j j t - - ; ; u f k F [ O.G j v v j j c : t f u Z f j G n c c n f e ; f G G G c z m ( @.2.@.| | O.6..._ G u b j g n L G z 9 t n l t L n y y t : j t e t e i ; i j 7 0 t 7 9 u 9 $ - - 1 u G @.[ L _ 1.[ O.| 1.6.O.| ' [ F z b ^ L v 1 @ - 1 h u : 1 l } 1.L L n n b G O.8.>.} n G t @ n n g t b z ; $ . . . $ $ ; t ; . .   ",
"k.^.&XaX:X5XV.B.B.~.W.&XZ.9.I F k f k F n k G G n n i e n L ' 9.5.1.[ F _ >.[ F >.| j U I i 1 ; ; 1 ; ; $ - < X     . X ; 1 1 e @ $ $ @ @ : t : t b i i 1 g G n O.[ [ O.8.} 6.5.} | _ b O.1.O.O.O.O.@.| G ' ' ` m ' n t g n _ _ _ _ [ ,.7.g.5.| 8.5.7.5.5.5.7.O.} O.} G F j k h F n k U [ h u k v v b v v j e - $ $ t F G U U j - 1 u f u - X . $ $ X . . . . . . $ u j i t e $ $ X .   . . . . . + # # # & + + + 6 d d 6 d &.&.s 6 6 d E E a e y K ( G i 1 3 , < 1 u h h v [ v.G.,.P G _ E.xX~.I t < 1 u G 5.g.j.B.A.6.G u 1 1 1 t K @.b.Q.(.^.f.G h u u F 4.P.5.G f u i j j t ; ; ; ; t v F v F G @.e._ u e p b K v a w r 7 r d 6 . + . . + . . .   . . . . . . . . X X . . . X $ @   X e k f 1 ; - $ - : t 1 , ; u j f v G u t j j j e $ X - ; u t e j n O.G f e i i u e ; : u t u j F G c c n F c e e b L | | m m _ ( ` | { ] ] { 5.....G t t 1 u G _ G n _ m m z g g z g z : ; : 9 ; g y y : c g : : 0 i e ; : ; t t u j m m _ n _ _ = m ] 5.1.e.6.G | | L m n f F u t h h 1 - 1 - - u I [ ] L n f k [ 7.-.O.y.| l 9 u n ( i g t : $ .   . - ; $ $ - . .   ",
"j.R.~.W.|.0X:XXXg.R.}.y.5.v.j.[ U k F G F I U F n n c 1 } >._ >.4.8.*.G _ U 5.} 8.9.V.} j ; : 1 ; t u e - o < X     . @ ; ; : : ; - @ : ; ; : t : j c e i z G ( O.O.>.5.O.m O.n L _ _ O.| O.@.5.@.[ O.O._ _ _ ] _ _ g 9 y _ m U { G } >.| 8.g.g.8.O.O.5.8.1.5.} O.} ,.o.I u v G [ G F F H f ; f F L L G n g 1 1 t e j G F L [ F - t i u 1 ; - o $ $ . . . . . . . $ t i i i e $ @ .   . . . . . . . + @ & & + + + 5 d 6 6 d W W E s 7 8 r r i 1 t D { @.G h u 1 3 < 3 3 u i D I Y H F F [ N.9Xk.A 2 1 1 i F G L G } 6.b.5.G u 1 e i ( 2.e.5.o.P F G F u t k >.v.O.L G i t e : ; $ $ $ $ e v K G [ _ O.@.J i r s ( F i a s s w d d # + + . . . . . .     . . . . . . . . X . . . X $ @   . ; t u t 1 1 ; ; e u 1 < ; u f e u u 1 1 u i g 1 $ @ ; : u t e j g i j u u e i D v v h i t : e f F U [ [ G g t i L O.5.[ G m m _ | >.L | | ] { @.@.c ; 1 ; e c n v c L [ _ v n ; 9 v c y * 9 : ; g n y g c j : 9 i t 0 - - 9 g t f v : $ : g _ [ c 7 7 0 7 z ..1.| [ F ; ; g j < t h F A k F k u v j _ >.1.3.L c g [ 8.r.4.5.>.j } ' [ [ t i e 1 .   . X $ $ X - - . . ",
"5.V.R.W.v.R.W.^.j.V.R.E.V.L.R.5.[ U F I } O.F L L L c < I I L | 8.8.U [ k F F U j.7.n.>.n ; 1 1 ; ; 9 t - X $ -     . ; ; @ : : ; ; u i u i g f u g i j n g y G G 1.5.5.5.O.I z b _ z [ [ | 5.5.m y [ { { O._ G L _ m 9 0 g m G L c G | [ } @.5.>.[ ] 1.g.O.[ F G O.5.O.I D k I I I I h u h u u L [ } [ F j e u h h F I G F G k $ 1 t - @ u 1 $ - * X . . . . . . - t e t i e ; $     . . . . .     . + + + + + + & 6 6 6 d E W E p % 7 e i F u u v | @.J Z h u 3 - - , 1 t i h h h C Z F ,.N.+.h t 1 t v ( b b z b | C.v.[ f t t i _ 6.5.[ F u u F F f u j } 4.| [ [ t ; $ $ $ $ $ $ ; t D _ | @.| O.o.J i a ) #.I t p v a r 5 6 @ . . . . . . . .     . + . . . .   . X X @ @ $ $ @ . . $ e t t 1 ; ; - u t < 1 t u u t u 1 ; < u u ; 1 - $ ; < u f j j t 7 t t i F F G G J G k u u ; e g [ | O.G n i F } 1.1.( [ G m _ | 1.| O.O.] b ] ..c ; t ; e j 7 @ @ u _ | [ G c t U c y 7 9 g t g n g t y j u 9 7 i c c u f F F f F n ; - e n G @.} 7 9 0 y z Q z b i - 0 B i u t j L O.[ >.m } L } | [ O.4.5.} G c 1.y.6.>.6.[ n G n L j t u < X . . . X X X $ 7 . . ",
"Q.P.W.y.V.;XqXpXV.5.m.} 1.' V.B.n.V.F ' >.' n } ' | b e G k Z o.V.9.V.j.G F A I F I 5.5.>.u - @ @ - e t t $ $ $     X u ; 1 1 $ ; i u : g v v v v g z c t u 7 y v o.6.O.5.8.1.z b I G [ _ | @.1.L c ] { _ O.| _ G _ g 9 9 t m b L G | [ G ' | G L [ _ ] | G n c k O.g.,.I v k I +.[ G u - 1 t t [ } [ F F [ j t u f k F F i u 1 X 1 1 $ - k u ; 1 - t t $ @ $ $ X ; e t t t 1 $ .         . . . .     . + + + + . & 6 5 8 d E E s e % 7 < a { u t i { #.[ H C h 3 $ $ $ $ < e t 1 t t h k G o.F u t e y b ) ) ) ( b _ 4.7.[ k 1 1 u G O.o.I C u 2 u k u t j _ >.I G F < $ @ X X @ $ ; 1 u F [ 2.8.O.I G G v K X.t.I 1 y i e ; % $ . . . . + . . . .     . + . . + .   . X X $ $ $ @ @ .   - t u 1 ; $ @ - u u < t h F f e e ; ; 1 1 t ; - $ $ - ; u j k F i e e t j G F F G F v F u g t ; < f L O.} L k k G [ ' [ _ _ | 6.5.1.[ } 5.1._ g ( n 1 ; ; u j # @ X ; n _ | @.[ L _ n g l N t i y j i t t t u t y 0 y m m c t j u i f : - : G G _ { G 7 0 ; 9 ` ..n V - M ^ f u f e m m g m z _ L =.| f F | _ } G L v ] | } ] [ j n | ] g e 1 - ; O X $ X X $ @ - . . ",
"R.=X[.[.u.g.;XuXe.y.I.E.O.4.OXP.8.V.I _ ' L F _ *.' L j F f h 5.8.n.W.R.>.F O.G I O.v.V.8.G t 1 @ ; t u : : $ $   . @ 1 t : u u : : f t = j G g y i c y j b g 0 % [ 7.5.5.x.5.y m z I ,._ { O.1.1.1.5.@.| | G c n n g t g c m _ z y G L c G n n n _ [ ' _ n n g j O.g.o.G j k U o.[ k 1 ; u F e I O.L j n L n u e u g f j t 1 $ . ; - $ 1 k h f 1 1 v v u u u 1 ; ; 1 1 1 t e $ .                     . . + + + . + # # 5 6 s s r e e e ; r K e t i [ t.8.I A u < $ $ $ $ - < - - , , < e t h u < ; ; 1 e a v v v h Z G J D u < $ < i Z F Z u , - 1 u < < 1 h C h u < $ X X . X @ $ < 1 h ( @.b.b.O.G v v i v ( J u < e r 7 % $ + . . . . . . .         . . @ @ @ . . X X X X @ @ X @ .   ; t 1 - ; ; $ - e 1 ; u J O.G u : $ - u t u < o . o $ ; h j n U n e : : f k e i F F j f : e ; - < 1 f F U I G u 1 j n b v _ 5.8.4.5.O._ L [ @.m g v 1 - - 1 u 7 e : = 7 0 c _ @.>._ G c g c y j b j g u t : t i j t 7 y G n : e u u u e X @ g ' ] _ _ { | ` { 4...L G _ :.:.n F _ n L _ z y Q Q ` L L k U ' b g i N z n v G *.4.f n } L t ; $ @ - O X - $ X ; @ . .   ",
"G.=XXXU.u.m.tXpX%XU.}.&X7XW.P.B.[ @.b.4.| F F G >.' O.F j F F 7.B.b..XA.M.V.>.v.1.} g.b.8.} u 1 1 e : e t ; - $   . X @ e t t t ; ; u n j u F v # j n b b j i e * e [ O.5.b.m m G g c G _ _ _ O.O.1.5.5.@.G g l z t 7 t c n _ _ v c n F m n g t n [ O.1._ L n F j U O.L n j j I [ I F t u J U u n L I F k f f f F j e t i f t $ . $ - $ t k f j u i j j v F v f e ; - ; ; t t ; .                       . . . . . + & & # 6 r s E s y r s s i e e t F @.x.5.P C 3 $ $ $ $ - ; $ $ $ $ $ $ $ - - $ @ @ @ @ % 1 1 < < < t u t 1 - @ ; e 1 1 3 - X X , 1 < ; - $ X $ $ $ $ $ X X @ $ < e u F 2.S.E.j.[ k i i t i F H u < % 5 % + . + + . . . . .             X . . . . @ @ X X X X X @ @ . . : u 1 $ - 1 1 : : ; - u F [ G u : $ 1 k k u - . . $ $ ; h j n n c i u 7 t t e e k n k i e 1 ; - e t 1 1 u F n t 1 j n i i n } O.O.@.[ G n G O.[ n g ; ; - - 1 = y z 0 y q q Q _ ] | @.b y i 9 ; j n n j g ; ; u v t = 7 c c 9 i t g c i % $ y L @.[ G | e.6.[ ..w.m B x :.L c U n N 1.y.' g y _ ] ' ; k | @.n L g j ' g j L } ' L j L L : @ . . . . $ : @ X X $ . . . ",
"g.^.oXD.1.N.P.6X}.n.|.I.+XyXXX|.8.O.-XV.G n b L ' | ] v u G I x.B.|.E.n.8.V.B.H.M.5.v.7.7.[ G u t j t u u ; $ X   . X $ 1 u u 7 @ ; i u t t t F v j F L _ G j i f n [ F m [ ] ] _ [ [ | I } _ _ G z m m _ t t t i e y l t m G _ _ ( G c n v j t n _ | | } _ n [ [ } } _ n j j G F G G F F G I j G } [ I I F D [ O.G u t i F h $ . $ - - h v g v i e y u i j F v f e : e : e t ; @ .                     . . . . . + & & & 6 5 s ! X.i e w r e e e e i ( 6.f.@.H u < , , 3 1 1 1 1 ; - $ $ % % $ $ @ @ @ . . X X X . . X $ $ $ @ @ $ ; $ $ $ $ X $ - 1 < < ; $ @ $ - ; ; < ; $ % e e a ( X.C.}.B.o.F i t t t i v i < % % % % @ . + . . . . . .           . X X   . @ @ @ X X X @ @ @ $ X . 1 k u $ - e t u i t ; 1 u k F f u - u F G k 1 X O * o - 1 k F j t g i e : ; u t c c j i j 7 : : c G Z u u i 1 - - ; - - e g m v F } | ' _ _ _ c g e ; e : e u j z c y 0 c 0 q z G ] | ( t g _ j j L G n j t u e j t : t i [ G G f g j : . $ . f | [ O.8.2.| } { ] | U ] v j n j j F 8.5.[ G ( ' _ L j u >.1.} j 1 u G G _ F n } _ F [ j - $ . . X - $ 1 : . @ ; @     ",
"O.8.n.t.{ :X$Xn.P.n.4.|.tXuX0X-X|.8.V.M.L U j v U [ 8.g 1 k I 8.|.|.W.n.W.8.A.%X|.A.g.>.5._ F i i t t u u ; $ X   . $ $ ; u f j : @ t k t j b n G G _ G c v c y 7 n 4.[ y m } _ _ _ L _ I I O.G G _ G G ' t 9 9 9 : m c g j L G ( [ O.n j n f g g c n G | [ G } 1.| L m j f v n F [ >.} I F I O.| >.7.5.} U I _ _ I v i k G k - $ $ $ 1 v G F j i i y t e t j j i i i j t : e 7 % @ .   . .               . . . . + + & # & 6 6 s ) t r s r e r e e e v | 5.8.O.G u 1 t u Z Z v j u i y r a v i e % % $ @ @ + @ X . . @ $ $ @ @ $ $ $ $ ; - $ - - - < < < < ; $ < 1 r r e t t p a b ..r.C.C.V.7.U j i t 1 e i a e % % % % % $ . . . . . . . . .         . X @ . . @ $ @ @ X X - $ $ - X . f G i - $ t e u i t - - u k F h e ; e v F k u - o o X < u i L F u e g u 1 e f g t b F F F u i n L 1.[ G F h ; ; = ; $ $ ; u t t e F | | ' _ _ m m n : e g f j k } y 7 = ( 2.m b . c m m y n c m c G L G n n f g g t ; 0 t m _ b v v u i ; o @ . g _ 5.8.b._ G _ O.| U ~ Z.i.L n t G 8.5.| | ..8._ N v v } n.y._ u t G 4.] j L 3.[ f F U - $ . . 1 t ; ; : o $ $ X .   ",
"o.>.5.p.'.iXqXA.Z.r.U E.;XuXpX:X-Xb.| 9.G j i u G U G i - F G v.E.I.Z.E.-XZ.b.E.e.A.7.8.7.I F F u 7 ; : : ; $ o   . @ - $ e j G j e = e j j G z G I _ b y y G v z 0 _ 1.1.z _ m L [ } G F v [ I G [ G m ` m i t t 9 g n g v } >.O.>.O.[ [ G m l n c c v L _ [ | L m j n t u j j n | 5.[ G u k ,.5.I [ 7.O.F _ G _ L n j v G j $ - 1 < u F L G v v F v v j i v f e t i j u : e e 7 ; - . . . . .               . . + + + + & # 5 r s 7 r E w e r r e e y G | 5.8.2.| G F G I I I F j D v v K G ( G G v e < e r r ; $ @ @ $ $ $ $ $ $ $ $ ; ; - 1 < - ; < 1 1 1 < 1 y a v i i ! { q.c.{. XR.7.>.[ F i t 1 < e y i y e 7 % # + + . + + . . . . . .         . X X . . @ $ $ $ $ $ - $ @ ; $ . u v u - - ; ; : t e ; ; u j D f u 1 u F n k u u - o X - 1 u I I n g k u u u i u t j n G U j n G n | _ } G F j j y 7 ; $ @ $ $ $ e j [ | ` ` b.1.] _ u i G z i 9 v F = = 8 5.O.[ c z y z m G z m c G G b c v j j f g : 9 i y G j i G L L g - - : i [ 8.8.6.O.G j F U n ~ P.i.| L e F ] 8.O.1.6.b.] G _ } ] n.y.y._ v F 1.] ] U 8.[ j F F - X * X ; 1 < o - ; @ . . .   ",
"o.U F I | !. Xb.r.p.1.5.;X:X-XyXuXA.} _ | j u f n g g $ X 1 Y 5.E.|.|.%X6XE.b.E.A.V.Z.E.B.I Z k i i 1 - ; ; @ o   . X @ ; t t i j e v 7 i k G z j c i b c 9 v G F z b m _ n ' _ G G } 1._ _ _ I _ [ v c _ { n y 0 : n n m n | 5.O.O.| _ >.1.@._ n n g g L [ O.O.L F c F j h A k F I | F g u F I f.5._ [ } I O.L } [ F j F F t X < t 1 h L [ G G F v v G G D D j j j j j t : e : : 1 ; @ + . . . . .         . . . + + + & & # # 8 r s E &.r e r i e e e i ( O.8.c.D.M.j.>.o.I [ G ( G F F F J [ _ J G v i i a i r y 7 ; ; % % < ; < % ; < - < 1 ; ; e u t 1 t 1 t i F K K ( X.K.1X1X>X$Xj.I G F D j 1 ; 1 t t y i t e 7 % # . . + + + . . . .           . @ X X $ % $ $ $ @ @ $ $ - ; @   < u ; X X $ - ; 1 1 ; - - h i h h h h f n j t h 1 X . - 1 t G [ F F v n F c 9 j j i F G I n G _ n _ | | [ G [ _ c y : - $ $ ; : u i G | ` ] e.8.@.] n G | m n g ; j v 7 y y m _ } v j y G L 1._ G _ c n g n i c g n i : 7 y g z t b _ | G e : - u | x.x.5.O.G 1 g l i M i.a.| ] U L *.1.4.@.e.6.5.G L U 4.4.P.8.' _ _ _ y.8.| O._ F u < o o * ; - t - $ - ; $ @ .     ",
"} F I o.g.:X7.E.y.7XOX_ E.|.;X%X;XL._ n 4.n k n L ' j $ o - [ 8.oX:X;X;X0XE.A..XA.A..XE.A.I h f F F F e : @ . .   . $ $ ; e e e 7 t e i t = e j i ; t t y z j b b b _ G n t n | G } 6.@.} 5.O.[ [ O.O.{ _ { G g : - 9 g n n [ O.1.O.O.| >.x.e.O.L _ j g m [ } ' n j L [ F F f h F } v u 1 t u h I } >.o._ O.O._ L O.I D F D t $ 1 t h G G L G G I F F I I J F f i u e t t t t e ; ; $ @ $ # + . . .           . . + + + & # 6 5 5 d E &.%.e e p r y t e i G } O.6..XtXiX=Xj.O.5.2.b.g.O.I J { O.| [ G D h h j j v ! Q y e e e y r i e e t < 1 1 1 i G G u u i y u j F F ) %.D.].1XiX=XB.O.F F G G Z < ; e y i i v i t e % $ . . + + + . . .             . @ X @ $ 1 1 ; - $ @ @ $ $ ; @ . ; t 1 - X $ $ - ; 1 ; $ $ - e u t k G F n k t j f $ . - - u I o.o.v n F F F f i n n G G I j n ] ' m | 5.| O.@.| p y y 9 @ ; u : 1 : g G G c m ' | _ j z | _ z m y i j v y q m _ @.} j e j n m z G _ c L v g g i t y F n v z n G j b _ [ L : 9 g - n { 6.5._ F f j j 9 L w.w.| } ' ' L 1.1.1.6.5.O.} F 1.8.1.8.3.] 2.| y.5.1.n _ [ | u $ O < 1 f 1 1 ; $ - $ X .       ",
"| o.A.{.:XXXx.J.y.w.y.3.*.@.P.R.W.L.=.j L _ u i >.| G ; - - *.5.I.I..XS.Z.A.u.Z.}.{. XoXA.I k D Z F F F t $ . .   . @ ; ; ; 1 e u i : % ; u j v j ; ; ; 7 g 7 y c b c m 0 y g ( | G _ G | @.5.O.L } O.O.| O.[ t : 9 y m N n m _ O.O.[ G ] 8.b.5.1.[ F j n L c m n i n L v f h k n F j j 1 - $ 1 n G G } [ [ G G I O.o.I G I D ; t F F U L G v G G k v F G F k u t e - 7 t t t e $ $ ; % ; ; + . . .           . . + + + + & # # 5 6 s / ) t a a a v i t t v G I o.M.*XuXwXW.|.6X>XiX>X|.Q.H.b.c.@.| J i i i v D K K K a p i r a b i i z i e e t u D I H k v b v h D G ( { ].1X>X-X=XQ.1.I G G G G u - ; t i v F G j t y ; . . . + + + .                 . X X X $ 1 1 < % $ ; ; ; $ e : X - 1 u ; X - $ < 1 u 1 ; $ ; 1 1 - 1 n F I F u f f - X - 1 u [ I [ I j v F n g i n n n G G F c L L c [ 1.1.5.8.2.m y z c t 7 t 7 - - 1 v n i i G | G f j z n m ' z ( L G G q 0 5.2.5.n e j b m G O.L j n G j g i u y c L v f [ G F v G L n ; ; t : G ( _ | } U G I f ; N :...4.| 4.2.1.| ..O.5.@.] } L | U 5.P.-.` -.| 8.1.3...[ { } ; X X - j : - ; ; j t - X         ",
"j.>.E.VXmX^.1.e.1.y.oX1.x.4.n.P.n..X3.G *.F e t L ] G - $ u } _ 4.i.2.w.w.2.u.r.C.{.E. XA.o.D k D F F F h ; X .   . @ $ % e 1 e e 7 t : . @ v v F e t y = t 7 0 y y y i # t n G ' m 0 j O.g.5.[ G j t c ' | [ G n g m ] | } G n _ | L m ' 1.8.1.| G v g y n m m n v F G L F U U f u h u ; u 1 : f U [ 7.O.G G I I O.O.I [ I D ; 1 G U F F j i v F j f G I G v u e ; $ ; e e 7 ; @ $ ; $ $ $ @ . . .             . + + + + + & # # & 5 p u i a a b K v t 1 e i k F O.N.$XwX9XMXCXZXDXDXkXkXaXaXaX<X%X~.7._ G F F J J K D v a i a K F D v i y r a v G [ I _ _ #.x.5.} #.K.S.1XnX9XQ.B.7.[ } { G F Z < - 1 u k G G G v t 1 ; X . . . + .                     . . . @ $ ; ; $ 1 t t e : f f - $ ; 1 ; - - - 1 t j f 1 1 1 t ; - 1 g f j k k f f - $ ; u j I I o.O.G e f n l j n n G [ [ L [ n n m ' | 6.e.x.e.@.c z @.[ z y 0 7 : : c _ b c G G G j 1 n j v m m z @.| 1.| 5.8.{ G G G c n G | g.| c n k u j j n y 9 j g 9 e k n c G } i $ $ - t L _ _ n _ O.} Z 1 u _ c q.e.} 2.| 5.5.{ _ } 1.| | k F j U | L | 3.1.4.2.w.2.m } | ; o X ; c ; e : e m G i $ .       ",
"_ G H.BXNX}.v.W.W.;XXXv.b.|.n.;X}.}.+X9.L G e u n _ m t $ A _ G L 1.b.S.2.2.u.b.C.b.Z.E.A.O.j h Z F D t ; ; $ X   . $ e . ; : t e ; : - . + = j c g e t : ; . = y z z y ; p c 9 b 0 y e G 8.O.} _ v e c _ O.O.5.8.L m _ 1.1.[ j u L _ ] } | | F F i e 9 y i n _ m F G G F F I f h u k I h f u k F I o.5.g.} G +.o.o.O.o.+.[ v ; 1 G [ L j F n u f u u F G G F k u - ; ; 7 u t ; @ ; ; @ @ @ @ . . .             . + + + @ & # # # # 5 r i a ! a ! ) K t ; ; 1 t f F o.j.^.=XlXbXCXGXAXjX9XxXZXDXDXAXCX9XA.b.@.G ( $.) K v b v b ) { [ G K b ( { O.5.6.e.A. X-XsXiX|.].1XfXsXxX*X7.o.I G _ G h u 3 $ - t v F G ( G j t < $ X . . . + .                   . . . . @ $ @ . $ 1 u u t 9 i f ; . - ; - - ; ; e t f i e t f f 1 1 u f v G I o.k u ; - $ 1 k n o.O.>.[ k u u g c j F b L } [ O.F G ' ] @.6.c.e.8.5.| ( m } m m c y g z y m G m _ } [ _ f k h f n z z _ { 8.B.B.x.b [ _ _ ( G l _ | v c j j i j j v j e i j v e : j i G [ F j X X t n G } L [ O.} h 1 n 1.' 1.y._ n.b.5.2._ L G 5.O.G t t 1 j u f n ' l j 4.1.G L n n ; o X t e e X @ u t j i $ .       ",
"n j [ R.6XW.W./.I.:XXXA.e.A.Z.Z.oX%Xy.4.L n g u c n -.e - F b.L G ..y.Z.y.e.b.C.u.r.b.b.b.o.h u t h f 1 e e ; X     . t e . 7 t e t t : $ t F j t : g 0 @ $ 7 y 7 y y 9 y 7 m g g y m _ g O.} _ _ { F c L O.| ..1.U n n _ } L g f _ G ' [ ] _ j c n n m m L n L G n G G b U U < - F F j 1 n j Y +.O.O.O.>.>.L L o.O.,.o.O.,.I t 1 I I n t n F u ; ; : j G G F k j 1 ; e t t e 1 ; ; % % @ @ @ + . . .             . . + # # # 6 # # # e r s ) b ) { ..F t ; - 1 t u k I f.N.(.(.eXmXjX(.Y.,XxXmXmXAXAXjXiXsX>Xb.q.r.D.2.[ ) ) { #.C.V.6.e.c.E.-X-X:XtX>XsXDXDXDXZXzX1XsXDX9X$Xm.I F F v F Z 1 - o o - 1 F G F I G h u < $ X . . . . .                     . . X $ % $ @ $ t u t : 9 e 7 @ . - - @ $ $ ; u f f u 1 t n k u h f k F O.,.7.I u 1 1 - 1 t f v G O.[ F u g n G j j t n F [ | L m m m _ [ 5.6.1...| | m y g | O.( m m m _ m n _ _ ] 1.G f t 1 U _ _ @.5.5.@.@.b.5.G n ( G G n [ G : g g f k j e c n u e t j n e e ; : t n e ; X j j j O.O.O.} G u t [ 8.V.2._ m e.A.5.1.| g } _ >.F f n n j e - ; t g n t m c n e $ . . X t : j X @ : e t e X . .     ",
"B i F 9.L.Z.b.+XaXyX+XC.c.M.E.V.&X&XP.y.>.F t u f g G e 1 f.>._ 5.3.8.w.} G e.b.r.b.A.b.v.} h t $ ; ; j h 1 1 X     . $ u + @ u t t t t : = 1 t i 7 t t ; X e L G 0 y y m y b I | G G t ; t n n } 5.[ g i G { ' _ L 9 y z m n n g m [ { _ | ] _ m L m G L L G F L G G F G L [ u ; k F h 1 j f o.5.5.,.O.G G f j D O.5.o.O.f.O.i F 5.>.n ; : u 1 ; 1 - u F G F i u j i t i t t ; ; ; ; % @ . @ @ . . .             + + + @ # # 5 5 5 % e p b ) ) ) ] O.G v 1 $ $ ; 1 t Z I o.5.,.N.(.T.h.f.Y.=X9XwXjXgXwXsXDXxX>X1XfXsX-Xb.r.D.{. XiXaX>XiXxXZXSXZXnXkXtXiXnXlXjXzX9X~.=X=X^.l.Y k z j i t 1 - @ o $ , u C A F J J h 1 , $ . . . . . .                       . @ @ % e 1 ; u t ; = t 9 ; $ . - ; @ ; - ; t e u t 1 u k j f t j F U O.o.o.I G F h u e - t k j U n t e 1 k v c c l L n n m _ G n m z m ` | 5.@.{ { ` m ] 1.| 5.| m _ ' c z _ ] ` ] G n - ; u G b 1.@...{ 5.8.O.[ [ { G z f n j f n g : j u : t c 7 ; t i j i ; u t z i t - - k j h O.O.O.g.8.F L >.y.r.| _ c G G c F n _ 5.-.} 5._ ' | >._ j 1 u t h j f f ; - - o . . * ; e $ * @ ; e X . . .     ",
"I f H V.9.i.' 9.&X7X5XE..X%XoXXX5XoXE.v.O.[ F j F j m t t o.O.I e.4.[ 3.U F 4.e.Z.b.B.B.M.[ h 1 ; % : f i $ < @     . $ 1 . . t t t u i u ; @ t j e z y ; - g g n b 0 z G m 0 b | _ _ c c I _ G 1.8.1.g t y c m ' G n c z ~ m c L _ | 1.[ | _ L g f c G G [ G n G G I F F L G A - h F F F f u o.f.g.g.N.g.g.5.G f G O.,.f.g.+.i o.O.1.O.F : ; - ; 1 u k I J F j u j n j j i 1 ; $ 7 e ; @ @ @ @ + . .             . + + & & # # 5 7 5 e r a K ) ( G G Z f 1 , - - - 1 u h F G I O.f.,.o.o.7.m.Y.(.).Q.F.=XwXwXiXDXDXDXZXaXsXDXDXDXDXSXDXDXFXFXCXjX*X=X|.%X=X(.T.T.g.7.k.f.+.H Z i y i t < - $ $ - , 1 u Z D Z Z Z u < $ @ . . . . . .                     . @ $ $ $ < 1 t u u : ; 9 ; $ $ X $ - @ 1 1 1 e t f u t u v i f e f G U I F G F I I u t u ; 1 F f g t e j u J [ G F j u F F m _ _ G } m G | ( ....] ..| m [ ] G | _ ] -.] ] m | c.2.2.n j ; ; $ n ] ..( 0 | 5.O.O.| _ | [ b t f g t f 9 e e ; : e t ; # v I j e e z b G n t @ ; g f t F F m v.m.U 1.:.;.P.w.} ( @.5.5.j f f >.y.4.*...' n 5.>.| L G } U h < - u < - $ . . o * - X X . @ ; . . X . .   ",
"k 1 2 k.0XS.' F | +XuX>X*X&XpXaXoX{.E.n.n.g._ n G f ] : 1 [ n n 5.8.L | ' 1.b.4.1.R.A.H.b.I u 1 ; t - % 1 ; < $     . : ; .   ; i e j t t : D I F y g z 7 @ j n c j c c n n y ; [ G G _ G @.5.1.1.8.5.n g z z m n G [ L g y n ] ~ _ ' [ [ } G c u g L [ L [ I F I [ G G n G I A u 1 F I F u t G O.g.G.Q.Q.!.B.O.k F I O.g.g.o.i ,.7._ I F ; ; k h 1 f [ o.G j D j f f i f u ; $ % e y 7 ; ; $ $ + . .             . . + + # 5 # 5 7 e r a a v ( ( G F h u 1 < - $ $ - 1 u f j F I P H F G [ O.5.g.l.f.7.m.Y.Q.).uXxXmXZXZXDXDXFXFXDXZXZXZXAXmXjX9X~.N.B.N.k.d.<.+.I _ I H Z j i i i t 1 $ $ $ - < 1 u h D Z k D h < $ $ @ X . . .                         X $ $ $ $ $ ; u u t e ; : ; $ ; $ $ - $ < 1 1 u t f u 1 u j j j 1 1 n I I F F G I G u < e t 1 f k G n : g f U [ L n f i n G L _ [ ' 1.[ [ O._ _ 2._ _ _ n { | g c [ { ] @.@.[ O.v.8...u u ; : : L 6.b.w.m m c G _ _ | @.[ _ y t j 1 e u t 1 : 9 e t 9 e F I F n c i G m z j ; X @ g j k v } 1.3.L m N 0. .y.x.5.e.@.8._ ; : u ' Z.n.' n ` w.P.1.3.[ f j k - * - ; 1 u - o ; e ; ; - @ @ e - . . .     ",
"h u 1 g.bXaXy.*.' V.I.P.!.|.6XkX:X6X5XR.y.5.| ] f n L 9 1 O.| _ ' | } ] B ] 8.6.v.E.r.|.B.[ j ; ; : : @ ; % 1 $       @ .     @ u i j j e e v o.o.[ g j y : t G n g G c n n y $ U O.[ G G { 1.8.5.6.5.L n n c ` _ m b n z g c _ m _ _ ] | _ _ ] n | [ L [ [ _ G _ [ L I I G G h j < h I F : t F ,.k.F.Q.~.$XR.5.h u Z +.f.5.J h ,.N.5.L F u f U G u u I o.I k j f 1 1 u k f ; $ ; e ; % ; % @ @ + + . .           . . . + & 6 5 # 5 e r a a v ( _ F F j u 1 , - $ $ $ < 1 t u f k h h D F F J [ O.,.O.o.+.,.f.k.(.,X,XeXeX9XwXlXNXmXgXwXjXjX8X^.F.7.>.7.5.>.H F G F K K j i i i t e ; ; $ $ $ - 1 t u Z F Z j v k e $ $ $ @ X . .                         X $ @ $ ; $ ; 1 t 1 : : - - $ $ $ $ - - - - e j u u u 1 1 e 1 1 $ - f g f f f h J I u 1 ; h u ; t n m t t g v n F g t i u L | _ G [ [ | 5.| | m | m L ] m L ] L _ L | ] { [ O.| 1.8.] ; ; * - e [ 5.4.1._ _ c j G j v | ( G { G F : 1 h g 1 1 u t e g G I k J [ c t j b m { : : @ u j k u G >.5.} ' 3.n.~ Q 4.O.5.| ] v e 9 ; n -.4._ 1.' 1.v.r.w.e.: n F u ; f G [ } 1 - u g G f u f e : @ @ $ . .   ",
"f f C 5.Z.7XL.>.>.P.w.L.O.O.8.uXlX0X|.L.5.1.I ' b f n : i } 3.>.( m ' 3.n P.P.A.A.I.b.A.x.[ k u 1 % e % $ $ $ @                 t t i j t e v I _ [ z G b t t 7 n n j c G [ m G 5.6.O.} [ ] _ @.6.5.6.@.1.] m _ [ g g L g 9 ; n n m G ' L [ { ' } [ _ L _ [ G F _ } G G G G v G k e u u ; ; F O.7.j.N.N.F.B.v.o.1 - f o.g.>.Z u ,.F.m.O.L n I I I v e j F G v u e 1 ; ; e e ; ; ; ; @ @ % @ . . + + + . .           . . . # 5 5 % # 7 y a v v G [ F F Z h t < $ $ $ $ - ; < 1 u u u h h Z k j D G I J F J I +.,.l.G.N.F.^.(.).9XlXjX=XQ.T.G.l.5.O.o.o.} [ G f j y r a a y t t e 1 ; $ $ $ $ - < 1 u h A F A h h h t - $ ; $ X .                           @ ; @ . $ ; 1 1 1 t t u e : : : $ $ - - $ $ e j i t u u ; e 1 ; $ ; f u c j j e F F u t f j g u u F j : u v j f j u t t t l } L m G [ G @.] @.{ _ z m G Q m ] G ' } [ 1...@.| G | 2.G ; e o o j | @.2.' b m v k G i G 5.| [ _ g j u e f j f t e : t c n c u f j = 7 e y G n v e t t f f u k O.g.o.} 4.n.Z.t.8.5.5.5.5.} f : e f } 2.f ' V.8.b.{.A.3.*.| n F h n O.] @.u - ' [ ] m 1 1 : $ . e @ . .   ",
"f k j 4.U.dXn.9.V.V.5.B.>.f.>.*XpX|.n.n.P.G i L j f g : f I ' ' ' ' | 1.L 8.r.r.b.|.|.v.g.F e i u 1 1 7 ; $ X .                 ; ; i j i t I [ k v g g z v v 9 y c G G c L G [ 6.O.v { @._ _ _ 6.8.6.x.2._ b g G G _ G i = ; m L _ ' _ G { [ ' [ L [ U _ G v } 5.G j k F F j U O.o.I k - ; P d.g.m.m.m.8.g.7.G - . 1 F o.[ u , O.m.g.U g n F G G j e j j k G F e $ $ ; ; - $ ; ; = % e t % @ + + + . . .           . . . + 5 5 5 5 % e a z v G J F D D Z u 1 , , - - - - - < < 1 t u h u u u i j D h t i v F I ,.g.f.f.F.^.$X*X9X).G.f.f.,.+.Y J G G G F j t y r r r y y e e ; $ $ $ $ $ 1 t t t h F H J G Z h h 2 , - ; ; o .                         . @ ; $ . $ ; 1 t t u i i f j t 7 $ X $ - - - u u 1 ; 1 1 u u 1 t t f j f u n 1 u F v u e f F g t j F f h u v F t j 9 t g g c L [ G F G [ _ _ { | m m z n ` m _ ' [ @.@.1.2.5.G f F b j - ; - * : } 4.2.| _ c : 1 F b G 5.O.O._ i e < - u k f u e j n j i t h u e y c 7 g y f i i t @ 7 e Z I 7.N.I >.:.W.;XI...] 5.8.e.L n : j g G =.' ' n.8.8.Z.6.' ' 3.f k L n I G z t t [ w._ j G u e ; ; X X X     ",
"9 n v.5XOX0.}.j.' _ Y !.XXv.G 7.E.E.5.G } F g u n n e $ ; f | F N ..' ' ..n 4.2...b.A.H.@.G i t h u e : 1 $ . .     . ; .         ; 7 j z c G G i : t G m i b v b z G L _ G c _ 8._ c | | G ' c @.6.5.8.6.O._ g g [ 1.[ g 7 j m N m _ [ _ | { [ _ G | ] | L f I O.I g i v F U o.7.8.} F t ; F f.m.R.k.7.} } 7.G - . < i b v ; - [ O.O.n f F n G G G F v v G I k u 1 $ 9 f ; . ; e : = t t ; $ + @ # . . .                 + # 5 7 7 e e y v G G F Z D F F h u 1 3 , , $ $ $ $ - , 3 2 u t t e t t t 1 ; 1 t i D [ >.>.o.+.7.j.N.k.7.+.I P H F k j v F v f t e e e e y y y e ; $ $ $ 5 r z c k j k F I I I G h u 2 3 , - ; - X .                       . X . $ $ @ @ $ t h h h j D F k f t @ . . * - ; j i ; ; ; - 1 u u t v I U U k k 1 u k u u u u u k v G G v u t g u t e e e n j i L _ @.L } 1.@.m ( _ m ~ g [ O.m Q [ _ O.{ 1.1.O.j g i i e - X ; $ @ n O.5.c.v.5.1 $ g [ O.x.2.@.{ j 1 ; - - 1 1 1 j G [ [ F u < f g 9 y 9 m g ; t ; X ; - % v 5.8.B.O.' i.U.5X.X| [ 6.b.4._ u 1 j f N n L L 3.A.} 3.t n >.} n f v F G e i u - g _ G G G ; X - ; - . .     ",
"H U +.;X}.| I.7.V.] 3.B.P.W.F A [ 5.v 1 F I t t j h t $ ; j y...[ ' L | U.8.1.2.......b.8.F u u h t u Z u ; $ .     . 1 ;       . % i i g y y j u i G F F U v n G z y } [ v = y G b [ _ b y j c c 1.O.@.| 5.@.G G L G m z t G o.[ m m _ G G [ [ [ _ G U L G i v v G f f v G G O.5.5.} G f ; k 5.k.f.I v e F v.,.h $ h [ [ F < $ u G L j n v j I [ O.o.v k D v j j g e u u - . e t 7 ; : 7 ; ; % + + .                     . # 5 5 5 7 7 e y v D h h j v F D h u 3 3 , - $ $ o o , , 3 3 1 < ; ; < ; ; $ ; : e t F _ I G J [ +.+.+.P F k f i t e t y i u e : ; 7 7 ; ; 1 1 % $ $ $ 5 s ) 2.1.I G G I I I I F h 1 1 < - $ - $ . .                       . @ X . @ @ @ @ t k h h j v F j g t $ . . @ $ ; j k t 1 1 ; 1 k n f n n G G L n < e f t u j g u n G [ O.G j 1 f f h t g k t t t I 1.8.O.7.g.5.[ G _ L c n | [ m ( z F O.| ] { [ ' f t u 1 - - t 9 : : v [ | 1.| e ; t z G @.| 5.5.n t < - ; ; $ $ j G [ O.n ; o ; g y y 9 i y - $ - X X X e g ' w.A.} *.b.p.7X&Xb.5.O.O.} _ e : ; n [ U L L ] e.y.] n g G 2.} *.F [ n c m e $ : G L G f @ @ e f @ ; .     ",
"_ ' 5.nXdXdX&XL.XXL ;XV.Z.+X4.h < F < 1 j t u u e f n : $ k =.G n n m ] n.y.N 2...X.Q x e.G h h u e u h : ; $ X     . 1 ; .   . ; @ : i u t = u j F O.[ G } } z y G y n [ m z 0 = v y ; 0 m 0 % = q q M b c ( _ G m | 5.1.G z } O.O.[ n _ G O.[ _ [ _ n v G k u g j f f G _ O.} G O.g.[ G I U | 5.[ t : t b v.g.I 1 u ,.O.G ; ; u f n j u j j j F I o.I F f i v F j j j y e e i i i t : % % % % + . . . .                 . + # 7 e e ; e e i i u i f k D D h u u u 1 - - o o o $ - , , $ $ $ $ $ $ $ $ % ; ; ; i F F j f D H H F h u 1 1 1 1 e t e 1 1 $ $ $ ; % % % % $ $ $ @ % w ) r.{.B.o.I } [ I J F Z u 1 1 1 - - $ X .                         . $ $ X . . @ - e u u t t j G c i j ;   . $ $ ; f F f f < 1 1 f G F g 1 f U I k 1 h k u h F F u 1 j G [ G i F I I I f n c 9 u e j O.O.O.5.[ | [ j z } | 1.| [ [ G y c O.O.c g m _ l y - 1 9 7 c c t e 9 c i i ' j : v _ ( 5.2.4.8.G j u < e 1 @ $ i j G _ G 1 $ ; i c 9 9 y t ; $ o X $ ; g n | 2...-.' W.&X6X&X4.1._ L U | n j g m | O._ I 4._ g.y.t t g ' 4.e.} O.8._ b v $ ; - e n n t ; ; ; . . .     ",
"n n _ 6XdXtX7XW.;XV.7XE.V.V.P.9.u n j 1 k G f 1 u F G [ * u n ' G n L 2.{ 1. .2.Q Q Q ..H.} D j t e t e ; 1 * X     . ; @ . . ; u ; ; i t 9 7 : t i } O.O.} O.O.; v n 0 m _ e @ 0 7 0 7 = @ @ 0 0 z L 5.O.G b O.| | 8.5.1._ G } O.1.| ] } G | [ G [ | L U F j G L I g u n } } F 1 F g.O.[ O.} ' ' [ Z e F _ 5.,.F - $ k Z h ; - : ; : 1 j c L F v k G I j e 7 i k j J [ F j t e j F j 7 = % @ @ + . . + +         .         . + % 5 7 ; ; e t y t u h Z Z h h u h h u 1 - o o o o o $ $ o X X X X X X @ $ $ $ $ 1 i h t 1 e t 1 1 < ; ; ; < 1 1 1 ; $ @ @ . @ @ $ @ $ @ @ @ $ % r ! X.C.{.B.+.I [ [ [ I F h u t 1 1 - $ X .                             @ $ $ X . $ ; 1 1 1 ; ; j G v f u $ . . $ - < u f f f 1 1 1 u A n f g f n U f e g u u f j v f 1 : n F c u _ 5.7.I t L U e i f e v O.O.O.g.5.G b z ] 8.V.8.5.| z c ' _ m y _ ] ' | L t j : - l c i 1 9 ] n g m g j g G | | ..5.5._ v i k G n t ; t g n n F u < j G G n z 7 y f t $ X @ - n } ..w.n.4.' E.yXpXXX| O.| | j n 1.' j L _ [ n G | _ n L c g g j b.b.O.} 5.5.O.o.- - - ; L m ; e i i .   . .   ",
"f [ _ A.tX+X4Xn.P.yX6XuX[.7XoX8.I t 1 n F v g 1 n u G _ 1 F [ | _ t g U n g w.;.`  .` 2.B.[ k Z u e u 7 % ; $ $     . $   . @ % : : * ; 7 = t e : f F F F v k G g g 9 z c O.m @ ; G m g q + 7 m ' | x.b.y.5.O.1.1.5.@.O.{ G G [ } [ { ] ' _ m { ( G G L G G m [ L n j ; t v G F k j f.,.G U G } U k P I 5.O.L F u $ . - u A 1 . - n 1 @ e u k f k n U v t e e i F F F [ I j i t v F j y ; @ . + + . . + .                   . + $ % ; ; % 1 t y t t h Z F Z h f n L F u < $ $ $ $ o o X X X X . . . . X @ @ X . $ < 1 ; $ % % ; ; - - - ; ; ; ; $ X . . . . . . . X @ @ + # 5 8 s (  .4.x.5.[ I [ [ [ I F u t 1 < < - o X .                               $ - X   $ ; ; $ $ $ 1 j v j u u : . O $ - 1 e u g e 1 1 : ; ; u u j n k j j u g u t j e i v f t j l e u n L 5.[ n U >.L j n j F 1.O.g.H.N.1.} z _ O.5.6.M.v.O.[ ] _ g n m n n 3.v < n f : ; ; $ : ; 9 n i n c G I j c | 4.@.| L F F G L F y t : ; g n n g f [ | | | O.L _ k k t ; @ - ; L y.y.e.1.| 4.[.yXY.I } O.| | v G 5.| } n f n L L L n m L f e g | 3.>.' | 8.[ k X t l : 1 n j j j i @ $ X     ",
"L r.| b.>X+X@X+Xb.&XoXvX4XZ.}.B.I u f I n 1 f n j N c ] : [ ' ..-.n _ n -.n m ' ~ ^ ^ ..v.o.f u j f u e ; $ X @     . @ @ . . @ @ ; @ = ; # ; i ; ; ; $ y 7 ; ; i n m m c m g m y # 7 @ 0 g I e.5.1.8.8.4.b.5.8.x.8.1.5.@._ I O.5.@.5.5.{ m c m [ y b | G _ _ } _ G L j F e e n g t } ,.F u I U g e I g.Q.5.| [ F 1 ; 1 h I h - $ f : @ @ $ ; 1 u k k f e t j v F I k F v i j i i i y y e @ . + + . . + +                   . . + # % % % < t u u t h G >.O.F v } 5.} j t ; - ; - $ $ X X . . . . . . . . . . . @ $ $ @ @ $ $ $ $ @ @ $ $ @ @ . . .         . . @ @ + # 5 d E E b K _ O.1.O.[ [ o.} I F k i u 1 < ; $ X X X .                 . .         @ @ . . $ < 1 $ $ 1 j F v g f j e X . X $ ; : u L f 1 e t ; ; < u u f n g j u g i f F u i k j j c l e e F _ O._ G | 5.5.@.j n n 5.8.v.M.H.b.{ [ c { | ..b.M.v.v.M.8.F i 1 9 m ] G t u u 1 t @ . $ 9 y ; f c F F } G j | 2.@.1.[ G c b F g t t e ; v n n g F } O.[ [ v i j u y c - : $ * l _ 2.b.' n -.i.5Xj.k } 4.8.>._ I | L m f g g L g v z G _ 9 - f _ L 8.[ c L | f - k f ; - t u c c i X : ; . . ",
" .U.w.| +X@X].@XD.B./.;XI.tX4.' y.L f *.n L ' n j } G n e _ *.5.y._ j _ r...` Q Q ` ~ ` 8.[ f h v f u t 1 $ . .     . @ ; @ . ; @ * @ . $ @ # : e @ . . # - ; f [ _ z ; z n c m 7 @ 7 7 @ e f L _ O.1.v.e.O.8.8.x.g.5.5.g.g.O.O.g.v.8.@.@._ G y G c z | .._ _ _ | j t f } I f t e e u o.h o j n l j k ,.m.8.@.5.O.I 1 o u G h - u 1 : u $ . X 1 u t j f t i k v v F G G v i i i i e ; y y % . & # . . + + .     . .           . . + $ $ % ; 1 t i u h } v.v.O.| O.5.O.L u < : 1 ; - $ $ X . . . . . . . . . . . @ $ $ $ % $ $ $ @ @ @ @ X . . .   . . . . . . + $ @ # 6 6 d / $.$.) $.#.e.8.[ _ } [ J F h i u 1 - $ o . . X .                   . . .     @ ; @ . @ ; < - 1 u f v j t u v e X . X $ - i G } F 1 f g g 1 ; ; ; u v g u u F f g F j u j F [ f j f e j G F f F n | 8.g.L N n >.N.V.b.B.M.6.1.O.} _ M.B.x.M.b.N.H.5.n n n m b l t e t u u - . X ; g g $ t h G I [ u c | 1.5.| [ g j n j n n : $ t t u c t [ 1.O.v 1 @ $ - = z z e t i u e I 1.>.c 3.5X|.m.F I 5.e.| | F F F G j G U | L _ v n n g ; @ g f _ O.| _ L 1 . t N : : ; - : @ : $ - @ .   ",
"R.}.p.X.U. Xa.@X+X|.b.;XtXsXXXE.1.*.L G j c f f n F | u 1 n L ' | v c m w.....2.;.q.` ( @.F D j f u t e ; @ .       . @ e . + . @ ; ; ; @ $ @ = l g @ @ . $ 7 v O.O.G z z c y y # # @ @ z F t : z G O.8.} i m 0 m ( [ G } 5.5.5.g.6.O.x.b.x.@.( c m ' ..| { b z ( z ; 1 F G L ; - - e [ f t ; v } n f k O.g.5.7.5.+.Z $ - u - * 1 j t u - @ o - ; ; j j e t j j j G O.I j i j j i e % e e 7 5 # & . . . .     . . .             . . @ $ % $ ; e t u h I v.R.W.B.8.v.m.>.f 1 1 e 1 < - $ X X . . . . . . . . . + $ % % 7 r 7 7 7 ; $ ; : $ @ . . . X X . . . @ @ 5 6 6 d s E / %.%.%.r.D.C.b.O.I [ _ G Z h u t < $ $ X . . . .                   . . . . . @ ; @ X X $ $ X < 1 u u t i k F f @ . X X e i F o.I f j i u 1 1 ; $ e n v f f I f e f j u f k k u n u : g n j j G n n 1.5.[ _ n I v.V.v.4.8.8.g.g.O.{ g.N.g.g.g.V.V.} _ ' 3.] L l _ t u f h * @ ; ; : ; $ o 1 u h v 1 n m } ] G _ g ; : c G j ; - ; e t g u i v n j k k h Z I [ O.G u j l 1 c 3.n.5.n.oXI.8.G G O.v.v.G L U ' ' n } 5.{ F n _ c c g : * e ; | @.5.O.[ e X e m : e @ o o o X ; - @ .   ",
"N.A.p.@X[.[.a.].[.oX}.E.6XsXyX5X1.m ' n 1 < u u t n n L 1 k n 1 ; m b _ 2. ... .;.;.` 4.v.[ F Z u t e ; @ $ .       . X 1 :   . X X @ X . 9 g t 9 : ; . + @ : j G [ L z m G b b c = = j G } j + X i v ~ m b c _ | ( [ G b G O.} 1.{ _ 8.B.R.A.' G z c | m ( ' z ( z t : F j e 1 k 1 ; O.O.I u ; 1 F F F } >.m.7.1.,.Z h f ; . o F F e g 1 1 1 - X < k F F g t i k v G G v j f t e ; % 7 ; % # # + . + .       . + . .             . . $ % % ; ; 1 t h I f.$XzX9XR.Q.R.5.F h u u u 1 < - $ X X . . . . X X X . # % 7 e p a b ! b ( _ _ v ; $ X X X $ $ X @ @ @ 5 8 d E E E E &.%.].].2X.Xb.x.O.G _ I F u t 1 < - $ X . . .     .               . . . . . @ . $ @ @ $ X X X $ ; e u g j _ _ f X . $ - t u k G G n k g u f F u e t G I U G G u u u u ; 1 t 1 1 ; - : u j j e l U O.5.O.| | } F 8.M.m.O.} 1.8.8.O.{ @.5.6.8.b.v.g.} ' ] _ } G L m n f g j k j n c 9 j e @ $ - - F e e c G L G v u X ; g _ v : ; $ $ ; $ - e j F I G O.G F [ | >.L F [ F f j y.E.7.;.^ P.-.v f c 8.5.| 2.v._ L L [ 8.5.[ _ ( n t g j e - * L O.} _ { e $ e 0 0 g n ; - .   $ $ $ X   ",
"O.,.[.yX+X@X@X@X@X X;X:X}.;X.XoX-.' F t - - 1 t 1 e j 1 ; < 1 < * - i n ' ' ' ' ` ..r.E.e.[ D F j e e e e X           X $ ; $ X . . . . . @ i t ; = ; ; @ . @ y j o.O.y + y G G G 7 * . 9 { _ $ @ - . 0 @.v.4.v.] [ G { b g G G m { [ 6.B.r.n.1.c 7 9 G g g G G G L g n F F t - u u ; n >.,.G u ; 1 h h G O.j.m.8.>.F k u - . . f } F j t - * $ ; : f f v u t t i i i i f v i = % @ % = % @ + & & + + . .     + & + . . . .         . @ $ ; ; ; ; 1 u F O.(.kXpX$X$X^.5.G Z h h h u 1 - $ $ @ @ X X X @ @ X @ ; e y a v b X.t.X.t.b.y.U 1 - $ $ $ ; ; $ % % % 7 r s / &./ / %.a.2XiXxX*Xv.8.o.G ( G Z t < ; - $ @ . .         .                 . . . . % % $ @ @ $ @ X X X - t k F v G G t . . $ 1 e i F G G k F F h k F k i i L o.o.o.I h f u ; - ; 1 1 ; : * e j j k n g L | } 5.7.g.1.L O.N.H.5._ 5.6.g.g.4._ G F _ 5.5.b.b.1.] n *.2.8.| 5.} L j L | v.O.m l g 1 o @ ; v f u n | 1.1.O.f $ ; g i c - $ * X - ; * - u F O.| 1.L G I [ | | [ 5.@.} O.} V.1.] :.n.0.v v _ 8.5.1.e.6.| | [ L e.e.2.[ U k i i e : X @ j F [ _ _ 1 $ c m m ( n - @ . @ $ ; $ X . ",
"H J E.sX[.U.[.@X.X.X5X$X7XP.1.y.8.[ I k u i f F n f i - $ 1 u u < ; e I -.-.L e. .y.E..Xv.O.A F H k e e t X           . @ $ $ @ X X . . : ; : t ; ; t c 7 @ # * e _ { _ 7 # 9 y 0 0 0 x 7 = 7 7 @ X n [ G O.8.| z g 7 c c ~ c _ G G _ 1.A.8.] c 0 g 9 9 = 7 c G _ [ c [ | F e : u G k t O.m.7.I u * * 1 O.5.g.m.m.1.I G G ; . . v j f u f - X $ ; $ - 1 i i u i t t i y t y e 7 7 7 % @ @ # & + + + . . .     . + @ . . . . .       . + $ ; < ; ; 1 u h P l.=X9X=X$XR.5.I A C C D k t < - $ $ $ $ $ $ $ ; $ % 0 r a b K ) r.S.| | B.E.[ t 1 1 ; ; e ; % 7 7 % e y s / %.%.$.X.r.@XxXnX=Xg.O.{ ` ` G h 1 ; $ $ $ X .                         . . . . . X $ e ; @ X X ; $ . @ 1 u F U F v u < X O $ 1 f u k F k u u F h f f k F F I >.,.O.I k k h 1 1 u ; ; 1 u e t F G G F U n G 5.B.m.j.5.} _ O.8.| 1.4.x.M.M.R.5._ m y G 1.V.M.x.L n } V.R.M.b.x.| z g ( | | c ; $ - @ - : n : j ( ] 5.@.O.G e ; : : g @ $ @ $ - * $ $ 1 f I 5.1.} [ [ [ O.| [ 1.1.6.8.Y 3.4.9.i.B.u.n t L ] 5.5.4.8.5.| 1.| r.I.P.-.n j g e g - @ ; g g I } _ < - n m b m z y 9 $ @ @ @ - X . ",
"Z J J.tX.XOXtXtX[.I.R.&X0X5Xn.7.-.L >.} I f ] } ' _ f ; u u h [ 1 j n l w.2._ | U.P.A.A.b.5.J h u h u = 7 % . .     . X . . X @ X . . - e t 9 @ 7 y @ y 7 X . . 0 ; [ g._ @ % 9 _ z 9 b 0 % * * @ X = | t e } 6.= @ 9 n b G b } | G m { 6.5.] m g y 9 : : : G _ | O._ G G i j g 1 G Y h O.j.>.O.G - X j O.7.j.m.N.j.5.} F ; . - f e - t t 1 - f u @ X @ v j i j i t t t 7 7 r r e 7 % @ @ # # + + + . . .     . + @ +   . . . .       . @ $ ; < 1 1 u Z H ,.G.).~.Q.B.,.P C h A G F u < ; ; < 1 1 ; ; ; ; $ 7 p a a b ( ) e.A.| _ b.A.I u i t e e t e 1 e e e y i a ) %.%.X.%.r.].iXaX).5._ { { { G u < - - $ @ X .                       . . + . . . @ $ $ $ $ X X ; - @ $ ; u k v k f 1 ; < $ ; h G u k F F u h k u h F F v j I ,.5.O.I G F A k u u t 1 u k j f I } _ j } n n 7.V.m.8.o.| L n L L [ 1.8.4.g.b.M.[ n t l [ B.8.4.' l ] A.~.E.P.8.[ n m } n i ; : ; X @ : t v : G | | | [ [ G e - u e i : : u u j u 1 @ 1 f F [ 7.g.5.8.5.8.| ( [ 5.n.n.} 4.e. .m :.-.' L j m 1.8.8.8.g.8.8.b.@.A.E.y.m t e k b : 1 * u u F _ G , 1 L y p b c y c $ @ $ @ @ . . ",
"u J #X:Xi.p.iXZX>XoXZ.W.%XyXA.V.4.1.g.V.U U U _ _ G U e [ ' f ' t f u j ..4.A.Z.A.n.e.8.5.O.F t , o ; ; ; $ X .     . $ ; . @ i t X @ $ - v ; . . v 0 7 c 0 # # @ @ c | _ X X @ 0 b b q # @ 9 # . . g g t ; b B.[ ; e b G _ _ } O.G b m _ { [ n F j b L g i _ _ c _ ' | _ k : j F } I f I O.I O.o.h - t [ O.5.g.N.F.g.I k - . u L j ; ; - ; - e u - X @ u j v v j t t y i j i e 7 7 % @ + @ # + + 6 # + .   . + + + + . . . . .         . X $ 1 1 1 u Z F I f.Y.B.m.j.O.P C C F H F h 1 < 1 1 t t 1 1 e e ; r s E s x b K @.8.o.o.7.8.G z b f t y u u t t e y y y r ! $.%.X.t.].3X>X9X^.O.( {  ._ D t ; - $ $ X .                         . + @ % $ @ % ; % $ ; $ $ - - ; $ ; t u 1 k f ; < u < 1 k f u A o.[ F n k u F F u ; t v _ O.[ [ o.o.I G k n f j h n U c [ } L c [ I L O.5.O.O.[ U L G g c _ [ 5.5.6.x.x.5.[ t g c [ 8.B.1.n 1.e.~.E.A.8.5.} _ 1.| g @ X @ $ $ g t j : n } _ [ F k f 1 ; i f n F G I c n j f - - u F n O.j.g.g.1.5.1.| | e.5.5.5.3.] 2.:.0.4.G G t F I | 8.1.8.y.V.v.1.2.A.4.[ U j i 7 @ : f 1 @ e u D $ 1 L g 0 b b i @ @ . X X X . . ",
"3 Z (.xXU.C.+XaXaX.Xv.5.E.:XA.5.XXb.V.>.G G ' } [ _ n f [ 5.f L L n 9 9 | 8.E.b.b.W.A.5.5.I h u 1 - - 1 ; $ X .     . . < u : % e : ; ; : v # . = g i # 0 i . + 0 q 9 y ' + 0 @ . c _ y v = . = = . @ : i [ q _ G 1 - 7 z G y _ @.{ { { [ _ L t ; @ 0 i y z G O.| O.@.| F $ . t F I v G y b } 5.I F F t [ } >.>.j.F.f.H u ; . ; } U F u u f - - u $ X @ u v v i i u v J J F v t r r 7 # @ # % # & # # + + . . + . . . . . . . . .         . $ < 1 1 t h C H +.f.v.V.g.O.o.F F H P H Z t 1 1 t t t t t i y r s / / a a a b { @.[ J O.5.G ( ` v y i i u t e r p v y r E $.X.X.a.2X1X X!.m.[ ( ` ] G h 1 ; - $ $ X                           + @ + @ @ @ $ ; ; % : ; $ : : ; ; ; ; u i G v ; 1 u u 1 1 e : Z I G G G j f k k 1 : t v j G [ I [ f.,.I G G U k t j n G m O.[ v I I L | O.O.O.o.[ ' U l t | m } [ [ O.5.m.5.>.[ 0 m | b.7.} 8.6.H.V.5.O.} L G L _ n ; . @ $ @ g c 1 ; c m _ _ k u e - u v f u v k i i j y f e $ ; F G } 8.g.g.5.8.5.O.5.8.4.| >.5.e.;.w.I.i._ j : L G G | | | e.4.n.2.3.Z.n.8.8.f f j : t < : f ; e u . $ f f c z j : @ @ . . . X .   ",
", 1 j.wX+X4Xn.XX-XZ.5.( e.M.5.L n.8.*.[ U _ ' 8.| *.j 1 G U L L ( } n _ ..b.A.E.8.R.B.b.5.k j h ; - ; h e $ . .     . . $ j ;   # e t f v 7 @ : 7 = t 7 @ 9 9 @ = # # z X z 5._ @ # z b t 7 @ 7 0 X * 9 _ _ 0 8 c t 1 _ | L 0 y _ @.5.8.| m j t @ : * n | b.@.| @.5.8.' b $ @ F D J } F g c G J F k g t I 7.g.7.j.m.+.G F h - - t u u 1 - u * u t - @ ; j j f F F u j G J G F z y ; 5 % @ @ % 5 5 # + . + + . + + . . . . . . . . .       . . - < < 1 u h A P ,.B.$X!.7.5.O.I H P [ J u u u u t t i i j v a ! %.#.y p x b ( o.J D [ o.G @.4.F i z j i t e r a ! r s $.%.X.{ #.].{.B.b.5.G ( ( ( v t ; ; $ X X .                         . % ; $ $ $ @ $ $ ; 7 e ; ; t t 1 1 1 i j h J j ; < h u : ; $ ; u k F F G G k h 1 - - - 1 G G n j I f.g.5.+.o.F v c k j U c v [ G G J G G [ O.O.} I O.5.[ c _ c 1 u u L O.O.6.v.8.m c 5.b.8.4.v.8.V.g.>.G k F n u g e ; - ; @ @ ; t u ; N n c n u 1 1 ; t n k k F F j t z i g : $ ; f z } 5.5.g.8.g.x.O.| 5.v.O.[ 5.r.Z.i.w.C.U n n >._ L j L 3.I.I.V.4._ >.v.A.v.1.L n F ; - 9 } : t ; O - g ; t F G g $ @ @ . @ .     ",
"< H ,.v.OX4X;XXX;X X1._ L G f j U I _ U F L | I 8.n u - n L l ' m G [ n 2.S.%XE.I.E.:X.XB.J i u - $ $ u ; X .       . . $ u i +   % f j v v = . . * e t 9 = * . = @ y @.m G 1.| G X # z y = @ ; # # . g m ] ' z y z G 1.@._ y 7 G 8.@.5.4._ G g ; ; 0 _ O.v.8.| c c c m n t - e g O.>.n c m ( c k 1 ; - G O.>.O.O.,.[ A u : - o - @ @ @ - ; @ - u ; - - f j D G I I F G F G F b t @ # 7 $ . % 7 5 # + + + .   + + . . . . . . .           . . $ - < < 1 u h H o.B.wXpXQ.B.N.O.I I O.o.Z Z h i t t i i v b v ) t.#.i a ! b K _ G v G _ G b.A.I i v i y e e r ! ) b E %.].C.O.@.c.b.g.8.>._ ( G v u ; $ $ $ X . .                         . ; 7 $ $ $ @ ; : e : : $ ; h F Z t h I F f J f - $ u 1 ; ; 1 u u h f j i k j j e ; - @ < t G j f F O.f.,.o.O.o.L G n n F n e b O.O.I L | _ G O.5.5.g.b.5.L n g ; 1 f L ] O.1.4.5.m n | b.x.5.8.5.5.8.O.F u F v : e : @ @ $ ; - $ : 1 e g n g g j e t t i j F k F v F i c v c e ; 1 t i [ O.O.1.5.g.b.x.5.@.6.6.] 2.y.-.:.4.b.} U [ 1.U 3.g m ] 1.8.j.B.y.j >.1.v.1.U n 7 ; @ ; e u e 1 O $ j 7 * j c ; X X . @ . .     ",
"1 <.7.3.P.9.OX7X;XnXU._ | G h D F n i k n _ n _ L n y ; L F L g L | e.' L 6.|.E.R.%X X{.A.I t < $ X $ 1 t o . .     . @ ; e v i   % t % t F 7 . y ; 7 n t @ . . @ 0 9 9 0 0 _ | _ # . . y j ; . @ . 7 y ..] ..` # p _ m _ z b z z | @.' | _ | G u c n | 1.2.1.m y 0 y y v L F : ; c F G _ z c j j - @ * U [ o.O.} o.O.o.| u X i ; ; - 1 t h * - - $ ; e f F I v F [ I F F F j j 7 + + $ + + + 5 r 5 # + + .   . . . . . + + . . .       . . . X o , 1 1 1 u h H j.wXmX9X~.^.f.I [ >.o.C Z Z h t u i i v b v [ t.#.z b ! x v ( _ G ( _ ( S..Xo.i v i i i i i ) X.G ) ].1X-Xf.} 5.5.@.5.@.[ ( F k t ; $ $ X . .                           @ % % $ @ @ @ @ : e ; ; $ ; u F Z t u F j t f u 1 1 F h u 1 1 F G F k J G v f h t ; - * - ; f g j j n I I G } 8.O.F n _ _ v i 7 O.1._ v [ 1._ _ g.B.B.B.v.>.m i 9 - g G } 1.} F j g ] ' 4.5.O.>.5.8.| F k g u j i e X X @ $ @ $ * ; ; 1 e g v j 1 1 u f f D F F F F G v j y j i e t y n _ | } _ 8.v.b.@.O.O.5.4.| 1.4.:.y.s.] L n L G n U g m 4.2.-.5.P.4.v k U | [ *.=.v t - ; : t : o . X @ ; @ $ . @ @ . X     .     ",
"h ,.7.5.U *.B.%XOXkXP.` r.L n } [ v f f F c ' L g G t ; v G _ | y.4..._ m | 1.XX%X|.A.|.~.[ 1 - - ; O t t $ . .     X $ e e f j i @ @ @ @ u i = = t . c b y # X @ . # * m 0 ; _ [ y 7 q y G z . . 9 X y { n O.] ` [ G O.| L Q z 7 c 5.8.4.O.O.| G G c n L e.5.y z 7 g i n [ v ; X 1 G g c z z v i ; n ; ; k ,.8.O.I O.I } ; - ; ; 1 t 9 U } F f t ; 1 1 j F k j F n n G D u e t e $ . . . @ # % 7 % # # @ .   . . . . + @ @ + . . .         . . X $ , < < 1 u A <.).lXwXQ.N.g.o.I Y P Z Z Z j u t i i i v a G X.{ b ( ) b ( { ......} _ E.#Xo.i v D b b v j _ O.I ) ].sXiXN.I o.O.O.@.| G F j u 1 ; $ @ . .             . . .           . + @ $ $ @ . @ ; e e : ; ; h G F u u u t : u u u h I I F f Z G H I G G ,.I F Z h < $ $ - ; ; ; t j j n G _ _ O.O.I I G L j u j [ @.5.b c b ( G 5.A.R.E.A.b.1.9 g $ j } >.{ G t ; * ' n m L ' 5.b.8.>.k i t h G F g . . X $ $ - $ - - ; 1 e u u < - u G k F F k D G I J v i F i t y n c b _ _ [ [ 1.8.{ [ 1.g.8.5.| ] @.i.9.4.G n >.I n O._ _ 3.4.3.| 1.4.F 1 1 F U | O.L n t . - o X . . $ ; ; ; $ @ o . ; . . . . .   ",
"; J 7.m.I.1.y.L.OXn.{ v.1.b | U } n n e 1 t v h j n ; ; g j | 1.8.| 8.3.*.1.l 6.A.v.5.4.b.G 1 < u j e u u 1 $ .     $ ; h u u c v D @ # @ ; % 7 ; @ e G y i 0 @ . . . @ z 0 0 G ( } 7 0 y z 0 = 7 f t @ b L L v G v ( 5.[ G 5.-.c ( ( 5.x.5.| | _ 9 c j [ 8.1._ y y 7 i n t e ; - n L y 9 z z n t - e @ @ 1 G O.} G v F I 1 o j u t I L F I I u $ $ - u G F u j v c n G v ; $ $ % % @ . + + + + + + + + @ +   . . . . + @ @ @ @ @ .           . . O - , , < 1 h P N.9XwX^.g.g.5.o.Y P A C Z h u u i t u v b ) ) $.$.X.( K { #.#.q.r.6.{ H.!.o.i F G J _ G k I [ G ) D.>X:Xm.I I | @.@.{ G v i 1 ; $ $ X .             . . . . .         . . . @ @ @ @ $ % $ 1 ; ; ; f F F u f u f : u j D P O.o.G I I F I I I J I o.+.I F u * * ; 1 - - u g u j j g _ | O.L } m L [ i ; G G { v m G m m ' ] 8.M.B.M.8.j g t f } >.O.G t t : 9 c ; 9 m 5.E.b.8.[ i : j e j u X X * e t t % ; - $ $ ; e 1 ; < f U t e j n v G [ F G G j j u t f G G m G ] 5.| ' _ O.} v.B.1.4.e.5.8.w.4.1.G L O.1.' *.m 4.4.1.-.U F k 1 j : n y ] ] ] O.>.G @ X . . . . @ 1 e * . X : @ . . X .   ",
"o Z } 3.n.8.3.L.|.y.=.9.| L } } | } u f u < - 1 n m u $ j U | 3.] N y.v.' *.n _ y.L t g | F h h D F i u Z 1 - $   . o ; t i j F i f G 7 7 $ . 7 t 7 j y 0 g 0 g . * . * g ; y # # y # 7 # z c O._ z y . y { 7 y y z L m G y | 8.( ` w y 5.8.O.m O.[ n $ g @.6.5.[ m z z n t 7 t 9 g G n t c c n g f ; o 1 1 u j t ; 1 f F ; $ t t u L _ n G G 1 - - . 1 F F n c j G G F j 1 $ @ @ % % % @ $ @ @ @ + + . + . . . + . . . @ @ @ @ X . .           . . o - , , < 1 k <.Y.=X~.m.B.v.>.o.P F Z D Z h i u t 1 a $.#.X.%.].t.F v ) { { #.e.1.[ b.B.I u D J I [ G D J J K ) r. X$Xg.G [ ..#.O.I F j u 1 $ $ @ X .             . . X @ X .     . . @ @ @ @ @ @ 1 1 ; ; - 1 : e i u i k g j t e v G I I [ F I P H G U I o.I ,.f.Y o.k ; @ - t : : ; - e : f f [ | _ m L c ( } G t i G z m ` ( F G @.] m m 4.8.] _ n f g [ O.} G m G m g - $ 1 m _ e.r.x.O.L t ; u $ @ $ - : g i j : ; $ $ ; 1 t f e u t F e t v F F F G I G F t u : $ u v } _ G m | 6.x.b.5.} F.R.v.e.e.6.4.5.u.| G U >.} | F O.| | w.' 3.c u k G G y t 7 m _ G ..m $ ; 1 X .   X . ; : @ : X X . @ .     ",
"- @ 5.W.9.5X7X|.L.v.3.O.n.*.| 5.4.I j 1 1 < 1 1 j L : $ U | N ' [ k 4.y.4.B g m _ N u F >.o.G h j k f k Z t , -     X < u t f n i ; u F v F f + e j i i y 0 y t @ @ . ; 0 0 7 0 7 @ @ # 0 G ( [ ( g 0 @ 0 O.z # 0 b b g u e O.5.5.5.| y z _ O.] 6.>.; @ # m m 5.8._ c v v y y c c z L c n F G b c L j - e j < 1 - - F I I ; 1 e f f G } } [ n 1 ; ; X X 1 k e : i G G v v h t $ . @ 5 7 ; 7 % $ + + + . . . + @ @ .   + @ @ @ @ @ . .         . . . . X - , , 3 u H ,.Y.~.E.|.~.m.,.o.I J I G Z Z Z u < r ) ..( %.].x.F z { #.{ #.C.x.| r.b.I u Z G J I H Z [ [ G ) t.|.!.5.( X.t.q.| F h u t ; $ X X .       .     . X @ $ $ @ .   . . . $ ; $ X . @ 1 t ; @ $ t t u j k k G F v e ; i F G O.[ F P I F F [ o.f.,.+.7.,.o.k ; @ ; t < : ; - - - 1 u c G m ' | G b y F j : n G } { G G _ @.' # _ @.] m m g ; n n | [ c c _ ` } z l l ` `  .1.8.[ ' G 9 e $ X @ - ; t g c ; ; - $ ; ; u g f j e G t t D F F G F F F i f g ; $ e t n _ m _ { _ 4.B.B.x.B.R.R.V.w.v.c.1.6.O.} G >.V.1.i O.2...] 2.| ' f L O.5._ z z Q 0 p ( { g j F k 1 . X ; . X - $ $ X . @ X     ",
"$ f m.N.|.pXoXW.}.L.XXP.3.9.1.>.8.5.f 1 f f g g g L e - 1.| | ' >.L ' 2.| g e k f e j O.5.o.D F D v h f i h 1 $   . X < u u i j j 9 X : G e v 7 u j = 7 7 L b t X . @ * 0 z = y 0 7 # = 0 c z 0 m _ z y % 1.V._ y 0 q 7 y y G m b M.c.| b b @.5.5.[ 7 * = c 0 b m c y y 9 7 7 z n g c c [ O.O.5.O.} n 1 f u - - < j O.O.I f - - ; - f F b G F i ; - . . X k 1 @ t F F G G F t @ + + # ; % # % @ + . + + .   + % # .   . + @ @ X X . .         . . . . . O - , , 1 h P ,.B.XX0XqX=XN.5.I J } I F F F D t r a G ( t.].e.F a $.#.| [ C.A.@.t.x.I u Z J ( J Z i @.6.{ $.r..XA.o.X.t.D.x.I Z u 1 ; $ @ . .             . . X $ - $ @ . . . . @ ; e ; @ . . ; 1 < $ $ t i i j F u k v i t - u F U O.O.F H F I I ,.O.,.5.o.,.o.F k 1 $ $ - 1 ; ; - ; $ - $ e G | ( O.G i b F 7 $ L O.G t v I G ( x _ | m c _ [ m t n m G _ g g _ | | ' c z c z n ] G _ | ] < - ; . . @ 1 g t t : ; $ $ - ; e u G j j v f e v k n k F F G G G e @ o : : v c G ( { | 1.6.v.v.R.e.v.Z.Z.v.M.r.5.O.} L 5.5.3.j [ |  .-.-.3._ n F U n.w.x x p p w # | | y f t g f . . . * @ @ X @ . $ .     ",
"- g >.R.OXmX7XZ.Z.{.XX6X3.u.Z.8.1.[ f 1 n F F 1 N [ j ; | | ] j.~.n.' ' m g : n j u I g.5.J Z D F k k f i i 1 -   . @ e u i u f 1 $ @ : j i G v t t 7 j G _ G i . . . X * y 0 0 0 = 7 0 7 y ( b z b z 9 @ m B.1.q { y y 0 ( 0 5 ( 2.1.8.1.' 5.8.1.F : . ; n z g 0 y z p v y 0 9 y g j n O.O.5.7.>.>.o.F k f ; ; - f [ I } U ; ; ; 1 f u v [ F j e ; . X o * o X : F j G v F i ; % @ + % % # # + . . . + .   . + $ + . + + @ @ . . . . . .       . .   . . O o < 1 t h P 5.!.zXxXqX~.g.I I O.[ F F J G i i a b ) t.D.4.K / %.K.q.) t.C.5.#.2.} k h G ( G j i #.q.| ..C.E.j.[ q..X|.j.P u 1 ; - $ . .             . . . X @ $ - @ . @ @ @ X ; e $ X . . $ ; ; 1 1 t e e u f 1 u j i ; @ t j F [ 5.I k k I o.7.G O.f.,.g.5.U t u - X - - ; - $ - - 1 - e G O.{ ' G m G _ $ 9 | | m z y n _ | Q x.e.` ] _ G i t y c [ ' g c g m _ m g g c z 9 f l z g ' l $ - X - X @ 9 ; ; : : @ $ 1 t g g u 1 g F f u k v v v G G n c c : @ @ ; 1 j G ] [ _ 6.O.5.g.g.M.E.8.6.R.B.| 6.5.1.[ L 4.v.8.8.1.-.1.] | } *.' L L B.2.w z x x w p p _ m i - z j ; @ o . @ .   . @ $ .     ",
"@ B i.XXi.pX@X5X:XXXE.oX9.y.b.4.9.U [ n n n k f L | j ; [ L *.P.:XB.L ' N n F | } G 5.b.[ F k h k F Z k j f t <   . $ 1 u i i i e e u f f j k F F = = v G [ G t . .   X . @ ; @ g z 0 y y n m b 0 0 b 7 ; M | n.z m m | b.V.m b c p b | x.` _ { } z g * 9 ' g c p m G ( | G y 9 9 t f c ( O.O.O.} O.1.G G f 1 < u U } O.L n 1 G < @ : ; u v j c u $ o - o * - . $ f j i j G j e ; @ + # # % # + + . . + . . . + + + @ @ + @ @ @ . X . . .         . . . . . X $ < 1 1 h I g.$XzXzX=XN.7.O.} } [ I [ J D b ) ) ! $.#.@.( %.2XfX1Xb.t.S.8.t.].V.[ K G G G F G @.2.O.{ c.B.,.G b.|.F.+.A 1 - $ $ @ .               . . X @ @ $ - $ X $ @ @ @ ; $ @ X X X $ - 1 1 ; i j t t u 1 1 i v ; $ u t v G G D i t j k v b 1.5.f.m.g.o.f u - $ - $ @ - * - - u e j } | | { ( _ _ m q 7 m m m _ L c 5 . _ Q ` 1.e.{ m m y 0 | | G m c 0 m y ' t 7 9 9 N f L ' m | t : t - ; @ X ; z ; y e * @ ; : t t t ; e i j t f f u k F k j j v : @ - 1 1 G G O.| L O.O.| g.g.6.A.P.E.|.y.` | x.8.} 1.O.8.r.A.v.3.@.-.2.' 2.:.| m 4.R.b.Q m x p p 0 = z G v G G : X X . @ . @ - $ .       ",
"u 5.oXL.U.E.XXb.~.0X-X6X+XU.I.P.1.U *.} v D G U *._ i t c j n O.V.5.] n L G 7.8.4.O.7.7.c e 1 1 t h Z D D j 1 <   . @ ; t f f i u e j k j D F F G D 7 @ t g i = * @ @ . * @ 0 g 7 g y N G c v m c _ 0 * @ q = ` 8.x G n 2.b.b 5._ 8 8 c | b.6._ } n m m ] ( n b m _ | ' _ >._ F z 9 e t z [ } | [ c } _ G F 1 1 f I F z g j : i 9 : g t e t c j g i e 1 ; @ $ - 1 L F j D G v e ; % % % # # % % @ . . . .   . . + . . + + @ @ @ @ . . .           .     . . . o - < < 1 C o.m.=XwX=XR.V.,.| O.[ J G F D ) ) K a $.'.#.G X.b.|.1X1X-X{.g.].tX%X>.G | 6.2.} [ 6.8.} } b.P.5.[ 8.m.,.F t ; $ $ @ . .               . X @ X X $ $ @ $ @ X . @ ; ; @ X $ @ @ ; ; 1 1 e f f j j e ; e g - - j j j G [ F F j u f i n G [ 7.N.g.o.F 1 ; 1 - - - : 1 ; - ; : n g.@.] | ( y y 0 0 q b ' ` | _ 0 y { A.4.q p x x e m n n ] 1.[ G j f n ; * 9 f ; = g n _ L 0 0 f ; g f t : $ ; n L n n ; ; g f t ; ; $ $ : $ 1 u t u f F k G j n g - - u u I | [ c v _ } O.5.@.@.e.y.P.Z.u.3.` ..1.8.>.[ 4.2.Z.oX@.| 4.w.2.| _ e _ _ 2.E.A.2.2.8...x._ y G J G [ i $ ; - @ @ X -   . .     ",
"f *.9.1.L.8.4.*.c A.5X;Xb.8.P.7XP.L ' L n c v f F _ n j n n N _ | U _ ' | [ B.-X.XA.8.[ z t ; $ X 1 Z F Z i e -   . X ; u u f j F k j f 1 k F F F [ D : j t g y 0 9 * X @ = y m m z 0 z _ G G _ z { ` @ + * @ ~ B.e.m j 2.| m q _ Q m 0 b | 4.4.O.] m { y.2.1.c c _ 6._ _ } _ 5.O.u ; ; y z z G O._ G F L I 1 j u j i g 9 g j f c v n f 1 g G v j f j t ; - @ . ; k G u i F t e 7 % e y e 7 7 7 # . .   .       .   . + + + @ @ + . . . . . . .     . .     . . o $ - < u A +.k.Q.!.A.g.O.O.O.I F K K K $.) v r %.].c.F K | C.1X1X;X=Xk.b.:X!.O.G c.-X%Xv.O.6.7.O.6.E.E.4.| O.+.A t - $ @ X . .                 . X @ X X . . @ X . . X @ % $ $ $ @ @ $ ; $ 1 t u j f v v e $ ; e ; 1 F j f v } L F j u f G b _ [ 5.O._ } U 1 ; 1 $ - 1 e g : - ; e n O.8.| G b y ' 1._ : m @.Q m x _ g._ Q z { .._ _ ..] _ -.z n L G 9 - ; 9 f f t g : m n l l : ; n e u j g t ; X e j n n f - j j - o X o : g - $ u g j k k F G k v i j j j j [ G G v n F v [ } } O.2.y.r.A.|.W.p.4.5.8.y.[ L 2.b.%Xb.F | H.b.2.| c n t t ] }.A.e.V.e.2.1._ G v G m z e @ X e ; @ o : - o .   ",
"k F 9.i.U.*.] U l n V.&XZ.P.P.5.9.} L t t f L n | _ _ _ l n l g F ' 1.5.O.5.E.%X|.R.H.8.G j t $ . $ u h A u 1 <     X - u u u j I k u u 1 u F F F I k j [ F 7 9 9 0 * X @ : c 0 z z y m m c c [ ..Q 0 0 @ @ * 0 Q 5.O.>.x.z _ ( q p c 8 c _ _ 2.] 5.L G @.5.8.m z z _ ( m b j c G f e 9 g m G z m | [ j f ; G j f t y y y G L [ c G G i F u n F g j g i F t ; . @ k u ; j v i i i y e e i r e 7 @ + . .     . . .   . . @ @ @ @ @ @ X @ X . .     . .       . . . X $ ; 1 i D o.f.m.B.M.5.| @._ F v v K X.#.G i { E.m.G F ) D.fXfXiX=Xj.5.N.8.} O.B.E.b.6.b.E.M.v.R.~.N.>.} o.F t - @ . . . . .                   . . . . . . X . . X . X $ @ $ - X @ $ $ - 1 1 ; ; u f j 1 ; u u 1 t v j u j F G v F j f i G [ G L c g j f 1 ; $ - u ; ; j L v e : c [ 6.m p m @.8.R.R.4.| ` _ ..6.{ b z ..m p ..] E.A.2.B.j.v t u i t i : n l c t m g t t @ : : ; $ $ t u j f 7 @ l 9 t : : g ; : e ; - @ - ; : : t f v f k f v i g y c f n n F t L G G U I I [ } | | 4.I.Z.E.U.I.u.6.| 5.' j _ 8.A.1.L G 8.4.u.-.i.L c g ' y.b.5.O.} _ G 5.} 7 c ( m m @ @ - u @ . ; $ .     ",
"< 3.P.i.i.*.' F _ } ' /.7XE.5.' n j } g n L j _ [ >.' n _ L [ >.n.y.>.V.|.R.%X%X&X*X|.b.{ v t $ X X ; % ; t 1 -     X 1 h h h D J F $ e 9 j G F F j i k F F c y m : = X @ y 9 9 7 0 z m m 7 : n | ..Q 0 @ % - y Q p p L O.@._ m y p _ _ G @.[ 8.] | ' u g 1.x.6.( ( | _ [ G 9 f g t t g G G m n G L G n f n F u n i 7 i b g G G g G F i f F U G F F i j G h $ . * f 1 1 u e t y i i t $ 7 e 7 % # # + .   . . . .   . @ @ $ $ @ @ @ @ X . . .   . . .       . . . . X $ < t t Z P O.g.b.v.8.t.2.( D i i K _ G i G x.6.J F G ].DXDXuX^.O.H I } 4.M.B.v.b.|.|.A.b.A.E.B.8.O.I F u - $ X .     . .                     . X X . . X . X @ . . @ X $ ; @ $ $ $ $ - $ $ - 1 u u t h n i u f z g g j L L b F f i j n n c } G i 7 u u 1 ; - t - - j O.b 1 - 7 } v.z 9 t n 1.H.b.e.5.' y.y.m b 0 @ b ] ` M m v.8.` ' 4.n t g g n n ' l g n y n ] z 9 : f * - 9 @ - ; n g m : 9 0 i g 9 7 @ @ : j j ; @ - : : j n j i i i k u g t i j e 9 9 7 t b I G z n G _ } _ -.|.}.b.I.I.P.8.} L _ L [ | *.1.} n } } 4.1.e.8.| n _ w.b.8.5.{ } i G O.v m m | G u u e t t @ . .       ",
"t U n.U.2.| v n ' *.4.9.W.L.5.U j g U L _ u G n ' | _ [ | >.8.b.n.c.9.4.R.B.~.&X#X XE..._ v : < - $ X $ < e 1 $   . . $ ; e i F J F u j i v F G F j i I G g f y n 0 9 X @ 7 y y 0 c 7 @ n m 9 c _ _ M Q y 0 Q z m 0 z m z ( @._ c m @.2.[ { O.8.@.m y @ 9 G ' | { 6.8.1.O.G m m 9 ; 1 c c _ L g L O.G U f ; ; i i v g y z i z G G L G v u k I U v j g j k 1 * ; 1 u 1 1 @ e e t ; e ; @ 7 7 7 9 7 # + .   . . . . . . @ @ $ $ @ @ $ - $ X . . . . X . .           . . X $ ; : t h H o.5.H.J.c.t.O.G j i D G G v K #.q.} G ( .XDXZX,X5.Z j b { e.~.|.B.V.Q.B.7.6.V.x.1.} L v u - X . .                         .   . . . . . X @ . . . . . . X $ $ $ $ X $ X X @ % @ ; u e i F j u f v v n j n F G n v f u j e e i G | j u v k j j j i g e c | j t ; : } L F e g k I 8.1.( G O.g.e.x m 8 . 8 z ` 8.@._ m 2.n z : X X u v j y ..*.m t l 2.f 9 @ o : ; ; : $ - - ; t z - : t t y n : ; t t e e 9 ; - 1 j c G G g e : y j t : ; u t % 7 t i g i 7 n _ m _ m 3.XXU.y.U.XXP.4._ n [ O.4.2.P.r.e.1.O.O.1.4.3.*.} [ | _ b 0 ` e.O.u n | v m ( z v e e . 7 g e X . .     ",
"o.| 9.4.] L j j V.*.U ' 3.L U 9 u n n l n G n N | 8.y.' 4.8.x.M.R.W.oXV.A.5.P.R.v.{.E.v.{ i @ ; $ $ ; h C u 1 -   . $ t u u t i F I F J U j f k G i ; F O.v ; F i i : 7 = = y y z t i ; _ G m z m c p M ] z = ; n m p z y _ 5._ p x x _ [ | ( 5.v.` t t q  ...] 8.B.b.8.5.| m g n 1 1 v m [ n e e j t [ u ; @ ; 1 i G b _ G G m c z e e f U I k F G j F I 1 X @ 1 n k e . 1 e ; $ t t % e i e 7 e % @ .   . . + . . . . @ $ $ ; ; ; ; $ @ @ X . X $ X .           . . . X $ - ; e h H o.f.g.5.6.6.O.F u i ( { ) ) #.c.O.G ( |.xXlXT.H b G G G [ O.>.O.[ o.O.[ } >.o.G n f e - X . .                               . . . .   . .   .       . X $ $ < - X X X $ ; = 7 = ; 7 D F e e j f k G G G G _ G } F D n F c j o.O.k j v I L G [ j g 1 F [ L u < 1 U k F A t : f G [ _ m n | 6.m Q ( m m ( b.e...; 0 2.[ _ e X . X ; : : | _ u 9 m m j : X X @ ; ; : $ - 9 ; g i 9 ; i i t e : : e f t t G e ; : F j F _ F u i 9 e t f f - * $ : e : : f t c b G m m u.}.I.r.Z.:X|.5.@.O.} 1.6.b.e.u.u.b.b.e.b._ j ' [ G 8.v.] ..] e.4.n G { j G ..c j j t ; . : ; - $ .     ",
"f l n } N l ' F 8.P.*.3.l L 5.3.L c *.} _ n 1.] 8.y.y.] | 4.M.m.n.I.;X}.n.2.| 5.6.P.|.b.5.j ; $ ; 1 u Z j u < $   . 1 u t t k i ; u D G k u 1 j I F f j [ [ i v 7 c ; $ : 1 b G y 0 y X % g 9 m y 0 Q c m z 0 # z m b b G ( z G p 7 7 8 z 5.@.[ | 4.L 1.| 6.O.1.5.6.x.B.A.M.1.m G u u I I | [ _ n u 1 u i ; . - i f v F _ [ } c y z f u 1 F G k j n f f h u o X ; F L j ; - ; u : : : $ ; e t e e % @ @ . . . + $ @ . X @ ; ; ; ; ; $ $ $ $ $ X $ $ @ X .       . . . . X @ $ $ < t u F I Y I [ I H C u v [ { ( { #.S.c.{ ( m.,X).,.k ( _ } G v F G F k j k j j D k i e < $ X . .         . . .             . . . . @ $ .   .             . . @ ; u ; X X @ t f $ = $ : ; v G 1 : : t F F i G _ [ F G F n L O._ L O.[ G F U O.| I n c n f j f G h ; $ u 1 1 j e ; ; u t L _ -...1._ _ ( ..4.c.@.: - 8 ] 2.( g j ; @ X : * ; g L g ; ; ; ; ; $ - . @ X $ @ o ; : ; u ; : : : ; t e f f t G g u j c u n k c } F k U F n ; * @ ; ; t f : e 9 : : c G n | ] y.P.}.U.%X;X|.O.1.g.5.O.e.m.2.4.u.1.e.] ` g i m | | | ] _ } } 3.=.G [ 5.G v 2.@.m t e - X : - ; $ .     ",
"L g y.y.1.| j.W.:XoX| 9.8.b.L.OX9.*.i.8.8.P.U.8.n.8.' } _ | ,.7.V.4. XXXZ.w.5.n c v.R.c.5.j $ $ $ $ 1 C Z u 1 -   . 1 i i u j _ F ; t j u u 1 j I I F % G o.[ t ; c u i z n G L c z : - @ 7 g g y x x z m y g 7 l m ` m m p m | { ( 0 c | 2.@.| 1.] O.5.2.e.V.H.B.@.x.B.B.m.5.[ I u h O.o.5.| G L f g k L f $ ; e G v f G G _ O.G b F g e F F u e v b f I 1 o . @ u f h ; $ $ u : - $ . @ $ e ; ; $ # # @ . . . @ X . X @ $ $ $ $ ; $ $ @ @ $ @ @ $ - $ .             . . @ @ $ ; ; 1 t u h C A A Z u u i G G K ) 2.D..XM.O.O.d.<.H j G G @._ k v h t 1 : 1 < ; ; ; $ $ X . . . .         . . . .           . . X @ $ X . .     . .       . . $ i j ; . @ - u v i ; X ; u f G e $ - : D j t F L L h j G F n _ O.| } m n G L I n f j c F u 1 ; j h < ; : ; ; i j ; - - i n ( ..` ] ` x z ..1.0 * # X ` w.Q y z _ g ; - g o $ j n e : l g e g - @ X ; @ X @ * ; 7 g t 9 - = @ * : e 9 g 0 i g u G F j k n L L f F L F F n t 7 9 : n n N . . ; * c m G 1.] ;.u.E.I.XXE.E.8.M.E.v.5.4.1.7.4.B.1.m ~ ] n L L b L _ G j n G U m y n 5._ j [ G G t 1 @ . 7 X . .       ",
"f *.4.=.1.-.6.P.1.9.7.W.E.R.W.n.O.| 8.n.1.n.v.I.y.v.| _ j | ,.[ v.3.e.|.Z.u.y.L G 4.P.8.5.t % $ $ $ - h h u 1 1   X 1 u u u D [ G j k t i i u j F F G v I o.O.G 0 y G _ z 7 m L G y : 9 = 7 @ u m z Q x z { { c c z c ( m m ] 6.6.1.5.5.6.8.@.| 5.| ] _ | [ 6.E.E.8.v.R.B.x.5.4.G 1 Z o.F I [ _ G f ; ; j m L t ; 7 u : F _ G } L j v k u e j j 1 e k f I I u - @ $ $ ; - $ . ; - @ $ 7 : . . = ; % $ # @ . . @ @ X X X . . @ @ ; $ $ ; $ @ $ - $ $ $ $ .               . X @ @ $ $ $ % ; ; 1 t t 1 < < t i i j G | c.>X:Xg.H H F j b ( G D u u u < $ @ @ @ X . . . . . .       .         .     . .       . @ X . @ @ $ @ X .   . . .     . . $ e u ; X X @ $ e ; @ $ t f e h e 9 ; ; 1 1 $ f G L u f I U F L [ | O.j j j i F [ j f j g 1 - ; h k k U G f t G G j < 1 c u m n g -.` ] ( M n c z ( ] v.b. .m _ _ c t : $ o @ t ; L g L G n n 1 ; l n : $ X $ @ @ g g 7 t ; @ * @ @ ; t e j g t c G F n c F n u F I F F n y u 9 9 z c N @ @ ; * g c ' G b Z.I.XXp.m.Z.~.v.1.B.B.V.2.5.8.8.A.B.8.4.2._ 1.| n l ' ' n n c L [ y @ c F u n 1 L g * ; @ - - @ @ .     ",
">.3.:.4.P.4.^.U.W.XXL.n.oX&X.X.X}.4.y.4.1.7.y.E.4.8.>.| _ G k ' b.r.-.b.S.r.n.3.V.Z.v.e.| t ; $ $ $ : Z h f < <   . 1 D h t h G G I G F F G H F j f k F I o.O.o.n z b c G G { } G z y - ; . @ 9 G z 2...m b _ y m z 0 c z z | 8.v.b.5.6.6.b.6.5.O.@.] { _ g O.A.A.b.@.v.e.1.] 2.h < H _ t n G | _ c m g L L i y j t $ ; j L G G j j n c v i t : : i u Z C h ; X @ @ . X ; @ . - ; ; % ; 7 .   @ ; e % % @ . . % @ . . X . . @ @ - $ @ - $ ; ; ; $ @ - $ .                 . X X @ @ @ $ $ $ - - < ; $ $ < 1 1 e i G 5.|.%X5.i t t u i v j u 3 $ $ X . . . . . . . . . . .             . . . . . . .       . $ @ . @ $ ; $ @ @ @ @ .   . . . . : t u ; X X . @ @ @ X ; e t ; $ $ ; e : $ ; @ - k k 1 u h j k G G b O.G g j u u n j u f u - * u k k G o.5.} G } } _ c i g 9 j m z m -.n :.1._ m y m | E.!.A._ | m [ [ 0 < - @ ; ; g g 1 1 F g X - n n f : @ @ $ @ @ % : i : X e ; ; ; ; 7 t u e j F I j c n v j v G [ I [ L c G L n G g * - 1 : [ | ] ..-.r.OX.Xi.j.e.P.v.e.b.E.E.|.E.g.x.E.A.~.E.E.u.2.8.G L | _ F } } h c @ : ; $ $ . ; N g g g G F j i ; o .   ",
"3.9.5XyXXXV.7X7X6X;X|.|.5X:X:XoX;X5X@.L.j.7.A.V.| 9.| ' -.L 1 D 8.u.U.w.r.w.u.Z.Z.n.y.1.G y $ $ ; ; < t u t 1 -   X 1 j j t f G I G G G F F D G j f k v k F o.[ O.[ G z = [ 1.G 9 X 7 ; ; = ; u | e.b.@.5.m y c 0 z 0 c b 7 ( b.b.6.| 8.b.6.e.8.5._ m I G c G e.A.A.w.2.8.| ( _ u 3 +.>.e t L _ c c c t t j [ L v : : % ; G G n c m G G v i g i t i k G Y A 1 . . . . X ; u < - $ X @ . 7 ; + @ ; ; % 7 # . . @ @ . @ @ @ X @ X ; 1 % ; 1 1 ; ; $ $ $ X . . .             . . . . X X @ $ @ @ $ $ @ . . @ @ $ % t v _ g.k.P i t t t i i t $ . . X .     . . .   . . . . .             . . . . . . . . .   . @ $ @ X . . X X @ @ $ $ .   . X @ 7 i v < X $ X @ X @ $ e i : e : $ ; y i $ $ X $ ; 1 - - $ ; t F } G G | | n k F n j k U k 1 1 I } I I o.,.7.>.} O.g.5.b L ; z 7 9 m N z L L 1.} | | @.4.e...] ` Q _ c _ e - ; @ - l - : $ g ; o ; F v L j ; # # @ @ = ; ; ; @ @ - : ; - : e : t f v F Z j j v k n v n [ 1.} G _ [ } [ G g g L _ } 4.4.;.w.W.}.I.i.7.A.&X;XE.%X:X{.E.E.e.b.b.E.|.{.{. XE.S.4.} >._ u y.4.[ L j % e e X   * * 7 i y z v j z t @ .   ",
"} R.pXyX7XaXaXyXiX>X5X|.+X:X|.oX` E.A.L.L.n.Z.B.3.v._ m _ [ 3 1 y.U.8...i.i.y.4.-.4.| ' m t - $ $ - $ $ ; 1 ; -   . < i j e u G G G G F F D G F k I F J F k [ [ } [ j F _ G z i % . - ; @ ; ; @ G @.( e.8.1.G y y g z m m 8 [ | @.5.O.@.A.R.c.{ _ G b _ } -.g m 5.8.y.E.v.8...[ t $ F | } j c b y z c z ; t L O.v ; $ % : u F G G _ _ [ G b L G G v v k Z h 1 o . X . X - e e @ $ X . @ ; % % @ % = e 7 # @ @ + . . % $ X X ; $ : t ; ; : < % ; ; - $ $ X .             . .   . . . . X X X X X @ X . . . . . @ ; e v I +.F v G j e e 1 $ . . . . .               . . . .             . . . . . .   . .     . $ $ @ X @ . . @ @ $ $ .   . @ $ t i f ; . @ @ X @ $ t u e e t e ; % y v ; * . $ 1 1 - $ * < < k F G j [ I F u I U } L _ j G L I L t i u j b z t c B.B.G [ t f y t c ;.=.L N G m z 5.] m ..-.m 0 _ _ 1.[ t e : ; $ 1 e 9 9 : $ k : G L ] } : 9 @ @ $ ; : : - @ : @ : ; - 9 t : e t t j v F G n v F c G L | [ _ G G } O.G c c L [ 5.5.y.Z.Z.:X}.OXE.8.Q.wX;X:XoX X X{.A.A.A.A.A.I.S.{.E.E.%XH.v.b.I j 2.y.v.v.v.L L i ; e : 9 t 7 = # . @ . X $ .   ",
"G 8.qXkX7XaX7X0XaXOX.XXX;X|.|.oXA.>.n.R.n.A.9.v.v.>.g | _ f - 1 e.I.3.| 4.w.r.w.-.] ..] { t - $ ; ; $ $ e t $ X   . $ t u 1 u F F I G j v I F k Z [ I _ L v } O.O.O.O.} O._ 9 c c y * X . .   ; e c b m m m z 0 m 0 m m x ` c 8 # m ] m _ b.R.8.| { [ 6.5.2.] ~ b -.1.4.B.v.8.G 1 $ Z e g L L _ m G | G i L L j j e - t $ $ G [ _ } [ O.} | _ G [ n e j f f ; $ $ @ @ . $ e 1 - $ ; . . X . . . @ % 7 7 % + @ # + . @ $ - @ @ ; ; 1 e ; ; ; ; 1 ; < ; $ @ .             . . . . . . . . . . . . . .   . . . . . X $ e h C u F G i < - $ X .       .     . .       . . . . .               . . . . .         . X @ $ $ $ @ @ $ @ $ $ X . @ ; $ 1 < ; .   . @ @ @ e t t 1 u G v ; ; e e $ $ X $ t 1 $ - - < u v k F f u f n k j [ 5.O.I U [ U j G I F F F z 0 | O.y.j.( g n y ; 9 _ m ] ] g l t i ( G z @...1.2.] ( | | k t g : : : t c y X X - : 7 i ' F n y t t j c : 7 X X : $ ; : $ $ : : ; ; t c G | _ v k F F L G O.1.1.} G G _ G k G | | 5.e.b.n.0.I.I.XX|.v.P.OX>XyX+XS.E.&XoX.XoXE.;X|.q.Z.A.B.I.A.A.A.O.G 1.v.n.A.e.5.1.F $ G g 7 y z . @ ; e @   . . . ",
"h >.%XtXuX7XnX4XuXaX;X7XR.XXn.Z.}.w.b.b.m.5.1.E.B.' L ` -.j < - L 1.-.4.r.5.:.2.2.-.w.1.[ t ; 1 : 7 $ @ $ @ . .   . . t u 1 1 e j J F 1 f G F F F o.1.[ G G [ 7.1.1.>._ _ m y c _ z 7 . . X . @ : y z ( m z 0 z c p v z | ` G G b 7 y y z 1.b.R.x.{ G | | @.' ^ c ] e.r.4.e.y.( ; $ 1 $ @ g } | | [ 1.O.c G G [ I i $ ; ; ; z G G [ | [ G G L G G f i F k e : - X X X X . f 1 @ ; ; $ . . . . . + @ @ ; ; @ + % % % % @ @ . @ : e e e 1 : ; $ ; 1 < ; ; $ . . . . .     . . . . . . . .   . . . .       . . . . . . $ ; ; 1 h h 1 - @ X .                 . .   . . . . . . .   . . . . . . . X . .             . @ $ $ $ @ X @ $ $ . . @ $ $ % @ @ X   . . . @ ; ; ; $ ; j F i e ; ; - $ o $ - < $ X o * u i t t t 1 u f f f G O.} G U L j t k I I I i g t _ } k n f g j l 7 t [ c n z f f g t y _ } ] e.5.1.' [ _ | n v i c ; - 1 g f ; ; @ X - @ 7 N B 9 n j U m j g : @ @ X 1 e : 9 ; ; $ ; ; e L >.I v G o.[ O.O.O.O.O.| G _ G c f c _ _ [ e.b.Z.r.6X5X;XoXE.P.U.%X6XoXA.I.E.|.b.y.b.|.5X-X~ | 1.b.{..XA.[ j } v.b.b.e.b.c.b ; m m y y m z @ @ = %   .   . ",
"i F E.yX;XyXnXtXaXuX6XP.y.P.n.8.E.A.E.E.1.8.y.w.] ] ..1...n h F _ L 1.r.y.4.-.[ -.r.w.w.m 7 ; : ; ; $ ; : ; $ @     . < ; @ $ i e j u @ u v G D D [ _ [ F G _ O.5.>.O.G | n i b m ] : . @ ; ; - t z { { ' G ( 0 y 0 _ _ | | G O.{ G m y c c | 5.R.b.@.{ [ { -.4.1.1.b.8.6.[ _ Q ; . - ; - g ' | O.| O.@.b b G 7.5.o.j $ - i b c m _ [ G G n F G L F v j e ; ; 1 @ X @ . $ F e @ X t @ 7 $ X . @ + . @ % = % @ @ % % ; @ X . ; - : e 1 t 1 ; ; ; ; ; $ $ $ . . . . . .       . . . . .       . . .       . . . . . . . @ $ - 1 2 3 X .                   . . . . . . . . . . . . . X X . . . X @ . .     .   . . @ @ @ $ $ @ . @ $ @ . . @ @ $ $ @ @ @ . . . @ @ @ ; $ $ - 1 i G 1 ; ; : 1 ; 1 1 u ; . $ - - ; - - ; 1 t ; u j j F j u g n f f u g f n 1 e t j G G e u n e f t t G n i t u y n g n j G | 2.| | G _ l U _ _ j y g ; ; $ : t ; f t ; @ e l ; 7 : y | | c 9 9 t e - t t % ; 9 m 9 g - : b _ F u j O.} O.} } | O.O.} _ F i t F _ b n ' 4.P.e.5XxXuX:XyX=X}.Z.oX&XZ.Z.b.Z.b.n.b.8.v.W.n.[ | v.|.{.b.[ L [ g.b.w.b.b.e.( : g G b ( m G 9   . = .     . ",
"# @ q.yXxXvXCXnXkX7X7X:X3.| 4.n.b.y.B.A.| o.V.4.1.-.4.2.] _ h } u.] 1.3.1.v.] =._ y.2.2.] t - ; @ ; @ : t e $ @     . . @ . @ i u : : @ e t u F F I [ G k n G [ O.[ | F n g i v b n : X @ ; ; g t m ..@.' _ m x ( ( _ b ' m z y z ( [ { b 0 7 z e.B.6.6.O._ 6.b.e.4.y.| _ g ; 9 ; O X $ $ j { 4.1.] _ b m O.O.5.O.G j : - v [ c | O.L G I F n G G F v t ; X u f 1 o $ . - t 1 - @ @ . e $ . . . $ @ @ % % 7 % % $ + $ 7 ; ; e - $ $ $ e t : ; ; $ ; % $ $ X . X X . . . .   . . . .     . . . . .       . . . .     . . . X $ $ X .           . . .     . . . . . . . . . . . . . $ - $ @ @ $ $ .     . . . . @ @ @ @ @ @ @ . . . . . + . + @ @ % : @ . . . . ; 7 t - $ $ $ t u - ; : ; ; 1 1 1 u $ . . - ; - $ ; < 1 - $ u f e g f u u j g e f u t u j t 1 u f k u : n z e c c y _ b i 9 ; n n n z L { ] -.] g l m | n n F l n * ; : ; z e t n g o u : g : j e m | m e t ; - ; @ $ ; @ y c 9 : - e j j u 1 h O.5.5.o.} O.O.} L [ [ v i F G y b G ` v.n.XXbXlXuXlXjX0XE.}.A.e.4.1.>.>.6.1.O.I } 8.e.| 2.b.u.e.G L U | b.b.c.w.A.| ; c z z 0 y z = % # 7 ;       ",
"7 H A.7XMXdXsXtXaXaX7XZ.=.F n.} 5.I.R.R.8.5.5.1.4.y.N N { F G w.Z.u.-._ L | ] | | v.I.b.@.n : : $ . X 1 u e $ X     X $ @ $ X t f g 7 7 : t 7 t e u F G v G G } _ | F c G y y j t ; t . . 9 e i g y _ _ | [ _ { ( ] _ c c c ( _ m [ | { ( ( G 8 z b.B.1._ O.8.A.r.] | m 7 . 7 * u X $ e u j L | 1.| _ c _ 6.8.O.[ j g t f n [ O._ [ G n b j t j G n t e e - f j e ; $ X @ @ . $ @ . @ @ X . . . @ % % # % ; $ % @ @ @ e e ; @ $ e ; @ e t e : $ @ ; ; @ @ . . . . . . . . . X @ .     . . . . . .       . . . .     . . . . . .             . . . . .   . . . . . . . . X . . . . @ $ $ - - $ $ .   . . . . . @ @ $ @ @ . . .   . + . . . . . @ ; ; : @ . . . % y j u u - . : ; @ @ @ @ $ 1 t 1 < X . . * e 1 - - ; t < $ ; ; g n f j n u e u v g f j i c ; u t f L j z t n ' -.n f n g j g j g f G n m e l ; t 9 y G l } F L n : : ; 7 L c 9 t g e 1 f t f m m m _ ] z - - n t @ - 7 : @ @ * - ; j n F F j k [ [ } } _ O.O.G [ } L G L c G G y ` ` w.n.W.5XwXjXjXqXwXA.A.7.O.5.1.L I G F S C A } O.( _ w...w.} v } 5.B.P.x.w.C.8.e y m z b z + @ % = @ @       ",
"1 H #XaXsXdXtXyX7XOX+XOXL ' >.n ' Z.n.E.8.2.| ] 1...c _ z f j E.+XoXE.[ N L [ | 3.4.Z.u.| i - . @ . . ; 1 : ; X     . $ ; @ . @ t g e 7 = ; v v t t j j n G _ n z [ c m G c : % t : :   . = m t 7 y _ | ' ] _ ( .._ x v q 0 0 m ..G _ | _ ( m z m { 8.e.5.O.( M.b.1._ ` ` j g % X $ - $ $ g _ ' 4.5.1.[ 5.8.8.} _ } } _ L n } [ m t G _ c v c c b G v h < - ; ; ; ; $ X X X . X @ . X @ . . . . + e = % % % % % $ X @ u t $ @ ; t e 1 ; e t 1 ; @ - ; @ X . . . . . . . . . . X .     . . . . .       . . .         . . .               . . . . . . .   . . . . . . . . X X . . . X @ $ - ; $ @ .   . X . . X . @ $ @ @ X . . . . + . .     . @ % = 7 $ . @ $ % y i u e - $ e ; @ . @ @ ; t t u : . . . ; t e t < ; 1 u ; ; e g j g j F L e f h t t n G n : f n n t L L t N c t g : # i n n n m m { k n 9 ; @ @ $ : ; n | | [ F - ; - 9 9 n n n G j < t n f y j g n _ f @ o u g - ; t ; ; - ; ; t t j F F G F I G L F I [ } o.,.7.5.L G F O.8.5.5.`  .2.R.%X*X$XXXQ.~.8.1.[ F O.o.I F D G H H I I U } L 1._ 4.5.n 5.n 8.b.6.8.5.[ ; n m p c c # @ . ; % @ X .   ",
"t u F.kXaXiXdX>XiX5XW.}.p.#.2.g F i.w.2.Q Q _ I [ _ m z i h } ;XtX:XE.9.y.3.g y.n t L ..-.y @ X @ . X 1 u : - $       . @ .   X t e @ ; . @ t f u i F L L L c b y c v | G v . X % ; ; t - ; : g 0 m c _ _ m c m ( p 8 0 _ O.m m x.| b G ( ( G _ m ( p _ 5.5.4.b.4.n _ N _ n y = . . * ' G ; _ ..y.*.1.1.8.g.5.} L | O._ L U F L [ _ G G z G F G F D 1 < o $ o - - $ . X ; X . $ ; t t $ .   . . % e e ; $ @ + + . . @ y u $ @ 7 t e u e e ; : ; $ $ ; ; - . . . . X . .   . . . .   . . X . . . . .   . . .                             . . . . . . . .   . . . . . . X @ X . . X X @ @ $ $ ; $ . . X @ . . + . . @ @ @ + @ . + . + . . . . + @ @ 7 e ; . $ # # % y i e ; t f : $ $ e ; : j n u - - . @ ; - ; : ; 1 1 f f v j n j g j u f u f u : 9 _ | f l n n ; t f n z ' g m | j e ; g g n L m L u z m f g $ 1 t n n 3.5.t n j : ; ; ; - n u g j t u i 9 9 : ; : t ; t : ; ; @ X 9 z 9 c ; : ; y i i v v F L I I U _ 5.O.I 5.8.g.5.O.[ z [ 5.@. .:.4.e.j.Q.B.x.b.R.8.O.F G o.I G k F 5.5.1.5.5.O.5.5.4.| @.b.1.} n | e.b.8.G h 1 n c 8 z _ 7 @ . @ e e $ .   ",
"h 3 g.nXdXtXtX+XI.m.I.OXi.Z.' L n *.b.`  .x G O.>.2.1.] [ P g.>XiXyX%XA.P.v.n U.] n N ..3.- X @ @ X ; i i ; o $     . @ X     u F k = X     @ i j D F D G G y G g _ _ | G i $ . @ ; e ; e @ t g - @ z m G m ( b p ~ @.x.A.m.1.x.H.8.5.| b m b z m _ _ [ O.V.B.v.1.c c g | G n #     $ l n 9 v -.5.L [ 5.| O.L c b G y n G [ U L G [ [ _ b _ [ } G f - * < . . o . . . @ - . . $ $ t e ; @ .   . @ $ ; @ . .   . .   @ = : $ . % 7 t e u t : ; $ $ $ - ; ; X . . . X @ . . . . . . . . . .   . . . .     . . .         .                 . . . . . .   .   . . . . . . X X X . X @ X X $ $ - ; $ . . X X . . . . @ @ % @ . . . . + . . . + . + # % 7 e ; X @ $ $ % 7 e e ; i i t 7 t i t f n f n ; o . X ; - 1 1 ; < h n k n v j i j u u u g j n g j [ m ' m _ F l z n _ t f G n N L 9 t c n m _ ( c : c m ] e g @ t e g f g t ' n j @ - $ t g n g B } G f * f t $ y z t g 9 : @ X @ ; g 7 f t ; . @ : $ f f k n F [ [ [ O.O.} } >.| O.O.1.O.O.8.8.w.y.n.8.7.v.A.e.b.E.m.} H } o.o.F f h 5.B.v.8.6.4.e.v.n.5.4.U.8.n u G 8.b.>.t ; ; e n 0 0 m y : X . @ : $ . . ",
"u 4 [ tXsXiXtX[.| 5.L.-XoXu.| O._ '  .;.^ m _ | 2.u.;.| I H x.tXiXaX+X.XI.+X4.' ' L m L 9 - @ . @ ; : F j % . .     . @ .   X e v L e ; X   . f F L 7 ; t = t G [ G G L I i : $ t y 0 t * : t y j 7 i n ] m c m x 2.B.M.H.5.5.N.M.5.7.8.@.[ c m | m Q _ G 6.{ @.( 2.] j m ; i y X . . ; j G m G | t e G L [ t n m [ y _ O.F F L I [ } o.I >.1.} D - X . . . . $ . . . . @ @ @ . @ $ @ % @ X         . . . .   . . . . % 7 ; @ $ $ $ 1 t e 1 1 ; $ $ @ @ $ X . .   . $ @ . . . . . . . . .     . . .     X . . .     . .               . . @ . . . .   .   . .   . . . . X . . X X X @ $ $ $ ; $ . . X X . X @ @ @ $ @ @ + + . . . . . + . . . @ % % @ . . . . . + % % ; t i ; ; ; : i t v G n j ; . X ; j f j 1 1 1 u t u j F k n j f v g j j L } | ] u n F F *.U t ' L ; : g e t N ' z G n n g { n : t ~ G m m : - g l g * ; e [ v , $ - 9 9 t g c F g n u : - @ ; t N e : g u ; @ ; G t ; l t * X . X i j k k F [ I } O.O.5.O.o.G v G O.g.g.V.E.*X0XwX*XW.P.b.2.V.oXb.5.O.>.G | n n F V.E.b.4.8.E.oXZ.b.>.O.Z.y.j e g ] 3.L t 1 $ ; i # q z t : . X @ : . .   ",
"u 3 g.W.4X>X4XtXD.t.8.{.D.u.} O.A.-.u.w.g ] ..8.A.u.u.v.@.Y F.aXiXiX.X-X;X.X X8.m n ] j t : @ X X $ - j j 1 $ .     . - - . X ; e t $ - . X . u j F i - i g t j | | G G _ y j j y z b i ; n y = 9 m m b _ ( z q ( b.v.H.E.x.M.M.x.7.g.v.8.8.@.( m ' ` ' z ( ..@.] 8.1.G t @ y G X . . @ : g j n m L t ' G | L n n n G } [ f k O.I } [ I I O.O.D k $ X X . . . . . . . . @ . $ @ $ @ . @ @ .           . @ . . . .   . % = % ; ; 7 % ; 1 : e % ; ; $ X X $ X .       @ @ . . . . . . . @ X .   . . .     X . . .     .                 . . @ X . X .         . . . . . X X . . X X @ $ $ @ $ ; $ . . X X X @ @ @ . @ @ $ @ . . . . . . . + + . + + @ .     . . . . + @ 7 t i e : ; t y j F F [ I ; $ - u n j n G j 1 j h f f G I j j f e 1 c n g g ] n 1 - f c U g n | G $ ; t t ; ; z c | G y _ _ G e t ` ` L ] L e n n g g - 7 N j < u - $ t g f ; y l i n y : X - ; ; g t j ; 7 @ 9 c m 9 : c t ; - $ u i G _ G L I } O.>.8.8.>.J i i _ 5.1.8.b.|.:XzXeX=X|.j.5.4.|.n.8.1.} G 4.v.[ [ e.I.E.n.b.I.oXA.5.[ L 8.| n e g U } n - $ ; $ y 7 y y : : X   @ $ .     ",
"2 R F.U.4X7X+X@Xp.D...r..X.X@.O.E.V.4.i.` m ` n.b.[.Z.b.o.Y x.uXtX;X;XoX>X+X-X}.v._ Z.] G g @ . 0 $ ; j t t $ .     . ; : $ @ ; t 7 $ X     . ; i v F g j j : e _ _ [ G b c y b c g g 9 g n b } G * . y z p 0 m e.4.O.b.R.H.N.B.@.g [ 5.>.1...1.5.p { ( b Q _ _ _ _ Q m n @ y _ X . . X . . ; V X @ * ; c -.L : g t j v I k F G F I I G G I G f F ; X o . . . . . X . . X . $ @ @ . . . $ .           . + + $ @ .   . @ % 7 u ; ; $ % : e e ; @ $ $ X . X @ .     . @ . . X . . . . . X X .   . X .     . . . .   . .         . . . . . . @ @ . X X     . . . . . . X $ @ . . . . @ $ % $ $ ; $ .   X X . @ @ . . . @ $ @ + + + + + . . + . . @ + % @     . . . . . $ 1 e e t z ; y t t G G I G 1 ; e k j j j U n u [ O.5.[ G G j j n v t } } t ; g y m i u t g U L } c t u j g ; e g ; c i 7 z g G 9 : n _ c ' y t G y g n z f z c f g L i t * $ - g n j t ; ; @ @ @ @ @ @ y $ - 9 g t ; 9 t 9 @ @ = @ u j G G G c G [ } 5.v.x.,.I f u G O.O.5.b.A.$X9X;XW.u.e.:.:.4.v.8.4.3.y.8.3.| [ *.P.y.v.8.b..XW.y.v j _ v L B | | g u ; ; 1 ; j g 7 = ; - X . @ $ . .   ",
"u R N.4X4XU.dXU.[.8. .S.D.b.#.6.E.n.I.e.2.| | !.%XZ.C.8.O.P ,.:X.Xp.{.I.;X[..X X.XS.8.-.t ; X @ ; $ $ 7 f 7 $ .     $ . @ ; $ ; f j e .       ; i j v j g g t t c _ | v _ G y v y v z z . t [ >.@.j % 9 y ` m m @.@.5.8.b.M.F.B.4.z p 9 { } ' 6.A.b.( b G b m _ m _ Q _ c @ j G $ 4 e @ @ . ; % @ . $ * f 5._ 1 t e ; ; u G | n k O.o.I I O.o.k I u $ - o $ $ : @ - X X ; $ $ X . . . X @ .     . . . . + # $ @ $ . + @ = 7 e ; % = ; ; e e ; @ @ . . . X @ .   . @ $ $ @ @ . . . . . X .     . X X .   . X .     . .         . .   . . X @ @ X X X .   . . . . . . @ $ $ @ @ @ X . @ $ ; $ $ @ . . . . . X . . . . @ % % % @ @ + + . . + + . . @ + + . . . . X @ . @ $ 1 e i i e i t e u G F k 1 1 1 f v G I G L F G [ } | O.O.O.} [ F c n L g ; g m G n j m m 1.*.2.m 7 { b.x.L j 9 @ @ 7 n g c z g ; n N Q ' | f t : e y N z g [ [ j ' [ L 0 @ @ g t 7 n t t ; * ; = @ @ @ X ; z g z t = n t 9 @ @ @ e t v F F F F I | 5.5.v.5.o.F D [ O.g.8.2.6.O.E.W.v.b.U.p.p.O.4.b.P.Z.u.y.' _ *.*.i.I.5.8.I.oXoXb.U b | G n l | } [ [ f G e $ t i e @ $ o @ @ $ X .     ",
"- 3 1..XnX+X+XV.U.y.u. X}.b.S.M.A.y.n.| e.-.y.E.E.Z.w.8.O.Y o.oXtX+XoX[.p.X.!  .C.I...n ; y X @ ; @ ; i f - X X     @ - $ ; $ = e t ;   . . : $ u t t j b i ; 7 c _ ( G b _ [ c g G u e ; . f 1.x.O.g 0 c m p m { @.5.x.8.O.v.R.M.G ( @.M.1.[ B.B.B.2.( ' Q m m ..( n m : % % = X $ e g g g g _ G _ V g # L I ; @ : ; . : } ,.5.,.5.O.[ I [ ,.I O.j - . . - : i $ X - 1 f t e - $ % . . @ X . . . . + . & 5 $ @ % . % @ @ t i e e t 7 7 = ; : $ $ $ . @ $ $ X . . $ : ; ; $ . . @ + . . . .   . @ @ .   . X .     . .         . . . . . X @ @ X X .     . . . . . X @ $ $ @ @ $ $ @ @ @ $ $ @ X   . X . . . . . .   + % % % @ + + . + . . . . . + + # @ . . . @ ; @ $ ; u v k i _ | i e u G } F ; 1 1 u f u [ 1.L [ _ L g G F L 8.1.n f c 4.L g c ; i l : t g n ' ' v.w.( b v.H.8._ _ g 7 n _ ] 0 _ g - f N ~ ~ 2.m : u - n y ; 9 n F F } ] N N 9 X # ; c N g * 9 ; f t - @ X . X . ; c m n n j e 9 ; @ t 9 i j f u k L O.7.8.O.O.o.G G o.5.8.5.L m c ~ w.n.P.U./.%X4.8.n.U.Z.y.b.[ | 4.] | i.6.8.W.|.W.8.U n F ' f n g G ] ] L v j $ % $ $ @ @ X X . - $ .     ",
"$ 3 N.tXZX+X@X.XOXn.}.I.Z.` b.E.n.y.| Z.U.E.b.v.....2.[ O.+.O.}.>X>X>X;XC.#. .X.w.t.w.0 y y X X 1 1 u j e % X .     X $ $ u 1 X : e $   . ; u 1 e u f b j f t t n G _ c b G m c y v i u ; @ c 8.B.7.m y z 7 y y { 8.O.g.| _ G 5.R.8.H.x.B.8.} x.5.m _ ` ' Q y c c z g _ j c c + . . ; 9 7 ; 9 0 9 m z G F L O.e - @ $ . $ h } } 7.7.1.I G o.5._ O.k 1 ; @ ; : = $ . ; h F v e e f ; @ $ ; ; @ # 5 + @ # 6 s r ; ; . . . % z j t i f t e e ; $ @ @ $ . X X o . . X $ t e ; $ @ . @ $ @ @ $ X . X $ $ .   . X . . . . .         . . . . . . X . @ X .     . . . . . @ @ $ $ $ $ $ $ ; $ @ @ $ @ X   . @ @ . . . .     + @ $ @ % @ @ . + + + + + + . + & @ . + @ % 7 ; ; % e t t : } F ; ; u F G i u h 1 ; u i c 8.5.[ n F e n i ] e.5.G b 3.[ _ 1 ; e m ( u b _ 5._ | 4...@.b 5.A.V.| } _ Q _ 2.#.c m : - '  .] c ] L F f - e ; ; 9 @ f 9 N G -.| g @ @ @ : g _ g c c y y = @ . . . $ 9 0 n L [ n t t ; ; t g F F f 1 u L >.g.7.o.7.o.[ G G O.8.7.G G 9 ` ....5.C.L.$Xu.8.4.2.Z.b.Z.v.8.Z.u.m ;.@.5.8.y.8.[ } n h u h F - g } ] f j v $ ; ; 1 $ $ X X @ : X .     ",
"< R ,XbXdXaX+X[.p.2.I.OXi.| ' 1.u.n.y.p.b..X}.b.r.u.;.m O.O.f.|.I.D. X}.I.>X X;.Z.Z...* = @ . . ; ; e t 1 ; . .     $ $ $ e e X ; 1 ;   . : u f F i f v u t n j G [ G b G L z c z m n 7 y i l L 5._ g y = g c y ( G G O.5.8.5.8.8.N.!.B.V.8.5.c ` { _ _ ] ( 9 7 g g m y c m y = . X t + @ @ . ; g 9 t } O.| 1.[ u $ $ X - 1 F [ } >.O.I I 7.g.5.} G I } u ; o ; ; $ o ; g j f j j ; 7 ; t i 7 7 r $ # # w w y ; $ . . % r y t e i f e : e 7 ; @ @ % $ . @ . . X @ $ t e 1 % $ @ $ : ; % $ @ . $ $ @ .     . . . X @ . .     .   . . X . . . . X $ X .   . . . . . @ $ $ ; 1 1 1 ; ; ; @ $ $ @ .   . X @ . . . . . . + . @ @ . @ . . + @ + # + . & & # @ . . % ; ; ; ; 7 e u F _ L f : ; ; t j u v v u u k [ m 5.8.| L L g j n m O.5.[ n | | _ g j i [ ( y y ..-.| ` ..@.m m ..E.b._ 2.1.m z  ._ ] c j 1 m 4.] ] 3.g _ F G f n g t t = $ j : L F l : ; 9 l L ` ' G m m ; * 0 . ; e @ : z m y G m 9 9 ; 7 g g L G u 1 e n O.8.>.>.5.7.O.+.>.>.v.j.1.1.] u.y.!.XX8.8.W.Z.V.y.3.b.}.}.A.6.@.b.n | 3.' ' U H F G u 1 1 - h - f n U u : j - t : - - $ $ . X - X       ",
"3 S =XtXdX+Xp.w.4.4.4.u.n._ t n 3.w.3.-.n.u.U.8.-.] y.} o.O.m.%X.X+X[.Z.S.[.p.i.2.' 0 t t @ . . @ $ X X ; ; O .     $ ; t i t @   . . . . < f k k u u i u j j n G _ m m m _ y z n c e . * t l t [ G z c 7 m m _ m : 9 G O.5.1.4.[ ] g.L I 5.j : m 2.| 1.e.{ g @ ; 9 t @ = y g X . . - @ @ ; X : ; 1 - @ ; F } | c @ . $ e u D [ [ } F h F 1.8.7.7.5.g.I u : o - - ; X * 1 u i e f ; e v g g : % ; 7 0 % @ 9 e ; % . . 7 i t t t e j i 1 e i u % $ % $ $ @ . . $ @ @ e e ; $ $ $ ; e 1 ; $ @ X $ $ @ .     . . . @ @ . .     . . . . X X . X . X $ @ .   . . . . . @ $ ; ; 1 ; 1 ; ; 1 - ; ; $ X . . @ @ . . + + @ @ + + + + . + . . + + + @ # + 6 5 # + . + # % % % 7 9 7 i v v F G ; ; - ; v G e i 1 h j g.6.| 6._ } >.>.F ; g f G ' L | ` ( g g G _ n c e *.1.| ` ..5.b . w.A.5.' b m L m m _ ..p z e _ 4.m _ w.' L i i j L l : l g : g ; g u u i 0 n _ ' _ m m _ g 9 m @ X t g ; ; ; z z m l y : 7 9 t t j g t i f G | 1.[ } O.} G [ 7.>.| 8.V.R.v.W.~.^.P.#.4.I.Z.v.e.e.b.E. XE.A.Z.b.4.| } j U F 1 1 v F I h 1 h k n g : u ; f 1 g f - - ; - . . $ $ . .   ",
"3 S H.tXdXU.] | y.i.w.U.w...f n L =.1.r.p.y.3.e.N y m | G P f.|.}.Z.Z.r.X.Z.w.S.p.i._ Q m @ . @ . @ . . X X . .     X ; i i 1 . @ .   . . . t t e ; : : k F G j g | O.G m b 9 c m b y 7 . 9 9 g j i t = g 9 c m n y ' g t n t i m g _ n g k $ e i ' ] @._ m 9 7 9 m g t j 7 y ; . . : ; @ 9 @ @ . . - - $ 1 F L G 9 . u f L >.7.O.1.F u G | 1.8.N.8.8.[ H ; $ ; f ; . 1 - : j ; X . @ ; ; t ; ; 7 r 7 @ . + $ % = . # r a e ; 7 t t i u i i u ; : $ @ $ @ . . @ @ @ $ : ; $ @ $ ; ; ; $ @ @ $ ; $ @ .     X . . $ $ X .     . . . . . X X X @ X @ $ X . . . . . . @ $ ; 1 ; ; ; ; < 1 1 : ; $ @ . . $ $ X . + + @ @ @ @ + . . . . . . . + & 5 5 E w % . + @ % % q r a y y j b G e - $ $ - ; g } i v h F t 5.6._ x.8.7.5.4.O.F 5.-._ 8.| m c g : 9 t ' X G m g m N | ` | 0 | _ 2.| G m ` c ~ z _ ` -.g f ' { y L 1.5._ L t l ; : - n ; @ - 9 i l F _ G n ' _ _ ( m G z y t 0 @ ; t l g : X @ ; 9 t t u : e ; u t t i k U [ O._ I O.7.} G _ [ O.[ 8.E.U.|.$X0.:.y.;.i.5.b.v.y.r.S.%XE.b.B.8.b.8.I U o.I v 1 h j 5.H t j n G ; t j n : ; t u 1 ; o X .   $ X .     ",
"3 R !.tX7X3.' ] u.y.[.L.' ' ] L n ' :.w.-.| 2.r.j l m v t F f.E.u.Z.b.t.Q C.w.w.U.I...2.1.y ; @ ; $ . . @ . O .     $ - u j t @ . @ ; u : @ ; e j j e 7 u i v F v [ | | _ y z G { ( G # ; ; ; 9 t g t 9 . X ] t l 9 m L z m 9 ; t : j $ 7 ; 9 i g 0 f _ _ 9 9 . 1 g t g g @ ; $   . @ . + * . . . O 1 u 1 u k e 1.j ; f U ] ] >.O.| v j [ [ 5.g.v.8.5.o.G - - F k X . . @ e k ;   . % @ @ t j i a a r % + # % % $ @ % z K v e 7 t t e j y t e ; 1 ; @ $ @ . . @ @ @ @ ; $ $ @ $ : 1 ; ; $ $ $ ; $ X .   . @ @ X $ $ @ .     . X . . . X @ @ @ @ X @ $ @ . . . . . @ $ ; : 1 1 1 < 1 u t t e ; @ . . $ ; $ @ @ @ @ + @ @ . . . . . . . . + # 8 8 d r % + + + % 7 r b b b G G G G i : 7 ; $ ; e [ e v v Z I G _ O.M.F.8.1.1.] U n *.g -.-.m e : _ : : u $ F ; . : t n z [ { _ 0 M z _ c  ._ c ; ; g w.( j c ` L ] b.2.N _ | ' L : $ - f @ o t L m | 5.] ` m _ ] _ m _ m z z ; . X 9 n y 0 ; * o : ; ; ; : ; $ e g j k F G [ _ } } O.5.O.F D F I O.b.e.Z.W.6XXXI. .^ m.4.8.|.Z.b.E.>X.XA.v.6.n.8.O.F g.5.} | j u _ j u f g : j j L c t ; y : u t - @ . X - X .     ",
"3 A $XaXnX[.2.1.p.OX+X[.I.y.l c L _ 4.-.3.i.i.' _ ( n g 1 G o.}.U.C.2.r.u.2.b.] D.b.m ` w.y @ . ; : @ X $ o X .     X < j t : X X @ : 7 : ; ; ; 7 i 1 ; e t i G n G | | 1.y m G Q _ _ = m 9 9 m m t f j 0 0 g n ' g g G i c F g 9 X ; . . . @ ; N 7 7 @ g ; i t ; m m ; : ; @ . . . X . @ X @ ; o $ h * 1 L F < : } t o j } 8.>.| >.I I O.L } 5.8.8.7.+.k ; - : e $ . . @ : 1 ;   . @ : ; = 9 7 z G i ; + % 7 % % @ @ % b F i j v v v i y t 7 ; 1 e $ @ @ @ @ $ ; $ - @ @ X X $ 7 e : ; 1 ; $ : $ X .   . @ $ @ $ $ @ . . . X @ . . . X $ @ @ @ @ . @ $ @ @ X . X @ ; ; ; 1 t t t u u u i f t ; . . @ $ $ @ $ @ + # # + + . . . . + . . + # 7 r r 5 # + + @ e y v G ( { } G b G m G m z e - : ; ; 9 n F [ } _ 5.B.B.R.b.4.y.: X : : i _ | i ; t e ; t ; @ X . ; 1 : v G ( G y x b x ` _ 2._ -.= 9 ; ` f m -._ ` A.2.m L | m c j i - 1 t t g c m z 6.6._ _ ( ( { { _ _ ( n m @ ; @ @ : > e ; e j i : ; X @ X : : $ ; u n _ L O.O.} _ G D D F I [ 8.e.P.oX;X7X0XP.8.v.O.5.W.R.b.-..X}.I.6.5.1.>.G i 8.v.4.>.j n n c l n t e j f G L c e g j l u t - @ : $ ; .     ",
"R A r.aX[.[.OXU.yXaX7X}.U.=. .*.L v e } ~ | ' n G g _ n j k G 4.u.4.u | I.e.{ -.` ..~ _ _ u ; : : ; @ X $ $ @ .   . . ; i t % . . ; : t t i 7 : 0 t : 7 e t i i c n @.| ' n z b m p m G 7 : : j n v G [ n ; . c { m g z n L g F t @ @ @ * ; ; y m n = g - @ ; z e f g ; y ; t .     . . 7 . % y D k L 1 g } n F j n f f _ v.4.O.O.o.m.F.m.8.5.m.g.g.>.I f ; - $ $ . . . - t 1 ; . ; e ; $ : ; ; j i i % @ e y ; e t ; e D F i v F F D f b F i e 1 1 $ @ X $ @ @ @ $ ; $ $ $ @ ; 7 e e ; 1 - $ ; $ @ .     @ $ @ @ @ @ X . . X $ X . . . $ $ $ @ $ @ @ $ $ $ $ $ @ $ 1 1 e 1 t t u i u u f f u e @ . @ $ ; $ @ . @ 7 # + # + . . + + + + + # 5 r p r # + + + @ % e a { O.F i O.| [ [ G b g $ ; $ $ - e k I G } 5.8._ 8.e._ | n 9 t ; } n G t $ ; $ $ @ t ; @ @ @ * i t j _ y 0 c _ ..~ ] 1.| 9 9 z 7 0 u _ ` x 2.2.2.m 1.` m z { G I v g m _ n O.5.{ ' [ G | { | _ ( { ' m n c i 1 X $ $ t 9 g _ c t n @ X . t @ X @ ; j L _ O.L F _ F F F G L 1.5.B.E.%XpXzXtXD.A.D.5.8.v.4.b.b.y.n.8.b.V.e.[ u f j ] L 5.-.c k g g : ; g 9 g G { m ; j c ; u z e e 7 e $ .     ",
"C S m.+XI.r.yXU.OXaXoXoX+XZ.9.| } L j c _ ] N _ ` n _ n f t h ] G f $ k y.' G c -.| m 4.-.t e t ; < - $ - @ X .     . ; u u ;     . ; u k k t t n z e e e 7 y i b G G g.{ y _ _ @._ m o.1 X j G _ G j | _ y y l I O.U f L n n | G $ : $ @ 9 y 5.2.m t t y ; ; 0 * + @ : 9 : t . . . @ G G z n 2.v.v.*.c u O.4.| } 9 $ ; O.5.5.V.g.f.Q.Q.F.m.8.g.O.[ [ F G h f F u $ @ . . ; - $ ; t i ; : : e @ : e $ 7 0 r $ $ t k i h D Z u D F Z h 1 e j v t e ; $ @ @ X . $ @ $ ; $ @ $ % 1 t e 1 ; 1 ; @ $ $ $ .     X ; $ X @ X X . . X $ @ .   . $ - $ $ ; ; @ $ ; ; 1 ; @ $ t h u e 1 e t t u h h f h u % . $ $ ; $ + @ ; % # # 5 + + + & + + + & + # 5 w p 7 % $ @ . @ % i ( ( i t _ O.5.O._ L [ e t ; k : g e u G | b.` _ ] | G ' _ ' j g G n [ v 1 1 1 ; - ; e F l - ] z y z [ z z g ] ] 2.1.w.Q y n i y $ $ g 2.w.~ 0 _ L 2.N _ y _ _ [ v [ _ -.1.4.5.O._ 5.1.m ] ` n c ] _ Q Q _ n u ; - $ ; : t L = X ; X - X X X . - * t L _ _ F v v j v G L G | @.1.8.n.uXkX7X[.}.|.B.e.>.} ' 3.4.n.4.b.b.v.| v j g 9 f } L j L L t $ | ` j g [ @.@.; G _ u l ; y = t t $ . .   ",
"h R F.Y.L.OXn.3.} y.B.P.XXP.I.y.8.L | ' i...] ] 3.w.m N c 1 j ' n t < k ] j } i j } c | [ e 1 e < ; $ $ $ $ X       . 1 t t 1 . .   @ e e e f j v k f F v v F j y i i } g.L { @.5.b.L _ : - k _ } G g [ G g y G >.g.1.u j } } [ | t l @ @ t n 4.e.' n j G : ; ; ; X X f i 9 z ; @ @ ; y m ] ..4.E.n.4.[ [ 8.w.1.] g m # 5.>.5.[ I O.N.v.O._ G O.[ F O.[ F v h G F f - . o $ X u : ; t t @ - u - @ $ . y a i ; : ; e % ; 1 ; ; e e ; $ $ 7 i t 1 ; e ; ; $ . . $ ; ; % @ @ @ @ 1 i e : e e : $ @ $ $ .     . % $ . X X X X . $ $ $ . . X $ - $ $ ; ; $ $ ; ; 1 1 - ; u h u t t u u t t i i h j i ; X $ ; ; $ 7 9 y 7 # # + # # + & + + + & & # 5 w p r % $ % + . @ e b F j j b J 8.O.| _ G : ; f ,.v n i 7 F 4.y.2.1.| ( m m | n 9 z z | 5.| t k u ; - G F 9 g $ c  .Q m ` ` m ` ] ] -.5.e.1.] m m f ; $ ; } ] g m -.y 9 l g | ~ ..9 g L ' 5.c.2.m O.( m | _ w.1.z c N ] 1._ | j t j f ; : $ ; m N n @ ; 9 ; - @ X X @ t F G [ _ h 1 1 i b O.| | 5.x.B.Z.W.OX}.@XOXW.b.8.5.| ` ..B 4.y.n.v.b.e.} | [ G } U c m j g 1 L | -.' @.[ G n ; g j : t ; 7 t t : : - X . ",
"; , Z | [.[.+X@X| ' v.I.W.E.oXOXu.r.V.5.>.4.| u.1.=.] ' u t 1 l F G G | 8.G ' } e k u F j 1 < < $ X $ 4 $ @ .       . $ @ $ ; ; .   $ e $ t F F i F Z F F F G v y y j b 8.1.| 6.[ 6.>.g @ $ j I G { [ @.G u ; y L | } % m n n L L n ; 0 g n ; e b g t ] c . . @ = ; . # f 0 N ; @ ; @ g 0 ..] ] A.e.G m m ] ..1.1.m i g } F : n . 8.R.b.8.7.5.} O.O.>.} f 1 j u - 1 1 $ f u ; t u . ; - @ . . $ = % @ 9 v i ; y v D t ; 1 ; u i y e ; 7 t i e : 1 ; ; - $ @ @ e $ $ @ % ; $ @ ; ; 1 7 : u u $ X $ $ .     X : @ X @ $ @ . . $ $ $ . . @ - $ $ $ 1 ; $ $ $ ; 1 1 ; ; e f h t u h u t t u u f i i 1 @ ; e e e y i a e # # # # 5 # + + + & # # # 5 a s p y % r % @ + ; e i j D G j | O.c F f @ i G v.[ 5.o.j g I G j m 5.] _ | L 4.c y ' ' e.8.0 L y 9 G g.} c ..y l m -.m ` M u.-.| G b.v.b.b.2.z [ e u : X e M 4.;.z l g ~ _ G ` c g = n n ' V.b.r.1.m [ G ] 1.2.@.| _ m m _ [ f f F n t ; ; u t t l 9 : : * * * X - 7 j [ } _ I Z ; $ e v O.1.| 8.y.b.}.U.V.:.[.4X7Xn.2.v.8.8.8.G L 1.3.2.2.L U ] n.} O.U _ G | y._ f { ..6.....5.G - t f - - e : e @ ; : e @ . ",
"~ ^ i.U.dXdXtXtX] G !.:XqX}.I. XD...E.P.P.R.y.3.4.y.1.' g t u < u L [ } m.5.8.O.f u t : u $ $ $ $ $ o $ X X . .     . X . . @ - . . 7 t e ; u f i i D i j v b v z F v L 5.1.5.5._ 8.5.t - ; u G n [ 1.| m $ @ 9 t i 0 z _ 9 7 n t t 1 f g f ; t t g z  .L n g % % _ g @ @ ; 9 ; @ 1 g X # # z 2.2.1.g _ c m *.| 1.| g j e * . . : I g.g.2.5.} G G } O.} t ; 1 f - X ; - < f u - e . . $ @ - @ - @ $ @ t b i % y F F i t $ % e ; $ e e i t t 1 : 1 i e : e ; t e @ $ % = : ; ; $ $ : i u i u $ X ; ; @ .   . $ @ @ $ ; $ X @ $ ; $ . . @ ; $ $ - e t ; $ $ < 1 < $ 1 t f i t u j f t t u u i i t t @ $ t 1 e t y y 7 % % 7 7 7 $ . . + # 5 # # % s s b v 7 e 7 % @ % 7 t t D b j c { [ O.u X i { R.m.7.I i n u u j f v [ { ..` ` :.m | _ z ` { m m ] ] { y e e B f c ] L 9 ] 4.4.P.A.M.n.e.b.0 p O.1 u t - ; l m g 9 0 9 | _ ` N n y 0 ; ; j | ..5.{ _ _ { b z m G F k u : : n u 1 e t u : ; : c : - y j 9 ; X 9 * e t g _ ' G c f e 1 F L _ 1.5.8.c.u.y.5.>.-.n.}.+XW.v.n.7.e.v.G n N _ } 5.k j G B z O.>.8.y.A.S.e.2.L 5.w.b.r.w.{ e t e t - t : : : ; : $ .   ",
"' N OX4Xi.p.[.[.%.@.#XyX7X{.r.S.[.D.E.;X5X&XXX!.R.u.:._ g e f 1 f [ n _ A.|.b.} G u 1 - X X . X $ $ @ o . . . .     . . . . . . . ; j i ; X X t u ; i i f v j i G F G [ G _ [ _ { g.O.G 9 - 9 : c G ' ..j = : c c 0 m g * @ ; _ L 1 ; e _ _ O.@ e L | _ m ` _ z y V z z ` g c 9 . . % - + . # y z r.x n j ] m m O._ ] g i . @ @ h 5.8.5.8.| z G _ O.| 1.5.f ; F n @ . . $ t n @ $ : X = . % % @ . $ $ : t i = $ u t : : ; ; 7 = X = e i t : 1 1 ; 7 e t i 7 e ; $ + @ % $ $ $ 7 e t i v D j $ X $ : $ @     $ - @ @ ; $ @ $ % % $ X . $ ; $ $ ; e t ; $ $ ; 1 - @ e f u e t f h u t u u u i j i u $ $ t 1 e t e y i y 7 % 7 % + . + + # % % % 5 a s ( j e r a y 0 p y 7 v m G ( 5.5.O.1.G 7 9 | !.g.I G G I k : : - f n ] 8.` b | ` g y 7 b _ 5.1...8 _ ' g = c ] z N c -.;.e.e.b.w.e.y.v.r.v.Q O.G ; n ; 9 c c j t n g ] ` c n 9 m t : ; g 0 m ] ( m @.| _ 7 y j u u ; e t j e : ; ; i G m z n 0 y c g ; - o @ o @ @ e i j n n e 1 h G I G _ [ 2.2.n.4.m G _ 8.+X6X}.I.P.5.v.A.1.c m j g m f j >.| f F 8.y.2.u.w.u.y.G m 1.` ] w.O.i t ; 1 j @ 1 $ @ ; $ : X . ",
"5.N OX+X] c a.p.$.6.<XxXaX%XA.r.>X-Xe.}.&X:X5X9X:XA.-.] u 1 F 1 h [ _ G G 8.o.6.[ t 1 ; u 1 X X X $ @ $ X . . O     . X . . X X . ; i c e $ . ; e u j e y j i e u i g n z n [ [ _ ( G y ; @ 9 e ; u G 8.7.g 9 y c 0 t n 9 9 u j G j j j F g _ ; X ( ` | 1.` L _ ] ;.m m ] m | y X X ; + x t ; 7 9 z t ; e L n  .G b ( @.m i t . @ n O.{ 5._ m c 8.m.R.~.>.v k j F ; $ X ; j G t 1 $ @ $ @ @ ; ; @ @ 1 7 ; t ; @ : t t e ; % ; @ @ e t i t : % ; $ $ ; 7 j t t y % @ # % % $ % = : ; : u D j $ $ : t ; @   . ; 1 $ $ % % $ ; ; % % @ @ $ $ $ $ ; e e ; ; $ $ $ $ $ t j t t i h u e 1 t t t j D h i - $ 1 ; e i t i e e e 7 % $ + + + # 5 5 5 # 5 s b G F e r i e e i v i G } n 6.g.O.O.8.O.v ; n 8.| t n j F L 1 ; ; 1 : G b m ' @.Q c c 0 e c 2.2.y z { ( g y z .._ ` ] Q ] ] ..2.Z.@.6.b.2.2._ { 1.i * - g ; ; @ ; : G  ._ v g n G : X 7 g n 5.( ( @.1.O.G z z y e 9 t c c j ; 1 ; n G m O._ c m g c i z c - - ; . . X e g e g : - n L F n L 1.1...r.i.| u j ( V.I.i.2.5.5.v.V.3.n n t g n j k F G k n n 4.-.n.n.e.b.O.n ..@...e.| u u t * * @ @ ; - - . X . . ",
"y.i.p.@.; b K $.@. XqXMXmXyXA.q.{.-XZ.r.8.8.XX&X:X-Xb.8.F z ' h u G O.O.c 1.g.7.m f [ ] G i $ X @ X X @ . . X O     X @ @ .     . ; % e - . . $ t j j e i t y u u j [ _ G c } 1.[ G G y = @ f z g _ 5.B.x.y y t v j c [ | O.8.8.6.G f ] n L m f @ t c { 2.] ] ` i.;.m m ` z 7 9 ; X : > & ; * @ ; 9 z i ; z ~ c G b.B.8.( 7 f * f c m { m m G G g.g.B.F.v.>.F k X f n $ ; v [ F g ; $ ; 7 ; X ; ; ; i i e X . @ % t t e ; % % $ $ i i i u ; $ $ @ $ ; 7 e ; i i e e $ % ; ; ; ; ; $ $ : i i ; ; t u : - . . 1 e ; ; ; 1 ; ; ; ; ; @ $ $ $ $ $ ; e e 1 ; $ $ % $ 1 e i i u u u t ; 1 t t u i i t t $ 1 1 1 e y y i e ; % 7 5 # # & # 5 w r 5 % % 0 i b F i v b 1 7 i v j j I [ O.1.c 0 | x.4.1 g n F ; t 1 1 j 1 - $ - - u i c L ] ` | ` m y z ] e.Q p 8 c c z  .r.| c ` ` ` ' } ' [ O.| | G @ 1...6.z ; . o u ; X o j | Q m G i $ - @ $ @ t t | _ m m O._ 0 z c c 0 y c m _ g : - e n g n } | _ G m g i j b u @ . . . . ; t f l f 1 g u u F } g.2.5.8.A.O.f t F  .Z.i.4.1.5.8.8.O.c f g u e t u n n j b t U -.y.P.Z.{.v.k n ' n c G 1 u $ * .   . @ e : - .     ",
"4.4.u.$.e Z _ G 2.-.XXnXaX>X;XZ. X-XP.5.U.3.u.b.W. XA.A.| ' 4.I A J [ 7.5.B.b.` c n | m [ F 1 @ . . @ @ X . X $   . $ @ @ @ X . $ ; - . .   . . @ ; ; e i n G j f [ O.} O.[ } [ G G n c = : ; ; ; g } 4.x.' m c [ @.| 6.B.R.B.R.B.>.| _ n g n 9 @ z c ..{ m ]  ...G n m m z # 0 - . @ & 0 > 9 @ $ . m = 7 9 7 i } F.m.M.8.| F @ m 5.x.5.( m | [ [ G | O.| | } f f - - $ $ v { z u 1 $ : u i k F f v e v t $ @ = ; ; 1 ; ; 1 ; ; 1 i i i t ; $ ; ; $ ; 7 % % 7 t e e e ; % 1 t : = e = % = 1 1 u f t e ; . X 1 ; 1 1 ; t : 1 e 1 ; $ $ $ @ $ ; 1 : e ; $ @ $ < 1 t u t u i u t 1 ; 1 i f k i i e 1 $ e t < e y t 7 7 # # % e % # % # # 8 8 r ; % r G G F j D F t @ e F v b L [ G O.g.c y j f - - } n ; - - ; 1 $ - - * . - ; - : m Q Q ..c f m ..-...x p b _ c ] ..m c ] G _ _ u y - t g F n _ b.e.| ( 9 . X ; $ o 1 F | 1.] y j ; X X ; @ 9 m t c m _ O.N n G m m z y g L _ m ; 1 ; f u 9 j n O._ ] m z g g 9 : @ * @ @ - t ; t t : . l l n n } O.5.b.n.3.n j j w.P.Z.3._ 1.1.[ L n t U n n G j F F n n v [ U Z.A.I.A.{.3.] _ g L : . - - $ $ @ < 1 i i 7 X .   ",
">.8.q.a.$.I Z.D.w.| I.kXMXxXyX>X+X}.b.E.%X Xb.-.I.I.A.b.x.y.4.+.F c [ 7 O.Q.b.m | 7.3.L z j e 9 . @ $ $ X @ X .   . < u : $ @ X @ $ - $ . . . . . @ ; ; u j i : G [ J } [ O.5.| n z z m t j g 7 9 z t | @.| ] 4.b.v.5.8.B.M.x.b.B.V.8.1.| v @ L | n n _ G _ _ ` y { b z L g z z : X 0 t l g Q ; g @ e = t ; 9 t i V.R.M.b.R.[ : u >.m.5.O.| 7.} [ 7.g.m.1.[ _ O.n g ; $ $ v { i v j e ; U L O.7.O.G j v G < . $ $ $ ; : e t 1 e e u i i e ; ; 1 e % % ; % @ = ; ; ; e e ; ; t y i t $ - : 1 ; u j e ; ; . . : e 1 1 - : ; ; 1 ; ; $ $ $ @ $ $ ; ; ; 1 ; $ $ ; 1 u j t u i u 1 $ ; i j j k v v i 1 @ 1 < % ; y y e 7 % % # % # # # # # 6 8 % % % r @.O.o.Z F v v ; e F j g [ 6.5.7 | @.t ; $ m e u l f o $ $ o ; k f * . - e < n c ' z Q n m ] m x ^ !  ._ ~ ' z x y t L L F b - % g @ u f F 5.v.0 @.8._ 1 u u u - - j ' G _ { u f 1 $ ; l ~ x m y c n g c ` m z f g j e n L g g - ; ; $ * ; : j v L n G n g $ ; @ ; X @ t _ m j t : . g g g f f F } I.E.P.' t c p.W.U.Z.| } O.F n _ h L [ G D k [ [ 1.L U *.F 7.A.b.1.A.b.} 1.] | : . - 1 - j - ; 1 u t @ @ .   ",
"O.O.$.$.D.|.OXtXU.2.XXkXMXnXkXaX@XD.` oX0XZ.y.4.S.I.D.8.E.XXB.f.Y G u ; P.:X&Xy.] 1...] m i i u X @ @ ; : ; @       . : ; $ ; ; $ $ e : @ @ X . . + @ ; 0 y j v k I F G G } | | G g c y i y c j L g [ g.8.5.b.R.H.M.x.g.V.v.b.v.B.8.[ [ O.g f f | g i y Q G _ | V m b y L q 9 ; = X + 7 0 u n m c g ; c 9 = $ . $ G b.B.O.5.*.= ; m | B.M.| | @.O.O.5.g.} 1.1.O.| G b i ; j ( z z G v e n @.g.g.5.[ G G F 1 . @ @ $ e i i i t e e e e i e ; ; ; ; ; % % % % % % $ @ $ t y y e t j t ; $ $ $ $ ; : - ; 1 . @ e e ; % @ % - ; ; 1 ; $ ; ; $ $ $ ; ; 1 e 1 ; $ $ ; t i D v u e ; $ u j f f D F D i 1 X ; % $ 7 r a e e % % % % 5 5 # @ 5 s s 7 @ $ 0 { | O.j F G i 7 y b v u G x.N.2.x.g.J : % ; : t g f 1 . $ * f F u * $ : o - 1 g 9 y y u n e y Q m 9 Q ` ..[ t : @ j g y G k t G _ @ 1 f O.B._ 0 m ..G u G j u $ @ j z 7 ; : $ j I u 9 l m c b y z m g _ | [ ( y y 9 e t G m : ; ; $ X X X $ @ $ u u u t $ $ X t ; @ o f n _ L n n 9 e e t t U n ' y.P.E.V.n g ..p.L.R.| U U | k ' m _ 5.G G b F 8.e.8.L n e -.r.r.v.y.8.1.v n t n - < - : 1 1 ; - ; 7 $ . . . ",
"I A D ].mXxXtXaXE.:.I.aXiX6X7XuX6Xw.` 2.2.g | | b.S.{.A.A.W.N.j.d.] c n ;XuX9X|.2...2.-.m t u u * @ $ 1 t : X     . . @ . - $ ; 1 ; : t e @ . . . . . ; i i j I i G G G G F G _ G 0 m G G c b n c e _ { [ O.g.1.' G | 8.V.b.g.g.g.O.[ F G f e e e : t 9 y t e 7 ; V * ; 9 m c Q _ @ @ t y t 0 ` m t y ; M c * y t t L O.G 4.8.e.9 0 G b.|.b...@.N.>.8.1.O.g.1.O.5._ [ F $ f m r e j i F [ 5.6.@.@.5.} _ F ; @ @ . @ t z v t ; t e : 7 e = ; : e ; ; @ @ # = % @ @ @ % ; 7 t e i t t ; @ $ ; $ $ ; $ o $ . $ e t e ; : ; e 1 e i e ; ; ; $ ; % : ; e e e 1 - $ ; t t i j i < < $ 1 t e u k D k f 1 @ 1 ; ; ; y i e e e % 5 r r e $ @ % r p e % + 7 v j J u D v y y p g m i F 6.x.6.6.| o.u ; t : ; u h - . . ; u u : - b 1 ; ; 1 1 : ; 9 n N : g z 7 9 y Q Q c ; 9 t L m v O._ [ | L F : u 5.4.p w p z ( u O.U j - ; j y y y 7 ; t t j @ L _ _ m 0 G n g _ | m _ ' f - ; e m G n e t g e X X ; ; $ e - - $ - . . . ; @ $ ; t t g n j u ; ; : : G j n ] E.=X=Xf.t ^ 0.;.9.1.n k k f k n n G L U j v 3.I.Z.3.e.*.4.4.r.8.1.*.L n t 9 h $ u * t 1 $ X ; ; @ ; . . . ",
"h 3 #.;XnXZXnXaX7X8.Z.+XaX>X+X@XS..X}.A.B.v.3.8.b.v.b.r.r.E.g.x.m.v.G _ }.0X&X Xe.e.4.7.| : i u e $ - : t : X       - ; @ $ @ e : : : e t ; X     . . = t f y v t t v z n j b G z b _ n [ [ G : 9 - F ] _ m 1.b 0 G 8.x.5.O._ G | u ; ; : t f } | G G G z ] L g - = 9 t m 4.G ( ` z z y y y y c c c : * t t - ; b ; @ z m _ 8.4.g } _ { A.R.8.b.m.g.M.1.} 5.| O.| G } G ; G v y e t z i b G O.| [ 5.O._ F : . = $ t v G v t < u e : e t t i y t t e % # 7 % $ . . @ % ; e e e i y e e $ $ ; @ $ 1 $ . . . $ u j j t t 7 : ; : t e t ; ; $ % ; e ; 7 f f e - @ < 1 1 t t t e t 1 t 1 u u u v j u ; @ e ; $ ; e e e y e 7 8 p e % + # + 5 7 + + + r ( i i i F b i t y g y b J _ 5.6.G b | F i { _ L _ f - $ X $ 1 L : - m f e $ 1 t - j - 9 : n y n z 9 ; ; ; 7 - i 1.| _ _ _ ' ' v.v.G $ ; m ( p Q x Q m e | _ b 9 t F L c _ m ; % t : M n [ O.p G _ _ g p m G [ ..f : : c G ' _ t t m y ; - 9 : 9 : $ X $ * - o X - : ; @ X X 9 t 9 e : : . X g 9 l j W.eXgXQ.4.=.0.;.3.[ f h k h h n u t _ n f n | v.b.7.*.3.b.Z.b.e.| _ - g $ 1 - O $ < $ $ @ $ ; - @ @ . .   ",
"3 3 x.BXSXAXZXtXp.{.+X5XuX-XS.b.[. X.XoX%XE.v.E.E.8.` #.w.2.>.d.J.H.5.u.Z.-XqXiX%X|.b.v.B.n : 1 ; : $ ; t e $ .     $ - ; - ; e - 7 t t t e X . .   . X ; t i : $ @ i j c c v _ G _ _ _ G _ G y ; ; e G [ 7.5.5.6.x.5.} 5.5.>.G n t n e @ j _ e.1.L ( L _ 2.e.2.m l n ' 1...4.@.{ ' Q y 9 ; t m b $ : : : g ] 9 9 M ; . ; _ G ..Q : } O.6.x.@.@.5.5.5.[ L 5.6.[ 5.O.G e $ | [ F r 7 ; u G k G G $ G O.G i @ * ; j v I G h < ; t i e t y 7 j e t e ; % e e $ . . . . @ % 7 t i y ; < t : ; : $ $ ; . . . . ; : f j i i t = $ e e t e 1 ; ; % : h t ; t t u 1 ; ; ; % t i t t u e u 1 1 1 t j F j 1 $ i t 1 ; ; ; e i r e 7 p % # 5 5 5 d d % # @ ; _ v e e j F a K v | b I [ { 8.6.( _ G } G 8.[ n k i ; * - c j >.L u u n 9 : : : V 1 g ; * Q 9 n z g ; @ * # # ' ' ( { e.2.z 2.O._ 7 N ~ ~ ' Q 0 x x m 0 ( b z M G G | _ p x y 9 0 c V m F ( { 8.( m G b ( m ] ' 7 z e n m ; y j e g l ; y z z 0 ; $ e ; ; - . . $ 1 9 @ . . @ t t t ; - . . g t f g y.}.wX~.U.U.^ L ] I h ; k F F u - 1 U n u f F 1.} | L e.b.b.r.2.>.L ; e 9 ; ; 1 - < * X $ ; 9 @ @ = @ .   ",
"4 A (.VXSXCXZXsX@XD.uX0XuX.XA.r.C.{. X X>XE.4.E.|.M.6.Z.q.z G Y M.M.7.E.u.u.w.%X:X:X%X~.8.y i ; $ ; ; $ - ; $ .     $ $ ; e ; : % : : : i 1 : X . X X ; u i i t 0 g 7 7 z c c G G [ G | O.} v u u e y g n _ [ [ 2.[ v f L } [ _ G L j e X : G 5.| L G _ | 1.8.3.` m g ` e. .2.1.[ ] m z e . z 7 y t 7 : 9 t m y : 9 @ @ y O.5.c.w.@ i [ ' 5.8.5.O.] x.O.g.O.@.[ L O.G t ; z F G p y ; g G f y _ } G I u @ . ; u u b _ F 1 @ $ i i y y 7 7 t u e 7 % % % % $ . @ .   + 7 7 y v i 1 e i f ; $ 1 - . X .   . % = t u t i u e % e t t e ; ; 1 $ ; 1 t ; ; ; u ; $ ; $ ; u i j i 1 t i t t 1 u j G D t - D i % < e i e e a r r r % # 5 # + 6 7 7 # + % r 7 e 1 1 i b ( ( 4.J } I } 8.M.( ( G | 1.B.M.' [ n : ; - e u l c 3.t j g 1 t g n g z c L g 0 _ N 9 9 % X # . g _ p 8.b.| Q b.` g n _ ] Q ~ z b _ Q p 9 m b m m ` | z ..b x | y t g N 0 G 0 _ _ _ L @.[ | _ _ 5._ c z y 0 [ G u t j j g g m z y t ; g t 1 - @ - @ ; ; X X . X : ; f X . . . t j g L 0.U.XXXXOXW.e f n ' n 1 G 3.O.F $ $ ; 1 1 t f k f } | ..5.| e.5.} >.L : j c ; - - 1 e ; $ ; * ; @ 7 $ .   ",
"u O.hXAXAXCXCXxXtX;XaXiXaX;X-X-X{.S. XS.%X|.i ` M.R.v.1.;.( } +.M.m.} u.p.I.` e.g.g.$XE.2.7 e 1 e ; : $ ; - o .     . ; $ - $ $ $ @ : ; ; u t X . @ . t i j j z n b g g t 9 l t n _ _ [ [ [ j l g t i : n [ | _ O.G v 9 : v G F _ L e n i ; g | | G [ ( | .. .1.1._ l _ e...| 6.1.q.2.2.j @ ; g c | e.g m f : y f c  .X.1.N.E.H.e.j ] y ] 5.5.b.8.b.b.1.1.5.1._ _ _ G t @ j y F z v t g G t j G G G f - t 7 : 9 n G 5.O.t $ 1 v y y i : 7 y z t % $ . @ 7 % . . . . $ 7 7 ; t e 1 e t i $ $ e ; $ X .   . % : i t u j 9 9 $ = e t u t ; e $ % 1 t 1 ; ; t ; $ @ @ $ 7 j j t 1 1 t t f t t j F F u < h D ; 1 i t e r r a r e % 5 5 & + 5 5 @ ; . % r ; ; e e a K ( O.O._ o.[ } 1.g.O.G _ _ { 2.x._ e.v i u g g n i G @.G t n m t n : m : ( V m g ] ] ` m 7 @ @ * * $ u j _ ] _ b.w.x ` ` ` Q 0 @ b x ` ( e _ 2._ b _ m x Q _ Q ..b ` Q _ n } c y z 0 c G O.8.5.6.' | z m c : L g : u : 9 e l z 0 y e e g c u - ; t @ X . . . . . X ; 9 1 ; ; : : g f 9 -.U.w.0.P.:.x g L 3.n u n 5.} ' e ; $ - 1 j u u u F j [ G G | { } _ G g l t u $ e t u i ; @ @ : ; . .     ",
"n b.bXAXAXSXsXxXtX>X5XqXpX>X>XyX-Xb.A.M.%X|.t Q m x.[ I 6.5.o.<.f.1.L 2.4.-.] | G 3.}.#Xb.G ; e u < : % . $ - o     . - @ @ $ @ @ $ @ ; ; u t 1 @ : @ 1 j v G n j F G m g y g ; e c _ | [ j 7 ; @ - $ t f L | L G j c j u $ e i j n g I n t ; G @.[ [ _ @.' ` _ ..2.m b 2.| _ O.8.8.e.2.m $ @ n { C.4.| | : u c 7 9 u _ M.M.B.b.O.L 4.[ ( O.] e.b.B.!.v.| 5.O.m b _ _ F 1 F c y y G j f c i G _ z i ; i n t t @ y i O.5.D ; i J i e t t 7 e t 7 % @ . + % ; @ . . . + # 7 e e e < < t t ; @ : ; $ X .     $ y t e e e t e @ ; t i f j t t ; e e e ; $ ; t ; 1 $ ; 1 j D i t t 1 ; $ 1 t f j i f u ; 1 t ; 1 e e e a i z v r % 7 8 8 5 5 + + % + % 0 y @ $ ; v z G [ 2.6.O.5.O.f.m.5._ 5.b.] v.b.| ] [ G t j } _ g _ u.3.n ] ; 9 9 g : g t N L b ..] ;.2.0 0 9 : t $ - = 9 n _ B.S.~ ` ` z . w 8 b ` 2.] y x ` _ b x Q p q ` _ w b X.x c c y c q q p 8 c { ( G _ z c n y 0 m m t : : e g z 0 ; 7 g z m t j l : X u * @ @ X @ @ X X ; ; ; ; t t X g g g ~ s.i.:.! ^ x u n n m F F G 3.y.v e u h k G >.F u h h h I I _ m y. ._ g 9 c n i 1 t g u e ; @ ; ; 7 @ .   ",
"@.P.>XnXAXAXnXtXkXaX>XyX;XuX0X%X%X:X;X_ n.%X..g z e.1.G A.E.f.+.f.5._ i.=.L m _ -.4.Z.%XE.,.j ; e 1 : ; - - $ X     . X @ @ - @ ; ; ; X @ e j i 7 : u e e j G b j m [ _ n j t 7 @ % i G i ; - ; - : : ; g g F m m ; t t m @ ; j j e t u j e c _ _ O._ } } _ _ ] ` -.2.' _ | _ ( e.5. ._ G - $ g Q -.r.} v [ ..j n x N G b.B.B.8.| 8.n.B.~.8.G [ m.8.M.8.| 8.4._ G } O.J u 5.O.i 9 G G z y G O._ v L c L U i c O.y = _ G u t j J G v 7 : t i y ; = $ . @ % % @ .   . . . % e t e 7 ; e e 1 $ 1 $ $ . .     ; ; : e u ; i e $ = i F i i i t ; u f f e ; ; e ; < ; e e t t t : e ; ; ; : e f t u t t < % t 1 e t e ; z v j K a e e 5 8 8 6 # @ + . 7 r 9 % ; 1 f j v D 5.g.O.g.7.v.M.g.{ 5.A.H.B.A.5...} G j L R.5.5.x.*.n ' n L : l ; e : t z i m ..2.4.w.] ] ] ] t 7 e ] e f g _ ] #. .8 # Q p q Q Q ..x + b ` m m m p ( ` Q ..` ( ` .._ c y 0 0 # z 0 7 z 0 = z m c c I y v G : ; e e c N g y y z y y y g g e ; @ - X ; @ @ @ @ X X @ ; : e 1 : 9 9 V x :.L.0.p s % 9 y j n n n _ 5.y.O.L m n @.8.1.} F u u t [ O.G L 7.-.l e 1 9 i i t j n v y e ; $ ; ; @ .   ",
"F.E.tXCXFXCXCXmXiXkXxXxXxX6X0XqX>X:X&XA.E.E.b._ 6.A.~.@.B.B.5.o.f.g.| w.] *._ m 1.2. .2.E.,.C 1 ; 1 : - u t ; o     . $ : - ; @ ; : ; X @ : i j u i j v k f t i g t j n G j ; 9 - X X : % @ - : ; : ; ; ; e 7 l 7 7 : 1 c - y t g t @ 0 - : G | 8.@.G } } ' ` ...._ 2.@.] m ( 1.| @.1.] m 1 - n z ] | Z 1 L e.r.c | @.>.b.A.E.b.( 5.A.R.R.4.c u n 8.@.v.5.v.] 5.O.} 1.G e 1.8.[ y y b p z G _ K 1 j t } g g : O.O.b } n - 1 F v j F t : 7 i j e % % @ 7 ; @ @ . .     . + % r e ; y z i i ; ; X X . .     ; @ : ; % % ; : ; ; i F t e j t t j v v i i 1 1 t 1 e t 1 e ; i j : ; e u e t i e t f h 1 1 e ; e 1 ; 7 j i j v v y 7 8 5 5 8 8 5 % . # x b # @ u v v j t } g.7.5.5.x.R.M.5.8.2.@.A.~.A.-._ _ F F 4.b.O.L 5.n t c >.u f l t g g ] g _ 5...2.@.e.r..._ j @ c z ; - : 0 { ....z @ q q . Q Q s Q # 0 m m ` m Q ] ..] ..` ` 5.Q x m y z z 0 c y z ( G y G _ v z t z j : t ; : i c 0 7 7 b y y g z c m t : : @ @ $ ; ; ; X @ $ . u g e e - 9 0 9 c 0.i.U.s.~ g 9 n g f g m } 8.Z.| 5.e.] | v.5.| } G v G ; j c G L 1.| ] t 7 : $ : b G G G F t ; : @ $ . . ",
"T.XXuXnXSXCXxXxXkXiXxXMXbXyX:X&X:X0X&XA.A.E.6.5.M.A.H.8.b.v.5.| } } 8..X-.' m ..5.A.t m !.O.f u 1 e e t i < 1 @     X @ $ @ ; $ X $ - - @ $ 1 j v v j k v v i : ; 7 : 9 t t f f G G n t : t ; ; u : i @ 7 ; ; u g j _ _ ; 9 : 9 ; j t z ' ( 1.5.2.5.' | 1.m m ` ] ] ..| G _ @.{ @.6.8.[ m - < _ ` -.m h h L 4.] w.y 8.E.R.b.V.7.k ( @.>.} F 1 9 L } 7.v.b.A.8.R.H.| O.F < 5.g.} v z b m ( m ( g m G L m c : $ g O.5.G j e j @ . t G G y ; ; t e % @ # r $ + . . + .     . # r y 7 i K G F i 1 $ . . .     X . @ y : @ % 7 : % ; e t t u t u i y i i t e i i t v i ; u j i u u e i 1 % ; e k G u F : e e $ e e : t i i i y t i a p p 7 5 5 r i % r @.X.G j t F G j : v 5.O.O.| 6.x.b.x.@.@.8.v.B.6...{ m f u | 4.1.L ' 3.] G j t : : 9 N c i } O.@.r.4.Q e.2._ ` m v t ; % m | 1.m z x 2._ w m _ ` 2.~ ..e m | ] q. .] Q ` m x Q ` 1.] m 0 c m c c m _ m 0 m _ c { { b v i i @ $ ; 1 i b g 9 7 0 z y t n 0 G n e 7 9 @ $ $ 7 t : @ - - F G t g : f ; c =. .0.i.-Xa.z t t y c n L _ Z.e.4.>.u.' [ | 8.b.| G [ [ t f e j v F _ L 1 ; ; X X 1 k v _ ( v u : ; $ . . ",
"4.oXaXuXnXZXaXxXxXnXiXuXlXjX{.u.Z.E.r.v.E.A.| } 5.8.8.O.5.| 1.} U L v.XXP.n _ ] 3.....b !.o.h t u 1 t u t < , X     . @ @ @ ; - @ @ : t X . ; u F v F f f i e 7 : : y i 1 t c G [ _ _ f i u f I L n e z G G G } _ 5.1.G G L n c v j G _ ] [ | 5.v.8.@.m @.@.0 ]  .` ~ | k F _ G 1.b.| m y $ ; @.G 4.m F F 4.y. . .| 6.b.|.B.8.E.N.} L G = ; : g ,.5.' b.M.] b.b.c.6.O.y < 5.g._ [ b v b ( z b z z _ G L G ; . t z [ G t h F t t y F G n u : t i r 7 5 % % + . . . $ + . . # 7 y t z ( J v j j 1 . $ .     X X . : e @ % u t % 7 t 1 e ; t e t e e i e t i i e y i j f i 1 e f t G k e ; e F [ e i t i i i : e 7 e i a y t 7 y b y y e r r e i ; e O.O.O.J D G _ k t j } 5.5.5.4.A.B.c.6.' 1.b.1.] { ] v D F | m n [ b.b.4.n g ; c b i ; _ m n [ e.r.......2.] .._ _ _ g g 5.b.b.w.m M z e.2.2.2.q.~ Q _ j m _ g w...z x b q ` x _ ] ` ( m y b ( m | _ ( y m { q z { @.@.n F i : ; u F b _ c g 1 9 t y 9 n n g u 7 t ; @ @ : g i @ X ; < 1 t 1 j g ; c m -.I.XX/.M ! c t u f G [ L ' v.4.>.y.4.y.] ..A.8.O.1.@.] G F } 5.n L L f ; X . . @ g v _ _ v b t : $ .   ",
"~.0XMXxXtXZXAXAXxX6X6XD.>X[.a.t.u.E.E.B.M.e.y.] ] 4.8.2.8.8.| >.N.m.n.I.oXA.| n n | c.b.$Xo.u < 1 t u u 1 u < o     . @ $ X X ; - @ @ X . @ e u f j t : : ; $ ; ; ; j z c g F G F G n v n k f [ 5.| L G @.G G _ G | [ m } | } } G G G | | [ O.b.b.6.[ ' 6.b.1. ......._ u ; G } 1.2.` ] i $ i 8.r.b.` [ 7.6.A.b...2.x.A.|.E.b.E.:XP.| G k ; i F O.>.m ] 5.r.@.4.2.5.2.f < b 6.O._ b b b p p z [ [ [ G G _ t $ g c % i j e u j v i b G v F i ; y t a r % $ @ + . . + # # . % y t 7 t K O.I i u k < @     . - .   X ; % 0 i : e ; @ ; ; ; t = e t i t i u j i e ; u i k j e t ; 1 i u ; 1 $ f G t 1 1 i G t e t : : i z i y e a b e % r a r p v < e O.5.g.F G [ v f v G _ g.} } ' 5...5.5._ 8.8.1.1.' G c F ( @.O.1.v.E.v.L 5.g f _ y c : ; : t [ 2._ 1.c.4.` 2.A.e._ 2.b.' v.A.A.E.w.' G _ m .... . .2.| 9 g j y w # q z 8 0 ] V m ` { [ b y G ( n b n _ ] m b z m 5.| m y G G F u ; F I _ 5.m t 9 9 g l n g e g m c ; $ $ 7 u e $ $ X X - $ 1 u e : l y ^ ;XqX/.L.D.` j g _ | ..| =.| 4.-.-.3.n.y.8.A.2.6.@.5.r.1.| 8.e.1.8.6.g f @ ; X . e f G [ b F j 7 @ X . ",
"$XuXAXNXsXAXFXAXxX.XX.}.0XuX5XS.I.;X|.v.e.n.E.n.8.] 1.B.B.>.[ 8.E.!.Z.W.oXW.v.U g L 2.E.$XI - o $ 1 u u u 1 < $     . @ @ . X ; 9 @ X X e e g f t i u 7 ; e : : : . t m [ } L G n n L n L v j i _ _ _ _ m y c m z m c [ } _ c [ G c _ @.1.O.1.O.8.O.G ' 5.b.6.1.` _ _ c j u j [ 1.2.8...j ; G b.r.] ] | m v.}...| r.P.~.$XA.v.A.%XE.B.v.P.5.b I f.o.: 9 ; t ~ ] u.w.@.v $ v ( ( b y a b b p v O.| [ _ G G : = t y i : : u ; 1 i i v j i e i i i 7 e e % @ + . . @ + % = @ % r e ; ; r O.o.v u f i - .   . $ . X @ . : ; : i : @ $ : $ : y t t e i j j t t t e 1 7 u k u t e t e e ; ; u e e F D u 1 v j u e j 7 % e i t t e v F e e r p v K G 1 % | O.O.G v F J I } 5.o.5.>.O.5.6.@.x.5.| z Q 2.v.O.u v ; v L I v } v.9.j n e : n G i ; < f f 8.e.1...1.2.{ ~ A.E.w.r.R.1.8.A.E.|.P.4._ _ ] ] Q Q ` ~ ] $ # @ # c 0 y c x w _ m G ..G m m _ b m j G L m | @.m _ n { [ | _ [ G G o.v t _ G { 8.[ c g t n G z 0 c g 0 7 : ; - ; ; $ $ X X - ; 1 t 1 ; f c y s.9XXX0.!.w.k j L 5.>.| ..4.w.8.m B 4.3.r.2.2.1...2.r.e.-...( 2.4.4.n | : : u t ; 1 u b ( G F i % .   ",
"E.5XmXAXaXCXSXHXnX5X.X.XzXuXkX5X9X0XA.b.V.A.n.Z.A.5.v.R.V.5.4.5.1.b.5.B.oXA.| | n ] A.E.#XI 1 ; X ; t h f u < $     . X . .   - @ $ X X u j j t : j e 9 : 7 e g f ; ; L [ L _ G n n n c n F j F { | _ m z _ G m y ; m _ m G G [ L G I O.1.O.o.[ [ [ } O.| @.| 2.w.| | O.O.[ [ G | 2.1...g ; _ -.y.4.P.V.m E.r.8.E.B.W.E.Q.B.e.R.|.|.oX!.Q.g.u b J j @ | = l ; z | _ ] G t j G ( 9 r b m m x b G O.G G m i i t _ i : j i k ; X 7 j b b y e i i i 7 % 7 % $ + . .   . 6 ; . % r e r s ) } 5.O.G v I u $   @ $ . . . @ @ @ i i : @ ; ; $ ; i y e y j i D i u i 1 ; e F F i i t e 1 v e 1 t u e v j D t f i h : e ; e t t i t 7 y t 1 ; r a r a F i % | 5.@.[ G y G [ g.5.I } ,.O.g.x.@._ G z z _ ..4.5.u i X n | | f 8.v.4.m c j 9 : h 5.5.5.5.G 5.A.B.v.A.6..._ Q ` 8.R.A.5.v.E.E.b.M.b..._  .` ..] (  .y 1 t . @ n G c 7 q ( ] m c G G m n y G L z 9 t y | 6.m | m _ _ [ _ G } j [ G J n 0 { 2.5.L _ L _ G _ b c c t u ; ; $ - ; = - ; % ; : u 1 j h c n L 0.pX6XW.W.0.y.b U 8.8.3.' A.y.y.j n ' | b.b.r.y.] | ..e.' _  .2.4.8.| G - ; u u 1 - ; ; G G m z ; X   ",
"^.W.9XmXHXCXAXGXAX>X XqXuXzXzXuX0X5X%X~.m.P.b.B.E.v.V.E.B.b.e.4.4.*.L 8.A.v.>.} 4.5.x.V.F.o.u 1 < 1 1 e h u < $     . . .   . @ @ X . @ = i e e t e u e t u t g j : 9 c ( L c n G _ j n v i f v @.] _ O._ ( G G m m G G b v G O._ [ _ O.O._ [ | } L } O.6.2.2.1...e.8.b.v.1.2.{ ( | [ [ u < O.w...` b.r...b.2.v.XXW.R.v.V.B.E.~.|.|.|.|.H.O.F 5.b.m.5.e.1.m t t t ` m z 1 i G O.v p b v p m m [ m G [ m n G G G c % t v i $ X F b j y y i ; t ; # 7 % 7 % @ . + . 6 w e + @ r y r ) @._ O.o.D J F e < . 1 : @ . . . . . $ e @ . $ ; $ @ 1 e y v i y e e j 1 e e D D J G v v t ; k j e k h i v f j u i e e ; ; ; e i y y e 7 = % @ $ % a a ! v i < D | #.@.G F I G @.5.[ >.>.8.>.4.@.1.G F g _ ] 1.O.F F L n g ' | b.A.5.c u u t f ' v.oXe.-.' 5.A.b.8.E.B. .1.Q * { b.6.6.b.b.v.b.b.A.e.z _ ......x 2.( e j ; @ n z c e y z p ( j n n t i - _ ] z r z m | _ G _ _ | L g L } g y c G _ 5.5.O.c G | z y L _ G c g n y u ; @ $ ; ; g c c 7 ; t f t } l | ~ M ~ L.&X&XU.4.] ' } | Z.i.U y.y.| _ l n G n.r.b.Z.} { ..w.| 4.8.| I | v.>.g e i t t ; ; . i _ G j 7 $ . ",
"7.7.~.mXHXAXAXAXZXtXoX:X0X;X X;XuXqX:X.Xg.5.8.b.E.R.8.| | _ 5.2.1.| n 1.e.5.b.e.4.' >.8.5.v u 1 < - - 1 1 1 ; @   . . . . . . . @ . . @ : u t u i 1 u f F k j k i g j n G G n g l b n G j 1 t i ` _ m _ c y 9 g _ b c G _ I G } } [ [ o.O.I } O.[ } } O.x.e.c.c.2.] b.b.1._ w.2.G ( v n 1 $ O.b.2.b.2...r.2.2.E.|.~.v.1.b.!.*X:X$X$X=XR.5.[ o.8.5.g.N.-.] *.n h ] e g = % F F.g._ b v 7 # y Q | _ [ [ G } G m [ [ 1 u u i X @ v t 7 t p y 7 7 e @ 7 q q 7 % + + # w E % @ + y e i F G I O.[ D D u @ $ . @ j g X . . . @ @ $ @ . . - .   $ ; = v i i i t i u 1 u v F G I v v t t e f h t u D j 1 t e : ; e ; % ; % t e e j 7 @ % ; # e v F ( b i < t _ _ F t D F G O.[ >.O.O.b.5.{ @.| : j 5.[ { _ F Z F o.G [ | b.|.8.} n : : U f j | e.` :.` e.x.5.I v.v.A.1.z b O.1.v b.A.8.8.b.A.B.8...] 2... .` p g ; : ; $ ; 9 i f t m ..G G c e * * t f ' _ _ ] n *.n n n v m _ m z @.m ] 1.7.5.O.M.6.| y G n G y j G g b b t e ; ; : t = c m j : 0 9 e i _ ' U. .*.L v.zX:Xi.u.-.1.3.y.U.U.2.Z.4.] 3.L c | U.| 2.A.8.c | 1.L L G t G 5.v.b.I j : ; : 1 1 f G G G y 7 $ . ",
"L.j.F.lXAXnXnXAXnXtX+XE.|.;.Z.oX:X%XW.E.A.v.8.M.E.M.8.O.G | v.8.| | n G | | | | :.| 1.| O.k t ; - < $ $ 1 u t -     . . X X X . . X @ . = i u u 7 e u t u j v F n v L G m L z 0 g g g g v u 1 i m ` c m m y m c m m G G L | [ } [ [ } O.[ | } } L G G | 6.c.b.5.5._ 1.1.m m ` { [ | v n < u @.A.A.E.r...8.8.A.W.H.|.b.b.R.|.#X&X%X=X0XR.5.G o.o.F 7.~.>.: 1 k I u.G t ; . t x.O.y b i $ 7 = m [ b G G g z b # y G k h e u $ e v j e i v a y j y @ # # 7 7 8 # + 5 r s 8 5 7 7 % i i y i i j J j t @ ; X X u 7 @ @ $ : $ @ . $ . . . . . @ $ 7 i j z F z F f ; u i G I G [ F u 1 u t i u k O.G < - e u f = e ; ; ; e i 7 t 9 7 r 7 7 7 e v G D D < $ n z y ; j G G g.g.7.[ g.v...` { _ i G M.5.o.G F k F G [ x.B.|.E.| c e : f e n u n g y m m -.[ 5.I } 5.j.5.Q G O.G y 8.b.8.e.b.b._ c  .m z z 2._ ; @ ; ; $ . @ 9 g g 7 - 4.G _ @.m c : z e u c _ [ c L c : : n _ f y m | v L L 5.x.N.H.b.g.@.G G y g 0 g G m k z ; t u t z y b m y 0 : - 7 n ] _ w.:.2.m b.pX6XZ.4.P.8.V.n.V.Z.4.8.2.3.1.| 4.' *.8.| 4...c n j i g | t L _ | 4.>._ $ e ; e u } | n v t ; .   ",
").^.~.kXCXdXtXZXMXkX+X{.|.Z.b.;.I.P.W.|.B.8.x.H.B.5.5.| v I 5.x.e.' | 5.7.>.L _ -.>.v.7.L h f u 1 1 $ o < 1 $ .   . X X . . X . . X X X X X e v i t t 7 v v f v F G G F ' m t ; 9 e z y e u t e m ` | O.x._ | m 0 c _ L G G } _ } O.O.O.| _ O.[ G G _ 5.2.e.e.5.| [ ] | ~ ( b m [ _ G b $ F _ r.w.A.b.A.8.2.b.......{ b.R.B.E.|.#X|.%XXXm.o.I P H m.$X7.t $ ; h v.5.* @ @ $ b ( y z e 7 x u n G i - = G z y g c [ G i 1 $ $ e f f t j i y i t = @ 8 & + 7 w 5 5 5 7 e 7 a a y e i y G b t y I G e X ; ; ; . ; X X ; t @ X . X . @ X % . . @ 7 t y a v b v f 1 u t i D G I G u h t t i f G G k - $ ; ; u e t : ; e y i i 7 7 t i ; @ e i v v G F $ < v F D i t _ O.@.b.1.[ 7.B.@.1._ | o.@.8.x.5.G F h F F O.>.A.$X|.4.' 9 ; % ' ; : t ; :.4.f 0 y G } F k k [ 1.| G c _ [ c [ 4.8.' # 9 9 # $ ; 9 l ; @ X $ . X $ i 0 7 0 ` 1._ 1.8.` m N L n 9 9 g l ; G _ n 9 9 0 0 : e g f l 7 7 L g.M.M.b.6.1.1.n 7 b n G G D v D v t j c g y m 0 : ; - : j m 3.y.;.M 1.Y.;XW.P.;.v.1.9.>.4.} } | b.e.' *.| b.x.G 2.' 5.F n u n i } g 7 n n G ' n ; t $ $ u F _ _ i u ; . . ",
"!.$X&XMXSXSXsXaXuX X[.S.W.}.A.2.` b.E.~.P.A.6.e.e._ O.1.L G | x.| m | 2.2.j.8.4.4.8.A.m.5.k t u t 1 u - $ X . .   . $ : $ X @ X . . X . . X t F ; t e t G c n k j G G n m j 7 @ : y l v u < t 7 m c.8.O.5.1.| 0 y y v _ _ G 5.| [ O.O.O.[ [ O.O.| O.@.g.e.5.w.e.1.{ 1.5.2...] | | | @.b $ i Q ] ..b.e.M.r.2.2.2.2...2.@.5.8.A.~.!.R.|.%X!.v.>.H I R.*Xg.F 7 < e t y g 7 @ $ ( ( m i z y v y e u u @ @ ; c _ _ z c y I u $ $ 1 f u v i e a r y y % 5 6 # d w 7 6 w 8 r 8 r r y v 7 e G O.} G F F u . $ X ; : - - X - ; @   $ . . @ X @ . . @ : 7 c a b G j u u Z f i n F j D D j Z u k D I F i $ : 1 ; 1 1 ; 1 i 7 e v ; e i y 7 ; @ # e a b G j X t G ( D j e i 5.O.c.5.| 7.5.m @.6.8.7.4.8.B.x.O.F F u F 5.g.B.~.$XE.6.n g : m : 9 Q 1 N 4.` z = m v.O.G F [ [ j i t v n z G ] 5.m e . ; @ X @ * * % 7 X . X X ; 7 y c  . ._ ` O.O.@.] | n ; ; 9 : t $ : n L u * 9 : t : t n 9 t 7 7 m ( 1.5.6.O.5.1.G [ O.G n n v G v g b c c b m n : ; * - g G u.2. .w.P.W.4.^ y.4.n.1.2.Z.n.O.U L G 4.| _ G 5.5.} 2.O.8.} k g G U _ _ g F c k b n u u t : e j G G i e < .   ",
"^.$XXXCXHXFXZX[.y.D.| A.5X}.E.B.8.n.E.E.~.|.H.2._ m ' | [ v.8.5.5.5.2.1.G 1.v.v.5.B.$X#XN.n - u u t h u $ X . .     @ ; $ . X @ ; ; @ $ X $ g F e # : = g j i j j b b y t : ; ; e t g v t < e y g ` 8.] | O.z 0 t 0 9 m m m | { [ L _ [ c m ] | 8.8.e.6.b.8.e.b.v.e.5.e.v.2.@._ _ [ { i $ G e.8.w.b.!.M.6.2.2.2...` M.v.] 8.H.E.Z.M.B.|.XX|.M.I @.#X9XH.O.c ; e y n : X X t ..{ { m b b ( b i j u @ $ l 7 @ 7 0 0 G _ i ; t < $ t F i a ( v z i % + # s 8 6 8 8 w w r s 7 r i z 7 r i F o.J D G v . . . $ o 1 $ . 1 $ $ . X X . X . .   . . = 7 ; 7 i v J f i I F j v G F k G I I v f i I o.i $ e i t $ @ ; t e t i i 7 y e t e e 7 7 r a b G j $ e _ G v F t z G | x._ b } x.5.@.5.G { 2.@.v.1.I H J u D [ 1.8.B.8.| D t j G 5.} n ; l c Q M x m 0 Q 2.6.| | F F G ; i n ; t [ L F 9 g 9 $ 9 ; * * V f . X @ . $ @ @ g e | m ' 5.] } 1.n : - t 9 = ` g $ ; n l ; $ g i N L n m g n y g 7 $ 0 m [ 5.5.O.>.O._ v D F F j i v m m _ z n ; @ t ; ; b 1.r.m 8.}.oXZ././.-.8.4._ y.8.e.G O.I n.1.n _ _ | | e.' *.m I e f [ L n j v F G v c f c : e e e j G b i ; .   ",
"$XXXW.vXCXAXiX[.[. .*.n.7XXXW.b.5.H.|.|.~.|.E.2.m m L ' ..b.B.8.2.1.] | *.1.e.8...8.~.|.B.h $ 1 u 1 u u ; X X o   . - ; $ . @ 7 ; ; ; $ X ; t j D t y G i j j v F b f t ; : ; y y t y j u < : y y O.v.| ' b y 0 7 y b _ G L m m G c G } O.| ] _ ( @.8.8.g.8.B.b.v.2.] ..1.2.@.| G G b ; < x.!.2.~ ..r.b.2.Q ..2.` b.H.8.' v.R.%XE.A.v.E.*X:XE.,.M.*XeX<X(.>.i j n g g ; @ j ( 5._ G ( _ _ b z G c g i t @ 9 = 0 9 y ; 7 ; 1 t t e _ b K G v t % + + 7 s r 5 s 8 8 w r a a e y z a a y t i F J o.G . . @ e - o ; ; $ : ; - X X . .   X   . @ @ : @ $ 7 i F i D o.F u v I G j i F I [ [ U ,.5.G $ f D e X . @ t f j D F e i z 9 r i % 7 r y v b z , 1 ( ( v i j G _ _ @.| G 8.5.` ( 6.{ _ e.| 1.| G I I u v G _ ..e.` y.*.u L b.A.M.} j ; g ` w.x ..@.] A.M.6._ _ 5._ [ u m ; e v h t t t ; M l 0 ; ; m ( ; 9 @ t @ X @ $ @ c ` ] 4.O.[ G L : X @ ; t N ] G $ ; y ; ; n g z t : y 0 g b G c b G = = b O.1.5.5.>.D f F F k i v ' c m z y c y * @ @ t L -.m 4.P.XXU.P.&XI.L.3.[ } 5.3.] | *.V.U n f j v ' L O.*.1.j n u G i t ] -.{ [ v j b v = * g i e c b j $ .   ",
"N.n.8.I.7X7X}.oXE.*.Z.I.p.}.b.| g g.%X|.E.~.E.~.B.| G L m | B.v.v.b.e.} [ 4.V.A.4.v.A.b.H.f 1 1 - : 1 h u o $ $   . - : ; . $ ; ; - - X @ * t 9 f u t c t t j G _ m v j c t t 0 0 c c j t - e c i t ( G m c [ b i 9 b n G G G c G n G ] [ 8.1.' ` _ ..6.5.g.2.2.e.4.2...{ _ ] _ G m _ j 1 m.#Xe.` Q Q v.8._ ..1.b.E.A.x.8.x.E.A.E.x.5.n.R.%X*X!.!.*X=X0X*X(.m.| e G y = ; F ..( b g { 5.@.a ( [ G [ _ n i m 7 m c 0 = G G @ X i i p G @.e v e 7 . + # r r # 8 7 % 0 7 e i t e y i v i f i j o.,.F X ; t j f $ i v u : $ X X $ - .   . . . $ $ $ . . = ; t f t j j G i J o.F G k D O.O.o.+.5.t ; i f u 1 ; . $ f j j v i r p = 7 y 7 % 7 p a p e $ $ _ y i y v I } e.8._ O.O.O.6.4.5.2.@...] Q m G g.[ j g ] G ..B.r.] } } 3.Z.E.B.8.] G _ ] 2.e.` ..{ 4.A.v.4.8...2.5.z @ = : j k k F j m 2.] N m n n :.[ L # f @ ; * @ . 9 m 1.@.| c G g n t t c | _ G g z } _ g z m _ f 0 ; c n l n L | _ _ 9 g n F 1.8.7.8.[ t Z G D k F _ _ n g m z 7 ; ; - 9 c n M c -.I.qXL.5XU.n.y.' G 3.>.*.| 5.b.k u c g [ | [ 5.| [ t B g g g g n 4.| L u v j j c @ u t : j b i $ .   ",
"L U ' | Z.8.S.}.L.n.I.@Xr.D.b.@.n { n.%XE.~.E.!.A.} f c L 6.H.H.B.A.E.B.] ] v.A.b.v.b.B.N.k < - $ - < 1 t - o @   . < 1 - X $ ; : : - * ; ; t e 7 y t n 9 t k G G G c e c y : y y c z i < - 9 v t 7 G m m m _ b F G F G L _ _ G [ n m m n ] ] _ ( m _ @.6.6.e.@.2.v.2...( ( ] G y m 8.[ t 7.v...3._ ` 5.8.( ] 8.A.|.B.b.v.~.|.8.v.6.6.E.B.~.:X#X!.#X!.|.#X9XwXQ.j e b z e b c.' c _ _ m y b ( F G _ u y z [ _ _ _ * @ z [ j ; i z b a { G v # 7 @ + 8 8 % % # r % + 7 e ; % % i 7 t v G i 7 F O.h $ k f j i t t F j 1 ; ; $ $ . $   . . @ @ X . . @ ; = % % t e t D u i +.o.v J [ o.O.I I [ D < f j : < ; . . f e ; t b y b p r 7 7 5 r 9 s v r $ + b y 9 t y F { 8.6._ O.| @.5.8.@.{ ..2.2.Q p v 8.[ j F | 1.8.P.2.` } 4.4.@.4.e.v.1.| 2. .2.2.5...8.w.8.2.2.1.2.2.` c 9 9 ; v F F f e c { ] 2._ N ~ _ G t G L G t ; @ . @ m ] @.8._ | G G b e t t z b y G v.R.[ n ' G n 0 : 0 g g f [ 8.5.O.k L O.[ 1.8.8.g.[ h u F F k G ' m l 9 : y 0 ; ; ; 9 n n ` ^ ! :.OXi.;Xp.n.4.y.>.O.G _ } P.4.U F n n L _ V.v.5.U : t ' i j : g m 1.[ v F F b c - e - 9 c j e $ .   ",
"f h g 0.U r.w.V.y.L.i.P.%XXX .| 5.8.v.~.~.R.A.E.b.n c c ' ..g.v.B.B.R.B.b...y.8.b.b.e.n.v.F u - X $ < 1 1 - . .   . X X @ $ . ; - 1 ; t : : u u y t i G c u y j b n f i b z : e z m _ F u ; i y e y G m _ m c c m b m m L _ [ G [ b G ] c G _ } G G ' 8.5.m _ 6.x.n.u.2._ _ ] m z c m n - y b ` 4.2.m 1.6.| 2.b.~.E.A.B.B.%X&XE.A.R.g.~.E.%XqX*X*X*X|.E.E.|.:X*XU = = t $ ( [ c c @.4...b y y t G O.j c 9 m 4.O.[ G = y b i I F c G b ( J G v r % + 7 5 r # # 7 7 # 7 v e = a y y 7 7 v G i i o.u 1 J F u v j f v G - - X . X $ $ . . . . ; X @ X X t j t : ; ; : i i t i I F F I G I [ F o.O.h k t @ e ; - ; ; f 7 t i p x r e 7 p a 7 y a p a r % i b y t t t G 5.@._ _ _ | 5.2._ ( 4.e...@.z y [ [ n b _ @.w.r.e.| n | 5...8.w.8.@.G 1.` 4.` 1.e.e.e.` 2.1...2.w.` G ] _ z _ _ v 1 1 i G z y 0 m -.Q j t _ L b _ t * . @ 7 t ..@._ | O.v 9 y : l m e $ G B.g.1.m z n ' e g _ t e g v G } } i L L F >._ | 8.o.h f Z F F F l L t y 9 g t : ; i : : c -.] ~ i.i.0.n.0.V.e.V.5.4.' [ =.v.P.I } *.v G L V.V.9.*.u : m l g f ; n 1._ j j f j e - ; ; @ c v e $ .   ",
"l t G F U [.[.r.7.' ' 5.{.oX .2.5.5.B.A.n.y.8.6.} g n ]  .] 1.6.b.Z.A.E.B.y.b.8.P.8.r.V.7.k 1 - o X - t 1 - . .   . X X t ; X X @ - $ : 9 ; ; t t e ; g L g : t c j j j c t = y g ] n F u : e z y y G m _ z g c n z m c G F v F L G [ 5.G c b m _ | 6.6.e.] _ e.n.A.b.-.G [ | @.G z _ m 1 I c.2.y.2.4.1._ ] 5.b.~.|.A.v.x.|.R.R.oX:X~.v.B.-X<X<X$X%X!.A.E.E.E.B.G ; e i $ @.w.m y @.2.( e i 7 t [ _ [ y 9 z _ F G 5._ z O.J o.G i y [ G i i G y @ 5 # & 5 % % % # $ % a b j K a a i = y I v t i < h I U F F F j v F v . . . $ . . - . . . $ X o - @ f F v u ; 7 ; e t t u i F v t J F I I g.G.O.v ; @ : e i e i j c 7 e b r a e r v K b ) ..p b K e y b i 9 y y z { x.| @.@.@.e.1.b G | #.2.t.z m z | L F G ] @.w.w.1.m 8.} 1.w.e.2.[ z ] Q ` ] ;.4.1.] 1.w.2...2...` { ..` ] | ' _ b j G ] L c g c G m i ; 9 v n 1._ @ @ X ; y @.8._ m [ ' e b y t L z 9 g x.O._ | _ 5.O.L m m y 1 g j n L F n } 1.F n G G | O.[ G j f G [ n c t t 9 9 @ ; ; t 9 9 n z 9 N } 3.^ =.0.5.2.4.7.] -.} 4.n.n.>.I >.} n _ Z.3.| 3.L g f u t t * t _ e f G e $ o - $ ; % i j 7 . .   ",
"1 f l U F r.r.i.G l n -.u.u.b.A.E.x...2.r.1...n ` ` :._ m _ ] | b.e.b.E.|.b.P.A.Z.b.B.B.5.u - $ $ @ $ ; ; $ .     . X $ u u $ X . X $ 7 : j j f : * # c c y y i g v z v f u 7 7 g m G _ F e ; y e v [ b G n z } _ G L n g z c z G O.| | 1.| n ( [ _ 5.e.1.G | v.P.b.` z 0 0 _ | y c 8.@.1 G 8.| -.] { ..] ' ( @.b.H.A.B.8.b.8.!.:X:X;X8.} v.|.:X%X!.A.E.|.~.~.B.-.G I.G 1 E.M.G z p _ b % 1 t t _ { | G z g Q G j G o.O.1.m g j ; y ( G b b i y y a r 5 8 a r # % % t ; ( [ F i i i y b v G [ D X 1 o.G j F G k f F F - 1 - t . X ; @ X @ ; ; - $ ; f v f F F i = = t F o._ F F t u F G I 5.G.f.o.< - 1 G _ v G ( i ; ; b b K K ( v [ [ { 2.@.K z 1 e ( z t t m c z x.8.6.O.x.b.@.m G | 2.e.u.4.1.m m G G _ ..4.w.r...G G } G ] 8.r.| j -.m y  ._ ` ]  .~ ` 2.] ` x x _ r.4.` ` @.] ' m y m V #  .] L m _ = G k G 1.1.` ; @ @ m 2.{ | G z l $ : ; t _ z c z m 1.A.B.v.B.8.O.c y ; : t u G F j G m 2.F m n c L U I H Z F o.} [ { m v m u t t ; u ; g g ~ n l 0 ' _ t =.| | ' n.' n 4.1.Z.5.5.| _ I c [ | 1.' 1.n n j e 9 t : : N g G n : $ @ . X @ ; t u ; .     ",
", u g n F G 1.n.I | | b.Z.2. .Z.E.m.3.2.] z c ] -.1.| ' ] ~ m c 3.b.e.r.b.| 5.n.y.n.|.|.R.I < $ $ $ o - 1 $ X .   . X $ u e $ X . X X : i t F [ G 1 : n z z i e t g z v i t e y t _ ] | _ t @ ; 7 j _ L G n L G _ L L G n n I G G @.O.[ O.V.g.5.5.G @.6._ _ 7.8.] _ ] e.@.y y y = O.5.c < L 2.5. ..._ | { 5.' b 6.b.M.B.B.1.} B.&X&XR.} v 6.H.|.#X!.R.|.XX$X*XB.8.A.E._ D H.8.b 7 b ] { Q y j b b | G O.z ; _ 5.j e t O.1.= ; i e y G K K K v a r = # # 5 7 # # 5 7 a r v G t v e t i i F G j u X u 7.+.I G F F v u F F t u u $ . ; - $ $ $ $ @ t ; $ t u F G i = : i [ o.O.[ J v 7 I o.I o.g.,.+.G i i _ } D v } D e $ i ( [ K K K G { ( @.{ p b = @ ( v t 9 ( 8.] ( 8.8.O...c.2.( v { 2.2.b.b.b.@.[ _ _ @.8.w.C.e.G u 9 t v f g n $ 3.8._ ' L ' } -.2.2.m ` 2...Q Q ( -.` ..{ -.5.( m c m ~ ` 2.z ] n.z m [ u u [ 2.( ~ 9 7 % ....z c z n g 7 g G O.G G y O.5._ g.5.{ _ | t ; ; @ 1 u j v k 1 y Q 9 g t ' | F I I P I O.5.O.O.} [ | _ G n l 9 y ; g ~ _ x V B c x j L G ' 3.| _ =.' V.| 1.[ U } n G t j >.8.L G t g L j * ; ..1.m m f 1 X X . - ; 7 e ;       ",
"1 < f k H H u.4.I ' n.I.Z.Z.u...r.8.L m g 9 | w.C.b.Z.P.v.| ` m 1.n.P.W.b.i.3.| 8.n.E.E.B.I t 1 < - o - < * X .     . - e 1 $ $ @ . o @ $ : v } I k u 9 b j = e t ; 0 c c t i j e c _ ..[ y : - e g L n n G G L | z i t t y G [ _ | @.1.8.5.>.g.v.v.B.4.m e..._ _ m 1.|.v.| 8.O.} 5.[ G $ G 2.] 2.] ] ..| 4.{ m ..` | v.A.b.[ 8.E.E.5.v n 8.A.R.E.|.R.E.E.b.8.| y.Z.v.f u _ n ; 7 m m #.| G G O.m.8.c ( m y z _ n : @ g ,.O.G F i i z K b G ( K b r + # # + & & 8 w r a y i y i j t t t j j j i X < o.,.,.[ U G F G k F G u f 1 . t $ ; t @ . ; - t - e i j k u t t i D o.,.o.J I F F F } ,.5.5.5.O.J i G I I j G j i % $ z ( i v F _ [ ( { ..x O.F ; G y e 9 } R.b.8.N.6.6...C.|.4.{ | 4.q.t.e.e.{ { | | ..r.A.C.2.8.t L ' ' ; ; n 0 N 9 - * 1.@.e.[ L ] ` ] .._ `  .` Q ..] ..b.b.1.m t c -.2. .` 2.c.2.G F t ; F _ | ` $ @ % y _ * p p { O.1.[ _ G [ [ n 5.b.1.@.X q G v t 0 - ; - 1 e : t X y X ; 7 t O.8.} o.O.O.F F 5.>.>.O.} [ ] F m g - 9 9 m ^ ~ y.y.-.3.^ e c n U [ 3.m c ' 1.-.' U | } _ } l u } | f n n L N n y - n ] n m b e 1 - . - : = ; 1 . .   ",
"k j h l 1.H U.E.8.>.Z.P.U.U.P.A.w...] z n G @.y.b.b.W.|.R.B.-.N | 4.Z.E.A.Z.U.w.B.B.b.B.B.I u 1 1 - X , 1 - $ X     . X ; $ @ . @   @ : 9 u v t f 9 : t : : g ; t : 7 g c g v e ; v m _ | _ g t ; e k G _ G _ O.[ v f t i y y G o.[ 5.g.g.5.O.8.8.x.x.' [ M.` m b.~.b.Z.B.b.6._ [ [ ' v $ G 8.2.@.@.' ..5...{ @.| ( b 1.E.P.5.7.A.e.k 1 c O.R.!.%X&XA.Z.R.n.v.| @.5._ 1 ; ~ y = 9 y ] ....| G v.#X~.R.| 5.x.5.{ _ j @ - G 5.O.I i z r z j v v K ( z r 8 5 # # 5 w ! v v F z K F j b i i G k F F ; 1 9 I 5.o.U I F G [ I F u e - . u 1 i F 1 $ i j X @ @ - u n F [ v % 7 v o.o.[ o.o.J v v 5.k.g.g.O.P F v L G D v F u @ % b v i 7 e b ( X.] #.4.| F e v z e = O.b.A.v.6.5.g.A.A.A.@.O.{ 2.c.w.M.v.5.@._ _ X.2.A...m ' l L l v.- 9 - c n 1.g 9 ' A.Z.c z _ _ 1...( Q X.q.z ` v.b.A.@.` m m _ 2.X.p ` b.w.2.| G e e f 0 ] m V @ 0 0 Q m _ [ _ _ _ [ 1.L } [ G G 8.6.m q 0 q 0 g 7 @ @ X X . ; 9 . @ . . m 7 7.7.5.5.5.[ F . y } O.O.O.@.[ G _ G - f t _ -.^ ~ q.B :.^ z f t } L 3.| u c ' ] L N 5.} | | G j 5.G u j g n 1.-.n U g n n G m t e F t ; e t % e $     ",
"F F U I 3.' b.6X%XE.W.I.b.Z.u.Z.b.` _ _ O.v.y.i.| 2.e.W.A.V.1.[ b.Z.Z.P.B.Z..XoXOXoXE.x.1.G 1 < < 1 $ < < < - @     . . X . . @ X @ @ - ; - : t g t u m k u ; : n y 7 y n n u $ @ ; t [ } G c : : u j k n | } | [ G G j i i = j G 1.1.8.g.5.@.| L m c 5.8.v.e.5.A.-X%Xr.4.1._ [ } O.[ i t m ] ..5.@._ ] { | 1.1.1.| ..b.$X|.M.[ } 9 @ $ ; 2.R.&XwXgX0XE.A.B.|.8.{ _ v < < L y y @ y Q ..2.{ G 5.5.v.!.M.@.g.!.!.Q.>.j $ $ Z [ 5.o.b i 9 7 ; 7 b G i p s ! r % 5 r v v j v t G J v v j j v v f F e - t i I } I o.L I I G F u Z 1 @ @ i F I F X ; - g X . $ ; k I I o.F t i v U o.O.O.I o.G o.f.k.m.,.[ o.G I G j v _ k $ $ 7 i a b K z ) { | 2.e.x.O.i G G t % _ 5.A.2.5.O.@.x.A.A.] p G #.2.n.x.4.8.b.6.{ @.c.S.2.1.| f g $ n t u y _ } } 3.l j ` 1.' ( n | e.1.2.y.v.] ` ] A.v.2._ _ ~ b 2.b.A._ _ A.b.B.5._ e f I 5.A.O.c m t N N i [ _ ..' m m G _ j v } m j m z z z G G c g g @ @ @ o ; : . @ ; . t c e.v.v.g.>.G G _ 7 # y b [ @.O.[ [ G : ; y ] ..U. .-.s s 0.] n l n B U ' j n ' ' j j U F ] L n j _ _ u u t u { 3...' ' ] ] m l v g G G : ; i $ $ $     ",
"n F >.4.i.y.}.pXpX&X%X-X.X{.w.b.!.H.A.n.b.b.4. ._ ` { 1.5.8.O.} m.E.A.P.b.b.Z.P.P.}.n.9.O.j 1 < ; ; ; - - , $ X     . . X . . X @ $ @ ; @ @ 9 u j t t n k c ; e G i b e n g ; $ . < ; g n _ n t k n g i b _ L O.L v F F k u y b j } 5.1.5.O.[ z 7 [ 8.x.5.@.@.] 2.c.R.5.G [ _ G m _ [ u j { 1.2.e.8.5.x.g.e.8.8.H.R.R.R.|.!.m.>.F N y y L b M.:XqX:X:X*XR.v.b.M.r.| F u u F n y % = m ..2.2.f u F [ 8.N.!.N.H.~.$X~.B.[ j u z O.O.G F r = r p p ( z r E ) K e # 5 7 v i i i i F K _ ( G G v j F : - t i = I O.O.I [ [ _ G 1 Z t ; - h I J u @ < j t @ 1 , - 1 Z I J [ v i t v o.,.,.I +._ F I j.m.f.O.[ } I G j k I D $ @ y e K G G G ) { ( { 2.4.g.F G O.F z m 5.e.b.5.{ ( | t.w...y y ` q.r.w.q.2.b.] | #.M.{.1.O.1.f u t ] L c _ *.5.} | ' n 4.' m l m 2.r.@.Q @.| y 0 ] e.e..._ g g ( 2.5.e.r.@.@.A.R.>.O.G j } R.b.b.4.6.| u 9 $ v G | | G { | | y j G G i t j n m ( c _ v f e ; ; ; @ X X @ . X @ ; _ v.v.5.L G } >.[ c 0 7 F 5.1.@.| | [ G n m 2.X.M B ^ ^ ^ :.' L j l g N u : n n j F k n [ U u g g n } L L _ ..1.c.1.{ } _ { g b z g G e : z t X - .   ",
"5.7.y.W.oXU.7XyXuXyX.XoXI.Z.Z.] -.x.E.|.b.e.b.2.2.[ L 2.3.1.| [ 4.Z.Z.Z.Z.4.y.OXn.9.V.n.L u : $ $ ; ; ; - ; , X     . .     . @ $ X @ - e i u j g i 9 F f i t g v F b z n t - X o - g n 9 t g c j g f c _ } n j b t i u D G v g G F [ } [ O.O.m O.7.{ 1.O.] | ] { 1.r.| n f k J 7.8.6.h G 8.w.y.b.b.B.b.v.B.b.B.A.H.A.B.|.R.R.v.] n t ; t u V.&X|.E.|.E.B.R.b.!.|.v.G u 3 Z y $ % . p { _ b @ y c m [ 7.N.N.F.(.Q.m.m.F.m.,.5.7.} G t y ( ( K ( [ b ( ) ) K i # # y v b i i v F G } G G G z i i t 1 e e ; G f.,.} O.O.O.F u D h ; 1 F J I Z ; n c g t ; t h : ; F [ O.G j t i I >.5.o.G G F F v.g.,.5.[ [ O._ G t v u X + 7 j j F G G ) [ v ( t.4.g.G v G G v b _ [ 5._ ( c c 4.b...i z ] @.b.r...1.b.4.@.@.4.2.{ [ ..L e z u.5._ O.| ] n F G U m 1.] c : l ^ e.8.2.2.] M  .r.r.1.] b 7 _ w.2.2.n.8.O.e.8.[ } G I 5.8.b.A.v.y.8.F $ @ t [ @.6.5.8.5.@.I F G G [ k ; G m _ _ m v j F t X X @ X 7 @ X . 9 y 7 } >.L k I ,.7.} 0 # + t [ @.1.O.| | 1.F g n ~ l M M c ^ _ L _ _ v _ j h t n j j f t G v n f j f l _ U m | ..w.1.2.` ..m m n y z z b f @ : 7 . $ X . ",
"Q.=XqXaX7XU.OX}.6XqX-XI.w.p.i.' ] 5.1.E.|.B.B.2.4.2.] ..-.2._ F ' 4.Z.B.7.y.u.3.-.4.y.4.L f 1 o X $ - < - < , $           . X ; ; @ . $ ; e k j y t t c u f t - t F j g g 9 ; X O < c m ; u g c z G j 9 n _ [ i u e g i e i j g j i n c } | [ G 8.} m G _ 6.| [ | { 5.@.F 1 t I 8.8.8.u L 8.2.b.y.4.8.x.x.B.v.v.b.H.R.A.H.B.B.v.5.i c ; ; @ [ v.b.B.b.g.V.|.|.E.b.e.] 1 t e % % @ 7 7 7 # . . g | O.5.6.g.m.#X=X(.F.m.N.F.g.g.m.x.G y G | b b } F K K ) K v K b a a r z K b F v D G O._ o.I j e F v t t j j g.f.} o.O.5.o.D I [ u t F F j h ; n j : c 1 < G F j u J 5.F g e u j O.7.O.o.F v G 7.,.o.>.O.O.O.O.F : 1 ; ; @ $ v y y y v ( K y b r.@.5.i e $ y F ( G G @._ G { Q ` c...K _ 2.2.b.Z.b.b.E.M.#...@...` | 1.m y Q | | y _ L j u l g 4.4.2.' 9 f g 2.w.A.y..._ M q w.c.b.6.| c 2.C.t. .b.b.5.5.| g.O.L O.5.6.M.4.8.e.8.D X @ ; j 8.x.6.@.[ O.I G [ o.5.F ; U | _ _ _ L v [ h * ; $ % @ @ @ @ @ f 0 ; L n u G } O.7.5.( } O.O.| 5.O.[ O.O.v i g 1.M ^ M 9 ^ ] _ 3.| ] *.' j ' m l m j j n n n g f g t n b j _ e.B.b.v.[ z ( G t t v g j u : @ ; @ X $ . ",
"8XuXbXbXsX4X4XtXOXZ.}.:.w.p.p.b.e.e.y.y.b.b.P.R.5.n.4.y.@.2.' m -.y.] 5.| 8.i.' _ N 4.| N ; $ o O X $ $ - < < $     . . . X ; ; 1 1 ; @ - e t e u j g c g k j - : g j i t : : X . $ : ] t $ $ f { c c g : ' O.F f u n F v i f i t t i y c L | ( 8.x._ _ | @.4.[ { | | | G u t j { 6.O.u _ 8.y.b.8.e.5.b.M.v.1.8.B.B.N.R.A.A.W.E.b.F e : g X { 5.| 5.e.8.8.v.R.1.x.b.G < F t +   % y @ c g = y j O.8.M.>.5.B.~.$X=X).7.7.m.m.N.F.m.O.G z y ( [ G i v b G G v v ( ( K v F F v b v i F } _ F f e i b } F i v t ,.f.O.o.,.,.>.I G I j n D F t i t v b u u g - u [ G G F +.F j 7 e g k o.5.5.I I I 5.o.o.o.I G I _ i y % y e . v b a y r a a y t t | 4.2.v 1 @ u b _ b z _ { _ ] 2...` ) ] 2.e.2.t.Z.S.E.C.4.| #.e.2.( 1.1.c _ ( L } $ 1 t l G m m m _ | m g f f 8.2.w.A.8.....m -...w.6.} _ w.b.;.w.v.6.O.5.@.5.| 5.1.8.x.e.v.e.v.5.f $ . @ : 5.R.x.6._ [ I G J o.O.F : g O.| O.[ G 5.5.F 1 g c n ; * X - f y y y % i - f } >.O.O.g.g.6.5.| O.1.O.@.| L : t m M :.=.B ^ ] 4.] | | L [ t n L g g f n j b n g - t i : j g j _ v.b.B.M...# y t ; : t i t $ ; - ; - . @ ",
"eXBXNXMXnX7X7X7X+X[.I.;.;.2.U.I.b.Z.A.2.| 1.8.e.c.y.4.4.e.-.L n 1.n.4.>.4.*.| } _ G 3.L j e o o $ $ ; $ X $ < -     $ ; e 1 e 1 u f e - @ t j n v b e u j F F f 1 F G t e g ; X . $ g G i 1 e n j n L l y ] U j k f G F j t v L f b n b m ' ] c 4.B.O.@.] [ 1.[ { | ..3.L f f v | 5._ u I x.x.y.y.e.y.H.B.8.b.H.H.N.v.A.Z.E.E.A.E.1.g z m k O.e.1.v [ 8.@.1.8.O.m.E.J u 5.O.@ @ b 9 g c Q 9 @ ; | 5.v.O.I x.A.B.!.~.,.o.g.m.x.x.x.m.} G c 9 j t 1 y v v G v y z G F i K v v F G v F K _ F 1 : j n G I j j t [ g.O.O.5.5.o.I I k h D Z J F f v f e t : e @ < F [ I o.o.G f L g i 1 t o.,.5.[ I 5.G h U h e n u i y 7 t b b ) a a a w p b r r z b { c.G ; $ t y b ( v _ G } [ ` w.r. .! X.q.w.q.w.u.r.w.] ( { @.8.1.O.| G L L 5.V.< X : u j n y.8.b.2.-.` | 1.1...| e.b.w.w.4.1.x m { _ G 2.1.` -.e.E.O.} | O.[ g.8.e.8.x.b.E.A.8.[ j i 7 @ _ x.M.H.8.>.} F G o.o.G 1 n ] } } n G O.O.} f t G ] g ; @ - i l n g ; $ f F 5.5.o.>.5.5.O.5.@.5._ O.8.O.5.c ~ z M :.~ B ~ m I.y._ ' >.v.n j 1 e e e f n g j u t e j u g n ' _ ..M.8.b.b.b # + @ ; : ; - e u t e ; . . ",
"XXqXNXAXAXnXyX+X[.p.y.;.p.p.I.E.I.y.b.] 3.] 5.| 4.| | 4.b.y.m L 3.v.A.8.b.8.5.1.3.| N ] G t 1 - $ ; : $ X < 1 *   . - e u u u t u f u : * ; g n y j g i j t i n v v v t ; t - O . , j c n : e j j c c g ] ] n $ e f v i ; : v } G I _ m _ c L _ ( 5.8.@.] [ ] F | [ 1.1.1._ n v L _ G t F @.8.c.8.e.v.x.4.v.R.H.!.m.g.B.B.A.B.B.{.b.2.; f f | @.1.z l i j n G O.b.b.J Z m.2.Q ; _ y 9 V 0 0 $ y u F o.k 1 G O.5.8.v.[ H O.g.6.7.O.5._ O.G = e ; . < r r e y v K a a r b v y G v j y y z G ; e g y F j j v v i ,.,.O.5.O.} G k u i J k H I [ I G G n j f - t F o.o.I O.5.o.j F ; ; i j F f.o.[ 5.G - ; - u j f e @ $ 0 b { G y e < 7 r r r b b y _ 2.v X $ t c _ p m ' ( m ( ( Q #.Q Q ` ..r.2.1.2.u.D.6.( x G 2.[ I [ _ L j n >.g i n | 4.1.1...2.2.b.m ..y.e.' } 5.4.w.2.@.] e.| ( | n _ 1.5.w.4.M.O.[ 1.[ 1.b.c.b.M.b.A.I.A.Z.v.O.L i @ * 7 G v.N.g.o.I G } O.G j I 1.>.} F L G } G t u G ..] m : @ m N 0 ; ; . t G x.8.O.O.1.O.8.O.5.6.L _ O.} 5.1._ N =.5.3.4.p c w.y._ ' 1.| F u i t t f c j < u n c j 9 f n j L 5.1.8.g.M.M._ . @ ; ; @ @ $ e u u 1 ; .   ",
"R.XXpXbXCXMXyX7X}.p.4.;.p.Z.i.U.r.Z.y.] 4.] ' _ y.8.9.y.4.y.' G 4.n.n.7.v.9.4.8.v.O.L } [ u ; - * < ; $ - 1 - $   . - 1 u 1 1 1 : : : 9 ; e e g j t e i e u g g j i f ; ; : $ O O , U _ g : t G e c j g n m G : $ : t ; 9 y c [ L O.1.` m c m | G m [ O.O.O.[ G F L @.-.O.[ n n m G n t D 8.b.V.b.v.y.8.{ 5.b.R.B.8.v.N.R.B.x.H.{.Z.m g t n c F ' ~ ; 1 1 F L 6.A.M.} Z 2..._ { ` ( b + . : ; t ; ; i ; @ c v | | O.G F o.7.6.O.G v b G v 7 e < . % K K r r y G v e e p K v v i t y v v f $ e G v c t 7 j i j I 5.,.O.5.O.o.G j F o.D F J O.,.o.[ [ G i t F o.[ o.O.5.5.,.f j t t i t = } ,.o.j.I ; - X - 1 h v b 7 z c { G i a ; 7 e % = z G i y G j $ : e t b 0 c m | ] ` @.` ! 8 w ) ( _ 1.8.r.{.}.b.X.p b b._ F _ n g % < } c c } y.2. .8...b.e.5.G M.b.w.@.O.1.e.4.w.v.B.R.e.G _ G _ G 2.Z.u.b.1.} 4.| 1.5.4.A.R.W.}.I.b.P.B.1.L t 7 # ; ; c O.O.O.O.8.5.| F F } 5.7.O.5.>.G c j ; - j | 1.] t @ n l = z X X : j 5.8.} G >.g.m.v.8.1.L ' G 4.B.|.n.8.^ i.;.1.M n y.w.-.L -.| 1.L j n L t n f g u U 1.F v t j :.N G [ g.b.A.A.@.j = = @ @ - @ 1 : u t ; +   ",
"Y.W.6X+XbXbXsXOX4X7XI.Z.D.Z.] -.~  .] ` | 1._ _ _ 8.m.8.8.Z.2.[ | e.2.6.} | 8.8.v.5.} } [ u ; $ o $ ; $ $ < , X   . $ ; t 1 ; 1 ; ; : = f n i i t g u 1 1 1 : k F : @ - - - X . O u _ L n _ L e c y g 9 g m n t ; u F t t i L _ G O.1.6.m z _ c j m c | O.O.5.| I O...3._ v u n G G c u j x.H.R.E.e.5.O._ { 8.V.5.1.g.V.A.v.5.A.B.n.7.f f m g o U m G L g [ @.v.|.A.| F _ 2.@.c.| Q b = 9 7 ; . . . = f m { | G y j f f [ _ v v j i i 7 = = 7 ; $ e v G r p r e y r r r v v K i e i G G i - t I [ [ k t i j j u I 5.>.7.,.O.O.f I o.J I o.O.,.o.O.,.O.F j F I [ o.,.,.,.,.f 1 j G I F i i I F I u - 1 X @ j G o.} G y t G ( i b y 7 = @ . 7 y 7 y y t < i t $ = y 0 g _ ] | ....( b p 0 z z _ @.c.}.oX.XC.` ( b.1.o.O.n n j : L *.9 _ ' 1...w.e.1.e.L [ 1.2.b.e.5.2.@.6.4.H.M.c.4.m @.{ b z ` 2.I.|.g.7.@.6.| O.5.b.A.W.b.b.8.M.x.7.o.t c @ e ; : D O.8.8.V.b.5.v L 5.8.7.5.8.g.J g j u e u G ] -.m t ; ; 7 7 9 @ ; j L O.I k O.v.V.x.x.7.} | O.' 5.b.!.v.} w.i.u.^ m ' w.' F ..| [ U f u u n j i g j _ L ' U e t | n : G 8.E. X{.H.G G i u 1 @ $ : ; : : e @   ",
"e.~.vXaXsXaXyXtX7X;XoX[.w.4.' `  .i.3. ._ m _ _ [ 5.V.8.5.A.8.L } 5.b.' L 1.5.>.O.| } I [ u 1 - - $ - ; - - $ X     @ 1 t 1 $ 1 $ % i ; ; u t i t t : t t j u i c ; @ ; ; $ . O o ; j n m L G c ] | n y l t n g f i t e g t g t 7 n c G m m c z n n z [ m 1.b.8.5.n.| 4.-.u 1 g [ ' n u j 5.A.M.B.5.1.[ z m 1.8.1.O.5.B.v.O.G | b.7.[ n ' ] : j % e } >.>.L | v.B.8.O.F | t.] ..`  .y @ + 9 @ @ @ X e * e c G _ L ; y t G G i : e ; y y x p v i u e y v e p y e e r v a v v K i t j _ { i < 1 G G } j t F j v g j ,.g.j.g.,.o.I G [ [ I I o.+.I O.O.O.G k u I [ o.O.O.,.,.o.[ F [ } I O.n e ; $ . - : ; $ 1 h G n ; y . 7 K i a v y e 5 % # = 0 a e @ 7 i i % @ ; t p m _ @.1.` x c Q m z Q _ [ x.A.u.E.A.r...Q { L I G L F ; h G f F 1.| -.e.] 2.3.' _ r.A.w.@.....G O.e.4...4.r.2.{ G 0 7 ` ^ u.A.g.g.8.8.O.| 8.8.y.b.w.2.' M.e.x.} F G b i n t 1 _ 6.v.B.A.E.7.L O.5.8.8.g.5.G 1 F k u e ' 1.2.n c : @ t ; - @ X - n G G F 5.v.B.B.x.5.5.8.v.g.5.5.1.} | U.s.0.^ m m L ' 1.| 1._ _ j 1 F | j f L L [ 5.L } n n n _ ; g U | u.5.A.G z g j i ; 1 @ ; ; $ $ .   ",
"w.|.yXnXtXtX[.U.}.+X7X[.n.4.*.r.w.] 4.4._ ' _ { 1.6.2.B.M.e.v.I | 5.1.2.3.5.5.} U } } >.U 1 - $ - $ $ - ; - $ X     X 1 t ; e i ; ; 9 e t ; : @ @ : ; u e u e n j ; X : ; ; X O o u t l n L z G { ' G L m g n v v t 7 : 7 y g t t c j _ _ m n c g _ 5.8.5.5.8.6.8.6.4.' G u c i U L L i f ..4.b.| | [ m 0 m O.1.O.| 5.v.8.6.[ f n L v G _ 1.| I u n O.n.n.O.G 1.5.O.I ( 2.2.] ] .. .Q m . % . # - o : . . = . @ ; t v 0 = = y g 7 7 x ......{ y v r v K r r y ; % % ; 7 y v b i i e _ [ L f 1 j F G j e F v F j I I 5.k.F.7.,.o.} [ I I F Z G J O.o.I G u t F _ O.O.O.O.5.} I [ G G [ g.7.* ; $ 1 i g k f f : t @ 7 y 0 s 7 r ! b i t a y 7 p p z z @ % e t ; % ; ; 0 b m G ..` b z Q ] ( m ( [ 2.b.Z. XS.C.a p 5.L j t g 8.k 1 : e [ ' 2.E.v.| m ~ 2.] _ @.1.2...` G G _ Q w.A.w.2.b z 0 y  .q.` b } b.b.1.O.8.H.E.b.b.B.v.| M.M.g.[ O.e.5...' G f L x.M.A.H.|.E.8.U } O.5.5.U j 1 k f < e m [ 8.D z g n j < 9 i X . i I _ I g.B.M.b.8.5.O.1.m.N.5.5.5.[ -.n.}.y.M ] N ] 2.n U G F L G j m F L c f n } 3.3.5.} _ m ] c l j L  .] @.m z z i v 7 @ ; % ; : .     ",
"y.0XaXtXdX7Xp.i.U.U.OXU.P.e.y.V.e.4.V.w.y...8.v.8.v.n.b.b.| 1.L O.8.y.4.| >.O.U I I O.1.} 1 o - $ $ - - - - o X     X - 1 t t u e : - ; : : ; X ; ; 1 g u 1 1 j i - @ t 9 ; X O - u y t c [ l z ] { m n m j c j i : : e 9 y y I I [ o.} >.L I c z [ 8.b.7.4.e.| | _ ' *.| ' G G j m [ t f { ..| _ _ G i v m [ | { _ O.4.5.@.n i G f | ` h ' 4.v.G j G v.P.O.>.[ j n v G 4.w.@.` 2.2.q.{ 7 + X # ; @ . @ @ 7 @ - . = _ @.m 0 i g 7 9 G @.@.b.@.v b v b b v p p % 5 9 7 0 r r y j e t v F G v D k F F i t v D k j F v } N.R.g.5.N.f.[ I [ D h G I L G f u t u F J G J o.O.o.G G [ F I O.g.N.L e - t e e j | f - e t y ; 7 b a a X.{ j t y j y v b y y @ @ ; % ; t t : : m m _ ..r.b # 0 m ` ] ` ` 2.{.Z.u.S.C.( z ] G f g 0 y.4.u . ; | _ ..w.{ { @.( m @.| ` ..1.5._ c _ 5.| b.4.x m c c F _ Q ;.~ z e _ 8.1.1.7.E.W.}.E.A.Z.' b.R.v.O.5.M.8.8.L [ I 6.B.b.b.B.E.I.b.u f | 4.1.L G k f ; u F G F O.G 6.v.M.>.o.[ L ; . : v I 5.m.m.8.8.g.5.6.6.8.F.m.B.7.' -.i.OXU.~ Q ] g | _ n m G F U n f j U n h g | 5.] ' | _ l j -. .c | e.1.` { _ c y j = @ @ ; ; ; X     ",
"V.zXbXaX4XOXOXOX7X+XOXI.u.Z.E.XXI.U.A.b.1.| x.x.b.A.B.b.x.5.F L L 5.5.4.8.5.1.O.>.G G } [ ; X o $ $ X $ - - $ $     . X ; 1 t t e 1 t ; ; e f @ X * : g g u 1 f f 1 ; y t ; . . X t l y c [ _ -.c ' m t m L n g t e i u ; u g n m ( G j n j e e t m L L ..| [ z ] z t _ G [ | F n n _ u t { [ G m ( b 9 9 b _ { { | [ 5.O.L U i L O.1.m t 5.R.}._ u c _ 1.| | 4.l N m _ 2.b.4.X.e.q.r.{ x p @ ; . @ @ * . ; @ @ * ; j [ _ g @ . @ = y _ _ [ b i b G r z z y r p 8 8 5 s a p e y i j G v z } G j D F J [ G j t u G j F g.F.g.g.m.5.5.,.O.I I [ O.} [ I F v F F o.G G } [ O.H G [ G I O.O.g.g.G 1 ; ; $ t [ ; : g } e m z ( ( b ) | i e e y e ; e t 0 : g G i ; t y 9 i m ] { q.t.( 0 w Q ~ m ;.r.-.b.w.`  .] 6.x.R._ : y y b.Z.I - g _ 1.b.b.| 0 c m z m @.| | 8.x.| _ _ O.O.1.[ [ G z L g m  .X.^ ( i t y { 5.5.B.|.|.oX|.A._ e.V.M.8.G o.v.8.O.G O.B.E.v.8.M.E.S.b.G e G 6.1.} [ I n : F } I [ 5.} B.E.R.8.g.m.[ : . $ ; F 5.6.5.O.8.b.8.g.N.8.x.E.!.>.' y.E.yX~.:. . .] n n j g L U j h u g U G f n y.v.1...2.3.3.' _ 3.[ ..| @.m b ( G g j @ ; @ @ @ % X     ",
"m XXmXaX[.+XOX7X+X:X&XXXB.u.y.Z.Z.E.%XR.b.e.8.y.A.B.e.6.5.5.G G U 1.1.5.5.2.O.| } G k n F < $ $ $ $ $ $ $ - $ X     .   $ 1 1 t u u g - @ : 9 7 - ; u i k f t k F u : t : - . . - l L _ n } ..m j y : e L } t g : t 9 7 : g g y c L c n : ; e e = m m c c _ G m | N f n n L m n G } | t j 5.@.m ] | c z _ m m _ | [ [ 1.| [ I i g n v._ G @.b.B.1.*.f g j _ 1.4.~ z G _ X.q.] ) #.) ` ] Q ! x @ # @ y @ ; @ $ ; g b = t c b = @ = @ 7 ; t i u ; e y z r 5 p p 8 r 5 5 r r y y 7 t J z j F _ F G F F [ O.G u 1 ; t I G G O.7.m.F.f.5.g.d.5.O.O.5.g.O.O.,.I I G I F G 5.I O.I J o.F I } 8.m.j.m.F $ 1 - ; c u u i l F ' g b ( F ( | j e y e 7 @ 7 7 v : : G z % z m ( g g ( | r.2.` b 0 z M z X.;. .` r.#.b ` ( ( Q n j y 0 ]  X1.g 1 b | 2.M._ g y g G _ | 1.2.v.] ( _ [ 5.} v G n v c y c ..p.2.m ` v ; t F 5.5.v.E.|.E.b.e.-.m g _ _ ; g O.6.} G x.%XE.8.[ 2.2.] 5.@ @ j } 1.} [ I F 1 I 5.7.v.x.o.M.A.M.7.M.E.g.F $ * - G [ [ O.} O.m.A.8.6.b.8.8.~.g.3.L.9XxXqX4.` n L m c n m k _ n u f ' L U n L } 9.4.b.A.w.n u j n L O._ b z b ( G z y = ; $ - ; @ X .   ",
"m -.7XbXyX@Xi.Z.7XyX7XE.:XE.8.-.4.Z.%X|.W.8.5.5.n.b.v.5.} G G [ I L [ 4.5.5.1.O.O._ f G G t $ @ $ $ $ $ $ o @ .     . . @ ; t t u i : - - $ @ @ ; g e u u e : e i g g t ; $ X O h U G m j n | | m u 9 : j j i L t i t @ 7 z g g g t c t g u g f e F ] ] ] n L y g t u L U _ L G } ] [ u j @._ _ O._ y y [ m [ @._ [ | | 1.O.O._ n 1.g f G 3.v.e.5.v L 9 t g c c m g F | ] ) #.) ` Q m ( ( X.` y : ; @ . * @ . $ : y r i g g ; m = # @ % % @ $ $ % p y 7 r 8 r 8 a s p y a v a y y i k j F [ G G _ } I G v j t e u O.g.O.G O.v.Y.m.v.h.f.g.5.,.>.o.7.5.5.O.o.I F 1 k v k O.v k U F o.7.8.B.m.j.7.9 1 ; - : ; f t g $ e t c ( v ( ( v e r 7 @ . $ j m  .b { z m ` ..m c n ` z ;.r...m Q p m ` `  .! ` r.2.{ a 8 x x 0 y y 9 x .Xv.m g F _ ..v.G c z g c G [ O.v.w.e.2._ 1.4.] b v k e y z m ` ..Q 2.` y t y y _ L I 8.P.r. .] Q ~ @ ; g * ; c F G } A.A.v.@.4.1.F 7 : - - - u G L G h h g f O.8.B.1.I b.v.x.g.M.E.B.[ ; @ u U F } 5.1.} M.R.v.O.8.A.E.E._ 9.XXqX0X~.:.;.z l _ z n L f t 1 e k U } 1.>.>.*.v.8.8.x.4.i ; g g n g i _ z g _ _ G y = = @ @ : @ . .   ",
"| i.p.OXpXiXI.[.+XyXXX|.%X~.n.Z.XXXX%XI.XXv.5.5.Z.v.5.>.} F j I } I [ 5.v.g.c.v.v.| n _ L 1 $ $ X $ ; ; $ X o .     . . . @ 1 1 u u 1 @ : : @ $ ; e t i e f u 9 i e t = ; - o 4 t v ( g t G | [ u e e f f i j n n u i $ 9 y ; 7 z G b g i t i u i g L | | [ U t * ; ; j c b _ G ' { G t j G _ G G m g z 0 _ G { @.| | | 1.@.| 5.G -.8.L 1.2.b.8.| j | f L 9 t ( m z ] _ ( ` ! ` 2...m _ Q Q ....9 x . . * ; $ @ 7 r z Q y ~ 0 y @ + @ + @ @ @ @ 7 w y 7 s r 6 r 7 a a y v 7 b ( _ i e e i g G b n L 5.G G G j f D [ O.| [ } g.7.,.g.,.5.h.5.5.| O.5.f.5.O.o.G k $ - $ : _ u Z [ } } g.7.V.H.m.j.t - 1 $ % ; i i @ i ; : g G b { #.b e y 7 % ;   1 c ..] 2._ | ` ` _ _ L M Q ` 3.w._ { m g ` ~ x x ^ ;. .a 8 x #.q.1.m 7 n Z.{.b.L g n 1.v.b.z G _ n c c G m v.c.A.4.y.w.A.t.O.j t 7 0 z m ~  .r.2.2.( G y v 9 7 e m @.....r.~ z @ $ v j X $ 1 e v | [ m 1.B.P.b.y.| L v 1 $ - : e e $ u n t L x.O._ b.M.b.b.M.R.B.} : ; F } G } x.m.O.8.8.} O.5.B.R.P.G ^ 3.&XR. .:.` l f * g N n F f 1 f n c [ y.[ L >.n.E.c.@.v.U *.n n 9 : g ; n c y b z c # @ : ; ; - .     ",
"-.W.7XOXoXyXtXOXtX;X.XoX&XXXv.n.&X:XE.r.v.V.5.5.e.B.6.1.I G G L [ O.| O.y.4.e.b.8.} _ G ( j $ X O X : : $ X X X     . .   . @ @ u f : $ X o - $ $ ; e e t e t j F f j i 0 ; o o 1 F v i t f n [ e u u h u k i i ; j j : g g 9 ; n z z c O.F F F f 1 t L ( I } g F n t t n G z L t 9 y ; i m G ( c ( c y m _ G { | | [ | 5.@.| | 2.3.| 2.` ..w.4.5.| 1.L G [ n l Q  .1.] 2.` ( w.n.r.x.| _ #.2.2...i * @ g 1 - ; c y z y = c . @ @ # # X X % + + 7 p p e 5 5 5 5 5 7 7 j j y ( { G e t @ ; v { b y z } G G I j G I v [ _ O.[ >.L [ 5.[ +.5.5.g.>.I } >.5.O.F h h - ; n t l U [ 8.g.1.} O.O.b.B.8.u ; t 1 ; f t # = 9 e : 7 : G 2.q._ i y 9 @ = . . e b m _ G _ ] ` ` m 2.2._ x Q [.4.G y # 0 x x 0 Q ! w 0 b b ` ;.e.m ; { E.2.b.} e t | 8.2.c m Q ] G G G c 5.A.A.A.b.A.Z...n ; F O.L z c  .` X.w.] ..[ _ | q t c Q ` b.c.E.2.0 t D 8.5.i i F I k u e n I x.B.B.N.g.>.O.J - . - * @ - - 9 ; : n G G O.5.8.v.A.m.4.F ; @ i } [ O.8.5.O.1.} F U O.5.1.3.~ ` n.:.L.E.0.X.O.| e f g u 1 < ; - g n j | L n 5.M.%XA._ 4.| 3.F ' : : f ; u 5.4.# y e t @ @ 7 7 @ .     ",
";.XXyX7XOX7X7XOXyXOXn.[.I.9.| 5.v.u.Z.2.1.1.1.O.6.5.4.| [ } } n >.5.m G >.] 8.Z.b.5.] | 8.F 1 $ $ $ 1 1 $ $ $ X       . . X - * e t e ; $ $ ; ; $ - : : : 1 j L G k z y ; : o o < b j ; $ ; 1 j j e u 1 - e u u 1 j u t e n t : f y t c 1.[ o.[ j t ' } _ L _ n _ G n t n G c g t y z t G G c G b G ( G | | { [ m _ G _ ( G ( [ 6.2...4.4.2.e.e.4.5.2.O.G G ; n ..1.2.v.b.r.....t.r.c.` e.2.2.e.@.j l t ` j 1 z ` m @ # 7 # + 8 a r % . @ + . + # 8 9 % 6 5 & 5 8 y = ; i y m G G i % $ i v _ G b 7 ( F [ [ v F G _ 5.7.O.O.1.O.o.,.5.g.g.5.k.g.o.F I o.I G - n ; ; u : j o.5.g.j.g.g.1.{ O.v.g.G j ; ; 9 n L $ 7 @ @ 9 y - v { @._ z y 9 9 * . . @ z ( b g g ( ) ` z ' 2.2.Q Q X.2.b % + q w z ! ^ ` ` x z G _ _ _ m y { 2.q.u.| u g b 2...c ( | ] _ b y m w.r.r.{.E..XC.w.L j F O.m z 9 p ..` ~ #.Q 0 _ Q m y m Q { 2.A.A.] | O.5.M.8.m j I } F u f k h I 7.8.O.[ o.O.[ k o . - ; ; @ f t @ 1 u F I O.8.M.M.} c g ; : 1 G O.O.7.5.O.O.[ G v G n n ' _ ^ /.W.y.XX7X&X&X&Xx.O.g g - o o $ 1 g { F f L } V.R.|.8.1.n | L L ; f 9 ; j | 8.m 7 z a = @ 7 e . @ .   ",
"| u.-XtXtXtXOX;X;XOXU.Z.i.4._ | n.P.u.w.e.[ [ } 1.8.v.5.| 1.| L G [ m _ | *.9.4.r.5.[ 8.b.G 1 - $ ; - $ $ - - $       . . X 7 t e n i : $ X o - % ; u 7 ; e j I I F G y : 1 , , t j n e - ; 1 L n 1 - X . 1 u ; $ f n j n v b g t t 7 i c v G | L g n ' } [ L f j _ n g j ' m = : n G j n m ( _ b G _ m _ _ _ _ ( _ _ [ G G b I ..2.1...8.8.r.b.r.4.2.e.[ t v _ 4.b.2.A.r.t.A.t.;.t.......`  .Q A.1.m L F t u | Q ! { p ` 7 7 @ e a @ @ 7 @ + # 5 8 8 w p 5 6 6 6 y @ # p y y z z e $ e ( G z G O._ | O.| O.G G 5.5.o.5.5.5.8._ _ o.g.F.!.F.F.j.,.I I G D Z t : j $ G u L 7.O.7.g.m.V.m.8.@.8.1.} j u 1 t j n 9 g ; r z y - : t v v 9 e y y g $ . e z _ m m ; 0 a _ z ( ..2... .w.` z 7 y V 9 c ^  .;...z x b ` m y y X m w.q.a.~ y = 7 ` 2.z z x Q L z z m w.2.` r.w.r.A.r.x.5.m y c y = b 2.;.....` x m ` q y c m e.A.A.A.1.b.e.4.v.| 1 u F f u ; ; ; ; ; u I [ F I o.O.[ t . e g j _ ; @ . ; - < u [ 5.v.| n L m U O.F F >.g.m.M.5._ I L [ } _ n N ] R.*X~.V.P.6XzXzXkX:Xx.c 1 t $ @ $ ; : ' n L n ' | V.V.1.G L ' 1...n : ; 9 j } e.L . 0 t 7 + @ 7 ; $ .   ",
"] ' 6XMXnXiX@X7X.X}.y.V.i.| 3.8.V.P.y.-.w.' c c [ 8.v.v.4.] 5.4.' O.I L U 7.5.8.A.v.| b.Z.G ; $ - - 1 < $ ; $ .     . . X @ $ - : g : ; ; . X $ @ ; : e $ ; f I I O.| m z g , , u b L u : g L n f 1 $ X . u u t $ u j k u u F t 9 9 9 g b G m _ L L [ L G } F t f G n j t _ G c j n 0 t z z c G c G G _ G c z m m _ | O.G G j F 5.A.A.A.v.2.b.2.b.v.4.8.F j n m | b.w.A.b.r.b.b.w.t.E.A.C.A.r...A.w.8._ ` e ; L X.! r.( b p @ 9 7 9 % # 0 = 8 w % s x p s p 7 5 8 p 5 # p y y y y G y y [ b G G G | 7.O.5.O.G G [ 7.O.5.O.,.v.O.O._ O.g.Q.N.N.j.,.+.J G Z Z Z u @ 1 F i n 5._ O.8.v.g.g.g.g.5.O.I k j g l g t f t : 7 y c @ y ; i e 7 % 7 # l ; @ 9 ` t m m y m y m y ( #.t.w.Z.C._ 7 = y _ x x ! ! r.m ( { | ..Q 7 ; + b w.x X.w.] c y ~ Z...Q Q G L @._ z 2.e.2.b.r.2.r.r.t.b.` 0 v n t m X.Q ;.;.2.] _ ` _ G O.5.b.#X.X XR.c.A.x.8.j _ n t : = ; e j e ; ; f G G I o.o.G h o @ t : ; ; X @ . . X - k } } t F G Z I O.o.F } g.m.B.5.n n L } 5.O._ 1.R.,XjX:Xm.E.5XzXxXlXyXm.F i e - ; - - t L f c L L [ F U n _ v g _ 2...j 9 ; $ v 5.y + y z y # @ @ @ $ .   ",
"' b.5XNXnXiX7XsXOXP.i.y.U.Z.8.1.2.u.8._ ] | | [ n l -.Z.8.2.8.3.} L } O.' 4.1.v.8.n.y.y.2.[ t ; $ - f u ; < X .     . X @ $ @ $ - : $ 1 @ . $ X @ - ; e : : i I O.5.| m c y , o u o.O.G n n m f i u - * o 1 u e ; j f j ; 1 u 1 1 @ . ; 7 g m G ' _ _ c n U v v j i t n G [ G L } _ G n ' m v c _ [ G G m G ( c G O.O.} [ [ b G x.v.e.b.b...y.v.e.Z.b.8.n l f t ] 2.b.b.c.2.2.t.Z. X XA..Xw. .w...b.b.y 0 X $ ..t.y #.#.( m 7 y = a y 7 8 q % # # 7 e 7 7 w # + 5 0 p w 7 0 z t 7 y v y 0 G v b _ | I L O.O.O.8.O.>.>.| J c 7.v.g.1.8.5.G G _ I G I I G u u F j e v +.I D I } } | [ G [ >.m.m.5.I v e f L } m g v y g _ m v { b j ; = = @ 7 0 . . y  ._ i n ..{ v G { z w.r.C.[..X..b i y x X.` Q  .X.Q { ( { w.( t # . _ ` x ` q.;.` g ~ b.2.^ ..O.G 1.| m ( e.@.q.r.2. .A.S.2.t.n i u e 0 ` x Q Q _ ] ` ..@.@.g.R.!.|.|.%X|.R.R.b.8.m n z 0 ; 9 7 9 n g i e ; : j n G G k h < e 9 - = : @ . X . X - - ; n f F G I F I o.J F >.B.M.5.b : L | } 5.4...v.=X0XoXA.&XjXpXuXjXqX8.u n [ _ : * * e 1 e G L U | k _ *.L u j _ [ | ' f : : : I { = ; i % = #     . .   ",
"4.V.+XMXtX+X7X4X[.P.7XU.U.U.2._ 4.u.3.' _ 1.| [ ' m -.U.Z.3._ | 3.} } | | 7.1.8.4.e.n.e.5.I i 1 $ - 1 1 - ; . .     . . X . . X @ ; t g : . $ ; ; ; : t : ; u G I I _ y t 9 $ 4 1 [ @._ n ' | u n i h $ ; : ; u 1 u f f ; $ ; $ : - . X @ c c L | _ ' _ G U m v _ U g n [ [ n [ L G F n [ [ m _ ' [ | _ m m G _ _ | 5.@.] | ( _ | 5.e.8.2.2.e.4.8.A.u.r.[ : $ t _ b.c.| { 2.v.w.b.b..XI.u.! ` 2.A.|.c.| m y . y  .` 2.e.#.0 x z z p z 8 8 y @ + . + # = s 8 # + . r 9 r y y b b e y { ) p { [ G G } F F [ O.g.5.O.5.>.L y j } 5.O.O.v.v.g.5.>.G y g G i e u D F j G [ I G v O.8.>.G f k [ 8.8.8.>.} k u } [ _ _ b Q b m m #.t.{ v $ = @ 0 7 9 . ; y ~ m g c m _ v b m z 2.u.p.[.C.( G j c Q Q ` ! ` ` m m G { w.G c #   m _ ..;. .0 ` ` w 4.#.! -.@.L @._ | { ..2.t.b.2.A.t..Xu.4.} u $ e p Q 1.A.` | 2._ 1.b.M.R.R.E.E.E.E.E.E.E.b.| i Q m y 7 l V = m _ g e @ ; c ; u F F U G G n t j - 9 o . . $ 1 @ o : t h F I F H I I [ o.8.8.| g 9 L | F >.b.$X7.j.H.O.b.uXbX&XE.}.8.n [ f | -.t ; - : t 9 f ] 3.O.O.3.| ] } 3.3._ _ F n L t ; m m 7 9 0 # # = % .       ",
"j.3.%XkX>XOX4X;XU.n.L.2.p.n.2.3.-.2.b.e.' [ 8.1.} 4.5.u.v.} G G | O.L _ 1.4.} 3.8.5.w.8.>.f 1 : $ $ j v ; ; o .     . . X . @ @ @ : : t t @ X e u @ ; u : 1 f v I j t z y g 3 , u [ O.1.@.*.L i _ | j @ ; j t - $ t n e 1 e 1 X * t e : X ; j m G m m m [ _ } G L L ' z ( >.O.1.G z c g G ( z m m 5.1.z z v m _ ] _ 5.8.v.4.6.{ | w.b.@.r.A.8.>.v.}.Z.r.3.] t y | b.2...{ _ e.c.1.Q b.C.! s Q e.%XE.1...w.G , y x  ._ | ..x m 0 Q z p s x % # # # # 5 5 s s y % 7 % = 7 b p y z $ % p b m _ v ( O.G f u G o.7.5.5.O.G >.i t g O.[ [ m.m.g.g.[ >.,.o.G c h k G O.[ [ I L [ 1.O.1.O.J k k G G _ 1.8.O.j u [ x...b 2.q. ..._ | @.[ K t @ @ $ = 7 ; $ g z y z 9 7 n t y c m i.Z.w.p.q.G v k j 2.` ` x z m ' ` ( _ r.8.2.m + Q 2.u.p.w.` p _ x X.b.^ ` 6.[ @.I G | 1.2.b.w.r.A.r.Z.q.w.6.i t 7 g c m M.M.v.b.c ..b.R.|.|.E.E.E.u.E.|.B.5.m ~ y L >.4._ 9 V z ` z ; @ = j j k I [ } >.o.[ l ; ; t X : 1 ; - ; ; ; u u A +.J C H P [ 5.v.g.1.v ; g ' _ B.$X0Xx.I o.U A.9XqX|.n.7.v.V.*.l F L n 1 : - t < _ L | 1.L n L 1.n } *._ j m F G ; t e 9 @ 7 t % @ # ; @ .     ",
"y.P.&XpXaX+XtX[.L.y.U.I.[.I.w.-.] ..2.4.1.} 8.| _ 1.| 3.1.m j g n 1.>.O.@.O.*.>.8.8.>.7.| u ; - $ $ e : X X . .       . . . X X . ; 7 e : $ X 1 u : 9 t ; y u L [ n g z y e 3 3 D 5.8.5.1.m _ ' _ -.n ; ; u f 1 - ; u t 1 F j ; : f y 9 @ ; c m g G _ { _ L m F >.L G G n | 7.5.b z _ G _ | G [ | 5.} [ _ _ G _ { ..2.e.5.| g.8.c.b.4.8.x.b.5.[ 1.Z.A.e.y.8._ z L 1.4.c.O.G { 2.| `  .r.) w b b.A.x p x Q b 3 = 8 7 y [ _ 9 9 8 ` b b %.Q 7 # 7 7 y = 7 s x b e y y 7 @ y 7 7 i ; ; 7 z i y # y c G i ; u k } O.L G g v t : : g G j o.8.} n G O.} } z v j F [ [ O._ I [ O.4.O.} I F F F A t } >.} v ; u G H.8.@.2.q.r.( f F @.O.G z ; @ . + = @ X 9 m c y 7 ; = e 7 z _ ;.p.I.Z.;._ i i j 3.b.{.;.M c m _ ` ` r.w.q.b = 1.r.X.;.#.w.! 0 0 w e.2.z | 1.8.G F @.6.e.b.2.C.b.b.b.u.2...u u j i y z O.g.5.b.| w.b.H.~.&X.X|.|.oX%X|.8.| G { c L b.Z.1.] m x _ z t t j G F F G [ 5.5.L n j . * ; $ e u n j f F u ; 1 u I k h F P G O.v.R.H.>.j n G | ~.#XwXJ.o.A @.3.I.P.XX:X:X;XR.5.n f u G f t l u g f N ' ' c g i ' } b.1.-.G | g g t * X e @ ; c : @ # = @ .     ",
"8.A.E.5X+X[.+XOXp.P.Z.I.I.w.y.3.Q ..t _ 1.| | L G | [ 1.] g : j g _ } L 5.>.4._ O.3.| U G t - $ $ $ $ $ . . . .         . X X ; : 1 9 7 e X X ; t c c j t : t } } b y y t : 4 , Z 5.e.L | | 1...' | n l i k f t - $ $ e f F L v k j g - : t u n [ [ [ Q ` G t G L | | 3.>.O.} O.L z G [ _ | _ _ 1.O.[ | O.| _ } | 2.8.2.5._ G [ x.P.A.b.v.5.L U ' e.8.e.b.r.b.5.{ } 6.6._ G { @...A.w.2.( x ( r.r.0 z b z F 4 0 ` Q y z y 7 7 a  .@.( $.X.z 0 0 9 9 # @ a ( a y y e 9 = 7 ; % % i y % i t # 7 z 7 m j i t : I G _ m _ c g L ; c ; e F L [ [ L _ G _ O.G j F _ { J G J O.@._ O.O.G J F J J h [ O.[ j j F I 5.O.5.@.e.c.2.F F O.| G n e $ % ; = . @ - b ( y @ @ @ ; 0 M _ m r.[.D.^ ( i u j w.b.oXZ.Q _ _ Q m _ X.C.;.7 = 2.S.X. .` ..2.c 0 = m 2.p 9 | e.G F _ | 2.b.q.C.I.C.r.2.` ..e j i t i j c ..6.A.1.` 1.M.|.&X.X|.|.E.M.x...1.8.n.G _ v.E.O.~ _ Q Q v p y n _ G G G [ 5.1.L G n 1 g g f e k | } I O.G t : u h h ; t f t I 5.M.B.8.I k 7 v A.%X9XE.}.e.b.' n.E.0XuXuXkX|.5.n < f m z L _ c e y t y ; : g l g -.| 1._ u g t g l * @ - ; - : : - # . . . .   ",
"5.8.XXpXaXaX@XOXU.u.-.P.}.n.u.u.;.;.j _ | 4.[ 4.O._ | ] L j g j i ' 1.' 5.L [ U | 1.L D F 1 1 < $ $ $ $ X . . .       .   . . @ ; 1 ; ; 1 ; @ e t i j j j g t g j u ; ; ; ; , $ t [ ] G | 8.n.x.' ' g f c c n 9 @ @ X - t I 1.8.1.F c : ; t 9 L n | O.@.G c } m 5.] ] ' _ 5.[ L [ i j g c L G _ [ _ _ O.] ' G ] @.] ] 8.1._ j g ] 8.4.2.4.8.F ] y.L | w.v.2.2.b.@.1.} @.( _ | ` #.C.2.{ 0 y 1.J.A._ z m ] i @ b 2.| | m 7 ; ; G  ._ x ` ` ( y r b q # @ @ 7 y x y % : ; % e $ ; y z i % = @ @ % 7 v ( G G v g _ | _ | m G c 7 c z ; : n j } G j } } O.O.F i G G y F o.5.8.O.} O.[ G G I I G n F u k [ G j G O.@.( | 2.A.6.6.O._ F j 0 ; 7 _ ; @ ; : m _ b % $ $ 9 0 M N b Q  .w.t.| t u c _  .;.w.` z m _ b ` ^ ! w 0 c ` X.^  .` | ..c y m x _ G 7 0 _ y t 7 + b ..e.2.b.t.| e.r.@.t v = j c z z r.v.b.r.Q m 1.W.|.b.x.B.A.2.5.5.v.H.A.| @.| b...z ~ ` ` c p 7 c { c I I J O.} [ I I f i F F t g 1._ | 4.[ t : t c t X $ $ $ 1 G o.8.7.O.D - g v.|.5X|.|.oXoXV.4.n.%X-XoX6X:XN._ g t ' _ ' [ c [ G ` _ v t *.>.n L m u ; : c L g : 9 0 7 ; ; . . ; @ @ . . .   ",
"_ =.n.5X+X@X[.U.[.p.:.4.u.V.u.a.;._ | | | V.' | 5.3.3.1.| g f j n L L O.*.' n n [ } 5.5.8.F e - $ - X X X .   .     . . . .   . @ ; 9 @ @ @ @ e g i v j n n : 9 f g : * ; @ O X 1 j ' 1.A.R.A.E.1.l g N L n n f : $ X ; 1 e L b.8.1.} e 1 ; @ X : I 5.| m n L ] } { ..-._ 1.[ } G n y y c m m [ O.] m ` L m c y | v.2._ m [ G v ' 2.2.r.Z.A.5.>.| } 2.1.| ] | r.e.2.1.@.{ O.6.b.! 2..._ y { H.b.e.2.( b | 3 @ | 1.[ G O.F ; a y m @.c $.` v j p b a r # . # y z 7 = 7 t ; ; $ e p v b e @ . . ; t y } G G F t b | O.n [ [ j g m _ : t m } 1.} G } _ F b G _ F F b y G 5.g.O.[ _ } J F [ I F k u A o.,.I n G _ | L [ c.:XA.c.g.G e : y - ; ; g ; @ : 7 y y i f : i | ~ c y X.#.e.w.[ t e j c q.w.b.] y m G c 2.` w x p 0 ] i.w.` m m ` Q 7 ~ x m m F c X X . + b 1.4.1.w.b.` c 6.w.G u G j _ _ n y ..2.w...G g i [ b.5.' r.5.G O.1.6.A.A.' i g m G ` _ w x y 7 0 { @.y g H I L c g v j u i F _ i $ g g ] @.[ L | | f ; . . $ : - t F [ 7.8.[ t t v 8.E.*XwX9XL.g 4.3.w.}.b.I.n.O.f j e ] y.n g 2.e.y._ _ | L | -.-.} L f e l ] l n t 9 ; ; - @ X . $ % @ @ @     ",
"_ m [ C.@X[.D.Z.XXU.3.4.w.y.u.p.w.4.y.9.-.y.5.[ | | 5.3.1.n c n U _ ' ] y.| L [ | { 5.M.x.} f 1 - ; $ o o .         . .       . @ - @ X . X * : t g v v v t : @ t t ; ; 0 ; o o e j L ] M.A.b.P.C.j n | n n j f 1 ; @ < 1 ; g | | _ [ e i : . X : F O.2.5.j j j m ..1.{ ' [ } _ G z n G L _ m _ | ( G G | _ F m _ ' ] @._ ..| G Q ..e.v.b.u.v.4.| | e.b...G G 2.u.b.5.5.6.2._ b.q. .5.{ ( B.r.1.A.b...m O.< ; 5.b.U j G y y F v ) G z b b G b w s x p = # 5 % x y ; 7 e ; ; ; c ( z y e $ $ . $ e i z b G b t v [ | G L n 7 c L m e j c c [ } O.} L G 7 % b G b G G b c | O._ _ G G G o.o.G F I o.5.I v g m n G | ' M.*XH.b.{ n ; e t @ @ 7 y @ . # @ @ v n b i g ~ _ ] ; m ;...] G t t v G 2.r.b.` G ( b z  .^ ^ 8 7 0 x w.r.r.] c ( Q z m -.] 2.G G ( y @ 8 4.4.2.` ..t.q.y _ e.t ; } } | z L F x  .~ m 9 ; @ i [ O.} e._ k O.8.>.8.5._ z z m 0 m  .] b v j _ ] _ z 7 F [ G z : y i j F n L 1 . : ; ] >.8.@.e.[ f ; . . @ $ - u I o.g.v.o.f : : j e.&XjX0XL.B c _ y.I.OXA.' G l c N ' 4.n j 2.v.1.e.1.5.e.y.8.4.%X:XH.| _ G L 9 e 9 * ; = @ X . . . @ @ .     ",
"j n _ a.'.X.1.8.B.A.y...m 1.y.p.Z.] e.| -.1.1.[ m L 1.] n.3.} | 1.| F L 4.1.-.*.1.[ _ 8.8.n f u e : $ X . .           . . . . . . X @ X . . - 7 u i i z i e - : : t ; ; 9 $ . O ; n F _ n.7.5.6._ ' } G m ' | j ; $ $ - < t L n F [ G g n i @ - : [ G 4.1.j f v m ] O.5.[ G c [ n ; j } O.| ( ' ' m n b m z z c [ @.( | | ' | ' _ | 2.n.{.w.4.5.| 1.5.@.@.[ } { 1.1.3.] [ _ G X.q.#.6.| @.5.w.C.A.A.A.5.G @ u O.O.n j e v y m (  .{ y a b p b x b p y 9 @ @ @ @ j t e e 1 : y _ G m y ; e t t z y y y G c y n m L _ G i 1 n g i n e g n c z c G n [ z y 0 7 7 z ( G O.m ( @.@.O.D F G _ 7.[ I o.o.o.n y t c L 5.1.2.A.c.A.>X2.c 9 $ - X . e 7 . @ 7 = % y e L e t } 1.n t z | 1.5.G u u u G ..w.w.` ( m y 0 ` ! x q q 0 x u.;...G z _ 1.` ;.;._ 8.O.G 2.] p z ` Q z q ` ~ _ _ L G j ; v b _ m j J 2.` m g ; - - e g n k G i i L O.[ ..2._ ] Q ..z 9 m ..' b t c y z | L G | | G i i j j F _ g e e m L [ | 8.5.1.G f i X . @ e ; f O.5.g.m.o.f < u l _ E.+XW.y.3.' =.] 4.OXe.] } j 8.f 1.3.m f G [ U ' 5.b.v.E.B.E.5X:X|.A.n.x.} N m n ; @ @ . @ @ .   @ $ .     ",
"k >.P.[.@Xb.7.V.n.v.n.4.| 4.E.n.i.] | | b.4.1.G _ | 4...b.y.7.' 5.I _ G _ ] 4.2.8.| L } >.U g u ; - ; $ O .             . . . . X - @ X X @ - t t : 7 b e ; @ X e : $ ; 7 ; O o - F n g L } >._ m | L ' n L | L f - X @ n g c | l L [ t u e ; e u k j F L n j F n _ _ 5.5.I n U G g b n G | G m _ ] G p m c t t c _ { m L m _ | [ [ 2.2.q.v.1.2.1.4.2.1.2.O.@.O.| n g ` ` ( { ..q.#.@.c.8.#.b.S.b.S.b.( 9 ; , I G c e : i F m n _ [ v v v b z y y # 9 ; @ * + + 7 9 y t $ e m ( m v y < t y i ( | y b c m G G m O._ G c ; t X - e ; c L c i g n y G v c v z y 0 7 p b ( ..@.6.O.G I I I 8.O.O.5.o.I n : g n J E.H.A.r.A.E.>XE.5.n t 1 g - X : @ . ; 0 y c j e : t 1 n t z m p.4.] G t t u G r.r.2._ m m p q w ! x z q 0 ( w.u...n c ' 5. .4.w.] 2.2.. { 8.Q q 8 s   ..{...0 m v e 1 : t j z b i ; ..2.( g 7 e ; - y z e ; - X ; L n G 1.] m m ] c 0 # z m y v n y G 5.} _ G z z t 7 j h u g f : f y | 6.| { | _ b 7 : . . . f u $ ; G 5.[ F t k j l z XXP.+XXX1.0 P.A.I.I.;.} m j v 1 -.[ [ [ [ 1 1 G 5.4.y.A.E.|.A.A.b.v.E.J.8.n m _ - 9 X @ ; @ X   . @ .     ",
"F 3.U.OXiXaXI.I.P.Z.4.u.Z.| A.b.-.' L :.} 1.| _ 1...2.e.1.1.y.5.5.>.| ] ' 4.-.O.1.1.*.L L f ; $ ; e : - X                   . . X - @ ; @ * o @ t $ : j u ; X X ; * : ; @ ; o X - 9 j f g L [ b j >.[ ] } _ L L g u < ; t L L t L } } c c * e j e e e f G U F L G [ U *.} *.G [ ] | G n F F n j c L [ Q _ n g y z 0 m _ G [ 5.| _ _ 1...r.x.5.r.e.1...1.e.e.5.2.2._ G -.' G ( 2.4.r.2.E.c.t.c.E.w.q.Q z v y 4 u G g u t e j b y c ( z y b y i y 7 # 9 7 ; ; . . m Q y 7 ; e m m z y t e a c y _ 6.{ z _ b b | b...5.{ [ n l - X - v [ n G g t c i j m m G _ G y v p b y ( m | @.[ O.} F [ 7.g.g.5.O.F ; ; j [ B.8.r.A.C.c.b.P.4.] ; : : e z ; $ . = * 7 y e n e e - ; g _ m -.| ] G : 1 i _ r.{.C.{ m c b x x z 0 y 8 z ] ;.2.] c m { -.1.` ;.;.;.` 0 5.1.b.#.w.b.2.t.b. .0 G z e < i i ; 9 z G b m ` Q G 0 f g $ 9 g 7 ; 0 @ m ;.% u G _ G g c z 7 g g b z F L _ G _ G b ( G i e u f u t e f L g L 5.x.@.0 = 7 # $ ; . . @ t t u X ; ; ; : - f j ; ( 0.n.5Xi.P.z 9.4.I.I.' v L U L g u m g L ' l f n L } ..2.E.|.E.A.8.8.A.{.A.5.| G g g @ . @ X . . . $ .     ",
"L 4.I.[.tXiXyX.X[.Z.w.3.2.| 2.I.n.L ..] 2.5.b.1.4.b.2.4.3.} 5.3.4.8.2.4.2.w.8.| L ( _ } L g e - 1 t u ; . .                 . . . $ X @ . $ @ @ @ ; - ; ; ; X @ @ ; t 9 ; ; O o 1 f e ; : f n u u v 1.[ } | ' t ; e h ; n 4.-.; G n } G j 1 k F v k k k G [ [ L G n L | } >.G } O.} G F G F G _ j k F G _ L v z g 7 z c n G 5.O.2.{ ..w.| 5.e.b.2.2.1.6.M.A.A.A.4.` ] n e b [ y m 5.b.A.A.b.b.r.Q q.Q x ..{ 3 1 ..0 c _ b z b y z b b ( y a t ; ; @ 9 % = # . @ @ t b ( t 9 v G y c y e c m m _ { G F [ G F _ 5...b.B.b.| m u $ ; k G G G u : G n g G _ m _ { z y 7 e e y 7 v F n [ [ 9 c _ | 5.O.L [ G L 5.b.B.8.r.{.-X.Xg.*.` c g g i G | f @ ; 7 @ % y 9 n _ F u t G n n ' l ' G u u v { 1.u.b...f c ( b ] M z 0 0 : ~  ...8 # y p ` `  .y u.b.x ! r...1.u...C.r.` w # z m m F t y j 1 y | @.] ] @...c t e u e g y z y : 7 ` y ; 9 x 9 z z 0 m m 0 9 G G g z n F v c p b L v k t f 1 f u j j L ..b.b.5.7 7 . p | c @ . X : f ; X X . . ; ; ; ; - | U.OXqX[.5X>.L.9.}.y.r.[ g G L F F m j n 3.U 1 G | { 4.8.E.E.|.|.4.1.b.4.A.2.1.z m g g * @ @ . . . . .     ",
"n e.I.XX>XiXyX7X[.Z.4.3.1.-.2.w.OX3.' } G 5.4.2.4.4.4.4.*.*.y.| 1.1.] 1.4.2.1.[ L | {.2.F u t ; t j - @ . .                 . . . .   o X X X X @ ; $ - - $ @ @ . - 9 ; 9 ; o O 1 f v u ; e f f j n ' m g } } j e F k L } _ c f g n u c t i e F U L I k F G [ } 5.L | | 1.} L G | G n _ } _ 5.@.n t t U _ | [ c z z v b G G [ 2.2...] ` b _ 5.e.r...2.v.r.b..X{.A.1.L c c _ g : N y.5.c.C.b.b.1...C.2...b...< i 2.M b #.] ..m m y c m _ c g z g @ 7 # @ @ @ $ # % y G ( b b ` m ( z b c Q { m { G g v G i t c @.O.2.B.e.8.G 4.f 1 j u 1 1 1 @ F L e F [ | G c y 9 ; ; ; ; % # y } | _ 7 m z y g L [ _ m _ e.w.v.x.A.{.6XtX%XL c n g c n O.O.h ; ; * @ 9 ; ; l m [ u e n i g ' y ' 3.U u i m ..2.4.y.| _ _ ( 4.2.` g 7 $ ; Q x 8 8 0 7 x x p 0 2.C.Q 0 Q w...w.r. XA.q q @ p Q m G j i j e G 8.4.r.1.2.2.z 7 7 n g t 7 9 t = m 2.c y 9 x g = Q c ( m 9 9 m c i y c g g G m 0 n F j j F G F k - 9 = _ ( p m z # 9 9 b : : @ . X - X e : . $ f f f 9 : : 4.p.s.y.OXR.XXw.U.L.Z.Z.*.1.j $ e < g n L 5.] >.' -.3.4.P.n.E.%Xb.G [ z ]  .0 p # 7 y : @ .   . X . .     ",
"| n.&X+X7XkXtX+XZ.b.3.' } 1.-.4.b.b.' _ _ | 6.v.1.5.y.2.| 2.e.-.] ' ] ..-.[ [ 1.| 4.8.>._ t $ $ ; e - ; X .               . . . .   . . . . X X @ e ; ; e @ ; - . @ 9 7 9 $ O , 1 U L n e j 1 j e e n L g F _ j n _ n m m _ G e f g : j ' j j j k k c u k F b | e.4.>.} >.I } G [ [ L G | _ ] { | z t v n [ | _ G c b m y G ] m m c ` m t i ..w.2.2.u.2.2.b.E.A.E.A.} ; ; n y g m -.y.w.C.Z.` b ..r.q.2.r.@.< Z b.Q Q X.t.b.` .._ c m ( p z m 9 7 ; 0 # ; @ % = 9 y _ b b ' _ [ ] ( m m ` ..c _ ( ( j t u t _ 5.6.5.| >.5.k 2.| f F v ; $ 1 * j g t i [ _ b e # % 7 % e j t c ' _ Q z z p z z 0 g Q m z ~ | ` 5.e.b.r. XtXoX| ~ ` l n f L F 3 G f @ ; ; 7 : t f y ; 1 t n _ G t 2.v._ t t m ] ~ N -.4.1.` b ( Q ;.z 0 7 _ ..p # z 7 = w 0 ] 0 2.p.! ;.2.2.r.] r.D.u.! 2.r.x ~ ~ z i v [ i G 2.w.u.u.;.( j t t z G y g g x 7 m _ b Q p f ` 9 ; z _ z z 0 0 y g y t g G _ c c G L F v z [ I u t y ; . # p c u @ z z z ; 9 - . @ ; : : 1 : t F n f m z i Q &X=.~ i./.XXP.}.S..X{.y.c g - ; - - c 1.' 3.] w.y.i.5.P.W.I.}.v.n y p z m 8 # 7 7 g u @ .   . . . .     ",
"8.w.;XaX[.iX>X[.U.e.3.m U ] | y.y.4.y.' 5.5.4.r.w.u.3.4.4.2.| } N _ _ 4.O.] | 4.} L ..1.[ j ; - : u 1 - $ X .               . . .   . . . @ @ @ . $ ; : f @ $ ; ; - : : ; 1 O , h F j u 1 < - u : $ ; j g _ | j i | ] _ L [ _ | L c L t m b 9 u j g j I G F z ' 4.y.v.>.G F G v G _ [ | _ _ n 1.8.| m l l G [ _ c b z z c _ _ ( m b ] _ z g @.@.| 1.e.8.5.5.r.w.w.b.| k ; t n m -.1.2.w.}.q.Q 8.5.u.b.2.Q @.3 u 1.` Q [.I.w.#.w.@._ ( (  .` c m y = m = @ = p z y 9 z z z g y y y ( p z m { m x _ ( G j u u } | [ G j F U u G L n [ O.u - t 9 ; : ; b _ m y = # # 0 i G } _ _ ] n c y c m m t 7 e t 7 e g _ _ ` 4.@...[.oXb.m _ c j v ..j t 4 [ v n g 7 ; e i g v e ; u L ' 1.z -.4.G t 0 m 1._ _ | e...` ( ( ] ;...g j [ Z.u.m x m y G 7 0 p z w.a.~ z x ` t.S.w.2.#.I..Xi. .w.m y c m n G #.-.;.u.;.( j G v G G 9 m ..( 0 9 y m ` m g @ t 9 c m m m ` z = t n = 0 m { y y b m _ _ z G G 7 # : m p 7 y y 1 ; y G n c j $ . - n n v t F n G m G m ` ..I.OX] m 1.y.P.w.I 2.n.u.N c u ; * $ < j _ _ | 2.1.i.} 4.r.Z.b.b.` p 7 m b p b x b 7 ; t e X . . @ . .     ",
"g.v.7XuXtXtX+X@Xb.2...1.] *.1.Z.U.u.n.4.8.v.4.8.U.4.} 3.1.2.3.1.] _ ....' i G | G n n ' L F : 1 : u u 1 $ . .               . .   . . X X @ - o X - - g n ; - t h : ; ; $ : O , j e t e $ 1 ; f u $ @ u @ b *.n j G 2.G j G G | } U n c G F L j i G g j u t _ _ 4...v.4.[ } _ j b _ G | } G G | 5.} [ G t j _ L _ m m n y n m _ ' ` ` | G j 1._ | 5.1.@.1.O.@.r.b.M.G g t ; n k _ 4.Z.I.Z.~ b.b.5.C.Z.` 2.| 3 u |  .q.Z.b.` 2.e._ _ @.t.#.2.X.`  .x m c m y b q 7 y z y _ m m = N 9 Q m ` b c ` m b ( F F F [ _ G F j f u - j L F L G u ; @ ; ; e f y m b i e 7 7 y m ..4.G _ _ m U F v c j t 7 t y $ @ 7 c | m z ` 2.r.D.1.m m ] f t ] c g , [ _ z z z z y e n v f e ; L L ] z _ [ G b 0 0 m ..] | w.2.] ( b :.q.] g 7 c ` 2.@._ _ g n G Q ! q ` ~ l y | ;. .! ! x ..;.#.;. . ...y z ` c ( Q ` ` 2.r.5._ F v I 0 y 1. .2.z 9 x m z m c @ * z i Q m ` ..c t - f * 0 9 m G G y m v y F L y # = # c | y # # 1 e y y y g g t ; u L _ G n G j n _ | 0 ` i.E.y.z _ -.^ y.=.=.G b.y.n n u t $ - - u n j m e.2.| 1.-._ ` ] ( x x 5 q 8 p q z G : @ = t @ $ @ @ $ .     ",
"*.y.I.+XtXsX+X-XW..Xw.w.1.1.y.n.U.w.i.I.Z.Z.u.2.n.3.[ | 3.} Z.8.' _ _ c c u j m G L L 4.} u ; e ; 1 u e X . .               . . . . . . . . . @ X - : @ t t j : f : 9 @ e < o - k F j t ; ; 1 h u u 1 1 - k | c t i G n g g b G } } n L n u k n : G j k i _ ..-.2.w.2.e.1.1.| n G G _ ' L G G _ [ F I } b i | | _ G m n c m m m _ ] 2.2.[ g G _ ' | 5.{ [ O.e.R.|.v.m c 7 ; g l >.Z.A.u.~ b.A.r.1.b.b.#.#.b 4 e 5.e...p.I.e.2.] ` b ] q.q.q.Q q.c p z ] 2.1.m 0 0 z z b m ] m = ; c z z m y p b _ _ ( _ G L G O.| ] G G u 1 t g F n F t - ; ; : e i j z b F b y m m G 1...| ' ` [ O.L F k v z y y m 7 t e t n b c x x Q ` _ ] i L t i j G g $ n L z ] M m 7 e g n g ; e l c y V n n j v v c _  .N -.-.] ` ( G Q ~ ] G 7 8 w ` Q z y # 7 [ .. .0 . q t g 2.2...^ ~ p ` u...r.i.;.z @ 7 ..[ Q m m m ' ..1._ F k v z c ] ] b.1.7 _ _ ` m c @ * e t z m ....| n ; : * g f m z g 0 y = y i = t # b z 0 m i e t e e y z j j t 7 : : j j G | G G | | ' | ] w.~ ^ =.~ w.y.*.V.F N c k g } } n ; - : f _ v f ] -.*.| { _ 2.{ ] x x z x z c t 9 t ; @ ; ; e e 7 . $ .     ",
"' n.[.U.OXdXtXsXI.I.U.y.2.3.e.;.[.U.u.P.n.i.e.2.y.3.] } @.1.2.| 1._ G f i u F _ L L n 4.} f - ; $ u f u $ . .         . . . . . . @ @ . . X . . X ; e $ t t u : e : - : t < o , u u g : ; f f v U [ F f 1 k L | i n G | ] t G z c n t u j t ; @ - g F [ _ 1.e.1._ A.b.w.u.b.8._ L n b U L G } } G i F ' [ m ' _ _ _ } m _ m m _ | { ] _ f i c ] [ 2.@.( 1.5.b.E.b.2.' ..b f L | 4.E.u.~ Q t.1.e.2.q.q.....m $ e 8.b.w.}.e.1.r.2.@.@.#.#.r.2.w.~ 0 ; m m ] ..( ] m ( g b G g ' m f c m ] ` z Q m m @.b m | | | 1.8.v.m | f ; : n g f e g : : * ; ; e u _ c c | G m _ { _ _ 1.| [ 1.5.1.G G | | m m ~ z G u : i z (  .( c m z m ' ] n u u g 1 ; n n _ m ] n v @ $ e e ; u ' N ' ' f n f G L [ _  .~ ] ] ] Q b G ..] ] n y m !  .z = c G 7 ;.X.q.;.y + 0 : ~ ;.;.` w w r.c.| w.w.u.Q ; 0 y y y m z 0 m c m G j i f G 2.6.1.@.{ g z 1._ x ~ y 9 i 7 g m | ..( ( t ; t m m c c c 7 # . 7 # ; ; t ( m y m u - j i e 0 z i = ; i u : f t G | G n _ _ G ] _ ..i m z M `  .n *.>.l h t L O.I.| 1 ; ; _ L n f j [ ' } m ]  .' _ Q p c m n y $ ; 7 t @ - $ - @ X @ X X     ",
"_ ] y.[.4XdX+XdXOX[. X}.y.] ;._ 4.u.p.w.u.3.4.] -.[ L c n m L L n L G f n L L L U m n 1.| : X - o $ ; ; - .           . .       . . * . X X $ @ . - ; : ; - * ; t e : 9 t 1 4 o < ; j j : l L O.| m i : 1 - z m L 4.| 3.3.n c L ' l e 9 : j j : e F U b.x.A.v.1.b | | 3.2.8.] _ | v i j n n F j c j j G O.O.| G z m m n b b G m G m v j - ; 1 i c _ Q _ | v.E.u.1.;.|  .] ..*.-.-.u.~ m ` .._ e.w.L G c m g 4 C O. .q.Z.w.b.Z...2.v...X.2.r.w.2.z m _ m Q ..{ _ m _ v c [ l - ] _ 0 ] ......2.] m ( b _ { _ 6.1.1.1.| m 9 ; t G g j u e i 9 ; ; i e t [ ' m ` ] ` ` 0 c { G G _ c ( m y c m z _ 2._ y m y 7 0 y b m m 9 ; = 0 j n j f u c $ @ ; _ m 7 z f t ; @ ; 1 ; c m m c t y n n G F | w.r.w.w.` m Q 0 m ~ p._ y g x  .! q q q 8 ^  .^  .m 0 7 * ; n  .` ` ` ` 2...| 1.i. .G y 0 0 7 m z g ; z z m ' G ; e G 5.O.c i _ _ G ( ] 2.m y y g : ; y ( _ ( _ G i : 9 c p 0 z b y 0 0 7 ; $ y c _ _ y . . : t i 0 y m 7 % e : ; u u n [ [ L t t ; 9 : g c x c o.x.A.6.g.| c 4.1.O.8.I._ G L i l n -.g : n | _ m 1.| ' _ ] Q b c u - $ 1 t t : $ X X . . .         ",
"L.w.w.[.sX@XsX+X+X[.[.}.U.4.` B =.=.q.w.y.4.| G | ] L m c n j g c c m n F [ G ( } G v ' 1.t X @ $ $ - - ; * .         .         . . X . @ $ X . @ X @ - - o @ i t G g f : e o , 1 u c _ [ j n | 3.m i - 1 n m n i _ [ 4._ G j c L u 9 1 ; u | m g t 8.E.b.E.M.4.U n | _ G G n L n F u t j k u e i i k _ G | *.8.1.} z b c c z y u t u < ; : ; ; u m G m 1.b.E.E.b.Q #.X._ b.y.2.1.] m z ] | j L g } L L i e 4 u c Q x r.w.w.b.r.] r.e.b.t.t.r.w.` ..] b ` c.1.G _ z : j _ e ; 9 L g ` 1.` ] 2.] ] ] ( | | 5.@.] 2._ O.c : - t 6.: F : v 1.i b G z n c _ m ] | p @.1._ G c [ ' m y m m { Q n z c ;.-.[ c y 7 # y y 7 9 = % t u k g : u : : ; - g n n i i 0 $ t : @ ; 1 k n g c y g c c c n L S.[.Z.b...y ` ; n ] y._ G c ~ p.;.x z m m x  .` Q 0 y @ X X : c _ G G ] ..` _ Q  .Q G _ z t y G n 0 ; 0 z 0 x b ; e F ( _ u ; G _ _ _ 1._ m L y z j @ c | ` _ _ G y % ; g m Q z m b G y y ; e c ( b _ c $ . X $ # 7 # + # @ $ ; @ . * j j y 0 f = - ; n :.^ *._ O.r..XA.7.h m 5.O.U 7.*.U 8.| f g j m k - < G n m ;. .2.` | ] m u < X $ ; = : : - @ $ X .           ",
"y.n.U.tXtXsX7XtX+X[.u.W.n.W.w.] m n m ' { 5.r._ _ ' [ G F n u 1 n g _ L U k ' F | ] | n ' : X $ . . @ e 1 X . .                 . @ X . . @ . : * . X @ u ; e m 7 ; 9 l : 1 o o u G -.5.1.[ n m c c c i v |  .m e g ( u.5.b G i f m c j f ; g n f u | e.5.Z.v.b.6.5._ f g u 1 u u F j j f j u t i u u k F _ | | 4.| ] [ G n y g i v j j m j n j u f y v ] b.A..XA.2.2.( ] 2.3.3.| F k t g n k G n 3.| ] b i 3 e i g b @.8.r.c.2.4.2.w...2.r.b.w.] 2.@._ _ ' L j F z i e i t y | *.t 3.2.5.1...r.2.1.{ G G _ @.1.y.1.F n g ; G 8.] _ n ] e.| 1.5.2.' M y c ( [ b m z m m n [ | _ m G | -._ i ; G ..| ' _ ..c 0 n c 7 y G g = t i 7 t g : ; t 1 i t m c _ e ; - ; @ - ; - u e L _ _ : 9 n n ] S.[.Z.A.-.m y 0 = N i.[ F c ..^ q.` ] ` ;. .;.` ` z $ e - . . - i u i g n Q _ _  .m ( n j y z y z y i 7 c m ` z # t n _ F F k 9 n G [ 5.@.G n m ( n t g _ m m m z j @ * ; t c 0 7 y m 0 y g i y c m y c g X   @ 7 = 0 i ; @ - < . @ - ; ; @ X X @ X : j j ~ c } A P m.m.f.G [ 5.O.u u U U 4.n 1 f j j f < X j j m ....m ] m L t f - $ 1 e = = # @ ; $ $ .           ",
"4.9.[.7X+XU.>XsX7Xw.n.y.p.9.=.N _ N G `  .} @._ [ _ L G c c i t e u n n ' U j | 9.4.n g j t . @ X @ o ; o .                     . . .     9 ; ; ; X @ X @ ; y z g @ 9 t : ; o o t ] ` ..` _ c ] ] n n f v | { K $ ; u e.3.g g g t G z g n e ; L t n w.| | 8.Z.e.y.1.| [ m v u k v G [ G n g g ; t t t u Z | | ' ' ] ] b j O._ G L | ] G m G L v t c c z | 8.E.E.t.Q ` ..| _ ..-.m u - < 1 u : t k 3._ z z i 4 Z G G } 5.5.| ..5.6.r.u.r...2.@.`  .| _ | 1.( G i : i v i m t Q r.1.F  .] 1.w.8.b.v.4.x.| [ [ @.6.4.O.F u j n n 8.6.5.6.1.[ | | [ _ ] ' 7 ] ] { ( 8 | ] [ | G z G L z | ] F k n _ 2.| | ` 2._ c g z j ..t.` c y c 0 7 y 7 t c u g l ^ m c f ; ; : @ @ ; ; : t j | -.l : e g ] w.] b.Z.w.m 7 r p ;.4._ j z M ! X.X. .....;. ._  .| @ g 9 . * ; e 0 g t i c 1.;.#.c 0 7 t y z y b m _ b ( z z z v 7 7 G z j u ; : l n G | 5.L _ { n t f e x n z y 0 7 ; ; ; 7 y y w 0 p y y y z y # 7 7 g . X . ; v 9 j : $ X . X ; j ; ; $ ; X ; : ; b L g l I F P j.N.} f | >.I h 1 1 f U t u n n u u - . 1 ' r.u.w...` ` Q G e 1 * - ; @ y 9 + @ . @ .           ",
"O.V.I.Z.p.p.[.sX@Xw.[.4.4.3._ ' n ] ] L 9 z n n m n _ _ L G n g j j n n [ 1.U U } F n g c ; X . $ @ @ $ o .                   . . . .   . ; ; ; - X ; - @ - ; @ ; @ y y i 1 O o : Q ....8.m n ' ] | ' m F I [ _ i 1 e ] [ i n n L n f c [ F n j t ] m m [ [ | | _ 5.3.e.5.[ n v _ m [ [ _ _ G 1 < 1 1 u j O.v.8.8.5.1.n G | } G _ 8.r.-.` } F j n F ] ~ L [ 4.`  . ...n | 8.-.` g 1 f t h 1 < u g f c c ..z 4 F r.| | _ _ j G 6.8.b.r.b.r.5.| z ....1.8.@.@.G f e i z c G _ [ ] -.] 4.1.{ 1.8.8.E.b.2.8.8.@.5.c.8.} g g n L | _ m ] [ G v F L F i i m m 5...2.8.Q _ ..2.1.G u F G n ' G h 5.5.} 1.Z.2.....y L z g y 2.w.r.....^ _ n v b G n u u | m  .;.n f 9 ; - @ - e g n _ | ' l e 9 f ' -.] 2.D.p._ x z z z i.n t g -.:.x w ! ! Q w.;...q.t.w.' g @ ; ; 9 z n b y m ] ;.~ y y * 9 b n 7 0 z m m [ [ y c z # # y y = ; = ; 9 ; # 8 G m _ 2.m z g ; z g 7 0 7 z c t 9 9 ; c ( Q z z m 7 = 7 = 0 7 n g ; . . X $ 1 1 ; ; X . - n 7 X t : ; $ t f n n v ; L ,.g.W.Q.o.k v O.v h u o - - : e g u t u u - F B.E.oXE.A.Z.w.{ z ; 1 < - : =   + # @ . @ X . . .     ",
">.j.P.}.r.[.+X+X[.w.-.:.X.-.4._ n  .2.L g j y y _ n ] _ m c g e i v F v v >.v U n | n n e @ . o $ - @ $ X .                   . . . .     ; ; ; $ X $ t 7 : ; X @ . g y g ; 4 , ; z ` e.y.n 9 j g | _ m j j n G g e : m j z 1.L | F j g ] ' z L N j l z L F L n L 5.O.1.1.5._ n F [ O.O.| 1.4.k i 1 1 u F 5.1.e.b.8.5.[ | 8.| 1.1.y.P.2.G j F O.[ [ m ] 1.` _ X.Q { | z G 1._ m i ; 1 e 1 1 u - : X : j 4.G 3 O.S.5.| G ` n m @.b.| ..A.b.e.w.] L G ] 2.2...m i g g G ..8.-.1.m ] 2.2.6._ G G @.!.B.6.@.5.{ @.1.8.4.L ; : l c n z i j : ; e f t 1 1 v m ( ' G 5.| ..2.b.e.U O.} [ v v F F c.e.| 5.E.y.L _ z n t c z 4.2.Z.2.` ..m n (  .1.m u u m w.4. .N -.G j : $ t _ ] m ' _ m g L n n -.w.i.p.w.2.` m X.2...9 ; - ; ] D.s.^ ` 8 _ ~ Q ;.t.....;.] l = t . 0 m ` Q ..;.w.;.z z y y g n z { ' _ m v G b 0 c 7 g b 0 = = : 9 0 8 q Q 8 q 8 m y m L ; y # y p z 0 y : : i i c c _ z b z y @ 0 0 z b ] _ X . ; : . 1 1 t - X X e j ; X j t ; - n G : i m 9 8.9.j.j.5.j u g j F f $ $ : : < ; n n L j.5.h } %X|.A.oX%XE.A.b...t ; u ; e 0 # .   .   . $ @ . . .   ",
"5.m.R.}.tXOX[.aXuX[.U.r.:.-.n.:.] 3.w.L c G i n j i c L G n G n u g g n c j [ k L k n g ' ; . . . . o @ o .                 .   . @ * @ . . . @ X ; * ; ; : ; - @ . g 0 t ; o 3 i ( _ 2.4.b 9 n n ' -.L n h e t n n n : e i 9 n e g j 9 k F L n t : t L } j v n j G } O.1.G >.c ] G | 4.O.L *.[ _ v u F [ 5.8.4.e.O.O.4.v.8.1.6.1.| A.E._ i F O.b.] ( [ { c ` b y y m G { ( z v u t j F f < t - 1 : : L 1.z @ O.E.O.| L ] ;.] 6.e.| ..S.D.c.b.1.c m | r.r.1.m j j n | e.6.>.] f _ 4.1.z _ ] 0 G 6.v.O.5.5.1.5.5.5.6.F j f b g t e e e e t i e j v f j g c v f j c { 5.e.r.2.5.4.2._ F D G 4.y.| 1.v.5._ z c l 9 t t 2.] -.e.C. .] n _ 8.2.] j t w.w. .G 4.N G g ; : g m ` N :.' c n N L L 4.p.p.Z.i.:.m b ` r.2.c * . * 9 =.p.M ] Q p m ~ ^ ` .. ...c i e t t 7 y Q Q  .] ] ] G n c v c m z ...._ _ y c ( m m g y g 7 m z 7 m g p z x b z p _ ] _ _ ; ; t 0 0 m c u y i u t m M f y c y y # z G ' n } y @ . o t $ ; : : - - * $ : e ; : ; 1 : i F - 1 y L 4.8.V.9.F f u n U k 1 - f j u ; 1 v *.8.!.H.7.g.E..Xw. X}.Z.y.}.S.O.G y : t 7 q + . + .   . .   . . . ",
"5.m.P.tX@X[.+XMX+X+X2.i.] ] w.:.] =.2.c m L m G y l t c c G ] | [ j e u j m [ [ [ _ f n m ; . X . . o X . .                   . . . @ ; X . X @ : 7 : ; 0 e 9 : ; . ; f e - O 1 i ( _ ` | j 9 ` c y | g 1 u F j k j G u : u G : ; 1 u 1 ; j j : : * t | L e i n n c j [ [ U O.{ L [ [ [ ] | } 5.1.F h D G O.3.5.5.L [ 1.e.| 4.{ ..1.| 5.O.j G 8.b.v.| I G y g y y : 7 v [ [ u 1 h G O.m.[ - < < 1 < G 3.2.; u O.r.[ G } 4.| ..n.v.5.2...b.c.8.8.] m _ b.r.2...U U L } | 5.F G | 4.3.{ ] ` m | m m 6.@.6.8.1.2.4.-.] L n F G j u e g c G G m g G | L F u 1 t ; - ; j [ O.v.v.5.6.v.x.[ G } 1.b.6.5.8.| N m ] u v L c c ] 2.-.I.A.[ n _ | 2.1.u u ..2. .' G ' N ` 9 : c L m N 9._ _ L m G _ 3.V.2. .L M m g c 2.2.m _ f 9 * M c z z ' m _ _ ;.] ]  ...:.c e j u u i ..-.| g n n n z c u e 0 ~ ;.m _ ~ 0 7 m ` y G g n 9 Q { n 0 Q z x b x | _ ` ..Q G @ @ f g 7 y m m i i u - e m y 0 x 0 j _ @._ n 0 9 : . @ . @ ; n n @ ; e $ - $ t 1 $ ; - @ e e - g M -.V.1.R.3.n u F 5.b.5.>.>.>.8.[ k j l P.E.*X8.8.E.oX.XA.b.t.2.2.I..Xc.e.[ c 9 7 =     + .   . @   . .   ",
"3.P.P.iXnX7X@XaX+XOX[.;._ ] | i...m 3._ { 5.w.' l y e : i m n m G j i j G u G G I F F f v * X X X . X . X .         .         . . . . . o X X i t - f ; @ e e @ @ X ; y 1 , o ; % ( | n L m { j i g ' y ; e _ G G e g v _ [ | ; t g n e - 1 h $ - e f m F j u ; 9 n n n v v } | j [ >.| 5.5.4.>.| F f n L [ } _ _ L _ G m 5.3.| [ | | [ { n [ G { 2.@.L F i m t i j i 1 v b u 1 h 5.B.v.O.< * u g 1 m 2._ u J 4.Z.4.5.@.w...| 2.b...4.t.2.C.4.| *._ 1.2.r.2.-.7.f [ ' v.f f l G n n 2.e...` 1.@.2._ | ] 8.| | 6.1.| L ' | _ e ; u m ] ] m m G ' _ _ G t ; e f i t e j [ 1.5.O.1.4.c.@.I 1.5.e.>.5.8.O.n ' _ v F ] ' 3.] m -.w.Z.5.{ n _ ..2.1 v 1.' m m _ c _ m t t L c n N 4.] y.y.8.| ..2.2.u.i.:.:.] G m 2.b._ ' : ; 9 0 M 9 9 n ..b ` r.......2._ _ ; t i c g ..-.| m _ ] G m j g c g -.` _ ;.] y 0 p b z L b b Q x x ( 0 m p p 0 0 Q Q p  ._ y * X * = = @ ; i v ; ; ; ; g : z 0 : 7 m m t ; 0 z j @ @ . - f L n X - : $ ; ; u t t e $ ; t 9 $ e c ^ >.V.L.1.' 5.v.|.oXR.|.5XuX:XF.7.I | U.oX~.6.I b.#XZ.b.E.E.e.w.2.E.A.b.4.( y z 0   + @ . . . .         ",
"V.U.OXnXkXaX4X[.>X[.[.u.i.w.w.p.| 2.i.3.w.b.b.] G c e 7 9 g g : n l f ' F G c n } U I v e - X @ . X @ . . .                   . .   . . X ; $ ; : o . . . X ; ; : ; 9 t - $ , 1 = c ` n L -.3.j n u n y u j ' _ c c n 2.b.] *.t 9 G L z u e - o - 1 i u f v m 7 = g F n F v i m >.1.} L 1.V.4.O.G u 1 G | [ @.| O.} | [ ' 6.| | [ { m _ ] G @.' 1...4._ n n g c F G c $ t g G [ } e.b.1.n * @ j 1 f 9 ..} 3 D A.b.v.4.5.1.=.[ 1.@.G G 2.r.w.| ] 4.4.2.2.r.b.1.G U -.]  .L F n 1 - u _ ~ ..e.] 5.| ' [ ' ] ( _ @.6.] | 2.' m t - f _ ] m m z m [ ] G ~ g g y b m v i n [ O.| ` m | v.6.} 5.2.>.} [ O.[ g _ D G ' | b.e.2.g z ` e.O.I G [ ( { 1 G ....z n ] n l u t t L G m _ m ] w.I.{.8.[ ] -.Z.@XU. .` ] ] r.v.j t - g : 7 =.c @ j 5.-.` ~ ~ _ n _ 9 0 ; : 9 v n m g : G ..r.| G e t G m  .b 0 _ ] 0 c ( ] z _ c z m _ ( z b z c q z m x m _ ` i @ = 9 X @ 9 : . = 9 ; e e e c c 9 . X e z c * 0 n { G u ; X ; u : X X t $ @ e @ @ $ o * - e ; : - e ^ ^ ^ g n L } 1.2.{..X:X;XzXmXqX%XJ.M.W.OXoX~.x.6.e.V.b.v.A.A.b.A.e.b.J.x.5.[ n _ c # + + . .     .       ",
"4.i.U.nXZXnXsX+X}.[.>XZ.[.w.4.] m ] y.' 1.| 3.G F n t e f g l m f n } | [ [ [ } | -.n F G g @ X X . - $ .                 . . .       . X ; X @ @ $ @ .   X . X @ @ 7 g < $ $ e 9 y ` y t n _ j t : e g j 7 e g i ; G 4.w.8.F u j z G n F j e $ * $ - e u f j e g ..5.G n G u g L >.[ F } 5.5.5.L j e k _ | O.5.1.1.1.>.1.5.| 1.] ] b _ y O.8.8.M.1.Q ( [ m e z ' m m z n m ` 2.v.e.' *.G g - u : 7 e G _ < v y.3.e.v.W.b.} | 8.[ j e _ w.] _ i 1.] 5.@.w.r.w.| 3.y.n F [ j c _ : - j | | 2.Q _ b ' 1.1.{ _ { @.1.b.y.m | G 1 t t _ 1.m 0 m c m ..3.L g m m ( ( G 0 b [ _ ] | ] ( 2.5.O.5.| _ F G U n i n F [ 1.v.B.I.| t i i 1.| L j u g g 3 G 2.D. .n 9 9 9 g g l 1.L m G N *.u.I.Z.8.| G n _ y.r._ -.3.-.1.*.k @ h j @ ; @ e $ l 2.] Q ' c y c n t : n z ; 7 t Q = : 4.r.A...L t n G _ ` ] g m m y | | ` _ y m _ ` x z m m y g m | z _ _ m { 9 @ @ = ; . $ 9 g ; t 9 t i g 9 e ; @ X t ; * : b { 5.@.j : $ u k y e : : X X : $ @ : X X - - : * @ 9 m t y n ] m m Q ` r.0X0X5XpXmXjX-X X|.:X-XOX5.g.M.A.N.A.y.b.b.b.e.c.b.M.x.5.L G { @.c = . . .     .       ",
"1.y.V.sXxXsX7X+X[.Z.D.u.[.I.:.] n -.3.1.*.' n U _ c t g 9 g v L _ c 4.1.| *.>.[ _ *.| n c v @ . X O ; @ .                   .         . o . @ X X - @ X X X   ; 7 = ; 9 1 $ $ e 7 7 m L 7 N L n f t ; g u : t O.O.| m | O.2.c G g L n c U t : $ X X $ : 1 u g z { 2.6.v u j u v U ' U L O.1.1.7.*.L j n _ 8.5.O.8.8.' [ 5.1.6.{ | 5.` _ G O.8.1.( b b m ..b y  .| z m g | ' 8.y.] 5.G G L | n e F _ u 5.m 1 G 3.r.r..X;XA.[ [ 8.@._ g G ( ] c c g m ` | 2.2.| | y.l | F *.y.G L ; e } .._ 3.1.2.] ] 1.5.| _ ( 2.1.R.A.] ] } f F n g m g 0 0 y m _ 3.G c L ` _ m _ _ m c ( ..1.r.` ..8.5.@.| G t h f u u D I 5.M.W.P.e.' m _ ..N 1.| j 9 t e , G 3.4.' z 9 9 : e c c 4.-.| _ | m y.e.2.L G n g n L 4.| 4.] 9.O.*.n @ 1 ; ; @ $ : ; * L _ n g N - X - g c l c ; : * @ t V ( X.` [ _ G t m ' ` _ ' m y z z ` c _ Q x ] ` ` m p 0 z m c 2.2.m n g g t * . . @ @ @ @ n m 9 0 ; e n * @ . . @ ; ; * y O.b.4.| n ; $ j F [ c n t X $ . @ f $ @ . . . t ; @ : :.B N  .2.;.....;.S.uXzX0XuXbXlX0X%X:XyX-X1.| g.E.E.~. XI.{.A.b.r.b..XA.5.} G _ @.@.b g ; X .             ",
">.v.y.aXsXtXtX7X[.a.p.u.}.[.4.' ` ] e.y.2.u.7.1.U L n i i j F G | } *.7.7.V.' j L u.' n ' g @ o $ . $ @ . .             .     . .   . .     . X @ @ - * . ; @ ; = 9 ; @ X o - : = % y G $ L | G f j : : i c _ _ 8.B.A.G @.b.| G U g L i g g f j t 1 < t u f n g n _ n ; ; i G u f G } U [ 2.O.G G [ n G ] >.>.1.5.y.5.8.2.1.8.4.[ 5.4.{ _ 8.5.c z _ m m x _ ` ] w.m ] G  .w.' | ` ' G n L -.| v | ] [ O.O.t [ E.+X+X.XA.r.` c O.5.5.[ L =.] } } [ } | | 2.2.2.| 4.n f | -.n G 3.t k 4.| | ] _ | _ L ..1.@._ _ { 8.P.b.5.L n 1 k j l t f 9 0 y z G ] *.c g ] { [ @.2.1.{ m ]  .1.| @.2.e.e.O.G u e t u u f F | 4.v.n.:.~ ] 2.2.e.u.2.G g t ; $ G ..G ' n g f e ; n n ] | _ G N m w.2.} g j n L m _ m _ L j ' 1.g j ; - t j . - f : t j t ; c 1.n : t f ` ` c _ c g 9 ; . @ x g m _ c t c c _ m } g y j m x Q z x Q ` _ Q | ( m p g c ..2.m c ] t n j y . $ . X @ m y y m @ @ 7 9 ;   . @ @ t g g | 8._ _ : X . 1 G G j v : ; t X 9 j $ X X . . t - X e X. .w.;.u.Z.u.t.u..X>X0X<XxXVXxXjXjXiXkX:X5.| ,.H.|.!.E.>X X.XE.A.E.|.A.8.[ L @.1.{ m c 7 1 $ @ .         ",
"} 1.A.;X+X+X+X>X[.2.w.I.;XZ.1.4.c m :.5.e.r.7.[ | O.m m n g } | } F ' 4.n.n.O.[ } >.b n | t @ ; 9 . . @ X .                         . . .   . . X $ X . . X - 9 * * ; @ . . X @ = % ; e % } >.' n n g f z i n c G 7.!.B.2.r.| n g [ L z f j n j g t f 1 u i n i f g : ; : i j e i n ] n n ' G g z z ] { 1.L L [ G | | 1.1.| | | 6.5.5.5.5.8.[ n 1.@.O.G x m ] _ #._ 2.2.` m z y ` ] _ ` 4.4.n | 8.1. .3.[ < h u.;.r.E.A.A.2.5.e.] ] -.L ' w.1.8.1.5.6.5.e.8.2.| 9.n g [ 1.F G 1.l _ e.8.8.| n m f n c 2.O.b | 6.b.E.2._ | n u - - : U U 9 m c z y _ | -.m ` ( G L { O.| ] { _ ] | | 1.e.b.5.I k u u 1 1 1 i { ..| A.b.q...A.A.A.u.r.1.n g t 3 G ;.m m ' y l j 1 n c N m m ] | c N ' n t u n =.-.` z n n n g u - F g - f n - e f [ G : 1 e _ @.9 i t L N -.2...c 0 g ; @ ; 9 z % z n e c Q m ~ c y 9 @ _ { b 8 p _ c m b e.2.` ..8.| m Q Q c _ i $ X % # ; X . . 9 : g g ; - . . . . @ ; @ _ i ; G [ m g - . @ - n y j L ' $ ; ; : e ; 1 t - . @ : : g w.;.u.p.[.}. X:X.X XyX:X:XmXlXzXxXxX0XaXkXR.| o.M.E.B.M.yX>X:XA.E.E.A.A.b.5.| 2.@.[ z y y j @ ; .         ",
"Q 5.R.0XtX@X[.[.u.w.U.U.[.u.-.:.] ' | 5.y.y.} 1.3.| [ L v.| 1.4.] c G 8.A.E.n.1.| 4.] 4.8.c @ u $ . $ @ . . X .                 .   . . . . . @ X . . . X . @ @ @ ; ; @ . . $ X @ = $ y g L 4.m _ m t j t : _ t b 1.V.E.2.| O.*.i G L N L g G G t h g u : l m n F f j i t g v k j f F } n t c G c y m [ c L z j I [ ( 5._ _ | O.} _ 5.5.4.m _ { G G _ ( Q ( { ` m ( `  .` ' _ 0 b _ 8.A.b.5.U L ] r.i.2.~ e f Z.Z.;.-...r.r.2.1.` ] 5.L *.2.| 4.1.6.2.b.P.E.b.1.L } : } U } 3.U N 4...e.b.2.| w.6.z G } 8.| @.5.8.|.P.| F [ F - - o n m ' z g z z | _ 1.1.O.b._ ] _ [ ] | | ] ' _ | | 1.b.5.[ F f u t 1 ; v ] 2.4.I.W.v.8.e.A.A.w. ._ g i u 3 L .._ n g ~ G i e g c [ L _ G G ..] L g : g L _ -.] ] n =.: ; u $ - ; ; ; n c 1.L.1.j k v @ ; # $ - n _ N ..r.-.m ; ; : @ * 9 l 9 g m v m m ( ;.] y @ * g } _ _ _ m ;.m `  ...8.] m n ' ] 2.' e - X ; @ @ @ X . . @ . m _ m t @ * @ ; t * n _ c c _ z n z c * . X 9 e m m j ; % @ = b n m m : X . g ; ^ 2.r.Z.Z.Z.U.:X:X%X|.0XmXMXkX}.E.|.uXjX:XlXqXG F V.A.v.A.>X0X0X:X.XS.b.J.E.A.8.| _ _ G y y z .   .         ",
"| ` n.zXaXoX[.y.u.u.I.I.}.U.3.y.4.| _ G y.y.5.v.y.v.| 3.A.H.8.5.| c ' 5.E.-XXX .*.9.p.i.L u @ e @ . - @ X . X .         . .       . . .   . . X X . . . - @ @ @ * @ @ @ . . o $ = ; ; n n c m c g u g e g j L _ [ | 8.A.9.1.2.| e u n L 6.v j u j k u k n f c g g j F i f n F j F k F _ G j g y z l c u e v [ [ } | _ | G v L _ _ | [ G [ n m z g y y m | _ ..Q x y m Q ~ .._ m ] ..y.8.[ _ b [ 4.2.b.I.u.g 1 4.u.S.y.;...w.v.( ] ..5.} _ { u.b.M.B.E.E.A.b.r.n.1.n j 1 n { ..m L 3.2.4.u.1.2.b.4.| '  .| 5.8.g.v.R.A.1.v j n $ - k l n t c z c _ ] L | _ ' e.@.1.[ m ] 5.@.1._ ( m ( ] 2.5.n F g F v k e v 1.2.2.u.A.b.v.r.E.Z.b.] ` y y ; $ j ] 1.n 0 L c e u y j I I 1.v.| ' ] =.: e v L ` ] N -.n _ *.; $ u - ; - - - * ' 5.n L [ G e : ; ; ; 9 g m ' ` ' f = e ; ; e g ] ] j z G 0 c m Q  .] i t ; c _ m _ ] 2.( x ..] ....c t g b ] G i t . X * # $ @ . X @ @ X > . @ y = ; ; @ : ' | c _ ] z g t g 9 @ @ # : - . . : ; @ 0 m m Q 0 0 - o t 9 ^ e..XI.r.Z.A..X|.|.A.%XxXAXuXw.u.Z.>X0X:XxXwXG } R.E.&XzXpXwX:XqX>XA.c.8.M.8.5.{ @.@.{ ( r b t   .         ",
"' ` ] XXtXU.C.U.u.>X6XoXoXA.p.i.b.*.| 8.8.4.9.1.e.3.2.1.e.I.A.4.2...{ -.Z.|.}.P.=.4...N g ; - 9 @ @ $ * @ o . .         . . . . . . .   . . . . . . . . $ X . . @ ; @ X . . o - y 0 y c g g y ; ; t : 9 ; ] | _ | 8.b.8.5.b.n.@.t t F G y L n u e u t | I f n G 7 n v j n G G F k i F F F *.[ 0 y t g = : 9 ] 7.} | c 0 z n m { c G | _ y y z m c c y c ' | 6._ b t 0 0 z Q 0 ` ] Q -.G } v _ [ 2.u.b.C.;.i ; >.] u.4.....2.] G | v...O.j 5.8.b.c.b.b.A.v.A.b.b.2.l n - t [ ' n L ' @.8.n.` 2.b.u.r.L _ } 8.[ _ 1.v.4.8.} n n u u G n g 0 c m m L _ _ L | _ 3.v.8._ L _ ( _ ` ] ] m [ ` 2.} c g c L G G } L ..;...-.2.2.e.8.I..XA.2.m c j t . e r.P.F 9 m v 1 t t : h F O.O.{ c m c e ; j } 2.z | ~ m L ' j - - - - . : n j $ : g U 1.n g : 9 l t g m 0 g _ -.f : j @ ; u m w.;.0 7 z c Q m z Q ' n j : l j G ..2.n.6.2.( ` e.v.c j f ; _ G v j : X = = = @ : @ . + . $ * . : ; t z * ; L ( m G m t : i : - @ - @ ; X . . @ : X 7 z ` m ; 9 ; ; 9 ( _ ^ p.r.;.X.;.2.A.E.|.uXlXMX}.t. X-Xb.{.uXkXqXO.8.:X6X0XxXkX:X:X:X-XS.2.G o.5.} G { 5.{ [ z m z +   @ . .   ",
"| | ~ ;.@X X;XU.U.>XyX6XyXuX|.+X.X4.8.8.3.8.b.u.5.3.1.7.8.e.A.b.5.u.n._ 3.b.I.;Xy...3.z N ; ; g ; : ; ; - @ $ .       . @ . . . X . .     . X . . . . X o @ . X . * @ . . . . - @ % ; _ N n ' 9 9 e g ; * L | ' 6.8.5.c [ 8.y.7.n n u 1 e _ c n n g g U k u 1 i 1 u j i j v i j j v e u F O.| n l y l t e t ( | | | @.z y c m ] G v m c c m b c m b y c n G e.e.| m m z x 0 0 Q ` _ G U n n O.1.] t.r.Z.u.c t *.m ..Q z ` #.G G | v.6.e.| | b...-.` Q 2.b.b.w.8.| | j : u e : n | 2.b.b.r.w.2.w.b.8.L [ 5.8.m z n b m O.} G G j c 5.2._ y ' 1.| 5.G L N g g O.] 1.[ _ L _ { _ _ ..m _ _ G ` _ j m m ` ] e.} *.] ' | ;... .| b.E.u.] G c b j o ; 1.Z.] n n F y t - - f h G ] n 2.=.g j c g m n t n j L t ; e 1 j *.u o e p.] @ 1 9 ; g n n 9 z N m 9 c u g ~ c ] = g # @ * 9 m n y : f 4.b.] 0 0 g e u : : @ : _ 1.b.] ..` ( _ ( G t t ; n j j j : ; * 9 _ g _ ; 9 ; t G g 0 c n t t ; 9 _ c O.} t @ @ : @ X @ . . $ - : X c c = t g c y m g 0 j ; c Q ` ;.q.;.X.X. .}.yXuXxXbXkX:X:X6X:XA.A.uXxXqXm.g.:XqXuXuX0X:X0X>X>X-XM.I D I [ v [ 5._ ( _ b i ;   X . .   ",
"5.4.-.U.tXp.p.tX+Xr.-XyX0X;X}.oX;XU.e.n.n L y.3.1.3.4.y.@.8.E.I.' | L n | I..X+XI.4.2.t c 9 . ; e t ; ; ; ; @ .       X @ X . X X . . .     . . X . . . . . . $ @ . @ X . . X X @ @ 9 } O.| c g y e ; ; t j m L L 8.O.] v } c n v t j t j j j L j 1.3.U k e 1 t e 9 t t i n j v j F g j F G G _ L z u u e e y n } | 1.O.1.O.G G L [ n j c c v m G m j z z ] ]  .] ` _ z p m x 0 ] _ | n n G O._ ( ' q.S.2.z f c _ p. .z b.8._ D 5.1.8.v.8.2.2.-...2.2.B.b.@.] ` [ @.| G f i - m -.e.b.b.B.4.Q ..8.v.' _ 1.8...| c t c n n u j L G 5.2.5.G ] 1.| 1._ j : i L } N G ] | 5.{ ` | ` ] c _ Q j ] G c n ~ ` 4.P.5.| ` _ ..` _ (  .v.A.e.Q n g z u O , } | ;.` G | I : : : n $ c j n 3.y.n t n t N i : g t t - : g n u f f ; _ .X4.9 : t n j | i n n [ _ t n t e G z z f 9 ; ; : g n * ; z n m _ ..b b c 9 : : * X 9 m Q ` | G ' G G g - 9 g F n G ; t * * @ 9 g 0 m = @ g _ O.@.O.1.} g 0 z G _ G O.G m . @ ; X . .   . @ @ X ; g z : ; = 9 ; c U F t ; m L 4.u.X.2.X. .u.uXmXxXlXzXuXkX0XoX0X&XW.uXkXpX~.o.n.:XjXuX6X%X-X;X:X:XH.o.k F I f } e.| G { b 7 e +   . .   ",
"v.v.P.oXtX7X+XtX+XD.b.:XXXE.}.OX}.Z.y.' N ' n.b.2.y.y.y.8.A.A.Z.1.G L | e.-.y.n.n.:.n j 8.t $ e g i : ; - $ @         $ $ ; $ * $ . . . . . . . . . . . . . X - @ X @ . . . o @ . @ : n n t g e t - - 9 ; : t | | 6.1.I F n f - - e f l L n j n U 8.3.[ v L : t e f t ; f v v G v c F F F G _ ' O.k n v u k g 9 G G n O.6.1.O.( G ] L n j m G b b i v z b x.2.` ` | 2.z z c x 0 ] _ z n n l L | 1.] ] q...m f | *.w.D.w.b.e.G k 5.v.8.A.r.b.Z.w.] 1.2.w.2...8.v._ @.[ L u k z c c  .8.8.b.b.6.5.| ] [ [ O.v.b.1.m N | L L g t L G _ b.A.1.2.2.| @.5.| g N ] 3.9 f | 2.4.| ] @.-.m ( _ m m ] ' j _ -.] 4.2._ | ..{ _ _ G `  .4.n.r..._ G c e O X c ;.2.@.O._ I t : : 9 c g : g n b.n 7 n _ _ t 9 g g g : e _ } n n k u 1.Z.y.G n ~ g 4.] 2.i j j | f - ; e _ _ z 0 9 ; t g m c t 7 j | ] m ( ` x m G : @ * ; @ z ] G g j j u t - c 9 0 g : z n f f 9 @ z ] m g t t L } O.@.@.[ G v G g F G y [ _ G z . $ . .   . @ @ l t 0 7 c i c c @ 0 t z n n z m u.4.] ` `  .`  XlXbXmXuX>X&XkX>X}.0XuX:X:XjXqXW.5.n.|.&X0XqX XA.n.A.R.c.I h F U k >.8.[ _ { G ; y = .   .   ",
"n.V.W.>X@X[..X>X+XOX%X+Xn.| *.b.e.3.| ' ' 4.u.b.y.*._ 8.y.8.Z.v.2.1.r.} _ 4.e.:.| n.L :.8.G f j c g o . ; X .         . - e - X X . @ @ . . . . . . . . . . . X @ @ X @ . . o @ X . . - e 7 ; ; : ; t g g t : } G n f h f L n - $ ; e i n n : _ n b.| L F n ; j n m } t t e e n n G G G G n G ' 1.G n i ; G [ n z G z ' 8.5.] | [ m j G | G m z b t t z G v.2.m z ] 8.| m Q x M m ] n m ] G { q.r.w.;.#.e.O.A } n.Z.S.2.8.4.@.F 5.y.1.b.y.E.I.8._ | | 2.b.E.A.B.5.e.6.} v v L g | ;...1.6.b.e.6.| _ 1.[ 1.b.c.4._ z i n l g F n y c { v.b.8.{ _ i ' | } | | L : g | 5.e.1.[ [ 4.5.( m m m _ n n [ | ` -.| L 1.| ( ' _ ] ( ` e.c.2.] G v i : O X L ] ..@.2._ j j j z 7 g m 7 ~ ] oX5.u n _ N 0 z _ _ m 9 9 ~ L g n ' j 4.1.r.n ' _ j G 1.N f 7 : u u ; - - ; 9 t V : ; i ' ' ` _ n ; f m | m _ g n n ; X * X @ ; u v 7 @ - ; . - ; ; - * t m _ G g L 7 c _ ( z y g G G m G Q v z m c n F } 7 G | ' ; X ; X @   @ ; X = 0 t = 0 y m y ; : ; 0 c ' ` c e.4.| [ | 8.v.%XkXbXjX6X-X0XuX%X XyXuXyX:XqX6XE.v.' 1.P.|. XE.E.A.b.c.6.o.F G I I 8.8.[ _ _ b t y ; ; .     ",
"R.V.I.aX+X@X[.U.i.+XXXA.u.n L 5.1.y.y.3.N n.u.| } ' -.4.*.2.Z.E.n.B.n.U ' | | m 2.Z.w.4.| G F c c i X @ ; $ .         . $ ; * @ - @ . . . . . X X . X X o @ @ . * X - o . X X . . .   X t g n f 7 ; n _ t @ 9 _ G v 1 < 1 F t $ X ; u g f i g j L 1.5.3.n L l t } _ | c t * ; l F } G L F | L F b n b j ; e L | b G [ _ 1.5.G 1.1.z G _ [ m m v n : t y G 5...Q ` G @.5..._ Q X.~ _ ' m z -._ 2.w.r.#.y.6.G u G e.b.A.b.@.4.O.L 1.5.1.c.n.b.I.r.( _ ..e.1.r.2.8.1.| | [ O._ 1.y.8.n.n.8.r.2.e.b.v.2.5._ c 5.' ' _ ' n t n n n O.| ] -.4.5._ ' v.5.c G G 8.>.` L 4.| @...1._ n 5.@.] G Q _ _ n G [ 2.2.|  .L } G m { { _ _ 8.v.b.e.| c f v i . . e L 1.e.2...[ } n j f n N t n -.}.M.I j _ *.z ` ` m n c t y L g n n G 4.1.-.G ] G u G | g y e - U t @ ; @ @ g f z 9 $ e [ _ 2.| ( y j [ G z : t m G 1 X ; : @ - u j } c c _ g $ ; ; : ; f c _ | ] | t 6.Q Q G b m b g 7 m 5.( 0 ( } g [ } n c _ U ; ; e ; . k G n y 0 0 7 = 7 z m c $ ; = 9 z b m i ' 3.1.[ 4.c.D.;XuXjXjX6X:X0X;XJ.E.-X%X:X|.;X6X&XB.U L n.{.I.J.{.5.O.5.O.o.I I F I 6.@.( G [ _ j t y @ @     ",
"8.P.U.tXyX4X[.y.[.7X-X8.-.} n 2.i.L _ _ ] } p.*.=.G -.r.-.[ b.-X|.XXE.8.=.G ' _ y.D.w.4.5._ j i v i @ 7 : - .         . X : ; @ @ @ . . . . $ - e g t ; . @ X ; @ ; 9 : o .   o @ @ X - g m m n e y n g t : t n k u 1 X o $ $ : - $ 1 1 u n U n j [ 5._ n l j u g m m f f ; ; t 7 | | G n G n i u t v G e t F _ } c [ O.[ m m [ | z L n L | _ b c e : y n | @.5.L l m | 2.2._ g 0 ` ` n g m m ] r.q. .X.| v @ e y m 2.M.@.2.e.O.2.1.8.w.v.b.Z.e.]  .b.2.L L n.8._ G L @.x.| v.A.y.u.p._ 2.2.r.v.5._ ' n ; m c | 8.L g t g n n 1.b.4.O._ 8.8.| 8.v.O.m n m 4._ _ 1...O.-.' ' _ _ O.{ ' _ ` _ F F | | 1.| 1.L n G _ ` _ L m 8.B.B.b.| u - 1 u o 4 [ v.|.E.e.] | ..( n j ' 3.| ] e.y.@.| } [ ' _ _ L z m c i z g l e t n -.4.1.]  .c t n m m ' G e n u ; @ @ v | G c y : : ; f e.;.m g n | | j V f t j ; @ $ t f 1 : j J z G ( n 0 ; j j G [ ( Q m b ` y @.b.p x ' G j i c { | @.G m F e F _ v _ m g g n m j - v | { z v c q # y y 0 i $ 7 9 7 b b b 0 : -.w.| 6.C.}. X-XzXjX0X0XqXiX:X%X;X-X|.E. X-XP.8.k >.A..X%XE.A.6.@.O.} G O.O.G j { | @.{ { _ G b i @ o .   ",
"5.2.y.+XsXtX+X+XtX7X7Xe.5.y. .w.1.L ] ' e.' y.4...U L | G 8.v.oX|.E.Z.8.8.i.| -.I.{.2.u.v.c i F j f ; e ; X .       . . X 1 : @ : ; * . . X : : 1 g ; ; ; ; ; @ 7 9 9 - o . . - X . . 9 ] ~ N t 9 t l n f : y n g 1 X .   . @ X ; @ ; 1 f g c j j F F j u t i b n n n t ; 9 u t t G G G n i i u 1 t j y u ; y G L n L G G [ { z c p v y j G m z L f = c G | 8.4.| 9 g 1.2.e.-.z _ q.;.m n Q ] | w.w.q.;.1.} @ u G Q x ....` 8.6.1.2...2.b.A.b.y.;.1.] ' } g G G F n | S.r.2.| 8.| Z.4.n 2.w.w.w...] b c n g v | | L l n u j f | 5.m ' n m | 5.1.1.5._ c ..b.| | e.4.5.@.4.| 1.` { @.| _ ] _ L n n _ 5.>.5.1.n G ' L _ _ | v.B.x.2._ ; . X - X 4 5.}.oX%X|.B.5._ ] v f L ` .. .p.( z v L G n ] g G n m c 9 g _ ' n j n c ] b.|  .0 = z m m 1.| g u u - o 1 | 2._ N : f | % # m m L m l y u @ -._ = ; f c g z j G L k i 9 z y z z y G t g 8.2.Q m b _ m 2.e...0 g m i e L 5.] 5.n j 1 g g ; : ; ; j _ 5.x.5.F G 8.} G O.6.[ b m ( p 0 7 y y y b v ~ :.=.N  .x.A.>.x.|.qXxXlX0X0X0XjXuX:XuX0X!.|.:X:XW.M.} O.E.|.%X|.E.x.| o.o.Z I 6.G F _ 2.e.@.@._ G G t . ; .   ",
">.7.U.+X7XOX@XtXOX[.u.p.U.U.[.4.:.] y.P.-.' 4.` :.m -.| *...8.Z.P.P..Xy.| y.[.i.U.A.;.w.] i 7 j j g ; X e X           .   . X @ @ ; ; @ - : 9 j G n l g t c m : 0 e e ; - ; 1 : X . o n -.l f 9 9 n n u * ; ; g ; @ X X . $ @ ; : ; @ - ; 1 e t y g t 1 t i l F _ G L v L 9 u i t ; t j n U G g $ u j n h t G O.O.| | m G [ [ G c c _ c g G G _ [ j g m m | v.1.` ` Q @.2.2.2.' @.#.] m ' _ ` ;.;.2.;.w.' } i e v | ` b _ 2.1.{ ..` u.A.r.b.b.E.r.2.] -.4.| | t t n { A.Z.n.*.m 9.1.L n 6.w.w.Z.;.2.5.L _ v L 2.:.} N g f t 9 t g L G n c | | [ } | ] 0 @.b.1.2.2.e.4.{ | 1.2._ _ | | G ] 2.| n I >.6.8.y.{ n 1.5.| @.@.O.v.A.8.n _ . . @ - . 4 8.E. X XoX|.R.] m g j m ] -.2.:._ c m n G ' c _ ` m  ._ 7 y L | } G g ~  .E.1.` [ c m { 2.5.| G G g 1 o : m | m c t j U ; . 7 m n 1.g @ . - = @ ; ; l n L m @ y c c c q m m m c n G i y 2.e.x 0 c ( w.I.1.c 7 g j e 1 L x.g.G z u ; n e . t @ ; L 5.5.O.O.[ F [ [ O.O.O.1.O.5.g.1.y 7 z c c ( _ ] *.Z.p.e.:X#X6.7.E.qXuXyX-X|.%X.X{.Z.{.%XE.A.-X:X-XE.v.| b.C.E.S.{.b.| 5.6.[ [ 5.@.} { @.@._ | ( G G v $ $     ",
"o.4.P.4XtX@Xw.>XI.I.u.7XOX4.W.V.3.i.u.n.3.:.' m _ n | :.1.1.9.8.E.P.Z.r.b.;X+XZ.u.oXb.u...v 1 t y t X X $ .                 . $ 9 $ : i : - e j n j n g 0 y g 9 i : : $ @ $ $ ; o . . t m t y ~ l = t ; ; 9 ; t t 1 ; * - * ; ; - t ; ; u t f e t g f ; @ e u b _ G L n n u u 9 9 u g g n n U F $ e i t t f } O.O.} [ L [ G [ [ _ _ [ G i i G _ [ b z z z G _ ..` ( N ] ` 2.1.| m ~ ] ` ] .. .Q ~ w.r.X.] [ G y i 5.{ _ e.n.v.1.2.B.Z.b.b.y.w.r.e.6.| g n } 5.G f e b _ 2.y.L - ] :.' _ | ..{ 2.2.E.A.O.j : c m 1.' L u n n ; - ; _ U L '  .` ` ( _ ] c c b.Z.] ..8.e.G [ y.2.| ' @.| n | e._ F } 5.5.8.1.G } 4.x.6.O.| O.B.b.O.n L g $ @ - . X G e.oX;XA.E.A.| | L G 1.] 2.M.8.| g y L >.Z.r.u.y.] Z.@.y t _ | 5.m c m w.I...( L G 1.4.y...1.8.5.j : < u j y 9 0 = ; n f : @ 7 $ 9 ; - @ . 9 j t f ' =.} 5.z y 0 0 x 5 ..v.| z g G i y 0 ` _ b z G E.&Xv.9 @ c v u ; n _ c y L g : c j t t : i [ 0 z i 5.O.i k I L _ G O.O.O.>.g.1.n b b c m { 8.: n %XuXpX:XB.U | R.Z.|.M.6.E.S.r.I.u.A.2...C. X{.Z.4.1.b.q.b.C.q.| G O.e.O._ _ _ G G G ( y v b G b t @ @ .   ",
"' 7./.B.}.+Xp.u.I.+XtX7XU.i.8.P.P.E.I.u.b.2.-.>.4._ ] G | g l Z.A.Z.| 1.y.OX+XI.y.2.4.n.2.c : - : : @ @ @ . .           X @ . : : - * : ; @ 9 j j t L m e g c y i 1 t 1 ; - $ ; o O $ U ;.g ' _ G t c - @ t t F 9 $ 1 ; ; ; - t ; @ @ @ ; g g ; e f : @ ; t : u f v j j j j g f t t t g g L G n - 1 t u i j F L O.[ n c _ G m ( _ _ [ } n i e v G c G n G m _ | _ _ Q m Q ] ] ] c V ` N  .-. .~  .` I.w.4.1.} L y 2.2.| ..C.w...v.E.b.Z.u.Z.2.2.C.r.w.' f i n j F @ : t ] 3.] y f 5.9.' ` L j m b.|.4._ } ; : j m ] l F n ' : t : n m v _ r.0 ..e.Q ] { m | e.9.8.A.B.[ ] 2.@.1.| [ ] c L [ [ U _ | _ .._ _ G @.5.1.] G | 4.5.7.| N c ; @ - X X j ..i.b.1.b.E.5.1.L 1.O.] e.4.@.| G g j v | r..XoX1..._ b m ] _ [ n Q b ..Z.4.] ~ 4.8._ ;.r.6.| o.G i - g m 0 9 = % # t 1 e @ X $ @ c t @ @ : c j n l n G | 5.G p m Q p Q | | y 0 c y z Q b ` c c G 4.B.} : ; v v u ; : $ # v G : 9 j t ; X ; G m . 7 y O.| G o.[ G G [ O.o.} 5.8.V.5.8.` z t u t f i.6XlX<X~.m.} h n 4.e.| 1.e.b.A.b.;XE.E.!.w.E.C.y.] | y.C.t.b.r.5._ Q .._ c z i i e y p 0 7 9 i g y % X .   ",
">.1.|.@XI.I.OXU.I.|.5XyXoX3.I..Xn.W.P.XXn.y.n.A.A.] ] c L c j P.Z.y.| -.y.I.n.n.-...1.2.4.L e 9 ; @ X X @ . .       . . X @ . * - - @ @ $ : ; e ; ; c G g i t e t ; e ; 1 ; 0 ; o O X j ] L L m n f i ; 7 9 : n : $ ; $ : e - $ $ @ @ $ : 9 f e ; * - - $ i : ; e f t j j k j f u g t g n n L b ; u j g j j t y F v f k G _ [ n } | [ G n i i n | _ _ ' m ` -...2.' m _ m ( ~ Q z 9 z M ` 4.#. . .~ u.C...3.[ G | 2.` { 2.U.b.] 2.4.1.-.] 2...2.r.A.y.| n t L j - t U n [ Z.}.5.c 9 y 1.3.' j j 5.c.4.1.G ' j : ; L O.F i ] n g n j 9 j n u.2. .b.4._ _ _ c G @.m.v.y.} _ 4.b.O.| 1.1._ ] _ g G @.6.| 1.@._ 5.L ] O.] m c _ 5.A.j.y ; : ; ; O O g G i.] y c  .5.1.G i ; | R.m c _ _ g g u L ;.E.u.` ( y ( _ ] b G G ` (  .i.| m ` ..| ] Z.b.L G G F k ; j n y ; @ c y e j [ $ $ X - n : @ # : 9 g j n L U O.O.G 1.6.@.Q ( ( _ _ c m _ z m z b n _ 2.' _ 9 ; . t t 1 9 e - ; j j - : y u t e i c | z # i @.O.m i = y = I I 5.5.g.g.8.} O.4.1.G ; @ n A.uXbX<XH.V.5.o.' n.A.b.8.@.r.I.r.%X|.H.H.H.c.b.b.V.y.3.y.;.q.A..._ _ _ ( ' b z y j 9 y y 7 7 9 t t t . .   ",
"[ 3.XX6X7X7XU.i.y.XXoXyXyX}.V.4.Z.Z.}.|.y.V.A.A.E.2.-._ | | =.8.| 3.4.[ ] _ ] P.n 1.4.5.4.G : - ; : . @ ; . .       . @ @ - - @ @ e e - * * 9 @ @ @ ; i c n % ; ; ; i t e u e ; $ O o J 8.-.} | n t t g 9 t : i l : - 1 : - - - @ - - ; ; - : e : e ; - @ 9 f u : 1 u g u t j F G F j v k G L v < g F c i e e i g t : t c b ' G G _ ( [ } ] [ L [ | L { ` 8.1.2.| c G _ n n ] w.;.c g N _ .. .X.^ ..2.}.b.m ' c b 1.5.x.Z.w.r.2.w...| c m 8.A.2.r.A.n.B.m L G U : - j F 1.R.E.b.5.n g c _ n ; u O.@.e.4.L G f : t u G 2.L } c @ 1 i n l g _ 2.] Z.u...b ' y c G [ } } _ 1.5.4.1.5.6.u.] G m t n m ] ] 1.| _ ] _ [ 1.8.1.m j _ 2.-.c 9 $ 9 @ . . y ` ` _ g z m m m i 7 * _ A.b.1.' c t g : | P.A.X.` y z | c ` ( c G ~ ` ` w.>.n ] L _ 5.u.C.| _ [ F e t L ` z 0 9 g N F I | e 9 : t G 7 : 9 : t c g c m ] _ g g [ 1.` ] e.| 1.5._ m G n m m v z g m G c 1 $ ; - ; ; - @ . X ; @ @ y : t G [ | L { @.0 = { } G 7 e b g = z } 5.8.O.O.u k 5.v.1.u ; 2.$XzX0X|.5.4.>.O.8.Z.|.oXw.b.I.|. Xb.6.O.I O.1.e.8.O._ } b.I.u.t.w.| ..@.( _ _ ( z i 7 z g t 9 = 7 i t %     ",
"m 4.I.OXaXtXp.u.' U.7X7XyX6XI.y.W.Z.Z.}.n.e.4.2.c.2.3.| 2.2.| _ L 3.3.v n n g y.j N 3.n _ n e - $ ; $ : $ . .       . X X ; ; - : ; @ ; . @ ; @ ; : - ; ; z : : ; t e ; ; ; t e - O 4 }  .-.| *.' f t g g i e ; : : - $ - @ $ @ X - @ ; ; : * e 1 e e - : e i t 1 : : e ; t u u j j c c u m v t - k F G n u 1 v j i t c G n m n G G 1.| | y.| } _ L n G ' | 4.e.5.G | 1.` X.' m ] _ y m -.w. .` #.w.m 2.Z.8.| n u [ [ 2.w.q. .Q ` 5.1.3._ ' r.2.v.....A.v.e.4.G ; : n O.g.| -.2.e.@.N g c n ; u 5.2.2.x.O.F [ ; g u -.n l G ' ; * t j e u i ' -.| q.` ` ..i e c n m ` 3.' | 1.5.] ( -.` g n t z c c L _ _ _ | ] [ | 8.6.@.' m _ z 0 c 9 ; - O . t z ` _ F G O.I n e ; - m 8.H.v.b.O.i ; f } e.-.q.e._ b G z _ _ G m b m  . X.. .' | _ | w.A.5._ _ j 1 u _  .;.m 0 n ..F [ _ G t : ; n 9 : t y ; ; _ n t _ G G } [ 1.1.2.| ' _ G G L ' n G y 9 1 = $ n n j u 9 j ; . . @ X . X X ; _ % e _ y _ O.| 4.z % # c v F v 7 b n F i v [ I | m | V.v.} ' l U |.6X.XR.4.4.| ] 3.%XqXW.Z.E.A.b.[.E.e._ k Z F [ G [ 1.G b.E.A.A.A.5.@.| ] 4.@.{ y y i @ t 0 9 ; 7 t t $     ",
"1.4.A.OX7X+X3.[..XA.@X+Xn.i.U.V.U.i.2.r.w.-.-.` 2.w.-.L ] F n | } n n n ' N l ' L *._ L L t t - $ e - 7 X . .             @ @ @ - . . 1 @ ; * ; j g 1 9 c c t ; : ; 1 - $ 1 : ; o 4 , [ 3.-.| c.8.| [ @.8.L [ j k : : 1 - X . @ @ $ $ $ $ @ @ ; ; 9 f 7 g 1 t e e $ - e j : : e e t g z f i ; ; - i v L n ; 1 j c y L } O.| } [ [ ..r.3.3.1.1.| F F F i c c _ 1.6.5.4.8.` ..` n ' ' z 0 ~ 2.2.2.#.` c _ 2.5.L u k F F c 2.1.Q 9 Q e...` ' n | | G { w.b.e.4.r.1.b f j G L G 2.b.{.r.:.g 9 n u F | r.e.1.1.} U 1 ; L ( g : _ m c y *.m ; t u ..~ m 2.8.m z t g j j m | y.m ` 2.] _ c N m m z z m n c n ' _ c m @.| ..@.[ G | 8.| t n m t : : . X f m N m F f F F f 1 - - z m 2.b.v.5.g 9 : n  .`  .1.( v b y m _ { z y b r.C.~ ` ' _ n _ 8.b.5.5.U f ; : G =.w.N i | 1.L } b [ g $ ; : t 9 : t e ; g _ m ' [ G c p _ 1.G n [ G f c l G e e ; ; ; g G | : : u ; f : - $ ; @ @ . @ ; @ $ $ n y b G m ] m 7 @ : : ; I _ 0 i F i b t f m g m ..| j N t v c.;X XA.n.=XE.8.B.:X:XE.2.I.E.8.A.|.e.[ O.G k k h f I m } A.E..X.XM.2.| _ 2.1.1.b + # + # 7 t 7 ; ; ; @     ",
"4.n.p.[.yX+XOX[.OXOX+XZ.3.4.w.I.U.u.Z.w.| 3.r.4.r.2.:.] G m L 1.F n L b n *._ *.| | 6.n f $ $ : @ e t - $ . .           . ; X @ @ $ . $ @ ; $ e e u e t g g 7 e e e 1 - $ $ - < o O o F 1.] 2.r.8.| } ] 4.L F L U u u 1 - . @ $ @ @ @ $ . . @ $ - e g g ; ; t t t @ @ ; g @ - e t 9 u k f u 1 ; ; j z i j e 1 v j n G G [ } L [ O.3.y.r.1.1._ U L L k t t ; f [ 6.1.8.4...] m m ] _ n 9 ;.] _ 4.w.z - i c c G F G f f v G _ m z { @.8.] | 8.>.L t [ b.A.b...5.G - u G | | | 2.w.Z.oXU.m t : g G | e.8.@.| F | : ; 2.4.m u u f n f n L : u j ] L  .r.2._ z = ; v v L ] ] ] ] ] ' { m v w.| g m ] c ; n } m n _ [ | ' | @._ ] | | j [ t t : @ . X _ N _ ( j u u h u < - e G L m @.1.O.F 9 9 m ]  .;...z v z y G e.' y t ` C.2.Q z _ i j | | w.] 1.n e ; ; L ..w._ x ` ' L [ G ] _ j t b g 0 : m z : i G c ..L l z c m { m j n G j F _ j ; X X : t e c ; @ - t 9 g t g l : @ : . @ $ $ @ $ y F c m z z m g n $ - e F v y z y i } i z _ G i ' n g X f -.Z.%X*X!.|.XX:X:X&XE.b.A.b.E.Z.@.@.b.b.1.g.5.5.O.F n m g ] Z.H.A.A..X|.x.{ ....@.4._ q 9 + @ = # % = ; $ .   ",
"m.b.XX+XaXtX&XP.Z.W.OXU.L P.P.U.I.w.p.] ;.] w.y.Z.| ' y.e.[ O.n.3.n F F ' 3.4.*.O.n f L g t ; - $ : ; $ . . .             . . $ . . X ; @ - - - : t 9 9 y t t t e ; $ $ X . . . . O o J ' _ e.2...1.| ' L j g F [ f i 1 - - : * $ $ $ - - $ ; @ @ - $ $ ; 1 : @ @ ; ; ; ; 1 i j e u t i u u : ; : j G G v k f j v _ | m [ G e G [ | y.y.Z.8.4._ F _ G 1 1 ; ; j O.1.e.5.@.8.] n n ~ :.n z m [ y.-.b z y g u j F F : k I j i b c m g g 9 N | 1.| } 5.b.b.e.2.m ; $ t F | | | b.b.X.t.n.3.3.: F I | 4.` 5.5.*.F g : j 4.| 1.B ] 5.t l ] : 9 c 1.-...` | G b i y G G g ' ' 2.-._ _ @._ [ ` -.z m ` _ 0 y m m c b _ 5.O.5.{ [ | @.m G } n j u - X X n ] y.' j u k k u 1 1 f 1.O.( m G _ k t ; n ] ~ b.1.b v z i i ] m i z 4..X..-.g z G G O.1.8.v._ n u ; : t L _ r.m 2._ } G j n m v 7 _ | m g m ~ t t n m ] m | ' c ~ ` { G v j j u v n t X . . X @ ; - o $ @ ; 7 = i 0 : ; * @ $ = ; e ; 1 i y z m z z c 7 : ; 1 F b j j j y | G i n n u _ ] z e i | E.A.M.6.V.H.!.|.E.v.E.{..X.XP.A.|.;X|.v.g.x.g.B.8.U 8.[ 5.R.E.A.J.|.%XH.x.M.] m | 5.z # 7 y = ; = . @ @ .   ",
"L.R.&XaXbXoXU.OXI.[.sXU.;.y.[.y.4.4.} ] 2.2.2.u.3.1.:.O.y.| 1.v.e.j f L -.I.L.| L j G F F : ; X @ @ - $ X .             . @ X . X X . @ @ 1 - X X : X ; i u $ $ 1 e e 1 X .     . . O i n *.e.] | } G } n t u f n f f ; f j 1 $ - ; @ : ; - ; - * $ : ; ; : u e e : ; 1 1 1 u v u i u u f 1 ; - < g j n G G F L G G _ { _ j k _ 8.4.5.8.b.y.1.| N L c f v c g c n | 2.@.| 8.@.j t ` -.c z n ~ 4.| _ G [ O.U [ I c g y L n v n c g n ; g : ] | w.5.v.w.e.r.8.[ 1 - k F [ 5.8.b.A.r.2.-.=.] v y _ 8.6.2.y _ 1.1.n l f f g m l 9 *.j _ _ n j L -.b.B.v.6.G k G G n F n ] _ | _ ] @.| | ] G m m ` m n m y g L ' z z G b m z p z m m b ' y y y $ . . 9 ' ` ' i % i y t h u u | | | _ y 0 t 1 ; n w.b.1.` v t y ; 9 u n v c Q _ y t t 0 y t G _ ] | G k u e : f ; m i.;.-.' [ v z L } m c { @.( t f t L n t c | ] ] v.2._ ' m [ v c j D F t e o $ . @ X X X . - X @ ; ; g $ i G n 9 = @ 7 y y ; - i c z z z 0 c ; X X I O.G 7 i y G F v g y n [ ] ] : e L p.2.| o.8.|.XXy.5.| R.E.b.Z.S.{.%X.X{.A.>.>.v.A.4.k >.4.>.n.%X.X|.|.-XE.B.A.{ { { | [ b t 0 ; = = ; . @ X   ",
"v.W.W.7X+XV.6..Xp.@XOXy.w.Z.Z.Z.w.u. .:.4.-.y.4.| _ y.b.*.1.O.V.b.l G -.4.u.Z.>.O.' | k n t - . . . X $ X . . .       . . @ . . : @ . = @ ; ; . X @ X $ = @ ; $ $ $ 1 - X . . .     O - f m [ U G l n G c j t n G t e : n t - $ - ; . - @ @ $ - l ' U j 1 t u [ ] e u e t U f F L F f t t t f t t f v [ I _ I | } | 1._ ' [ G L ] 4.8.7.8.O.1.} L z n l U 5.O.L [ ..4...| L _ m 1 n m u ; m m  .| | L 1.8.O.| } ~ z | -._ [ _ { _ G 9 - ; G } v.6.@.] 2.b.2.' u ; e F _ | | e.E.}.E.1.N _ c c _ 1.] y.n.5.j g t l * 9 ; ; ; g n l n _ n g n L ..1.1.O.F F v j G L n G n _ ' 5.1.] ..` 1._ m j c 0 y y u m ' m m z g c c m _ { ` c { y t % @ X . ; m ~ -.0 ; 0 L G t - ; m O.x.8.| [ : ; : L b.8.` ` 9 % 7 7 u ; v *.n ] G y L - 9 i u y z G | G ; e 1 ; : ; g m ] c ~ { F L m 1.n i L [ G 7 u c n v t g _ G c 1.e.] n c [ O.[ y f e u u ; e 1 ; . . .   o X . . ; L n m y L c y y y y # t : j _ m c 7 9 0 f : @ m 5.7.[ = b j f G i $ v c ] ' G G G 0.y.| o.y.b.b.b.v.b.r.A.v.A.{.I..XA.{.A.O.O.8.4._ L } 1.b.A.%XoXB.A.%X|.E.b.G { 5.@.@.} @ ; @ @ 7 : X .     ",
"V.E.oX[.U.0.} y.Z.p.w.OXZ.Z.P.Z.b.n.y.w.Z.4.3.' U [ 5.y.O.1.} 4.y.[ n | L 4.i.>.>.v.| h F u * . . X . $ @ . . .     . .   . . . : X @ . * ; - @ = X . @ - $ $ @ $ ; $ - X . . .     . ; t t l 1.| f g g j e 1 k >.G j u u : - $ - ; @ $ @ @ @ 9 n [ I v f k G F n j F G n U F >.>._ G ; g j t u u k L } L U [ [ _ U G _ U | } >.] 5.4.8.O.>.| I j g g ] | 4.4.' ] v.5.| | L _ ..L j g : t c | 2.8.8.G 8.1.6.| V.A.2.4. .G @.@.e.8.| g t < F 1.Z.b._ 2.v.c.2._ | n ; t G L [ ..e.u.b.-.n 9 f *.*.-.` b.B.P.1.3.t ; ` f n t n e ' t n | e t j m -.' _ v f F v k L [ G j L j | | _ ] 2.' ` ] c z b f 9 = _ G n m m _ _ z t _ | _ -._ ` l m t 9 $ . 9 0 m ] L i t y n g t : i v G 1.5.1.G n n 5.2.] ` Q z e e y t t G m _ ..Z.| 9 = 9 j u u j m O.[ g e - 1 : 9 -.m y g ; g t c ' v.| t j F j i L g c 9 ; ; u i _ ` Q _ v [ ] ] G y : e 7 j G G t t X . . . @ X . * @ @ @ 0 g # 0 0 m y 9 c n e y ' ( j ; @ ; e : 7 : j G O.I v j j u ; ; j G | G _ 2.' ` u ] B.|.5X%XE.$XoX|.E.A.e.v.A.{..X.Xe.I [ 5.3.| j 3.3.5.oX6X|.8.E.oX.XE.b.@.x.6._ _ G g $ @ 7 t = @ . . . ",
"7.-.i.U.p.9.] U.Z.p.OXOXZ.}.}.v.y.P.Z.I.Z.U.w.1.-.3.| L _ } O.v.}.y.G ( n } 3.} [ 3.U j } j ; . X ; @ - . . .       . .     @ * . . . @ @ @ $ $ - . @ . 7 : 1 % ; . . o $ . .       . g j ] G L _ f l 7 g f < n G v G v t ; ; ; * ; - @ * * e e n n g t e k U *.U e ; f L f U _ } O.n e u i i v i j L } ] L [ F F G _ O.1.1.>.5.4.8.V.8.4.3.1.] U g g n _ ' :.| | 1.1.G m _ 1.b.8.L ; : - g n _ >.} G 8.R.A.!.Z.D.i.I.2.G ......e.A.x.n 1 u G y.{.b.w.6.1.| ] 2.G ; ; t G G 2.r.2.b.2.n | l j L 4.n.w.y.8.| 2.: l j b ' } z ` ..' _ _ n m j n m n n v t f F G _ ' G L j 0 n _ _ 1.2.` _ ] G b n l y m 2.5.G _ { ] ' n 7 f n 0 _ ' n c z c ; - X 9 z ~  .c g z b _ m i i m 0 7 m _ 1.L G G -...] ] ` b 7 r ( c v m ` _ 1.2.c : : F i t f n n n c y : : - k N z G N e 9 : ; i m v.L - j t e f G b y e e - 9 t L [ 2.m b @.] ( y z = k o._ n } L k t : - - ; ; ; ; * X @ y c z i j F j e 9 g g G .._ i 7 ; $ : @ z @ t e v I b i u e t c G m _ _ _ 2.@.-.U.^ 5.4.Z.n.w.$X:XE.b.M.A.5.b.oX X Xe.J I y.P.5.n m n ' n.W.E.R.E.%X XA.6.O.A.B.G u i ; ; X ; e = $ X .   ",
">.5.E.U.Z.9.-.i.[.[.@XOXU.E.;XW.b.B.Z.i.r.Z.n.u.y.8.8._ v L 5.B.|.b.| g n G -.| ' n.v j F f ; . . $ - ; . .         . X . . . @ $ . . $ . . . @ - . X X @ $ $ 1 $ X . X .   .       . i n f n ] n 1 ; ; : j 1 j F : e e e t ; ; e t ; - ; ; : 1 G } U n j G L I { F f u c j I | v.O.} k j i i e j F G ] | _ } U I _ L } 1.8.4.5.5.5.7.v.g.y.n.O._ F n U L m  .]  .] | m ' _ 5.B.M.>.1 ; ; - u f U G k 1.A.A.8.e.u.p.}.A.L ] ^ _ y.{.oX} u 1 L A.8.4.y.| ..| 3.1.j : ; G _ m ] r.q.D...n m t t n F 5.8.:.' | 3.j i *.] ' 9...;.u.| g j _ G m ' n : : : u f k | w. .' L | _ n ] ] -.1.L _ Q b m l _ m L e.5.O.O.[ _ _ ' L y ; 7 m y z % @ g - - o 9 9 Q m n z { ..4._ z m ] m c -.w.i.z z z m ` ..;.( z y y b _ _ Q m 1.] ' L ; y F v t u j v y n f g ; @ j L _ n Q y 9 ; ; e j | G u u t 9 c c m _ j e e $ e n b | 1.G | 2.| v 7 = j O.6._ y m G e j L G _ [ _ F j : n [ 7 j u u t t t f y g ` ` b g c u e e X m X ; e i i j t : u [ 6.[ } F [ | 8.5.1.3.x v.0 ~ ] p.oXH.1.2.A.A.O.c.|. X|.B.H F m.6Xn.O.| t c g 5.E.|.E.%X|.x.o.J 8.x.J t ; $ - - . - e @ . .   ",
"| n.$XB.U.y.` i.+XU.4.U.U.Z.-X:X{.Z.Z.| 3.u.Z.e.-.B.8.L _ 1.c.E.E.Z.w.c n | 4.3.*.>.5.L g : - . . . 9 X . . .       . X X     @ 7 @ @ @ . X X . . . X . X $ - $ . . . . $ .         . ; n m G g : ; ; ; ; 1 v k v u u - X j f e < F b 1 u j : g j G L 7.*.L | 1.| O.' m } n j } O.} L _ [ v j ; 1 G G G L I } I } ] m j F 1.1.7.5.] O.7.1.8.| 1.L G k } L L  ._ ..| b.[ G G O.o.[ F h e ; $ ; n I G o.W.Z.' c 5...r.2.| G | ` ..A.E.I.[ 1 $ G 8.2.v.v.1.1.-.5.@.G v j F G | ` b.e.y.1.] i u n g g n G | _ | 4.j F ' L N >._ ( ;.2.f f L n l L F L j f j f g | e.e...] 2.| -.c ' ' 1.] G [ G [ n _ } 8.1.O.[ { @.-.` _ 8.| c g f g m n * = @ t ; ; ; c x z z ] ~  .m g c -.` m 1.2.i.m g z ( ..Q ` ..m v b z ..-.Q ~ 1.| _ c g ` m t : t G _ c l c G ; X 1 n N ' G y ; ; ; t 7 G y k n n e m m b m j i t * i m c _ ] _ z 5.b._ 7 j j @ z ..z c * + y c 2.e.| | O.[ v v z 0 y u : @ * c ] g : n 7 y g m _ @ * ; g 7 ; t t i i f < t U } } c j j 1.v.P.S.y.4.B.^ ^ ~ -.XX5.] 9.A.S.8.b.Z.A..Xb.F L 1.E.b.G l g g ' _ V.R.E.E.}.7.D h I o.Z < $ @ @ ; - X X .       ",
"*.j.}.XXA.1.1.I.+XP.U.b.Z.I.I.|.-X%XE.4.| e.e.n.8.Z.8.4.y.v.b.|. XI.Z._ _ 2.3.=.3.1.| ' f ; @ X $ $ @ X $ .           . ; . . @ ; ; ; . . . . . . X . X X @ @ X . .   . . . . .       . 9 g ' U : : ; @ $ ; f n v -.j : @ : f c 7 t e u f e : u F G n ' | c >.>.| | 1.[ U j j U I _ | L G n j - ; j F n v G } [ L 1.[ f n | 3.1.1.[ F ' 8.2.@.5.[ G g F L ' :.8.5.` 4.[ F G _ v F k h F U u t n I G o.B.n.1.; m 1.1.O.8.5.5.2...r.A.>X6.X $ G 5.2.e.8.4...2.2.2.4.{ m _ G [ | e...4.8.8.c : t f : g t _ 4.w.e.n U L ' n c F ] ;.] B G L g g n G v G n j F | -.@.2...2.e.8.O.{ [ _ ' n n } G _ n n ] n.@._ [ O.5.x.y.8.4.' b ' g L g c c 9 @ 7 - $ t | ` m m ` ^ Q c G | | @.] ` 2. .z n { ..` _ ] ` m b G c  .3.-._ ..' ] z ] 2.G : t n ' m ' f n b n u u _ _ -.( c f 9 - t t n e * O.1.] ` _ ` m c b b 7 G 1.( m | ( _ v.v.5.g y z b ( ` 7 0 0 i y y y ( 6.O.o.y @ ; @ c v u e e t b n y t y * @ = ; @ f _ z y 0 : 1 ; e t u ; t e i v U f | 8.5.A.~.V.^ v.L.y.c ~ L.5.F 1.b.%XA.S.Z.b.n.b.1.9.>.7.n ' e G G L n } 8.v.B.W.,.u 1 f u - < . X 7 . - o . .       ",
"_ 5.V.I.0.:.W.P.tX7XOXZ.8.E.E.A.|.:X;Xv.L U 4.4.P.8.2.e.E.R.A.b.R.A.S.b.] | } 9.y.| | n 9 : ; $ $ $ @ - @ .         . $ : X o . . ; : : ; @ @ $ X . . . . .     .   . . . . .         X $ n j m t 9 t $ . X - n 5._ n n : L U L U 1 f j G ; e t f f n _ O.5.5.[ ' ' I I >.[ [ F L L n v ' 1.n 1 u G L n F U } [ G 1.I G I U 5.5.3.} F [ | 8.8.| | 5.F : g L 4.-.y.4.1.L G [ _ c n F h I m.| f I I F G 1.7.I [ g j G 1.b.c.b.w.b.2.r. X[ ; $ c 4.v.b.b.y.r.4.e.2.e.] ] } G g ..| _ G [ ] c ; 1 - $ : g ' w.w.y.} n n n f f f ..-.e.1.n g - ; t } I F L _ L 4.A.b...4.B.$X8.] _ _ _ n g ; u ] m t n L B...m _ | 1.2...1.2.1.| ` l x z m L j - ; - $ N -.~ c c ` ` ..G z 5.6.1.@.e.4.z g c b m Q ~ ' ` ( b Q _ Z.4.-.} m _ _ ] 2.-.] j g j j ] _ n m n [ u t L m ] ] n 9 ; : g g e ; g _ } ` _ Q m b m y y t g m z G _ y 1.b.v.5._ 9 b { _ x 0 @ = # @ t j I O.j v = # 0 i _ n : g b y g j ; = = 0 @ z 0 0 t F n j _ U v - ; j u ; h u v G f m ] 4.| 4.Q.P.*.B 9.9.t g | 4.8.| b.I.|. Xb.y.3.I >.4.5.8.5.1.[ j v U L c f L } 4.I u u ; f $ ; @ @ ; @ X $ o X . .   ",
">.8.v.y.n.i.[.[.+X.X.X}.P.b.A.A.x.J.%XR.3.*.5.O.y.5.4.b.}.oXA.c.E.%X6Xv.1.n L e.A.3.L ' f 9 ; ; X @ ; ; @ o           @ ; ; .   . @ 1 t $ - @ @ - X @ X . . . . .   . . . . . . . .   . @ f n | G e e ; * $ @ g } n j F j e n j n f f n n 1 t 1 < e 1 ' 1.b.4.L F U } G } F F F n G _ _ >.y._ t Z [ [ ' _ F } | @.O.k j F F | 7.} k F o.[ | 4.8.| 5.U f 9 L | ] ] 2.e.| { 4.[ [ G D k I R.v.n U I F I } v n } 5.8.6.2.oX;X|.2.C.2.r.Z._ t X t ] 5.v.w.y.B.e.b.v.A.A._ n n m ..5.c i c n G n < ; - 1 e n ' 4.b.y.n L g t 1 1 | n.2.-.G n g f g j n f _ ] c | w.8.y.v.H.%XR.5.L [ } j e e e ] G g n n 8.4.-.} ..| ( ] u.w.( 2.] ' m g m 1.' j g @ $ ' w._ n ' ` 2.1._ n ..y.5.| Z.{.1.G | G p _ -.w.] c Q ..r.Z.-.] L } ] 8.` ;.1.( j : : i n n 9 j m } n t 9 g 2.-.] 9 : c _ L : @ t ' } m 4...g m G _ 0 y g ; : g y g | { 5.O.v _ y _ e.b.8.G G G b 0 i f t : ; 1 f j b G g y 7 y g 9 : . j 0 = c z 0 i n [ g n | O.F ; ; : e t u i G | g : k G L G _ 5.n 0 N z f c -.E.E.A.v.u. XoXb.F h U } 5.V.b.' >.5.n j k _ ' L ' _ _ F G U - o - o - ; @ * . . X . . .   ",
"3.g.L.W.6X7XoX:.+X+X+X@XI.b.2.b.8.8.A.v.*.b.3.' >.| e.u.P.A.e.A.~.%X5XB.1.' U v.u.*.w.| L u - - X $ $ ; $ X         . X $ - - . . . * e e ; - X @ ; @ X . . . .   . X . . @ . . .   . . X ; 9 | m : : $ ; $ - * n j t u v < g _ L u f f f [ U f j e f } 1.B.M.V.U G k ' 8.} ' j i j u z j | ] j F G } | | [ O.4.y.O.k t f k G | F f G O.7.v.5.[ _ O.L G g g f g m ' y.b.1.8.8.b.[ F G } b.8.n g I H G i t n ( w.|.:X|. X}.E.w.b.b.E.Z.`  .9 l i._ v.y.n.e.4.b.e.b.q.m G [ _ | _ u t j c [ f 1 ; ; ; e G [ 2.b.b.n V.j - $ * n 8.8.| n g j n L G L n | L c n 8.b.r.8.V.|.%X~.2.5.5.G g : t [ U F G t L 2.-.] _ { 1...e.4.| 2.2.m m z c ] m f m ; @ ( 4...]  .;.w.` _ ` ] 4.1.| A.oXy.G G G _ ] w.Z.| _ ( 5.8.1.Z.y.g F e.r.~ ~ b.` G n e ; e i g g | G } g n Q ` ` ..f 9 n 2.m 1 - L ] | m ` ` ` c c m 0 c ; : ; g g i b m c p p y m ( O.4.5.F F G } | { i f t 1 ; ; = 0 z ( m _ l y 7 j @ f z 9 [ m g 9 z g g m c z ; $ : : u j k F } | z e t t G v n n : c _ ; f t g b.E.Z.r..X;X XA._ j n | 4.A.v.F ' | G n f n 3._ [ *.' f I U , . < * ; ; $ $ .     .       ",
"U V.XX7XaX4XV.OXOXtX@X7X.Xp.] b.M.8.5.8.v.b.e.4.4.L ' 8.n.-.2.N.H.|.&XR.Q.5.3.n.U.w.n.y.n g $ $ . @ ; $ o .         . X $ $ ; @ .   @ t g - : X @ @ @ . . . . . X X $ X X - X . O .   . @ t g L F f e % $ ; : = i : : n *.1 g _ n t ; 1 t 1.I t j t : 1.| O.V.B.5.I } _ k L I u n g g i n w.1.f F v n L L I } v.e.5.F < u h n G n k } [ | L.@.[ 1.>.>.| L n _ f ] :.] y.1.e.b.b.F n ] 5.@.n f e f G o.| L | 1.C.I.Z.C.C.1.B.2.u.;X|...] p.2.b.b.4.b.v.8.y.5.[ | 2.r.@.@.4.2.1.' j n v n n e < u ; 1 : c O.] R.A.m ` n f u h j j 5.1.L c n n n L L [ ' -.L L 3.w.b.e.| 8.W.E.8.e.v.5.F j ; j F u g ; j n G 4.2.{ r.r.Z...-._ ~ -.4.` n n b G ` c e c -.;.w.Z.Z.u.2._ ] ` ]  .>.b.P.2.m n L ] b -.` 2.[ ( { 1.z 4.N k e n m i.-.y.| n m 9 ; = ` L -.4.n L n g ] ` ..] y n U -.c u e ] ] G -...z _ _ m m z y 9 9 ; * u t v [ ] ] c | 4.| m v | j j I m G Q G y ; ; ; i 0 G Q ' _ n 9 n g : ; g ~ c 1.O.y . 7 = : y g 9 @ $ ; ; e u j [ | | n L _ u [ O.' G ; 9 : $ $ ; ; n [ e. .Z.[.S.U.} F ] F 4.B.e.i } | n v G n U | n ' j u 1 e $ . ; ; . . . X X             ",
"3.B.E.&XtX+XP.OX+X4X7X+XoX}...b.!.b.4.x.A.b.-.B.r.G j n.E.y.1.5.g.!.E.m.R.|.W.y.| ' y.' e j < - $ - = ; $ X         . $ < u e @ .   . 9 t : e @ X @ . . . X . . . X @ X @ - $ - 4 O .   o f n @ g n j 9 f e 9 ' y e f G N L g L L < - ; ; j k F n f t f I G 1.A.b.4.1.L j 5.| v n G G 4.' _ | t t | [ G g c G 9.y.v.} u u k U } [ o.} G >.7.5.[ >.5.6.| _ c L _ ' 3.-...| 8.P.b.L _ @.1.} e e g u L g.R.E.A...E.r.! t..Xv.b.{.oX|.5.w.w.i.y.Z.Z.}.|.r.n.A.O.G L 2.4.| [ 4...2.@.] [ 9 j g 1 1 k : m z m z | e..._ ] _ G F F f g [ 2.[ g F c n G U L _ [ *.L | w.u.8.| 2.b.W.b.2.e.8.G f t n g ; 1 $ - ; i v.8._ :.;.4.} ] ]  .L _ ] m ~  ._ ....g e ;.q.w.w... .u.` w.r...{ ] e.b.r.L n G ..2.]  .n ] ( ( 4._ N n j 1 n -.n.w._ _ g _ -.z N ; 3.M ' | ' n g ( ] 4.] n ' y ' { n t 2._ { ] 4.g G G ` m y : - * c 9 @ ; e c | v.@.1.8.8.` m 6.| F b m { m m ( b j j z Q ' | ' b t 9 g m % 7 l z c @.| g 7 _ : t n g : @ ; 7 : g 9 : y _ @.| [ | } O.v.y.y.L l t ; - ; : u U V.4.X. .;.2.F F 8.4.4.b.| n >.5.n U >._ n j L n < - 1 1 - . 1 ; . . . @ $ X . .       ",
"5.v.P.P.+XXXOXI.OX}.OX+X[.u.A.|.|.@...2.b.3.n 4.y.>.G 5.}.E.B.8.1.v.g.B.!.*XoXw.y.` y.' g ; e e ; @ ; @ $ X         . @ - 1 : $ X X @ @ - e ; - . X . . . . . . X X @ X @ $ X - o . .   X f c - - n n n e : e n g g j n U U L 1.n 1 < - - e F F [ g : f U G [ v.c.6.O.n u L | v i F G 3.5.| 3.e t b.7.L U F _ | y.4.} k h F >.L O.} O.I O.8.8.| | >.| | m j n _ 2.[ 5.| _ w.Z.;._ | A...c i e g j | A.}.}.R.x.R.|.E. .2.5.8..XA.w.e.A.b.;.2.-.e.r.A.A.b.b.5.L _ { m _ { ..2._ ..8.] c L m 1 : ; | ' L ] ] 5.8.8.n.-.} [ _ L _ n N 1.I G F _ ] F [ U L 4._ n 3.e.A.A.6.4.8.1.4.` 1.1.} } ] ~ t g f g g u [ b.b.` _ 2.e.4.| 1...n g z c m n ~ Q ] z ; 4.w.;.X.` ..b.r.C.Z.q.( m  ...;._ _ | m ]  .~ z b ( b ..n *.f ; f ~ Q w.w.` m g [ 8.2. ._ w.| } ] -.g n ' 2.2. .~ ' m ] 1.m G 1.5.2.m m c 9 ; z t t $ t ; 9 9 9 ; : g ` ( G 1._ ]  .{ y y 9 7 0 _ 5.z ( c i v G ( m _ { b t g m n ; ; c g j c n 9 = F X - c G G : ; t = g 7 : t c G | | | _ | Z.w.4.m 1.7.L ' z *.8.8.| ' r.C.r.4.n m n.Z.e.1.>.O.4.n.| _ n.' e F n 1 g 1 * - * . . . o @ . . @ . .         ",
"O.| 4.n.b.9.U.[.i.U.OXU.D.-X}.b.2...p ` ] ' i ] ] e.' 3.U.|.;X}.v.5.>.m.!.&XD.w.y.( ' _ | t - ; < - : * : X .       . X ; ; t ; ; ; . . . ; e - . . . . . . .   @ : 1 X . .   X o . . . @ $ f = e v | } j ; @ g L g 1 F | _ n [ >.j g - o f f I 8.L f f u f _ v.e.e.@.v n j j c j g | b.e.b.i.g e O.5.n U G G L [ y.| F u L 1.} L [ *.8.5.e.v.5.| O.5.[ n g z w.1._ ' -.| w.i.m n 2.Z.r. .m u t u 8.>X;XE.O.g.1.M.0XS.` m | H.A.e.v.A.t.w.n n 4.b.w.b.8...' 1.5.n m L [ @.1._ ..2._ G L v t u n | } w.] w.8.w.1.e.e.8.v.5.G m L | _ _ I } ] | F v G m ' [ G -.| 1.2.1.4.2.n 3.b.-.2.O.8.4.f ; n l c z c 8.b.y.y.r...1.| m 8.] 9 : i } ` c z c c g ; ..4. .` X.] ..;.2.r.q.( _ ! ! ` _ ' 1.] Q ] ] ~ z y 7 y L 9.: ; f e m u.w...n y m ..y.y.-.c _ 3.} ] c m ]  . .] _ 1.;.z m c _ ..1.1.m g = ; 9 z G - - t : @ f = = g | 2.4.~ m m ] 4.| m ( @.@._ @...0 q + @ % 9 y b _ _ [ n 9 9 G 1 ; y j | G m 9 . ; ; ; c v | G 1 f c g e $ $ r m z G _ _ 1.2.e.v.B.|.W.] -.N N Z.Z.y.N y.4.2...| 2.y.e...] b.4.5.y.*.*.3.I c u : 1 e ; - u ; . .   X $ @ . X X . .   .   ",
">.3.4.1.R.+XL.n.4.w.OX+XZ.}.| n...1.x ;.n.| ' 3.' 5.1.4.v.n.E.Z.w.4.>.>.b.b.q.p.i.N  .3.2.k ; u 1 $ - e 1 * .       . . - - e ; : - - . . ; 1 ; @ @ @ X .   . . ; : : : @ . . . O . . . @ X y f n G | _ [ g $ t G g n n 1.G n } | F g 1 X - - I | ' F u < t L  .4.| 5.[ | _ c c i e | b.b.b.w.c u _ >.i i b v } m c | L F | v.| v F 1.b.A.Z.e.1.5.O.>.| L c G 2..._ | 3.' c y.w._ 2.I.r. ...F n ] 8.tXtXE.5.E.M.A. X%Xb._ [ 4.e.v.6.e.u._ 0 n | 2.4.w.b.8.} 5.8.] ' j L @.] _ y.e.n m [ c u 1 e n { _ ..]  .4.2.-...4.w.y.1.O.O.>.' n c [ O.O.F G U L ' } n G 4.O.5.5.5.' n 2.}.y.8.2.4.3.m u n g n l t 1.w.6.y.4.2.[ m c { | G 9 g ` y.2._ z 7 g : z ~  .4.i.w.Q x  . .` ~ ..Z.X.;.` ( _ -.w.~ m x ` ( a b -.V.' g j g m y.Z.2..._ ' ] 2.y.-.m _ L [ [ | | ' 2.2.] _ ` 2.m _ c m Q ..2.z n z t : j n i n j 1 7 f # = 9 m _ ` ] _ _ _ _ v i L { ( G @.` ] m 7 % + = b L m G 1.m y t F 1 j G G O.] y @   ; - g c n G i 1 i G v ; ; @ @ i G G G ' _ _ ` V.B.u.n.y.B -.e 4.2.| f ' } L | 8.1.2.8.j t P.P.V.4.e.L >.n : 1 : 1 e u 1 j L - . . - ; : ; - $ .         ",
"n 1.4.y.OX5Xw.Z.i.u.XXOXU.}.P.U.b.b.}.i.w.n.2.1.} | A.b.y.:.Z.{.}.8.O.5.8.2.{.w.3.i.' e.Z.[ u < 1 X $ $ ; ; .       . . ; @ - ; @ - 1 X X o ; g 9 @ ; @ . . . $ ; $ $ ; ; ; $ . O . . X . ; @ f l _ m _ k : e g j ] L n [ _ U z f v t - o o - F | } _ f j k f N L j j n L n v j j j c Z.}.y.w.L u n n F n _ G } G 9 j J F j.y.o.U I 5.B.u.B.c.g.g.1.5.1._ ] ~ ] 2.2.5.1.3.m p.n.Z.w.Z.-.] ..@.[ y G I.oXR.x.M.b.E.%X Xb._ [ @.4.{ [ w.t.G _ m w.u.4.e.-.8.5.g.5.3.n -._ ' G ] 2.| g 7 j - u t 9 t c n ] 2._ 8.-.1.2.r.w.4.4.e.E.1.G G G _ 4.x.G [ G n 2.1.n i -._ _ _ e.y.[ ' 8.v.y.b.2.1.l 9 N f t g y v _ _ 5.-. .( g i _ _ .._ y m ..1.3.c g y ; m z _  .;.-._ ` _ Q y ( 2.p.[.u.6.-.' m Q ` t c m x ) z -.] m L f m `  .Z.r.` ] 2.e.y.y.2.` | G L G _ _ _ ] 1. .-.c r.@.g z t z | ' G c t j @ e G n L j $ @ z y 0 @ 9 _ ] G e t ( c f f m ( p 0 _ 1...{ b 0 = t m m _ { _ n 9 c j t n _ } _ ' 7 X X * e e f n c t e k G v : @ c ; t n G [ | 2.L n >.5.I.i.y.n 3.] ' 8.>.l >.5.1.b.Z.I.Z.8.g 1 | *.*.e.r._ g i t ; 1 t j i u u f $ o . 1 t t : * * .         ",
">.5.9.n.uXZ.9.:.E.[.aXU.i.tXP.W.B.|.&X%X4.` r.1.4.i.A.b.E.3.4.4..XA.1.] i.Z.}. .Z.I.i.b.E.} u ; ; X @ ; @ X .         X ; : ; e t : 1 - X o : t f t ; . .   X X - . X @ : 1 ; * . . . . : = ; t n L g j n f f f _ G n 9 F 1.| j : t u - - o < k u j h u t 1 t u 1 n j n 6.h F j | 1.i 1.y.e.] m j j u F F O.O._ _ g c I I 3.5.| I I O.g.B.A.B.5._ ..` 8._ L U n 1.r.2.8. .n n ;.w.u.`  .-.` G _ _ g -.E.!.b.c.6.M.2.0 { O.v _ 2.[ G ` 1.G r. .] 1.e.8.@.2.| 6.e.8.` e.n.@.} | 2.-.] n g ; - g t ; g G L [ G ] { ..2.2.2.u.y.1.y.| n G O.@.O.} } n j k | 4.' m ' >.>.| O.5.| j ' -.4.n.e.| _ j y t m m y m L ` 3.2.2.' j g { `  .] c ` { ] ..] m n : ' m m ` Q y z m x m y _ ;.C.[.;._ _ z z z _ n ` z p ! ( ] ~ m z j n -...C.` 2.b...` 4.4.2.' | b i n | _ _ ] ( 3...{ 3.3.' 7 9 ; *.1._ f g n ; g [ g G n $ g y t 9 ; 9 ~ | i $ t m ] m g  .] b c 0 z x m _ [ n F _ _ G 8 y : 9 z g j b b c { @.@   X t * . : t n t u j v F e . n y ; b _ [ j F u ; v 8.6XP.L.3.| n.4.| 5.k V.v.| ~.W.8.V.y.L g g } _ 8...n j i G i $ 9 } v g l * - - 1 g n ; X * @ @ .       ",
"O.>.4.Z.7Xi.8.U -..XsX+X.XW.Z.V.O.8.7.M. X~ 8.2.4.v.4.i.1.5.y.1.] | [ { | Z.4.;.I.}.4.b.c.c $ $ - 1 ; X ; X .         . X X ; 1 g e ; - @ : : @ : t ; @ . . @ . @ @ X X : f : 1 $ o X u t ; - k f j g j G F f f F v | } } >._ ; t u ; 1 $ o 1 j k h j f $ - k F F [ G L U g n e t F n n m 1.-.G v c : 1 G } [ } _ } n _ O.7.>.1.} O.8.6.6.8.e._ | ] i ] G } 2.2.8.b.w.r.] _ ' _ w.i.u.u.2.` Q ..r._ ] b.8.5.1.2.' 2.b.| G i G ] ` m ..| t ..w.2. .2...| r.w.b.2. .L | b.8.[ | | ' m G f g j { n ; g j { b j { 5.{ w.-.` U.w.| -.L e u L 1.} 7.F _ n j U L _ G L ' 1.*.] j e t m 1.| _ 5.} L j - ; : g 9 c m m } w.u.G j m ( 2.m g j g | -.-.' m n e ] | 5.v.>.j c ' 2.` y b ] C.[.b.] _ ..` _ g ' ..b 0 m Q m | _ v G L n | u.4...C.2._ 2.4.L L n t g L L _ L n g m e.*...] G 0 $ - c L m l t F : ; n 1 e n t . = ; 9 7 y N c u - v _ ] _ z N ( _ G p m x 7 0 z m [ O.} y y c j z z e 9 $ : j G ] t . . @ @ @ ; e c 9 7 n c G t X t [ : F L v ; ; - - y b.uX&X*.=.' 2.v.>.G j [ *.8.8.B.8.B.>.} h n G U [ U L F j @.v * : ' _ 1 t - ; 1 g n c 9 ; X @ @ o       ",
"} V.P.n.7X[.8.e.1.I.OXP.I.A.B.@.[ 2.O._ Z.2.u.8.2.I.Z.9.3.y.e.8.L >._ 1.4.Z.2.e.' u.n.Z.1.i e - - ; ; $ $ X .         . $ X @ : t ; $ - @ : 9 X ; l : @ .   . . .   X @ $ j 9 1 @ X $ 9 g * t n L n n j n L j j G k 1.5.n >.3.: t 9 e h * f j o.L f F k 1 - f F >.5.e.' f t i : t { n _ _ | =.c F G u u h G v F G L 0 y m _ L } 5.g.5.5.8.B.E.b.4.G z z _ 5.] ` 2.u.b...-.-.` ^ n 8.Z.b.t...8.C.I.2.] | F _ A.%X1.r.E.| i t _ c.x.O.` { c  .@.' @...( ] w...` (  .4.-.5.2.] n F c ' c g 9 n G _ | b n j c t [ 1.` ....] ` |  .m j g f j ' } 5.5.U n n l u L _ G G ] ' L L | _ t n :.w.v._ i : $ @ t 9 9 f z n n ] ..{ m ..r.1.g u ; l ] -. .m m m e f m _ ' 1.[ F m ..` c ` m -.p.;.m z ..q.` L ` ;.` b y y _ | m e b m c m c ] 4.w.` 4.2.4._ m g u t c | | ] i n ' 3.4.f l n g : 9 n g y g t t g j f f j U n ; t g t z g # ; 9 : z _ _ ` m m = 9 z G z 1.m 0 ( _ @.5.[ } m y m g b z 9 @ : e G _ y   @ ; @ . $ 9 g 7 $ g c n e . @ X 9 n f $ o $ ; - $ : n.XX-.] v.V.Z.e._ U h G 1.5.>.1.3.5.F b *.U F _ U F j _ 8.j = t l n l l l t e n g 9 n y @ ; : . .     ",
"3.j.XX6X7X[.i.P.I.y..X+X4.b.B.4.G 5.| U 4.y.y.3.E.y.b.}.n.u.r.4.| 3.| 1.| ] ` 4.-.b.y.2.| u t - $ : - . X . .       . . .   . - ; - X . . ; t : * y e t -   . . . . . X . u : 1 ; . X ; n g g L j g n ; j l j : : L F z G _ -.u f f n 1 - * 9 | n g U h t 1 u v O.5.*.n t t j j n n n } 5.L u.[ G 8.U f h v t t v n L G G G i y n 1.2.| | 8.B.v.f n u t G g.r.e.y.S.4.2.2._ ' g _ ] ;.r.r.w.2.t.b.w.w...v G e.A.4.e.b.m y i G ..2.{ x m m q.w.c ] ] 5.2.-.e.-.2...A.6.5.@.G j n i m g m _ ' 3.4.] c z g i c _ 4.| ] 2.3.3.-.| _ c g n F j O.| } n f L u u I 4.L n L ' ' F n [ 9 f ' 2.` g i 1 $ @ g y = z c g z m ~ ` _ ..u.| n g e u c -.] m ] ~ ; j m L g U [ y m M ~ ] y ] _ r.;.n ' ;...] m m ]  .y 7 g m m | u j G y g N 4.Z.4.m (  .2.' ' m i t F 1.4.| y c 2.y.{ L ' n U _ t U t e l : ; ; L n v [ F t g t = ; g g 9 :.N y c 4.` _ ] 7 y G z c m Q _ 8 { O.{ @.O.} 0 c { g m } y X . $ G _ j $ . @ $ ; @ $ j : @ y G g : t : ; 9 F : * . X $ $ y y | E.*.m -.n.} | l F n G L 4.>.6.y.L G L k t j k F n L | 8.j e : t : g l j g l j n 0 c j @ g 7 .       ",
"5.9.e.+XaXn.V.P.n.P.iXtX}.b.n.n._ n 4. .w.:.Z.u.u.m y.[.Z.y.| 1.8.4.8.1.4.8.u.r.b.A.4.} ' u : < o - - o . . .       . X X       - X X   . @ t $ = g 1 t ; . . .   . . . X : t : $ . @ e g _ _ z l m u - 9 e e g n ; g l n n g ; t c n : 1 X ; n k k k 1 j j F j n f n c e u h u k j v | 1.G 1.| I >.O.n f f u u u k D } _ [ k G | | 1.[ | 1.n.] L v.8.] ` 2.{.b.E.S.| y ] G L _  .2.b.1...2...e.Z.A.w.r.6.6.1.` u.b.C.Q z b b m Q m Q Q 2.5.G b z _ ] w... .4.] Q ] 2...4.O.g e i c z ' 2.1.G 2.b._ G 9 y c b -.| |  .1.-.] ..' m n _ F G ' >.>.' j L j t n 1.*.1.' L n n 9 L _ m ' 1.{ j e g @ ; c m t m _ c z z g w.u.2.2.e._ j g z m ] _ _ ] Q ; g 2.{ N L m _ m g ] g z ` _ p.;.0 _ q.X.;.L z n _ z y -.N n ' t c | 1.n B _ ` ` ..m z ` G L g u j n ] _ j : m w.m ' ' m z -.3._ m n 9 g j 1 g g $ c G n c n e * . ; ; t l -.n m ..2.` Q ; n m c c y c m c x | 5.@.1.c @ n ; y | G ; X . $ : z ; ; t - : z f @ e ; @ = ; X e 1 i u ; L L - . X ; f g = B B 3.N *.I.n.} @ ; g < | I U H O.n G I _ k < 1 g l L ' U n - * - v n j ; j e 9 c t z g 7 ; $ . .     ",
"8.V.W.oXdX+Xn.V.P.7X+X7X;Xu.|.Z.' 1.y.] F :. .u.Z.u.-.] 2.u.8.[ | 3.5.5.V.A.U.b.8.5.Z.( } t 1 < $ @ @ . .           . $ - . . . @ - ; $ X X $ ; e t l j t . X . X . X . . . . .   . X g m l ' 9 g c j ; 9 : g f F G c n t n U f t 1 e e : o * ; : j - 1 h k n l i j n n t ; j [ G L G _ [ L L G I 8.O.F j k i e 1 t Z G I F I O.O.6.1._ [ 1.y.8.v.Z.P. X{.|.P.C.E.c.G g m n c L m ] b.1.......2.w.c..XC.M.b.5.8...` 2. .z _ ( m c x X.] ( ....;.z g Q ` 2.q...-.] Q _ Q ]  .2.g j _ Q y.b...c m _ 8._ y t 0 g c ' _ ..| _ ] w._ L [ _ G [ G U F j t L | L G ' ' -.G n L g n L ' -.n { 5._ v g l l l g g _ N z 0 ;.Q ..;.S.3. .' L i n _ ] N y b m ; ] ' c | U m b 0 f c m c g ] p.-.t ] I.i.] n g c g c v ] ] n L t n ' >.| N c m n G _ m 0 g G _ t n G m L t e | n g 9 } >.t } ' } 3.n i f l l e f : n @.F m L t * @ * ; * ; Q ] n _ 1.1.m @ y ' n ( { G @.8.v.@.L | 5._ y z @ j } b y - X @ 7 0 @ ; : - @ @ * @ : $ o @ $ @ 1 : l u @ u t ; - ; ; g z t ^ z ' n _ 3.O.| e ; ; ; j h j 1 k n < k I F ; : < - n n U L F - j f n - e n ; t y 9 g 9 7 @ @ . .     ",
"7.y.I.}.[.;Xn.P.I.oXOXOX+Xy.U.2.] 5.P.{  .3.2.e..X.X4.-.-.2.1.| } n U | ' y.V.8.8.5.] | _ e 1 t $ $ . . .   . .   . @ @ - * .   X - : $ X X . ; ; ; l j 9 @ @ . . @ X . . . . @ .   . f g g m c y ; m t y g f m L } n n [ m n t = e ; ; ; X $ o - 1 * - F G 5.L j ' ' n j $ e L _ } [ | | m m j F O.I v F F i u t j G v f v G 8.v.x.V.5.5.V.A.y.A.Z.b.E.A.b.b.C.|.v.] 1.[ t y 9 ; _ -.2.8.e.2.] ..r.}.>X!.B.G 5.6.G { 2.m ^ v y p Q X.2.m 2.u.w.w. .c -.2.;.z 5.2.c _ ] 8.t l n n 1.1.w.c t m -.-.L ' m t n g t _ ..] z g m _ G G [ G _ G [ g n j j F U ' ' _ } | L U ] n n c L n n } | [ _ F g m m g y g _ ~ z _ ] 2.r.r.4.;.~ _ g ] ` ` m z G j X m _ i _ G m m t 9 9  .g G -.U.4.n ' y.i.4.L : g _ b b ` m _ _ e ' N N 1.m z n t t c n - 0 } v g j j e ; @ 9 ] g 9 j v.>.} 9 n m ' } c ; 9 N : ; g _ L i y ' ] * . . @ . * @ y _ 1.2.` : ; * ' m c @.1.5.b.b.1.[ n O.5.@.1.c n G _ [ : $ . X ; y ; : : X 7 . . e - 1 i @   - ; m g - @ n : t g j e ; < ; g B M m | 5.1.u t ; f f u u < 1 t 1 j [ I 1 t e : t t U 5._ G k } n ; : u F g f @ y y : @ @ . . .   ",
">.8.XXoXU.[.U.>.y.p.n.P.U.n i.Z.e.5.y.u.n.y.p.8.b.y.w.w.u.] 3.3._ k [ _ G P.b.u.4.1.8.L j g ; ; $ @ . . .     .     X $ ; - o . . @ - - X @ o X - u j : ; - X @ $ - . X X @ X X .   . @ f n L g f z c _ z n 1 $ 9 ' G n g t y n b n g j 1 f n g : j u - h u | _ t j L | n e e i -.b.b.......m e i F k F F u e u i _ [ n k i ' B.A.j.g.5.g.R.~.e.e.{.b.I.b.b.8.u.y.| [ 1.6.y * t ; c r.y.r.n.u.2.r.E.-X;XA.x.m _ 5.O.5.r.` 1._ F G ..u.2.5.2.C.2.4.-.z ] Q  .1.| ....c :.G * ; g [  .` ` z _ 1.2.] | ] G i n n c ] v.` m z [ e.G | O.m m n ' n : : u u 1 j n } 1.} u n n G g c n n g m m m 1.n y g m ` m M c ~ c | -.8.u.w.r.u.2.1._ ' _ m y z ~ t ; ] 2.c z z e n m _ m -.' [ 1.b.1.L e n | p.L e g ( x b ] m m n g _ ' _ ` -.4._ e _ N z m ] 2...' b t g 9 - 9 g n ; z ] 5.| j f l F 3.n f m c ; e G L ] l _ _ { f @ . @ @ @ . t ' 5.| m 0 9 = g _ O.2.8.6.2.4.@.( e v O.8.} k n ' L { f X . . = @ . ; ; . ; ;   ; - $ : - . X @ t e t @ ; - u f f G l ` g y B B n | 5.U : u g h f < u - - - 1 f j v v u - * - - 4.| *.n U } l : ; j j _ m ; : y = @ X   .     ",
">.8.P.OX+Xp.U.} -.w.u.I.W.L -.Z.b.} @.3.U.4.3.8.v.-..._ 2._ y.e.| } n 4.| W.4.7.4.5.5.3.g : $ $ $ X . . .     .     . X - : X . . X 1 ; 1 : . . X t e e t ; @ $ ; $ @ @ . X @ . .   . @ t n G c n : y n G m z X 9 _ | L n L L G [ U v j | ' 8.1.n f ; < k H y.L u 7 j ' | n L n 4.y.-.m ' | m u u f h h u u t f L [ O.I n j [ e.v.g.g.8.N.~.N.| 4.I. X X;.r.2.2.q.1.| e.G 7 V n n N -.8.b.b.r.| b.{.|.A.b.v._ | 5.8.6.A.5.4.O.G G 8.b.5.8.2.Z.;.i.;.c ` _ ;.1.0 m .._ n j 9 ; l ' ` ` 1...Q ` _ m ] ` G n n n _ ] 2.m y F G | | O.O.G c m c j ; ; 9 h u j m G 4.n g 9 ' g -.F F c L G G n [ g 9 c ' 8._ m n m n -.1.| 2.r.S.` 2.5.5.M Q 0 * 0 c c g t...n f t - i m m ] 2.m b @.2.m n L ] -.g j j - z b z ..] m _ n c ] ' l m ` { i n ' n _ r.4.u.w.w.{ | c 9 ; g z : y ] @._ n j l 4.5.m g =.f g : f L ] _ [ | [ m ; + * * * * 7 g _ | n y - - y { 5.5.e.b.5.M.5._ n t F O.F e k | | L f ;   .   . o : ; - X X . t : ; ; $ * X X y N _ t @ : i c c j m m ] g G m ' Z.y.8.F e g 1 - - < 1 < < 1 < u k G h f j - 1 5.n.4.G *.n n u 1 i u u G j g y 7 % @ . .     "
};
